/* XPM */
static char *_60_f_397287904_5b9j7lblvccn2matr4v4vyl9jz51ui5q[] = {
/* columns rows colors chars-per-pixel */
"640 360 156 2 ",
"   c #010305",
".  c #080405",
"X  c #060807",
"o  c #080806",
"O  c #02050B",
"+  c #08060C",
"@  c #05090D",
"#  c #090B0E",
"$  c #100E0F",
"%  c #0B100F",
"&  c #010711",
"*  c #040C13",
"=  c #0A0D13",
"-  c #040E19",
";  c #0A0F18",
":  c #100F14",
">  c #061016",
",  c #0D1116",
"<  c #0F1817",
"1  c #06111B",
"2  c #0D141A",
"3  c #0E181E",
"4  c #111216",
"5  c #1A1414",
"6  c #11151B",
"7  c #1A161C",
"8  c #13191E",
"9  c #191A1E",
"0  c #051422",
"q  c #0C1621",
"w  c #051927",
"e  c #0E1923",
"r  c #0D1D2B",
"t  c #131720",
"y  c #151C24",
"u  c #181F26",
"i  c #151F28",
"p  c #1A1F29",
"a  c #0D1E30",
"s  c #201E29",
"d  c #0F2125",
"f  c #0F212B",
"g  c #172027",
"h  c #1A2126",
"j  c #16212A",
"k  c #1B242C",
"l  c #15282E",
"z  c #1E282F",
"x  c #152532",
"c  c #1E2730",
"v  c #162934",
"b  c #1F2831",
"n  c #172838",
"m  c #1D2C39",
"M  c #1F3035",
"N  c #1E313C",
"B  c #212225",
"V  c #282423",
"C  c #20262D",
"Z  c #22292E",
"A  c #282B2E",
"S  c #212731",
"D  c #282735",
"F  c #222B34",
"G  c #282E35",
"H  c #252F38",
"J  c #292E39",
"K  c #253036",
"L  c #293136",
"P  c #26313A",
"I  c #2A333C",
"U  c #2E383E",
"Y  c #30363F",
"T  c #323A3E",
"R  c #1C3342",
"E  c #222F40",
"W  c #253442",
"Q  c #2B3641",
"!  c #263943",
"~  c #2D3A43",
"^  c #26394A",
"/  c #2D3C4A",
"(  c #313641",
")  c #323C45",
"_  c #383F47",
"`  c #333E49",
"'  c #2F4145",
"]  c #2E414B",
"[  c #354147",
"{  c #35424C",
"}  c #3A444D",
"|  c #3D484F",
" . c #2F4253",
".. c #354452",
"X. c #3A4651",
"o. c #354953",
"O. c #3D4A54",
"+. c #3E4659",
"@. c #364B5D",
"#. c #3D4D5A",
"$. c #3D5057",
"%. c #3E515D",
"&. c #3E5261",
"*. c #41484E",
"=. c #424C55",
"-. c #484F57",
";. c #424E59",
":. c #465057",
">. c #485357",
",. c #45525C",
"<. c #49545D",
"1. c #44585F",
"2. c #4C585F",
"3. c #455562",
"4. c #4A5662",
"5. c #465964",
"6. c #4C5A64",
"7. c #415669",
"8. c #475B6B",
"9. c #4C5D6A",
"0. c #515763",
"q. c #515C66",
"w. c #515E6A",
"e. c #4A5E70",
"r. c #535E70",
"t. c #4E616C",
"y. c #536164",
"u. c #54626C",
"i. c #59646E",
"p. c #5F686F",
"a. c #4F6272",
"s. c #546472",
"d. c #596672",
"f. c #566975",
"g. c #5C6A75",
"h. c #54657A",
"j. c #55697A",
"k. c #5C6C7A",
"l. c #5E717B",
"z. c #616C76",
"x. c #616E7A",
"c. c #63727C",
"v. c #68757E",
"b. c #5C6D81",
"n. c #5D7283",
"m. c #626F80",
"M. c #657482",
"N. c #6A7683",
"B. c #677882",
"V. c #6B7985",
"C. c #66758A",
"Z. c #6A768A",
"A. c #6B7C8A",
"S. c #717D8B",
"D. c #76838C",
"F. c #738593",
/* pixels */
"+ X     . + , u .     = 6 4 : : y 3 t j j y e z g j x j z k c c c x k k c c k c c c c c c c l c c v c c c c b c c b c m b b z F b m S z F z b z m b Z 8 8 F z b b b b S z F z F m F z F F z F F F z F F z F m S F z F F z F F F z F z F m F F F b b F z F S F z H z m F F F m m F z z e 0 N 7.n.~ 3 > , @ O + = % = , , 6 6 6 6 t t i y y p k x j k k x c b b c b b b b b m m S F F F F H F F H m F F H F F H z F H F F F H H F H v H z z z t 2 b F F H H H H F H H H H H H H H H D H H H H F H F P H H H H H F H H H H F H H F F F F F F F F S z b F b l b b z l k g y y y 8 6 & & q ~ k E a.k.v r e x F F K H S F F H H P m H H H H H H H H H K H H H H J K H H H H H H K H H K H H H H H H H H H H H H H F H H F H H m z c c k y & j F H K H H H H H H H H K H H H H H H K H H H H H H H H K H H H H H H H H H H F H m H H H m J P m m H H H F H H F m F H N F Z u t * & c 3.h 8 , O + , 6 B b m H z z F F M b F F F F P F H F F F P F F H F H F F F H F H F H F H M F H F H F H F H F H F F H F F F F F F F F F F m F z ; : k k c c S F b F b b S F z F F m m b S F b z b z b b b b c c c b z l c x k k k c k k k a p p k i p e 3 t t 3 , < < % = = # + +   O * j g #       X .   + * 6 y g k x k c k x k b x c c c c k c k c c v b b b F b z l c c c c c x c c c c c l c c c c c c c c c l b c c c k c c x k k y = 2 u t j ",
"X         X = t < < #     4 u u t y y y j b z e j j k k k k k c c k c c x c z b c k x c c c b c b b b b b c v c c b c z z b S m b z b F S m b z b b F 8 3 F b z F z z m b F F z F S F z z F m S z F S m F z z F z F m S z F S m F z S m F F F F b F S m m F z F d M K b c H H x M k j x +.l.a.,.I > 2 i 2 * O   ; % 4 6 , ; 8 h d y y g x k k k k k k c c c b b b b b b b F F z F F F F z H H z F F F F F F F H H F H M H F F H F z M z z z t 2 b F F H H F H H m H F H H H H H H H H H H F J H P F F H F H H H F H F H F H H F F F F F F F F m H H F b S F b k K g k z g < %   j K ~ } 2 0 #.9.V.#.f e b P H b H H L F z H P H H H H H H H H H H H H K H H H H H H H H H H K J H H H H H H K H H H H F F H H H F H F z F z c c c t * g S H F H H H H H H H H H H H H H K H H H H H H H H H H H H H H H H H H K m H H H H H m H D F J F H J H H P H F K H K F K g g =   q ( O...g < , O   + & 4 d k z F M F M Z H H H F F m F m F P F F H F F H F H H F F H F H F H F H H F F H H F H F H F F H F H H F F H F F F b F F F k , ; k c c c m z F z z b m F F z F S F z z z S m b F z b b b b c c v z z c k k c k k k k k k p c p p 6 p k p t 8 3 8 % , , = = # #   K F H k +   O           @ % 2 6 y g j z c c k c c c c c v c b b c c b b v c b b c c c c c c c l c c c c c c l c c c c c c c c c c c c c c c z l z z i * , y e p ",
"      X   O * t 2 y k g ; & * 2 k g g g p i p c l k k x k c c c c c c c k c l c c c k b c c c b b b b b b b z z b c b b m z F z b F b b b z z S z b F 8 8 F c m b b F z b F F F F z m S F S F z F F z F m F F z S F F z F m S F F F F z F F F F F F F F F m F F U z z P H c c P d e ~ f.l...m o.U ; 2 i y 8 8 t * @ * y g 8 6 9 j d y g c k c S k k x c b b c b z F m z F z F F z F F F F F F F H F H F F m H F F H H F F H F F H v M c z z t 2 F F H H H H H F H H D H H H H H H H H H H H H H F P F J H F H F F H H F H F H H F H H F F F H F b b m S F F F b g z g e 3 - e ] =.I u S e m ..W / k.B.{ 0 e H H K k c J I K F J H H H H H H H H H H H H H H H H K H H H H H H H H H H H H H K H H H H H H F F H H F H F F m z k z t @ d F H H H H H H H H H H H H K H H H H H H H K J K J K H H H H H H H H H H H H H H D H H H m F F P H H F H m H H F L L Z 3 * O > U =.` E ! < , , # O O   O # , g k z H F F H F F F F F J P F F H F H m H F F H F H F H F H F F F H F F H F H F F F F H F F H H F F H z H z F F F m F c ; , k c x F b F F S F F F z F z F F S z z b z b b z b m b b b c b b z k c c c c c k x c k k k p k k k d e i u y 8 6 9 6 4 & O * m O.) H F 8     + X .         O @ # , 3 i j k l c l c c c c c c b b c c b b c b b b c c z c c c b z c c c c c c c c c c l b c c c c c c l c c c z c c j y * ; u t p ",
"    + + + O = y g 8 i H ) F ; & % y h i i c c p k z k k k k x c c k x c b c b c c c c c c c c c b b b z b b b b b z b m S z b b b S m z b b F m m l F 8 8 F l c S m b z b z m S m F z F m F z F m S F z S z F F m F z F z F F z z S m F z F F F F F z F F F F F Z M v z H H x > m t.v.,.P z z X.Y ; & t y k z F H i & @ 2 u h h g g g k k k c c k k c F b b b b z S F z b F F F H H F F F F H H F H F H F H F H F H F H H F F H H c M c b z t 2 b F F H H F H H H H H H m H E H F m H H H F H H P F P F H H H H H K H H H H H K H F H H F H F F F H K S b b b b L z g - > ' 9.o.F K S I 2 f { E H N ;.V.k.! e r c Y Q F m I Y S H H H H K H H H H H H H H H K H H H H H H H H H H K H H H H H H H H K K H H K H F H F F F z z z z y & j S H F F H H H K H H H H H H H H H H H H H H H H H H H K H H H K H H H H H H H F H H H H H P F F F H H F c H Q I k 6 ; % * z { O.Q i c ..< = 2 % * # O O   X % 3 g k M H F F F S F F H F P H F H F H F H H F H F H F H F H F H F F H F H F H F H H F H H F F H M m H F H F b H F K k , ; k k c b b b F m m S z F m F F z m F z F F F m S b b b b c c b b c c c c c c x c k c k k k k k a g j j t 8 y u u 8 ; O O m 2.1.! F j g 2     +                 O @ = , 8 g k x c c c c k c c c b c c c z c b c b b c c c c c c c l c c c c c c c c c c c c x c c c c b c c c c k z j y = , u t p ",
"X @ + + # O * k j p e i H { ` H @ * e z b j k F k c x c c c x k c c c c c c c c c c c c c v c c b b c c b b b c b c c z m b b b b b b m S b b z b z S 3 < F z b F b m b z S z F F S F m S F m S z F z F F m S F z F z S z F F z F z S F F F F z F F F F F F z F H l F P j 3 b ,.c.1.E c I Q F { J ; ; i g k g d c ..] y O , j g g C z j j z C c b b b b b b b b m S F F F F F F F F F F H F H F F H F F K F H F F H F F H F K F F z z z z z t 2 z F F H F H F H m H H m H P J H H H H K H F K F F H H F H F H H K H F H H F K H H H H H F H F H H H F m H H H F j , * ~ g.6.P m m F C G q F { m P H v ! 9.M.9.N i j c K J H H H H H K H H H H H H H H H H H H H H K H H H H H H H H H H H H H H H H H H F F H H F H F F z m c c z y & g F K K H H H H H H H H H H H K H H H K H H H H H H H H H H H H H J H H K P H H m F H H H H H H F H H K H ~ b g j y * * 9 o.{ P j l I I U 3 # , < % 2 = #     O @ , 3 j z m F F K H F F H F F F H F H F F H F H F F F H F H F H H H F H F H F H F H F H F H H H F F F H F F b H b F k ; 4 x k c c b b F b F b z F F F F F F z F S F S z F b b z m S z b z b c c c c c c C c c c p x k k k d z g y p Z f - & & j 4.d.X.k a k p j y + O # O . o               X # , 8 y g z k z k c k z c c c c c c c c c v c c c c k c c c c c c c c c c c c c l b c c c c c c c c c c c k k x y * 4 y t i ",
"# # # # # + ; k e k b j e i ( =.,.b & * j S b l c k k c c c c b c c l c c c c b c l c c b b b b b v z b b b c b c b b b S b b b z b b F F z b b m z F 3 3 S z m z z b S F m F S z F z F F z F z F z F F z F z F F F F m F S m F z F m F z F F F F z F F F F F F b P z e x #.d.s./ P H H H k l o.Y * , g j j j g c k I ,.} e @ e y k z z j z F S b b b b b F F m F z F F m F H F H F F H F H F H H F H H H F F H H F F H F M H F K v H v z z t ; m F F H H H H H H H H H F H P H H H H H H H H H H H H H H H H H K H H H H H H H H F F H H H F H F c F P I F i 3 & H u.u.~ v N c F H F I ; z { H P ! P x c ..s.c.O.m 0 x F H S H H K H H H H H H H H H H H H H K H H H H K H H H H H H H K H H H H H H F H H F H H F H F m c c c z t * g S K H H H H K K K H H H H H H H H H H H H H H H H H H H K H H H K H H H F P H H H H H H H H F H H H H K k z j 2 @ 2 K | I H M K I l m ] 8 @ , 2 = ; $ # % X     X * 2 i k z F K H H F F F H F H H F H F F H F F F H F H F H F F F H F H H F F H M H F H F z H F F F F F F F F b H k 2 ; k c c b b b b F b F F F F F b F z F m F F m F z F b b b F b b z c b b c c c c c c c c c c k k k z d y k h 3 * * f 1.g.,.F p k D z j l y O   # O X       X               # 2 8 g p x k k c z b c x c c c b l c c c l c c b c c c l c c c c c c c x c c c c c c c c c c c c c c c k k y = ; y t i ",
"* # # = = * ; k k i p c c y p F ~ ,.#.j & > k z c c c c c c c c c c c c c c c b c c b b b b b b b b c c m z c c b b b b b z b b z m S z b z m F b c S < 2 S z b b b m z b F F m F m S F z S F F m S m S S m F z m S z F z F F z F F F z F F m F z F S F F z z F v e e ! u.f.;.J P b F F H P P ] I , * i i j b b S l e l { 5.' 1 g g g z F c c F b b b b F b F b F F F F F F H F m F H F F H F F H F H F H H K H F H H F H F F H F z M c z z d 2 F F F H H H F H H H H H P P H H H H H H H H H H H H H H H H H H H H H J H H H H H H H H F H F H P I P H k y e e k.r...H H H F I P H c K 3 k { H P H I ) ! m P { l.f.O.r e F Q b H H H H H H H H H G K H H H H H H H J H H H H H H K H H H H H K H H H H H H H H F H H F F b c k z t & g b H H F H H I K H H H H H H K K H H H H H H H H K H H H H H H H H H H H F J H P H H H H H F F F H K c k k 6 @ * m O.X.H c m F F K F H ~ y @ > 2 # % , = = # & X O   X = y i k S D F S S H F H F F H F H H m F H F H H F H F F H F H H F F H F F F H F F H F F F H F F H F F F F F c ; : x k c c b b F b F F m F F F F F b S m F z F S F z S F b b b z F b v b b b b c c S c c c c k k k g i k C 6 O e ..l.5./ x j F J C z j j 6 O   # X O & + + O X             O # = 2 e y i p k c z c k c c c c c c c c c c c c c c c c c c c c l c c c c c c c c c c c c c c c c c k k k y & ; y t y ",
"> % = : , * ; k i k k p k c c x x v { w.| 3 O < c c l c c c c c c l c c c c b b b c c c b b b b b b c b b c c b b b b b b F b b F b b z b b S z F l S 3 < Z z m b F S z b b z F z F F z F m F z F F F z F F z F F z F S m F F S m S z F F F F F S m m F z F S m e P 6.k.5.H x H F b I F c m ! / L * ; u i x c k l z M c c P O.9.k 2 3 Z J z k F b b F b F F b F F F F F F F F H F H F H H F H H H H H H F H F H H F F H F H H F K b m b z z t 3 b F H F H F H H F H H H P F H H H H F H K K K K H H H H H H H H H H H H H H H H H F F H H F H F F H b y > i | c.+.W m m J P I K H H m I 2 p ` I H F F F H P P N W #.f.f./ e e P H H H H H H K H H H H H H H H H H H K H H H H K H H H H H H H J J H H H F F H K F H F F F b c c k y & g S H K H H H H H H K H H H H K I H H H H H H K H H H H H H H H K H H H H m H H F P F H H F K K K K b j e @ # g { } N n N H I H H K F K ` 9 # , < > , 6 = = = # # %       * 1 t k S F H F F H F H H F H F H F H F H F H F F F H F H F F F H F H F H F F H m H H H z F F F F F F S H p , ; k k c c m F b F F F F F F F F F F F F z F F m F F m F z b b m S F S b c b S c C c S c c c k c k b z 6   ; _ t.f./ P x b H S j j S j j 6 + + # X # @ O X X & + +             & # 2 q e i k c k k k c k c c c c c c c c c c l c c c c c c c c l c c c c c c c l b c c c c c c c c k k y = : y q p ",
"> % , 2 2 = 2 C p p k k k k c k g z j H ,.r./ * * h Z Z z F S z x c S z z k z k b b c c c c c c b z b c b b b b c b c c b b b b c b b c b b b b b S Z 3 2 Z F b b b b S F b b b z S m F F z F z z F m S S F z z F F z F F z F m F l k Z F z z z F k z K K x i f #.k.w.Q x F U M K F H F H F F ] L ; 2 g p x k k c c b b b F F K a.#.n - e S G h b b S b F K F S F F F m F F F F H F H F H F H F H H F H H F H F H H H F H F F H H c F c b S 6 , b F H F F H H F F H H H H H H H H H H H H K H H H H H H H H H K I J H H H I K F m P P H C K I S K j 1 w ..k.9.Q K H H H H H H H H F H J q c ) P H P P P H I H I ~ c P t.m.9.N 0 k F I J E H E J K F H I K z M K H H H H H H H H H H H H H K H H H H H K K F H F H H F F F F b c z 8 O u S H I F H H K H H H H H H H H H H H H H H H H H H H H K H H H H H H H H G K K H P ! H v H H K z g y ,   e ~ | Q b I I F F L M H K F H Q 8 * 6 , 6 , 2 ; , = = # = # & +     + 4 y k F F F F F F H L M M F F F F F F H F F H F H m F F H H F H F F F H F F H F F F F F F F F H z F c ; , x c c b m z F b z F F F F F F F z F F z F F F F F b F b F F b F b b b F b x k b x b b k k F S c g * * W a.k.#.b c b b b b b b b x p C t & + , + * # @ @ @ @ O O o X X       .     # % 3 i j j x c x k k k c z k c c c c c c c l c c c l c c c c c c c c c c c c c c k c c k c z c i y = ; u t p ",
"% , , 6 6 = 2 C k k k x c k x k z Z l d k ) 3.u.g * 1 k z j z F P c p x b b b m l m z b z b c b b b c b z b b c c c c b b b z c c c c c b b b v b b z 2 6 z F b F z z m b b F z z b F z m F z F F z z F m F F F m S F z S m z F H F F b F F H F k Z m k e j } d.a.` c v I I F H F F H F F H F ' I > > g p k k z b b m b b b F H n +.r.=.y 2 c H H F b F F b S F F H F H F F H F F H F F F H F H F H F H H H H H H F H K H F H F F c P m c C t , z F H F H H H F H K F H F H K H H H H H H J H H H H H H H H H H F H F H J H K K b H H F Y K b H 3 3 P s.j.o.F F H H H H H H H H F H D H q c ) ! P K H I H H I H b U K l ` k.k.&.r y k K E J J P J U I b F P I m K H H H H H H H H H H K H H H H K H H F H H H H F F F F F S z k c 8 @ 8 c H K F H K H H H H H H H K H H H H H H H H H H H H H H H H K H H H F H I H H H z b m U F F j t 2 @ > F { ~ F S H H H H F H F F H F H ( 8 * 8 , 8 6 6 , , , , = = = # # X X O O = 6 p c F H F F m z z H H K H F H F F F H F H F F H H F F H F F H H F H H F H F F m F H F F H F F p ; ; k k c b S F z F F F F b z F F m F F F F F F F z b F b b b m F b k b b c c b F H K z j c F b y 1 & j %.f.8.! x F b b b b b F b b k k c t O O = + @ # # # % @ @ O X   X           O O * % 2 e i g x k c k c k k c c c c b c c b b b l c c c c c c c c c c c c c c c c k c c c x l z i y * ; 7 u y ",
"8 , 2 8 6 , 2 z k k k x k k k k l g z m j i F ` p.,.e @ i b z S y c H b c b b k S b c c m b c c b z c b b b z z c b c c S b b b m z b c b b b c b b b 3 3 b F c m S b F b F b S m S z F F S F S F F F z F z S m z F m S z F F S c F F m z z c c K P x 3 P s.u.} ! b H H F b b K H F H F F H F [ U * 2 j g k x c F m S F b b S m I c x ;.u.` 3 - k F K H H H K H F F F F H F K H H F F H F H H F F H H H F K H H F H H H H F F H F b F c b S t 2 F F H H F H H H H H F H H H H H K H H H H H K H H H H H H H H H H H H H I H H I ~ F J Q F F i O k 6.c.+.l c I I H H H H H H H H H H H J 2 c ~ P I H H H H I H I I L I P m H O.k.c.` e 0 F Q P F K F c H I P K H H H H H H H H H H H H H H H H H H H H H H F H H H F F H b m b x c t & u c E H K H H H H H H H K H H H H G H H H K H H H H H K K H H H H H K H H H m b H I U K Z F k y * O k X.} ~ K z K H F S H F H F H K H H ~ 8 = 8 6 y 6 8 6 < , , , : = = = = # +     O , 7 j z F F z z b H F F H H K F H m H F H F H F F H H F F H F H H F F F F F F H H F F F H z F c ; = k c b b b F S F F F F F F F F F F F F F F F F F F b b F b F b F c c b b b H b k g k b F x > - e } x.l./ f H I j b b b b b F b b c p k y O O , & % % % # @ @ X # X     X               O # % 2 8 i p p c c c c c x c c c c b b b c c c c c c c c l c c c c c c c c c c c c k c c z g 8 = ; u y p ",
"< 8 6 8 8 ; 2 z x k k c x c c x z l k S m c j x m %.g.O.* & k k K z x b b c b b b b c b c z b b v c c c b m z S c b m z l b b b c b c z b b c c b b z 2 6 b b b z b b z z z z m F z b b b F m F z S m F z F F F F z F F F z F m S c c b F F H H f 1 l 6.k.O.H m f H P H F H H z H b H F H F m / I > > g x c k c S F F z F b F F z F J k H w.s.H * f F F z H F k F F H F F K F F H F H F H F F H K H F H H H F F H H H F H H F F H b P b b S 6 , b F K F H H H F F H H H H H H H H H K H H H H H H H H H H K H H I H H H I H J H z I P J x * i 3.c.#.H m ! P H F H H H H L H H H M H H D q k ~ W H H H I H H I H I F H I I m F ! 3.k.s.Q 0 i H L I c b I I F M P H H H H K H H H H H H H H H H H H H H H H H F F F H F F F b b c c t & y S E H G H H H H H H H H H H H H H H H H H H H K H H I H H H J F H H F H m Q P b Z F F k 2 >   3 } #.P z j S I H H F H P F H F F K H H ! t , y 2 y y y 6 8 8 2 2 6 ; , , , = # + +     + > < g z H M H F F b F F F K F F F H F H F H H F H F H F H F F F H H H F F F F F K F F m F k , , k c b b z z m b m F F F z S F F F F m F m F F F F b F b F b F b m c c F H b k c S S c i - 1 / d.x.{ l v H k z L b b F b b c v c c k C 7 O # , = % * > # % % * # # + + +   + O             O % = q t i x k k c k k k x k k l c c c c c c c c c c c c c c k x c c c b k x k x c k c g t * = y t r ",
"y 8 9 y t 2 3 z p k x c c c c c Z z z l c b H F f f n <.g.) - - i k F b k z z m b z b b b b b b b b c c b c c v b c b z b b b z b b c c c b c b c b z 6 2 z S b b b b S m z b b z b m b b b F z F z z F z F F z m S F m S F z F K Z z H H c d e j #.f.<.! N m c I K S F F K H L z m K F F F m ) G ; 2 j j k c c z z m F F F F H c I F C M c / d.>.l - i H F z K K F H H H H F F F H F H K H F F H H H H F K H H H F H H F H F H F b H b b S t , b H H F F H H F H F H H K H H H H H H H H H H H H H H H H H H H H H F F H H H H I H c - > X.f.3.! P H K H P K H H H H H H H H H H H F K q k ( P H H H I H H I H H H I H I ~ I b n ! 8.c.6.k 1 j H I Q F z P P H I K K H H H H H L H H H H H H H H H H H H F H H H F F F F b c c c t * y c E J F H H H H H H H K H H H H K J H H H H H H K H H H H H K H F H H F F H F F F z 3 * O , U | P c m m I I P F F L P H H H F H H F K ~ t > i 8 u y y y t y < 8 3 2 ; ; , , = = = o O     @ > d z S F F F F F F F F F H H F H F F H F F F H F H F H F H F H H F F F F F F F H m F k ; , k x c b b F b F F F m F F F m F F F F F F F F F m F b m F b F b b F F F c c F H b k - & H w.k.,.v v c v H H z k b b m b b b c c c k c t # + 6 = = = = = % # # * # & # & +   # O .           . X ; ; 3 y j j z c k x c k k c c c c c c z c c c c b c c c c c c c c c c k c c k c k p y * = y y y ",
"g d 8 y t 2 e S k k k k c k k c g F K F k k c x P b v b ! q.2.l & q k b b F b k b b c b b b z b b b b c c c c b b c b b c b F v c c S v b b c c c c z 2 2 z b b F z z m S S b m b b z S b b b b m F F S S m z F z F z F b F F z S F H F i e x ! u.t.X.m j F P H G F H H S l m P H z K F H F b ` J * 2 k k z c c m b b F F F F F Y j z I H m m f ,.q.X.g 1 m ! F F F F H F F H F H F H F F F F H F H F H H H H F H H H K H F H F H b F b b c t 2 z z H H H H H F H H H F H H H H H H H H H H H H H K K H H H H H F K H H H I H H H t - H u.u.` P F m b I I K K ! H H H K H K H H H H F K q k ( P I H H H L H H I P I U U H S F ~ P m H { u.z.;.f e x b H P P H H H H H K H H K H H H H H H H H H H H H F H H H F F H F H H b c c c 8 @ y c J H F H H H K H H H H H H K H H H H H H H K H H H H H H K H H F H H F I b k b z 2 @ * K } ~ z F P H P I H F F H H H H F H F F H F K ~ e , g t u u i y 8 y 8 8 8 8 6 6 2 % = = , $ + + X X X % 2 y h F H H F F F F F H F H F H H F H K H F F F H F H F H F F H H F H F F F F F F z ; = c c c c Z m z F F F F F F F F F F z F z F S F F S F F S b F b F k F F k b H b e 2 & p 6.x.,.K m H H H H F b z H F F S b b b c c c k k u @ & : # % % % = = # # # # # # # # X X     . .           O # = 2 8 i p j k c k c b c c k c k c x c c k x c c c k k c c c c c c k x c x c k i 8 * = u t y ",
"y y y 9 y 2 q b x k k c c c k c c c b k c b F F k b b l x x [ g.=.i & q b b k H c c c b S b c c b b b c z z c c c b b b c c c c b b z z b c b b c b k 2 2 z S b m S z S z F b z b b b z S F b b S F z m F F z S F m S z z F m F F F k e i ! 5.f.{ z f b U L F z Z F K F H I H j F b K F F F b ~ I * 2 j k k c c S b z F K H F F j I H S K K P P k I 6.u.' - > H S F z H H H H F F H M F H m H H H H H H H H H H F H F F H F F H H b H c b C 8 , z H H F F H H H K F H H K H H G H H K H H H H H H H H H H H I K H H H I J F c k & k ,.s.#.I P b Q Q L L L H P H H H H H H H H H F K F J q c ) H H I H I P H I H F M N v H ~ U F U I F m ! #.s.c.P l i b J H H H H H H H H H H H H H H H H H H H H H K H K H H H F H F F b b b c z d @ y c E I F H H H H H H H H H H K H H H H K H H H H H H H H F F H F H F H H K Z g 3 & O j { ` v F U K c F H b F H I H F b H F H F F H H H ~ e , i i h u p p g g g y y 8 8 6 6 , , , ; , = = # +     + ; 8 u b b S F H F F F F F F H F H F F H F H F H F H F F F H F z F F F F Z H m F k ; , k l c c z F m F F z F F F F F F F F F m z F F m z b F b b b S F m b c b b z y - 1 #.M.w.! F F z H F b z z F F m z F F b b c c c c k z i @ # , = , % % , , % = % # # * # * @ & + . X X               O & % 3 e t f j k k c c c x k c c k x k c c c k c k k c k z c c x z k c c c k i t = = t y y ",
"y g y g y 2 q S k k x c k c x c c c k c b b b b S S Z z z b b x >.q.X.1 O j K x c b c c l m c c b b b b m b b c v b z b c b b c b b m z b c b c c b z 3 2 b b b z b F m z z b b b b b b m z b F F z F F F z F m z F F F F z F S k g y m #.u.,.m N H H K F F F K K G F F F F M H z b K F K F m / G * 2 k k c c b F b z F F K F F K m F H F m H H K m b ! 6.u./ * l b F F F H F H H F H F F H F H H F H F F H F H H H H H F H H F m b H c b c 8 , b m H F H H H F H H F H F H H H H H H H H H H H H H H H H H K K F H H H F k t > &.a.4.Q x H Q P P z F L I K m ^ H H K H H H H H H H F K ; k ~ H H H H H H P P I P P H I P M F K G J Q I b v ! o.v.6.H 0 i H Q F H H K H H H H H H K H H H H H H H H H K H F F H H F F F F b b c z < @ y C H K F K H H H H H K J H H H H H H H H H H H H H H H H H H H H F H F F g 9 % & y I ` K m P H v K I K F H P H F F K K m F H F H J F F ~ t 2 g y j i x p g g y g y y y 8 6 8 8 6 2 , ; 2 # = X O   O # < j j z m H H F F H F H F H F H F m H F H F H F F H F F F H M F F L M F z F k , , c c c c b F S z F F z F F F z F F F F F F F F F F F b F F b F F K k b H f & 3 Q n.a...c k H H z z Z K F F z m n F z b m b c c k C j z t @ # , ; , , , , = = = = # = = # = # X & O O O X .             X O * 2 3 y y j j x c k k x c c c b k k c c c c c c c c z c c l z k c k c k f t * ; y 7 y ",
"g g y g p ; t c k k k c x c c c c c c c c v z b c c b z b c c c r I 4.i.( & & c F S Z z c F b c b k c m m b b b c b m c z c c c z b c c c b b c b b c 3 2 C b c b b b b b b b b F b b S z F S z k b K F b z b z F F F c F F F C w x ..u.6.~ z F F F H F F H F F F F F F F F H m K z F F F H F ( K * , g k c c b m F z F F F H F F K F H F H F H H F F b H ` >.i.y q i W Y C c J F H F F H K H z F M H L F H H H F H F H H F H F F z H z c c t , c F F H H H H F H F H F H H H H H H H H H H H H K L K Z S H J F K L H j 1 w / f.<.) F H I I H H J J P P P P P P P H H H H H H H H H m F 2 p ~ H H H P H H H H H H H H H H P P P J P J E P J E E P t.c.,.c e k E Z K L F H I ! b H H H H H L P I F H H H H H H H H H H z F b b x z t @ d k F J F H H H H H H H H H H H H K H H H H K P H P P H v H F F I G F h p 0 O & I X.Q c H F K K H H F H H K H H K H H H H H H F H F H H ! y > j g k p k k g k g g g g i i t 6 3 3 6 2 2 , , = % # # + X   * , 9 k K K F c H F m F K K S S H F H F H F K H H F m H F F F F F F H F F z , = k k c b m S F F F F F F m F S F F F F z z z z F F F H K P c c F F F f 1 1 W 9.n.} I b b F F F F F F F F z F b F F b b b z F b z c x C u # # 6 , , , , , , , = = = = = # * # # + X & # X X     + .         . o X < < 8 u g k k c x k k k k k k z c c c x x l b c c x c k k c c c z i 8 = , 8 y i ",
"g g i g i 2 3 C x x c c k c k c c c c c c c b b S v b b c b c b F k i ( r.6.b O q i z F F z b F F F c k k b b c c b z z m c b c b b b c z m b c b x k 0 q F F b c b b b m b z b z z z m b b m z H b b z S F m b H c k F J c i > ! 6.u.~ i F I S F F F F F F F F F H F H H F z H F F H z F H F ` K , 1 i x c k b b z F F H H z F F F F H H F H F K H H F F K I ` d.O.i - t Q U S K F F H H z m H H H H F H H F H H H H H H H F H F Z F m c S t ; c F H H H H H F H F H H H H H H I H H H H H I H F K L U L m P Q K H e 1 W 9.9. .Q F F I H F H I E H P P P P J J H H H H H H H H H F F K 2 k ~ H H F H H H H P P H I H I P H P J J E P P E P P P ! c Q h.f.` e q F K K H m c F P H P H H H H H H H H F H F F H F H F F F F b b c c 8 @ y z H H H F H H H H H H H H H H H H H H H H H F F F N P P b I I Z h h 6 O * F ` U c b H H K F H F H H H F K H H H H H H H H F H H H F H I 8 2 j g c a k k k k k k k g g p i y 6 6 8 6 6 ; , , = = % & + O O # > 6 i k C F H F F F F F F F F F F H H F K F F F F z F H F F F F F F F j , = x k k b z F z F m F F F F F F F F F F F F H F F z z b k i c F E k e > k %.k.5.! I F b K H F F F F F F F F m F b z z m S b b b b l k Z u # # , 2 , , < 4 , , , , = = # = # * # & # # @ O & + + O   .             % = , 6 y g x k c k l z l z c c c k c k c c z c c c c c c c c x z g 8 * = y t d ",
"g g g g i 2 6 c k k k k c k c k c c c x c c c c z b z b b b c b H k k z F O.q.:.1 2 y k b j k z k c b b z z b b b c c c b b c b b c c c b m c c c c c 2 q c S v b b c b b b m S S b F z z z F b F b b b F F b k p z K b 0 3 ! w.9.{ m b H H S F K F F F H b H b F F m H F F H F F m F z F H F ~ F ; 2 i k z c b b F z F z H F F H F H F H F F F F H H K F F F b Q ,.6.Q e e b H m H K F H K K H H H H H H F H F H H F H F H H F F m H b c c 6 , c F H H H H H H H H H H F H H H H H H H H H H H L K K F K K H H e - e ,.u.,.H b c F I Q P F H I P P H P H P P E H H H H H H H H H H F G ; j ( H F H H H H H J P H H P H H P J P P J P P P P J H H W m c X.l.s.` * r H K H H P H H H H P H H H H H F H F K H H H F H F F m S c c c t @ y c J H H F H H H H H H H K H H H H H H H H H H P H H F K T Z p j y * 1 y I Q Q F F I I c H H H F K F K K K H H H H P J J H H H F H F H I y > k g k k k k k Z k k k k k j g g y y y t t 6 , , = , , , = #     X & = 6 j C F b F b F F F H F H F H F H F F F F F H F H H F K F F F F h = = k x c c z F m F F F F F m F F z m F F F H H F F H F k k F Q S 0 > e ` d.u.~ x z b b F K H b b F z F F z F z b F S b F z b S b b k x z u # # 6 2 , 6 , 6 4 , 2 , , , = = = = = # # * @ # + X + + X                 O + = 6 8 y g k k k c Z z k k k x c k k c x c k c c c c k k k z y t = % y y e ",
"g g i g d 2 6 z k k x c c c k x c c c c c c c c z m b b b v c c k I F i p i H <.u.! 1 & g K K k z x k F F c b F c c c b c c c b c b c b b z z c c c c q 6 c b b c c c b z b F z m b b z m S b b b b F m k b F F S K p > x ;.5.o.! c x m I H F K F F H F F H b H F F F z F F z H K z H F F K F ~ K * 2 j k c k b b b F F F m H F F K F H F H F H H F F K H H H H F x ` w.6.m 0 e H P H K m z H H H F F H H H H F H F H H H F F H K z F b c S 6 , b H H F H H H F H F K F H H H H K K H H H H H H I F l H ) L i & w X.d.,.H b H H I Q I H I I H F P P J P J P P H H H H H H H H H H H F K ; x Q H F H H H H H F P H H H H P H H P P P P J J P P I P J W Q b m O.m.t.N - e H L K K F F H H H H H H H K H H F H F H H F F F F F c c c t O y c H K F H K H H H H K H H H H H H H K H H K K L K H K b p C h ; & ; H _ Q K c K H K F H H H H H H H H H K H H H H H P H H F F H H F H U e , k g k k k k z z z Z z k k k j g p y u y t 8 6 < 4 , , : = # + X O     # 6 9 k c b H z m m H F F F F H F H m H F F F H z F F F Z F F F z ; = k c c c z S F z F F F z F F F F F F F F F F m S k m H H c p q * P u.c.{ k H Q k F F F F m b b K F m S F m F z b m b b z z m z b c c C g * % 6 2 6 2 8 2 6 2 6 , , , , = , = = # # # # # # # # + X X   .             O + = 4 6 8 p p p k z k k p k c k c c c k k c c c c x k c x z y 6 % = y t i ",
"l g g h i 2 6 z k k k c k c k c x k x k c c c c l c c c b k b c K y c I b c k y ! 6.u.P @ * k F H b j j b b b k z b b c c b b c b F c b l b b b v S z 2 3 b F v b b b z m F b b z F b S z z F z b b b c k b F H b > e { q.#.P n p H P F c b K F H F F H F b H m H F F H H z F H F F F F F H b ~ F ; 2 u k b c b b F z F F F H F F H F H H H F H H H m F F H K K H P m c { w.;.c 1 x H F F I Q S H H H H H H H H H H H H F H F F F z H c v S 6 ; b F H H F H H F H H F H H H H H K H H H H H H H H H K U x * p ~ f.=.Q H P P I U I I H F H Q I H J P P P J H P P H H H H H H H H H H F F 2 j ~ N F F H H H H P H H I K H P P H H P J P P J P P P J H H H ! ! H M 6.f.3.x 1 k I F H H H F H H H F H H H H H H H H H F F m b b b c b 8 O y k E J F F H H H H H H H H H K H H J K H K L K z S I J k u ; O * F _ ( x C H H F c H H H H H H H H H H H H J H H H H P H H F K H H F H U 8 2 j g z k z z z c c c c z z k k k h g p u y y 8 8 6 4 , 6 # ; % % # + O   + # 3 y z F H F m F F F F F F H F H F F F H F F H F F Z F F F k , = x k c c b m F F F F F F F F F z F F F F F b F F L b l b ; & F i.k.#.P F F F F L H H F b m S F H F S z F S b b z z F b b z b c c c z C u = = 6 6 6 6 6 6 2 6 2 6 , , # , , = = = # # # # & # + + + X X X X X           . O + # : 6 t u p k k c k c k x k k c c c k c k c c k k k c u t = = 8 y t ",
"h j g j i 2 3 z c x k c x c c c l c c c c c c c c c c c z b c c j K c x H F b H k x ) 6.,.f & 3 i b H b k b m k m z c c b b c b b v c c S b b b b c k q 3 S b b b b b b S z z b z b m b m b b m b b b b S z p 0 1 ~ <.,.! F H H P b b F H H m b F F F F F H F F F F F F m H F z F z H z F F S ! F ; 2 g k b x b F b m F F F F F H F H F F F H F H H F K K H H F m m H m b ! +.w.' d > M ) H F ( H F H F F H F H H F H F H H H F F F F b b b 6 , b F F F H H H K F H H H F H H H F H H H H H F F K P l 0 0 b X.w.] ! H m H P K F H H I P H H H H P P P P P I P P H H H K H H H H m H F K , j I H H H H H H H H P H H H H P F J P P P P H H P P H P P P P P H P Q v { u.d.X.r e b H I H H H F H F H F H F F H F H H F F F H b b c z 3 @ y x H H K H K H H H H H H H H H H H H H H F L K M S C u 6 # ; p Y Q c b Q H H F b H I I c H H H H H H H H H F P H H H H P H H F H H H H I y 1 z g k k c c z z b C c z k c k k k k j p u i 9 y 8 8 6 6 , , , , = % + O O O O = 2 j z F F F F F F H F F F H F F F F F F M F F M F F S k ; % k k k b b b z F F F z F F F F F S F F H F F F K b m e O r 6.d.3.! m x m H F z z F b b F H F F F z m F b z F S m z b m S m b b b c z C u # = 6 6 3 3 3 6 6 8 2 2 6 , , : , , , = > > # > # = = # # X @ + X + O +               O = , 6 y i k k c x c c k c k c k c c k x k k c k k y 6 # = y 8 i ",
"k h g k i 2 3 z x k k c c c k x c c c c c c c b c c c c c c c c b l b b f z S k b k x m O.t.{ e 1 i S F b b b F b b b c b z b b b b b c b c z b c c k q 3 c b v b b b S b b m S b b z z S F z F k b F m k x j p 3.#...P S b F K x K I S c F H H F F F F F F F F F F F F F F F H F M K F H H b I F , 2 j k b k b b F S F F F F F F H H F H F F H z H H H H H H H L L H F F H H H 2.6.) > & H ( p H K H F F H F H F H H H H F H F F z H b b c 6 , b F K H H H H F H H F H H H H H H H H I H K F F l i 3 r X.u.,.P c H K H J P Q F H I I I H K K H P P P P J P H H H H H H H H H K H H F F 2 p Q F H K H H H P H H F K H H H P H H P P H P P P H P E Q P m H P H F ! F m { u.5.Q 1 b z b H H H F F H H H F H H H F K F F F F b c c c t @ y c H H K H H H H H K H H H H H H H H H H F F F S k 8 , ; e H ~ H b K I F F H I I H F F I H H H K H H H K H H H H H H P F H F F H H F H I e 1 z h c k b b b b c F Z b S c c z k k k k j i g y y 8 t t 6 4 , , = = # = + +   X X % 8 h k z F F b F F F F F F m F F F H F H Z M F F F h ; = k x k b b m S F z F F F F F F F b m b F F F z j e * 1 { d.w.` x c H K z b H I F z b m F F K F b F z F b m z z F b S z z b b m b c c Z u = = 8 6 3 8 3 3 8 3 3 2 6 : 6 , 4 , , = ; % > # = & + = # & + + # + + O                 + + = ; t y j j k k k c x c k k c k k k k c k k k y t * * y q y ",
"g l g h i 2 3 z k k x c k c c c z k c k k c x k c c c b l c c c z z k z F z l m z b z k k H #.s.H 3 & j K b j F b v z c b b b Z b z c c c c b b c c c 2 q c b c c b b m z b F z F S m b b b z Z z b b i 3 p ) <. .^ n b H G F Z I S S K F b b H H F F F H F F F H F F F H F F F F F F Z F F b Q S * 2 j k b k b b z F F m H F F F F F H F H F F F F H H F H F H F b F P J F F P v ) 3.4.I - q ( H F H H H H H H H H H F F H F H K z H b b c 6 2 b F H H F H H H F H H H H H H H H J H H H K F F > e ~ w.6.! l P P H H H P H J P I F F H H H H H P P P J P P I H H H H H H H H H H H K K * i U N H K H H H H J H H K H H H H H H P P J H H H P H H F H J Q J H I k U U m P <.a.9.e i k F H H H H H F H H F H H H H H F F F b b k c t & t c H H F F K H H H H H H H H H H H H H K I l d i 2 # 2 Z ] P b m H K K H H H H F K I I H H H I H H H I H H H H H H H P P H H F H H F H I 8 2 k g b k b b c F S S m S S c c b l z z c h x h h y y y t 6 6 6 2 ; , , , = # X       # < y k m F F H b H F H F H z H F F F F F z H z F j = = k c c b z F F F F F F m F F F z H b b b H F f 3 * / u.f.X.c k E H F K K F b b F F K F F z S m F m F z F S b b b m b F b b b z c b x C u = = 8 8 8 y t y t t 3 3 6 6 6 4 , 4 , , > % % > = = = # = # + + & + X + X             .     + = 2 6 t t x k k k k k c x k c k c c k c k k i 8 # % t t i ",
"l k j g j 2 t k k k k c c k c c k c c c c k c k c c c c b b b c c c c c c c c c b b b b S m z z t.3.P * * k G Z z z Z F b k l F l c z k b b b c c b k 2 , k b c b b b z z c c S S b c b F k k F m x 0 0 ~ 4.;.J F F F F F z F F F F F z F m F F m F F F F F F H F F H F F F H F F F F F H b b I Z 2 2 j k k b b b F m F F F F H F H m F F H F K F H F H F H H H H H F H H F H F U c m X.6.+.c - k F K H H z P P F H F H H F K F H b J c b c 6 ; c F H F H H F H K L H z H K Q H F F I P H c r * I 5.t.~ k P Q H H J J H P H P P H H P H H H P H H H H H H H H H K H H H H H K H H F K S > h K P H H H H H H K H E H H H H H P H P P P P P J P J H P H I H I H H P P P P H J ` ;.k. .w 1 x I L F K Z H L K F F L H F F F b z c z z t * 8 c H H F H H H H F H H H H H H b F I H Z B u , O * j K ! m H H H F H H H H H H H H H H H H H K H K H H H F H H H H H H H H H K H H F H H 6 2 k g k c c b b b b b m b F b z m z b z k k c g h j g p i y 8 6 3 6 2 2 ; , , , % &     O $ 6 u j Z K F F H F z M m F F F F M M Z F F z k * , k k z c b m F S H H z M m m z M F z F F g 1 1 j t.u.%.P c K L F m S F F F F F F F F z F m F F F S b F z F F z F b m S z b b c c c c k k * , t t t i t y y y y y 6 t 8 2 8 6 , 6 , , = = = = # # * # # # * + = + + X O O   +             X # 4 7 t y i k c k c c k k k x c k c k k y 3 # * 8 e y ",
"z j x p j 2 q c x c k x c c k c x k c x c c c c c c c c c b b b c c l c c c c c b S l b b b F b x / q.,.f & , h b F b k z F b j c S F b b b b c b b k > 2 z F c l b b c b m b m z z b b S b Z z 1 e I 3.;.I k H F m F S F F z F m F F F F F F z S F m F F F F F F F m F H F F F F F F m H b H I c * 2 h k k b b b F S F F F F F H F F H H F H F H F H F H H H F K K F H H H H H l P K x W ,.3.X.3 y k H H m M P F H H H F F H P F c H c b C 6 , k H H F H F F H F F F H H H F I L I H c y * x ;.2.~ c N U I H J H H H P H P P F H J H P H H H P H H H H H H K H H H H H H H H H H F K Z , j I P H H H H H H H H H H H H P J J H H P P P P P P P P K H H H H L H P H P I P b H P ] t.f.{ e > z I b U L k l I K k F F H m b b c c k t X y c H H H H H H F H H H H P m F Q I k j F 8 O O y U U H v F H H F H K H H H H H H H K K H H H H H H H H H H H H H H H H K F H H F H H H H t , k j b k b b b b b b S F b F b F S b c c l c k k h h p p y y t 6 2 6 6 6 ; , % = % # O O + + ; 2 u z F H m b M F F F F F Z K F F H z z k = = x c k c b z z F z v b m z H F b H z k 3 1 e O.c.;.) z b K F C S F F F F F z m F F F F F F b z F F F z F S m F z b z F z b c c b l b k k = , t y t t y y t y t y t 8 3 8 8 2 6 6 , , , , , $ , # = = = # = = + + X + + O X &   +           + # % 2 < t p k k k c k x x k k k k k c t 6 * = y t y ",
"k j k p p 1 t k k k c k c c x c c c k c k c c c c b c c c c c S c c c l c c c c b b b b b b S b k k b | i.| t * k j k F F m b F c c F F b k l c c b k 2 > z b c c k c b b b c c k b z c c F j - v { | ! x F P x F F F F F F F F F F F F F F F F F z F H F F F F F H F H F F H F F F H b H b F I S 2 > j k k b b b z z F H F F F F F F K F H m H F H F H F H H H F H H H H F H K ! F m K E x ! ;.6.K 1 e F P M z F F H H H H F F F b P x b c 6 , c F H F H H F H I P H P U P m l J H c - 0 +.w.X.! P M P H c S Q H H H J P H H P P H P H H H H H H H H H H H H L H H H H H H H K H F K C > k P P H H H F H H H H H H P H H E H H E J P J P P J P P P H I I P P P P H H I E H F H Q v [ u.6.H 1 e H H H H H z H I F F F F S S z c k d @ d c H K K H H F H F H H H z I H b k z 8 @ O 9 F L F F H P H F H H H H H H K H J H H H H H H H H H H H H H H H H H H H H H F H F H H H H H t 2 j k b c b b b b b b S m F z S z b z b c c c k z z k k k j p y 8 6 y 6 6 6 2 , , : = # + O   O + = 8 k F F z F F F m b F H F F z H z F j , = k k z c z S F m P z M P I C k F m e & 3 ] u.6./ P v c m H k c I F F F m F F F F S F F F b F b z z F F m z F S m F z b m b b c b b z z h * , 8 y y t t i y y y y t 8 8 8 y 6 6 6 6 , , , , ; : , = = = & = + + # # # + X & # X +                 * % 6 6 i p j h k k k k k k k a k y 3 @ = y 6 e ",
"k j k j k 1 t c x k k k k c c c c c k k c c k c c k b c c c c z c c c c c c l c z b b b z b m b F Z b j z 5.9.P & 0 c b c k z S c c c b b b b c c c k , 2 c b c c c c c c c c c F k l H x * y ) #.[ K c c P J F F F z F F m F F F F F z F F F F F F F F H F F H F F F F F F F F F H b b H b b I Z * > j c c b b Z m F F F F H F H H F F H F F H H F H F H F F H H H F H H H F F F F H P H F F F ! ,.,.z 3 p I H H K F H H H H b H b J c c c 6 ; x F K F F H F H F P K F c H U U f - * ~ u.#.N N j P I K H Q J D H H H H H H H H F H H H H H H H H H H H H H H H H H K H H H H H H K K Z > j P P H K H K K H H H H H H P H H H H P J P P P P P P P H P H H H P H H H H I I I I I b I H H #.d.,.v - j H H m H F b F F F F m z l z z < X 8 k H K F H H F F H F F H G S C j y , * ; k L U F m H P H H H H H K K H H H H K H H H H H H H H H H H H H H H H H H H H H H H H H F H H H e 3 z j c c b b F F b F F F F F m F z b b b c c z z h z C k h p g u 8 y t 8 6 2 6 4 , = = , + + + O + # , 8 z z F S F F F F F F F z F F z k = = x c l b b b z F v K H j k J J k - 1 H 6.u.X.H m v H H H F F H H z F F F F F S F F F m F F b F b F z F S F z F F b z S b b b c b c S k k = ; t y e y y y y y y y y y y 8 8 6 y 6 6 6 6 2 6 4 ; : % = = = = = = # = # + + + X O + + X             O # * , q t i u i k k k c k c c z y 2 @ % 8 t y ",
"c p k i k 0 t k j z k c k x c c k x c c c c c c c k c c c c c c c c c c l c c c c c c c z b b b Z Z l c m d H u.,.b & * c J F k c c c c b b b c c c k > , z b c b b c c c c b b z L k - 3 ! =.{ ! c x H Q c c H F F F F F F F m F z F F F F F F F F z F F F H z F F H F F F H F F F F F H b F I z ; , j k k c m z F m F F F F F F F H F H F F H z H F H F H H F H F H K F H H H z H I F F Q ( m x m ..6.X.y ; c H H F F F F K H H z H b c C t , k H H F H H F H H m z H I K p ; 0 H 3.6.Q c P P ! H b F J I P J H H H H H H K H J P H H H H H H H H H H H H H H H H H H J K H H H H K C ; g H H H H L H H H H H E H H J H H P F P P P J P P P P H H H K H H H H I K H P H H H P U G H H H / $.u.X.g & f L H F I F F F F b c c k z 8 X d k F H F J F J K J H H F K C y 2 & * i K U Z z K ! I F H H H H H F H H H H H H H H H H H H H H H H H H K H K H H H H H H H F H F H F H H t 2 k j c c b b z z F F F F z F F m S F b b z z z k k c b k c k h j u u y y t 6 6 , , = , , : : # + +   O > 8 9 k C F F H m F b F z H b S j = = k k c c z m F z c k b K F p ; - l <.k.#.m N K m F K H l F U H c F F F F z F F m F F F F m F z F m S F F z F z F b m b b b b b c v b Z k # , t y y y g y d y y y y y y 8 y t t y 3 6 2 6 4 4 ; , , % ; = = = # + = # + # # # & + + X X X               X = 6 6 8 y u u j k k a c c t 3 @ # y 3 i ",
"k i k i p ; q c x c k k c c c c c k c c k c k c c c c k z c c c c c c c b c c c c c c c z v b b F j S H b m N i ` 6.,.j & q F D F v b b b b b c c c k > , k c c b c c c b m b k l 3 e F { { ! H k F K c c H H F F F F b F F F F S F F F F F m F m F F H F F m H F F F F H F F F F F F F F b F I z * 2 j k k c c b F S F F F H F F H F H F H H F F F F K H F F H H H F H H H H F ~ H F I J c c Q K H c J O.3.( q 8 g F H H F F H F z H v c c t ; c F H F H F F H K H H I c e 0 i ,.;.! c I Q P P H P P H m b H Q H H H H H H H H H H H H H H H K H H H H H H H H H H H H H H H H H F K Z ; g H H H H H H H H H H H H H J H H P P P P P P P H P J H H H H H H H H H H I I I H H H K K I I N z H ] 6.1.~ e 0 K Q J m F F F b c x k k 8 @ d z H H K H F F J J H b c 2 8 2 & 3 F I H z H P P H S H I H H H H H H P L H H H H H H H H K H H H H H H H H H H H H K H H H F H H H K H H t 3 k j c z b S F F F F F F F F F z F F m F F z c c c z b b c k k k g g u y y t 6 6 6 6 6 6 ; = # % # O     + = 8 y k Z F H m b Z z M z S u * = k k c c z z S F H b b b y - i ~ g.%.P N F z m M M Z F F F K F F F F m F F F F F F F F z S z F S F F z F S m F z b S F z b b b b z b k k * 2 8 y i d y g g g g g y i t y t y y t 8 3 6 2 6 6 6 , 2 , = = = : : = = # = + # # + + + & +   X X o         X + # = , 8 8 y g p k k k k t 2 # = 8 3 t ",
"k x k i p 2 t c k k k k c c k c c x k k c c c k c k c c c k c c c c c c c c c c c c c c c c b b S K b k b j j H x F ` w.{ - O i j k b b c c c b c c x , > z b c c x k c z b j i 1 x ` { ~ F k x F F F I H F c S F m z F z F F F F F F m F z z F F F F F F F F F m F F F F F F F F F m F H F F I C ; 2 j k k b b b z F F H z H F F F H F H F F H F m F F F F H F H H H H F H F H z F K F F H H J H P P m H / +.4.j j x c H H H b F b F b c c 3 ; k H H F H H F H z L F i & 0 ` w.` P J H S K G z H P H m H Q P x F H H K H H H H H H H H H K H H H H H H H H H H H H H H H H H H m H F Z * g H H H H H H H H H H H H H E P H H H E H P P H I H H H H H H H H H H H H I I I I I I I I I H H m P K M o.9.<.F - 2 F b b b F b b c k k t O < k H H F J K F F F c p y 2 & * z I I m H P I P z z I I F H H H H H I P H H K H H K H H H H H J K H H H K H H H H H K H H K H H H F H H H t 2 k k b z b b F F F F m H H F F F F F F F F F b b b b b b c k Z k k j p h p y y 8 8 8 6 6 ; , , ; = # # O     % , 8 g z z m z Z M F S S j = = x k c c m S z z z F d & - ~ w.f.P P m z z H L L z F K I F l m P F F F F F F F F F m F z F F F m z F m z F m S b z b b b z b b z m b z k = 2 y i y y g g g g i y i y i y y y y y 8 8 t 6 q 6 6 6 , , , = , = = : : + # = = # # # X # + + X + o   .           & # , 4 6 y p p k k k y 3 # * 8 t e ",
"k i c i k 1 q k x k c x c k c c c k c c k c c c c c c k c z z c l c c c c c c b l c c c c c c b k b b c z F F x x k p J ;.0.Q O 3 i b b c c c m c c k > , k b c c c c c l k e 2 ! ` ~ H k l M H F c S F H S F H F F F F F F F z F F F F F F F F F F F F F H F F H F F H F F F F F F F F F b F I C - * x c c b b b F z m F H F F F H F H F H H H F H F F F H F H F H F H H H H H K K K K H I H F H J J J m m P ~ q.` i 3 j H F b H b H b b c 6 , c F F F H H F H H k 2 * H q.;.c m F H I I J F I P H P H H H H P K K K K K K K K H F H K K K K H H H H H K H H H H K H H K H H H H H K z % j H H H H H H H H K H H H H H H H P J J P P H H H I I H H H H H H H H L H K F F K K K F H H K K U I H P v P ;.6.O.c & b b b b F b c c k 6 O y k H F F H F F F z i 3 & * j I I F m F H H m v K I H H H H H H H H P H P H H H H H H H K H H H H H K H K I H H H H H H H H H F F H H K K e , k k b z b m F F F F F F F F F F b F F F F m m z b m b F c z Z z k k h h k p u u 8 8 6 6 6 6 2 , % ; > % &     O * < g z z m F z F F S j * = k k x c z z m M B @ @ H 6.s. .n M H H F F H F Z F F F S F H m c F z z F F z F F F F F F F z F z F z S F z F F F z F m S m z b b z b z k * , 8 y g g y g g g g i g d u i u i y y i t t t t t y 6 2 , , , : = : = = : # # # = # # = X   X X # X   . .         X + X # ; 3 t y i a k t 2 X = 8 t y ",
"k x j u g ; 3 k k k k k k k k x k x c c k c c c c k c c c c c c k c c c c c c c c c c l c c c c b b b b b c c c m b z k b I | q.i * * x F m b b S j h * 6 S g b k b F k 3 3 b { ~ I b b b H H b F b F b H F m F z F F m F F F F F F F F F F F F F F H z H F F F H m F F H F F F H F H H F F F K z * > j z k c c b F S F F H F F H F H F H F H F F H H F F H K F F H H K H H H F H H H H H H H F H H H F H F H H b | 4.) q q k H H m F b c j 2 : z F H m F H F F 0 & p ;.<.I k P H H H H H K H H H H H H H H H H H H H K H H K H H H H K H H K H H H H H H K H H H K H H H H H H H K F Z = j H H H H K H H H H H J P H H H H H H H H H J J P H H H H H H E H H J K H H H H J H H H H H I I H H I H L K x L 3.6...- q j F b c k z k 3 @ 8 S F P m F Z k y ; & ; t F H F F H K F H H H H H H H J H H H H H H K H H H H H H H H H K H H H H K H H H H H H H H H H H F F J K F H H H 6 2 k k c S m C F F F H F F F F F H F F F F H F F F F m z F m F c c c c k c k k u u y y t t 3 3 , , , = , = , + + O   O ; 6 9 g S F S b F i ; = k p c C F S p 6 & j O.u.O.F b I F F H F F F H m F F F z F F F F F F F F F z F F m F F F b b z F F S z F F F F z b F F b z S b b b z z g , 6 y d i u u g j h g j g g g g g i y y y y y t t t t 8 6 6 4 4 6 4 , , = = = = = = % # # # # & # & + +   +   X             X = 2 6 8 8 k g < X # 6 8 6 ",
"k p k u p * 3 k k k c c x c c c c k c c k k x k c c k c k c k c x c k c c c c c l c c c c c c c b b c b b b b c b b b c z b H ~ q.} i * y k k F z z C = , Z j z m k e > i ~ ` I H F v b b H b b F b b F b F F F F F F F F F F F m F F F m F F S H F F F m F F H z H F F F F F F z F H z F m F K z , , g z k b c z F z F F F F m F H F F F H F H H F F H F F H F H H F H F F H H F H F F H F H H F H H H H H H F P j H ,.4.H q e c c I P b F y = b k F I H H i O i _ <.) b I I H H H H H H H H H H H H K H H H H H H H H H H H H H H H H H H H H H H H K H H H H H H H H H H H H H K K Z * d H F K H H H H H H H H E H H H H H H E H P J H E H H H H H H H H P J H H H H H K H H J H H H H H H H M K ! L H P / O.4.b * t H H z x c 2 & 2 S H P b Z i 3 ; * 2 c I K F H H F H H H H H K H H H K H H K H H H H H H H H H K H H H H H H H H H H H K H H K H H K H H H H F H H H H F 6 ; k k S x c F z F z F F H F m F F F F F F z H F F F F F F S z b b c c c k c k g u i u i y 6 3 6 6 , , , , = = = # #   O # , 8 j z S F S i ; + k k c S x y 2 ; X.6.1.U b H H x F m F F F H z H F F F F z F F m F F F m F F F F F F F F b F b F F m F z b S m F F S m F F m z b S v z k , , y y y u g g h j h j g g g g g i y g y y y t y t t t 6 < 6 4 6 4 6 , 4 , = = = = = # = + # # X # X # X     +   X           X # = , 2 2 2 = O + 8 6 , ",
"z g k y u ; q c k x k x c c k k c c k k c c c c c c c c k c k c x k x C c x c c c c c c c c c c c v b b c b c c k b m S z b k z F { 4.` * * j j F z g , 6 S k S i > t I ` I b b c c b b F H F b b F b b F F F F F F F m F F F z F m z F F F F F F F F F F F F F F F F F F F F H F F m F F F H H z ; - j k c c b z m m F F F F H H F F H F H H F F H H F H F H m H H F H H H H K H H H H F H F H H F H F H F H F b Q H k J =.X.C * k b p c S 2 ; j I I b i - 0 ( =.` J H H H H H H H H H H H H H K H H H H H H H H H H H H H H K H H H H J K H H H H H H H H H H H H H H H K F H H F F Z , g H N H H H H H H H K H H H H P E H H H H H P H H H H P E H H H H H H H H H H H H H H H I H I I H I H K H P ! P x F / ` 3.O.f & e c c k t % y k k z z 8 # O * z I P F F F H H H H K F H H H H K H H H K H H H H H H H H H H J H H H H K H H H H H H H H H H H H H H H H K H H H F K H e > k i S c F S F F F F F H F H F H H F F H F H z F F F F F F b F S b b c c k k k k g g g g y y 8 8 6 6 4 ; , = = : = + O   O # , t p z F u = + p p S i & & H 9.2.` z H H b K Q z H F H F H F F F F F F F F F F S z F F m F F z F F F F F z F F z F S F z F F z z F z z b b z F z v v g ; , u y g i u j j h j h j h g j g g g g y y y y t y t t 8 < 8 2 6 6 , , 4 , , = , = = = # % # # # @ # # X . +       X               # > 6 6 , % # 6 , O ",
"k g h g u ; 6 p k k k k k x k k c x c c x c k c k c k c c c c c c c c c c c c c c c c c c c l c c b c b b b c b c b z b S m F m j b P | <.H & * i S S * * z i 2 e b ~ Q F b b b S S b H b b b b F b F b b F b F S F F F F z F F F F F F F z F F F F H F F H F F F F H F H F F F F F F H F F F H k * ; j c k c b b F S F F H F F F H H F H F F F H F F H F H F H H F H H F H H F H K F H K H H H H H H H H F H H Q F F H P H ) ;.| 1 - k c k 6 2 C z j 2 * F =...I H F H H H H I H H H H K H H H J H H H H H K H H H H H H H H H H H H H H H H H K J H H H H H H H H H H H H K H N H K Z * i H H H H H H I H H H H H H H H H H H H H H H H H H P H H H H H H H P H H H H H H K H H H H H H H H H I H M F I E J F P H { 4...1 & r k 2 O 5 Z Z e * & * u S H H H b H H F H H F H H H H H H H H H H H H H H H H H H H K H H H H H H K K I H H H H H H H H H H H H H F H H F H F H H 8 , k k c c b b m F F F H F H F F F F F F F F F F F F F F z F F S F b b c c b z z k k g j j i i y 8 8 8 6 6 4 , = = , = # @   O   # , y z u ; = p i & O x 6.9. .F v l F F F F S H F F z F F F F m F F z F b F F F F F F F F F F z F F F z F m S F z m F z F S m F z F S m z b b S z c p = 2 u d y g j h j h h j g j h g g g g g y d y y y y y y 8 8 8 8 6 6 6 2 6 , 4 , , , = ; = = = # # # # # # & X + X +   +               X # = # # O   O   ",
"k j k g h * 6 c k k c x k c c k x c c k c x c c c c c c c k c k c c k c c c c c c c c c c c c c c c c l c c c c m b b c c c c c S b b x H 4.,.i * , 2 , , 3 3 j I I I b k b F F F F F F F b b b F S z F F F m S F F z F z F F F F S F F F F F F F F F F F F F F F F F F F F H F F F F H m F F H c * 2 h k k x F z F F F z H F F F H F H F H F H F F H F F H z F H H H F H H F H F F H H H F H H H F H H F H H H S K I K J H F H [ =.! > q z 2 , y t * y { O.Q P k H Q H F H H H H H K H H H H H H H H K H H H H G H H H H H H H K H H H K H H H H K H H H H H H H H K H H H H H F H F z = y K H H H H H K H K H H H H E P J H H H E E H H H H J E H H H H H H H H H H K H H H H H H H H H H H H b I Q P H P E H m P E P X.3.! - , % O < 8 % > @ t k L I F F P P H H H F K H H H H H H H H H K H H H H H H H H K H H K J H H H H K H H H H H H H H H H H H H H H H H H H F H H F 6 ; p c c c c F F F F H H z F H H F z H H H H F H F F F F F F m F b F m b b b b C z k k k k p p y y 9 8 8 8 6 6 , , , , , = # O       * 8 8 # = q & 2 { w.#.W x j I ~ z c H H k H F F H m H F F F F F F F m F F F m F F F F F z F F F F F z S m m z F z F z F F m z F b z m S b F b F g ; 2 u y g g g k g h j h h k h k j g g g i g g g i y y y y 8 8 8 8 8 8 2 6 , , , , 2 , % = = = = % # * # + # + + # O O +   X             O     o     = j ",
"z g h g g , q k k k k k k x k k k c c c c c k k k c k c c c c c k c c c c x c c l c c c c c l c c c c c c c l c b z b b c c c k k F z j c c ~ q.! y & & 6 i S ` I k x H L m b b m F F b b b F H z m F F F F F F F F F F F F F F F F F F F z m F F H F F H F z H F H F H H F F F F F F F F F F H z ; * h k k c c S m z F H F F H H F H F H F H F F H F H H F H H F H H H F H H H H H H F K H H F H H H F F H F H L F m F H H H F I F } } k & # ; 3 q U =.~ b F F ~ b c H Q I H H H H H H H H H H H H H H H K H H H H H H H K H K H H H H H H H H H H H H H H K H H H H H H H K H H F F Z * i K F K H H H K H H H P H H H H H J H H H H H H H H H H H H H E H H H H H H H H K H K H H H H H H H K H H P E J H H I I H b c F ` | | g 8 # X + & t z L I S S H Q J m F H H H H H H H H K H H H H H H K I H H H H H H K H H H K H H H H H H H H G H H H K H K H K K H H F H F K H H H t ; c a F c c F z H F H H H H F F H H F H z F K F H F H H F F H F F F S F F F b b z c c z z x p h h y y 8 8 8 8 6 , , , , , = = # &   O = ; + + O U q.<.P c x c K b z L H b m P F F F F F F F H F F F z F F m F F F F F F F F F F z m F z F F F S F m F S m F z S F F z b b F z z l z g = 2 u i g g k g j x k h h k g k h k g g g g g g i y y y y 8 8 8 8 8 8 3 6 6 , , < , , , , $ = = = * # = # # # & + + + X X X X           X     X X + u } ",
"k p k g g * 8 k x k k k k k k x c k c k k c x c c c c c k c k k k x c c c c c c c c c c c c v b c c c c c c c c k b b z m S S b H z z S c c c i | | k   O c K x j F S j j F H z b z b b F b F F F z F z F z F F F F F F F F F m F F F m F F z F F H H F m H H F F F z H z H F F F F H H F F F H z * - j k k b b z F F F F F F F F H M F F H F H F H H F F H F F H F K F F H H F H F H H F H H H H H H H H H H H b H H H F H P H F F H Q ` J & O > ~ ` F b Q J F F H H F S H I H H H H H H H H H H H H H H H H H H H H H H H H J H H H H H H H H H H H H H H H H K I H H H H H H H K F Z * i K m H H H H H H H H H H J F P H H H H H H P J H H E H H H H J F H H H H H H H H H J H H H K H H H J I H F J P P F H F c K Q P F H { Y t     = 6 b F z K I H F F H H H H H H H H H H K H H H H H H K K H H H K H H H H H H H H H H H H H H H H H H H H H H J H H H H H H H H H H F F t , k k c c b F F F F F H H F H H H F H H m F F H F H F H F F F z F F F F z F z b c c c c l k k h h g y i u y t 8 6 4 : , : , = $ # O O & O   . F Q ~ H b F H K F K F F F z z c F F F F F F F F F F F F F F z F F F F z F F F F F F F F F z F z F z F S z F F S z F m S F b z b z z z g = ; h d k h g k k p i k k k k k k k j g g g h g y u y i 9 y y 3 8 8 8 3 6 < 6 4 6 6 , , , ; % = = = % ; # # + # # X # O O O + X .   .               6 z ",
"k j k y g , 3 k k k c c x k c c c c x c k c c c c k c k c c c c c k c c c c c c c c c c c c c c c c l c c c c c b b b b l z b b z m F b b b c c y g 3 = # & 2 p b b F I F c b F F F F F F F b b m F S m F F F F F m F F z F F F F z F F F F F F H z F F F z H F F m H F F F H F H z z H F F F K z ; * x c c c b z F z m z H F F H F H F F M H F H F F H H F H H H H H H H K H H H H H F H H F H F H F H H F H F K H K K K F F H I b F c p i 2 ; j 3 3 k H J H J K F H H I K F F H H H H H H H L H H K H H H H H H H H H H H H H H H K H H H H H K H H H H K J H K H H H H H H H H F F Z * i F H H H H K H H H H H P P P H P H H H H H J P H H H H H P P P P J E H H K H H H H H H H H H H K H H H J J F F J J H K I I F F H k 2 , 6 2 6 6 * i b M H H H H J Y J K H H H K J H H H H H H H H H H H H K H H H H H H H H H H K H H H H H H H H H H H H H H H H H H H F F H F H H H 3 > k k S c b b F F K m H F H H F F H F F H H F H H H F F F H H F F F F F F m z F b c c b b c k z k h g p p u y 6 8 8 8 6 4 4 : # , = & + .   . & 3 i k b F F Z S S F F F H M P H F F H F F F F F z F F F F F F F F F S F F F m S F F F m F S m m F z F F z F m F z F b z S m b F v z g = , h g g g g k k k k k k k k k k h h k j g g g g i y u i i t y y y t 3 8 6 6 < 6 < , , , , , ; = = * % # = # = # + & # O O     .                 + * @ ",
"k j k y u ; 6 h k x c k c k c k x k k c c x c k k c k c c c c c c k c k k c c c c k l b z c c c c c c c c c c c m c c k c v b x h S F C c c c x @.l.P 1 <.) O - 6 y S K C k b v S F z b b F c k S z F z F F m F F z F F F F F F z F F F F F F F F F F H F F H z H F F H F F F F z F F F F F F F h * 2 j k k b z b b F F F F F F F H H F F H F H F H F H F F H F F F F H F F H H H K H H F H H F H F F K H H H F H N H H z K K Z M P x q M s.O.W l.@.f - i b C Y F H I F F H J H L K F K H P P H H H H K H K H H H H H H K H K H H H H H H H H H H H H H H H K H K H H H H H H K m H K C 1 i F I K H H H H H H H H H H H H H H H H H K H L H H H J P H H H H H H H H H H H H H H H H H H H H K H F K H J Q P P H ! H F Q b e 1 d &.d.! z c.+.- 1 k c H I P H H F H F F H H H H H K H H H H H H H H K H H H H H H H H H H H H H H H H H H H K H H K H H H H H H H H F H H H H H F 3 , x c S c c S F F F F H F F H z H F F F H F F m F H F F H F F F F H F F H F F F F b m S b b b c k c k j j p i u 8 y 6 2 6 8 # 6 ; #   = =   +   O ; 6 j k z F F m m z z m F F S F F F H F H F F F F F F z F F z F F z F F F F F m F F F z F F S F m S F F z F m S F F b b F b z b Z p = 2 u u g j h h z k k k k x k k k a k k k g h g g g g g y y y y y y y t y t 8 8 t 6 6 6 6 , , , , , # , # # * = = = * = + + X           * 2   O       . ",
"k j k h g ; 2 h k k k c k c p c k c c k c k c c c c c c c k c k c c c c c c k k c c x c c c c c c c c c c l c c c p x c b c b F F C c F x r / d.M.1.j q { k.<.f   ; 3 g H I F I F b b z S m F I F F m F F F F F F F F F F S z F F F F z F z H F H F F F F F F H F F F F F F m H F H F F F F F F h ; , u k k b z b F F b H F F H H F F H H F H F H F H F F H F H F H H F H F H F H F F H F H H F H H H H H H H H v P P H ! K S L l q f ;.c.s.x d 5.M.b.{ e ; x F H F S H J H m F F H H H H H H H H H I K H H H K H H H H H H H H H H H H H H H K H H H H K H H H F H H H H H H K H H F C ; i F J F H H H H H H H H H H H H H H H H H H H H H H H P F H H H H H H H H H K H H H H J H H H H H H H m H J F S F P E C H J r - e ..k.F.1.j i 6.Z.x.P & e j k H H K Q H H H H H H J U H H H H H H H H H H H H H H H H H H H H H K H H H H H H H H K H K H H H H H H H H H K F H H F F 2 2 k k c c c F F z F H F H H F H F H H H F H H F F F F F F F F F F z H H z H F F F F b b b c c c k c x k k k k h h y 8 u 6 ; y & X * & 6 2   O O   O # 2 y k b m z z m M F F F F F F F F F F F z F F m F F F F F F F F F F F z F F F F z b F z z F F z F z S m F z z z S m z S b b Z u = , g i h j k k k k k k k k k k c k k k g k k g j h g g u i u y y y y y 8 y 6 6 8 6 6 6 6 4 2 , , , , # 8 , * X X * + + + + X .     X + , 3 O X .     . ",
"j j k y j ; 3 j k k x k k c c c c k c k k c k k c c k c k c c c c k c c c k c c x c k c c c c c l c c c x c c c k c S K F k p c H b x r ( 9.f.w.' / v 3 e ~ 3.w.{ e & q t u S h m b F F F b l c m F S F F z F z F F m F F F F F F F F F F m H F z F F F F m F F F F F F H F F z F H F H F H H m k * > j k k S c F S b F F F H F F F H F H F F F F H H F H F H F F F F H F H F H H H H F H F H H H H H H F H H H I S F F c P H 1 e $.c.s.' H e F  .{ 5.M.u.! 0 - F H H K H J H H F K H H H H H H K H H H H H H H H K K H H K H K H K H H H H H H H K H H H H H H H H H H H H H F H H H c ; y S J H H H H H G H H H H H K K H H H H H H H H H H H P P H H H H H H H H K H H H H H K H K H H H H H F I Q P K K K K L g * 1 ! c.C.h. ./ F x Q  .s.x.t.H q e k F I z H H I I H H F b H H H H H H H H H H H H H H H K H K H H K H H H K H H H H H H H F H H H H H H F F H H H H F F F 2 > k k c c b F F F m H H F H F H F F H H F H F F K F F H F H F F H F H m F H F b F b b b b b c b c c c c c z k k 8 y k y t 6 O , 2 6 6 7 6     + X     O # 6 y k k b F F F b b F m F F m F F z F F F F F F m F F F F F m F F z F F F S F F z F F m S F m F F z z F m b b F b m c b S g ; , u u g k k h k k k k k c k k k k c p z g h j g g k g g d g g i y y y y y 8 y 7 y 8 6 2 < ; 6 4 , , , # = , 4 $ % # +   O       + # = 2 2   * X       ",
"z h k i g ; 6 h c k k c c k k x k x k c c c c x c k S k x c c k c c c c c x k c k c c c c c c k c c c c b b c c S b z x k S F S e f N ,.k.d...k ^ O.k @ k x k ` w.q.I & & y j G b k b b H F K z F z F z F F F F F S F F m F F F m F F F F F F F H m F H F H z H F H F m z H F H F m F F F F F F k * , j k z b b b m b F F F m F H F F H F H F H m H F H F H F H F H H F H F F H H F H H H H H K K H P I H F F F K L H H N r e ..l.5...m b U e i ] v H O.f.m.6.N * e m P H b z C K F F H H P P J H H H H H H H H H H H H H H H H H J H K H H H H H H H H H H H H K H H H H H H H F H H C - i F H K F H H H H H H H H H H H H H H H H H H H H H H F J H H H H H H H H H H H H K H H H H H H H H H P F b H J Y F C w 1 l 9.A.k.@.W P X.k > ` J v X.l.c.O.e 3 e z I H H F F H I I H H H H H H K H H H H H H H K H H H H H H H H H H H H H H H H H H H H H H K H H H H H F H H H F F 3 , z k c c b b F F F F F H F H F H H H H H F H K F F K F H F H F F F F F F F F H b H b F m b b F S v c c c k c z j 8 g k & & F g p y 6 u 2   + + X X X O O O + 8 y k b F F F b F F F z F F F F F F F F z F F F F F F m F F F F F z F F S m F S z F F z S F z F F F S b b z b z v b Z g = , g i g j k k k c k c c k k c p c x k g k z g k k j g g g g g i y g y y 8 8 8 y t 8 8 6 6 6 6 4 2 ; , = = = = = # # +     O # X # # = , %   = = # X X ",
"k p k i p - 2 h x k c k k c p c k k c k x c c c c c c c p c c c c c c k k c c c c k c k x z c c l c c c c c c c z k k b b c i i x o.x.k...k i H ^ | K > i H c k b ` u.q.k & , t b F H b b F F c S F m S F F F F F z z F F F F z F F F F m F F F F F F F F F F F F F F H F F H F F F F F F F F z k = > j k z b l b F S F F F F F F H F H H F F H F H F F F H F H F F F H F H F H F H H H H H K H F F H H H H K H K F P z 3 v 6.k.1.) x c H F 2 k ) ) K v N 4.M.k.O.x & 3 F I K G H H H b H P P J H K H H H H H H H H H H H K H K H H H K H H H H H H K H H H H H K H H H H H H K m H F c - y b J F H H H H H H H H H H K H H H H H H H H H H H H H H H H H H H H K H H H H H H H H H H H H K H H Q F F I Y k 3 * l @.M.V.3.P z M P =.H 1 Q W m F m #.V.v.! > 3 i H H H H H H P P H H H H H H H H H H H K H H H K H H H H H J K H H H H H H H H H H H H H H H H K F F H H H H F F 2 ; x k S c m C F F F H F M H F H H H H H H H F H F H F H H F H F H F F H F F H F F F F F F b z H b c c c b S c j b K 3 O j ` J g h y 8 y ,   # + # o $ X &     * , 6 u Z S F F m F F F F F F F m F F F F F F F F z F z F F F F F m F F m F F m z F F S F z F m S F b b b b b b c c Z u = , g g j j h k k c k c k c k k k k k k k k h k h g h j h g g g g i g g y y y y y y 8 t t 3 2 8 6 3 2 , 6 : = # = #     = = 4 4 , , , , , #   , , = # & ",
"k p k i p = 2 h p c p c c k c c x k k x k c k k c p c c c c c c k c c c c c k c x c k x l z c k c c c c c c c c z k b H c e x { k.u.+.m x Q W c ! ~ i @ p Q H z b x k X.g.;.3 & - i b S F S F c F z F z F F F F F F F F z F F F F F F z H z F F F m H F F H H F F F H z F F m F F F F F F H H F k * , j k k b b z z m F F H H F F F H F F H H F H F H F F F H F H F H F H F F H H H H F F F H H H H H F K H J I H m 1 e 5.B.6.Q x F K H F H q c { F m Q m k ^ 9.A.d.' e 2 j K I I H F H H P P H H H H H H H H K H H H H H H H H H H H J K H H H H H H H H H H H F H K H H H H F H H F C - i F J H H H H H H H K K I H H H H H H K H H H H H H K H K H H H H H H J H H H H K H H K H H H H H H H I I I F e - x / b.C.s./ v I T K W ` g * ( / Q H P b F 6.D.d.m 1 0 p F I P F F F H H H H H H H H H H H H H H H J H K H H H H H H H H J K H H H H K H H H H H H K H H F H H F H F 6 ; c k c c c F F z H F F H F H H F F H L F M F F H F F F F H F H F F H F F H F F F F F z F F F H b b b F F F c m 3 & g =.} k p g g g i u 6 O # # + # # X + + +   O # , 8 k Z F b b z F F F F F F F z F F z z F F F S F F F F z F F z F b F z F F z F m z F F S F m F b b b b b c z Z u = 2 i i j p k k k c x k c k k x k k k k k j z g k k h k j h j h g g g g g y y y y y y t y 8 2 3 8 6 6 6 = , , = O & * , h 9 8 < , , , , 6 *   6 = = # # ",
"k j k i p ; q p k c c k c k k c k c k c c c c x c c k c k c k c c c k c c k c c k k k c k x c c c c c c c c c c C k j r f W 7.l.;.! n F F c k F / X.z 2 j x d L H m b k I 6.u.} ; - - i S H H J z S F F F F F F F m F F F F m F F F F F F F F F F F z H F F F F F H H F F H F F z H H F F F F F k * , g k k S z m z F z F H F F H F F H F H F H F H H F H F F H F F F H H F F H H F F H H H H F H F F F H H F l 1 l #.c.u.) m b I S F I J F 2 c { I l K U I F H / h.A.9.F 0 e j F F H P H H m H H H H H H H H H H H K H H H H H F H H H H K H H K H H H H K H H H H H H H H H H H F S c - y b H F F J H H H H H K H H H H H H K H K H H H H H H H H H H H H H H H H H H H H H H H H H H H H H H F b i 0 e ^ 9.A.d.o.l H I P M K ^ o.b t / F p Q K I I v ! u.M.s.j t e k H H P Q H H H H H H H H H K H H H H H H H H H H H K H H H K H H H H H H K H H H H H H H H K H H H H F F 3 ; c k c c b F F F F F H F H F H F H H H H H K H H H H H H H F F H H F H F F H F F F F F F F F F F S F F F k p * f } #.H y p x z z z j h 6   # # # @ # # + # +     O & = 2 y j k c b F F F m S F z F F F F F F F m F F F F F F F F z F F b z F m S z F S m F z b b F b b F b F b c S g % , g i k k c p c k c k p c c k z k k k z h k k k h k k l h z g g g d g g y y d y i y y 8 y 8 8 6 6 8 2 4 , &   O 2 b U g u 6 2 2 6 6 6 6 = O 8 = = ; = ",
"k g k y p ; 2 p k k k c k x c p c k x k c k c k c k c c c c c c c k c c c c k c k c c k c c c k c c c c x c c c c k x c #.k.t.^ c S F F F F F S ! ' z & t F F k F S F F j x ! 9.u.J & * y k k S F m F z z F F m F F F F F F F F F F m F F z H F F H H F F H F F F F F F F F H F F F F F F F F F k % > j k k b z S F F F F F F F F H H F H F F M F H F H F H F H F H H F F H F H K H H H F H H F H F H H H K j e / 9.d.o.m F K H F J I S C H 0 j I Q K K I I F J W n { c.V.,.k > g b H J H F H P H H H H K H H H H H H H H H H H J H H H H H H H J H H H H H H H H H H H H H H H F H F c ; y F H H H H H H H H H K H H H H H H H H H H H H H K H H H H H H H H H H H K H H H H H H K H H H H H K S y > x 5.C.b.@.z L P P P P Q E N [ c ; J ( Q J L I H H H W o.f.V.} q - y c K H H H H H H H H H H J H H H H K H H H H H H H H H H H H H H H H H F H H H H H H F F H F H H H F S 3 2 c k c c b S F F F H F H F F H H H H H H H F F H H F H F H H m H F H F H H H F F m H F F H F F F F F F c i 2 o.,.{ z x F F k g g l g p 2 O : * * % % * # # # o +     O * 2 t k k z m F z b b F F F F F F F F F F F F m F F F F F F F b F F z z F F z F F z F b H b b b b b b b c Z u ; , u u p k p k c k k k c c k c z l k k k z k k k k k g g g g j g g g g g g y i u i y y d t e 8 e 8 6 6 ,   O 2 J ` J x 8 6 2 2 8 y 8 6 6 + O 8 = = , = ",
"k j k u g * 2 h x k k p c c c k c p k c k c c k c k c k c c k c k k c c k c k x x c F b k k h k C b z z z k k j w f +.f.d.{ c S F F S b m F b b U ' z > 8 F z b S z F F m S F z  .t.5.c O * k c k F K z z H F c F F b F F F F F F F z H F F H F F H H F F m F F F H F F H z F F H F H F H F m b g * * u c c c c z F m F F F F m H F F H F H F H F F H F H F H F H F F H F H F H N v F F H H F G F Z K K i w m 5.g.:.H F F K H K H H F F m F 2 j ~ J K K H H H H F Y H P 3.N.b.#.1 3 d m L K K L F H H H H L K M H H F H F H H H K H H H H H H K H H H H H H H H H H H H H K H H F H z z * y C H H F F K K H H K H K H H H H H H H H J K H H H H K H H H H H H H H H H H F H F F H K F H I I C y * r o.B.B.<.H b I H H I H H H H K { z 3 I J K H H H H H H L H P %.k.l...; * j K L L I F F H J P H H H H H H H J H H H K H H K H K H H H H H H H F H H H H F H H H F H H H H F b 2 , k k c c b S b F F H F H F F H F F H F H H H H F H H H F H F F H H F H F H F S F H F z F K K F H H x 0 0 W e.` H c c F F c C b k k k z 3   # = = = = # = = = + + + + +   O   , 8 y k z z m z F F M Z F K Z Z F F F F F F F F F z S m F z F S F F m S F z F F z F m b S F b m b c F u ; , p g h k k k c k c c c k k c k c p c k c k k k k k k k p j j h k j h h g i y g g y 3 u y t 6 8 y 6 = & - F X.} C t t y t t t t t e 6 6 , O y 8 = , ; ",
"k j j g g ; 2 h k k k c p k k c c c c k c p c c c c c c k c c c x k c c k c c c F x k i k b S c j z z z p k j i / u.d.{ z F I C F m b F F F b b I ` l * 8 z b b m z F z F F z F l N O.u.;.y & * F p k H m b K m b b b b b F F c S F F F F F F F F F z H F H F F F F F F F H F H F F F F H F F z h , = y c c c S b b F F H F F H F H H F H F H F F H F F F H F H F H H F H F F H m L L F F H J F Y I c q x ;.h.6.` H S H I I H H H F H F S F 2 j Q I K K J H H H S K P b b ^ 8.C.k.) 1 1 k H H F H H H H z z z F F H H H F H F H H F H H H H H H H H H H H H H K K H H F F H F H H H F k * y b J H H H H K H H H H H H H H H H H H H H H H H H H H H K K H H H K H P I H F H K H I I Y H j y 3 -  .f.V.4.P z I Q H I H H H I H I P { c ; I I F H H H H H H H P K n ! 5.B.d.P ; > g b H H H I P J H H H H H H H H H H H H H H H H K H H H K H H H H H H F H H F H F H H F F H F b 2 ; k k c c F F b F F K H F F H F H H H F H F H H H F H H H K H H F F H F H H F F P F b U K k j H F e 3 Q 6.;.P I b c S F S c F c k c x z 6 + = = = = = , # = + = = # # + + O + O # , y j c z z F F M Z F F M Z F z F F z F F F z F F F z b F m F z z F z F m S S m F z z z S b F c C p = 6 j g k k k k k c k k k c c c c k x c c k k c k x c k k k j k j h k h k g d y y i g k 8 y u j y * O O H O.;.F ; y p t t y y t y e t t y , O u 8 , , ; ",
"k j j u g * 2 h p c k x c x k k c c k c k c p c c c c k c p c c c c k x c k c c c c k k x S c k j z F m f e P ,.f.#.P F K c c F F b b F F F b b ! ' k * 8 z b b b b m F b z F S z v l U <.u.] ; O t k c K Z k H b F F F F F F F F F z H m F F F F F F F F F F F H F F F F H m F H F F H F F F z h > ; i k c c c b F F F F F F F H F F H H F H F H F H M F H F H H F H F F F H F P b z H Q H F J x e w / k.r./ P H F F I H H F H H F F F b F 2 j ~ I H F H H H H ~ K F I P M P ` f.v.9.m 1 e F N K M z H I I L M H H H F H H H H H H H H H H H H H H H K H H H H H H H H H H H H F K F k * y c H H F F H F H H H H H H H H L K H H H H H H H H H H H H K H H H H k F H H H H H I F H F x 0 0 ! w.M.f.o.m m U Y c H H H H I H H H P ` z ; I I H H H H H H I H P P ! H z ! u.v.6.l - 1 x I I F S J F F H H H H H H H H H H H H H H K H H H F P H H H F K H K H H H H H H H F H F b 2 2 C a m S F F F F F F F F H F H F F H H H H H H H H H H F H H F H F F F H F H H c F Q H c K ` i 1 x ,.4.) c c b c c F F c c F b c b k c t O = = , = = = = = = # = = # # # X #     O = 2 y k k b Z F F m S F m m F F F F F F F F m F z F F z F F F F z F z F z F F z b S m z z c b F h = 2 g g a k k c p c k c c k c p c k k k k c c x k c k p p k p k k k k j g g k g y 8 y y 6 y g 8 & O k ,.6.Q p p k i q u y y y y y t i y 8 4 O p y , 6 2 ",
"k p j g j ; 2 h c k k p k c k c p c x k c k k x p c c c c c c c c c c k c c c k k c m c c c c c K C e 1 b #.9.8./ b x m H F c F b b b b z b b b P [ k * 8 z b b F z S z z F F m z L L l c ~ <.u.H ; * i p c J S b H b F F F F H F F m F H F F H F H F F H F F H F F F m H z F F F F H z H F F b g % * p k c c S z z z F F F F F F F H F F H F H F H F H H F H F F H F F F H F H c H I F F F b p e W a.k.` m P b I I H H H F F I H F F F b b 2 j ~ P F H H I H H K K J L K H H z k #.c.v.O.r 1 e z K L H m H H M F H H H H F H F H F K H K H H H H H H H H H H H H H H K H F F H F K F C * t S H H H H H H H H H H H H H H H H H H K H H H H H H H H H I H H H H I I H H H H H H I b 1 & m 3.b.k...Q H I H F K Q H I I H H K H H P ` c ; H H H H H H H H H H H I F I I H H ..u.M...x 1 3 k J I J K F F H H H H I H K H H H H J K K K H H P J J H H H F H H F F H F H H F H H F b 2 ; c k S c F c m S F H H H F H F H F H H F H F F H F H H H F F H F H F H F H F H F F b z U m * f #.w.{ c c H K F F H H F c C F b b b k b t # = 4 = , , , , , , = = % # # # # # X       O % 8 u k l F F M z z b F b S m F F F F F S z F S m F z b S m F F S m F F z F b b b b F F C Z h ; , g g k k k k c c c c k x k c c c k c k c k k c p k x p k k k h h h j k h g g g g d i h y O O e #.4.{ c i e i k k p y i y y i i y i y y 2 & h u 2 6 2 ",
"k j j y h * 2 h k c p c p c k c c p c k c k c p k c k c c k c k k c k c x c k k c k C c c x c c j e x ] 9.9. .m j m F b z m F S F b S b F m S b K ' j @ 3 S b b S z F F m F z F L F z F F c P { w.=.y O 3 C c c F F F F S F F F F F F F F F F F F F F F F F H F z H F H H F F F H z F F H F F b h % * i z k c c m z F F H F F H H F H F H F F F H F H F F F H F F H F H F H F F P H F F b c a c 3.h.#.F E ) P H F H H I P H F H H F F F S F > p Q J F K H H H H S H I F H L I U ! x v <.B.c.{ e * i H I H m z H H H F H H H H H F H H K F H H H H H H H H H H H H H H K H H F H H H F Z % t F H H H F H K H H H H H H K H H H H H H H H H H G H H K H H H H H H Q H F H P J H F 0 1 x +.g.l.3.! I F b H Q ~ I K H H H H H H H H P ] k ; J H H H H H H H H H H H I F K I P m ! %.M.t.Q > 1 c J S I H H H K H H H H H H H H H H H H H H H P H H H H F H F H F H F F H H F H H F b 2 , k k b b F F F F F F F H F H F H F F H F H H H H F K H F H H F H F H H H H F H P F P P * * } f.X.b F I I H F H F F H H F F F F c S b S u X 4 , , , , , , , # , = = = * * # # % + X O   + # , t g k S F S b m b F z F F F F F z F m S z F F F F z F F z F m S S m z b z b m S b b S h = 2 j g k k c c c c k c c k c c k c p c c k k c p c x k k k k k k k k k k g y g j z g i * O 1 } w.O.m x 3 z F k 8 g k i g g g g g y g g i 6 & z j 3 y q ",
"z g k i h ; 2 h k k c k c k c k c c k c k c c c x k c k k x k c c x k k k k x c c c c c S k i i x H ,.u.,.H i x I b j S K F b b b b b m F S S c P ' g * 3 z z b m z F z F z F S z H K H F F Z k H =.d.=.- O q p b F H F F S F K F z m H F F F F F H F F F F F F H F H z F F F F H H H F F F F b h > = i z k c c S F m F F F F F F H F H H F H F F H F F H F F H H F H F H F H H b H H l e x X.r.4.! N P b H I F F F H H H H H F F F H b F F > j U H F F H I H H I H F K U K M z H ) ~ b Q 6.c.g.! r - i K U P H H F H H H F H F H F H F F H H H H H H K H K H H H H H H F H H H m H Z k * y C H F H H H H H H H H H H H H H H H H H H H K H H H H H H H H K H H b b H H H c y q e ! w.V.d./ m H H I Q P F M H I H I H H H H H H L ) j ; I H H H H K H H H I I H H I L F m H P m ! 5.B.d.H & 1 S H H H H H H K H H K H H H H H H K H H H H P H H H F H H H H H H H H H H H F m b 2 ; k k b b z b z F F K H F H F H F H H H M H L F H H K H H H F H H H H F H H H J b Q k & I u.<.H P I H b c c H H F b b F F F F F b b b S u = 4 , 4 4 : 6 , , , = ; , = = = = = + + + X + O O   * , 8 j b z F F F z F z z F F m F z F F F z m S z F S m F z F z F F F b z F b b b b S g = 6 u g p c x k c p c c c c c c c c c c c k c k c c c c k x k k k k a k j g k k g t > @ & ~ w.4.~ k x c K g y k z i y j j h j g g g g g j 6 * z j t t t ",
"h p z i j * 2 h p x k x p c k c c k c k x c k c k c c c c p c k k k x k c k k k c k c c c k k x O.9.%.m e b H F j S H F b F F b b b b b F b b l I / k * 6 z c c b b m F S F F m K b l F H F F I H x H ;.t.~ 1 * t x c F K F F K F F z F F F F H F H F H F F F H F F F F F F H m F H m F H H z m g , * g k z z b m z S F F F F F H M F F F H F H H M F H F H H F H F H F F H H F F F i e ~ u.w. .F Q I F I H H Q I P F F H H H F H b b F c F 1 k U I F F H H K I H H H H F F L ' L K H H H H { 6.V.3.v 1 t k F F H H H H F H H H F F H H H F H F K H H J H K H H H H H F K H F H H K F C * y z H H H F H K H H H H H H H H H H H H K H H H H H H H H H H H K H H H P I F i 0 t k 9.b.f.~ j S U I H H H P P M H H H H H H H H K H P ) k - J H F H H H H H H H H H P H F I U L H P F m ) y.k.3.c & j j b F H H H F H H H H H K H H K H H H H H H H H H H F K H F H F H H F H F F z 2 2 x k S c F b F F F F H F F H H F H F H F H F H m F F F K H H H H H H H F H F H F - ; 4.u.~ c b S F S H I P H m F F F F K F F F b b b F u # 4 4 4 , 6 : 4 , , , % , > , * = = & + # # # + X     X = , y j z S b b m S F z z F F S z F F b F F F F z F m z F F z F F b m z z F S b Z u ; , p u k k c c c c c c c k c p c c c c c c c k c k k k k x k k k p k k g k k d 2 2 8 i a.3.` F j j k k i j k k g g p p h j g g g g g g u 8 * C h y y t ",
"k j h u u ; 2 h c k k k k c c k k x k c k p c k c c p k c c k c x c c k k x k c k C c i e i ` w.&.! c z F Z k Z K S c F F k z F b b b b b b z b P ~ j & 8 c c c F z S z F z z F c H H S b K Z k m P m k ) u.4.b & ; p c F S F S F F F F H F F F F F F F F m H z F H F F H F z H H z F F F F F z g % * u z z b S S F z F F H F F F H F H H F H F F F H F H F F H F H F H F F F H j 1 z 6.f...m m J C F I I H H K F H H H H F H F H F F F c F - p ! H F H P L H H K H H H P I H b J K K L I N m H  .k.V.#.t , h Z H F H F H H H H F H F H H H H H H H H H H H H H H H H H H F H H M F F k * y b K F F K H K H H K H H H H H H H H H H H H H H H H H H H H H H H H H F k e * j ;.N.j.O.E Q Q I F L P P P H P I P F H H H K H H F K K ] j ; K H H H H H H H I H I H H H H I H F F I I I z m X.k.f.O.& 3 j S H I H F H H H H H H H H K H H H H E H H H F H H H F H H F H H F K K F b 2 ; c k S c F F m F m H F H F F F H F H H H H F H H K K H H F H H F F H H H H H - e X.i.O.c b I G K F H H H m F S F H H K F F S F b b b F y * 4 6 6 6 6 6 6 6 6 , , % , , , , % = ; * * # + & +     O # , 9 j h b b F F S m F F z m F z b F b m m S F z S F z F F z F z S b b b b C F u = 2 p p k k k c c c c c c c c c k c k c k c c c c k c k k k k k c k k k k k y * @ y } g...^ x r z S C j Z k g g k k c p j h j g j g g g j e * S h y i t ",
"k k k i u * , g k k k k p c k x k p c c p c c k k c x S c k c k b x p b F k g C l j e r / 6.4./ b b z m b z F m b b b b b z z m b z z b b m c c P ~ h * 8 z z c b b b b b b F z F b S m m F F F H b b b b F { u.$.j * 1 x z c F z m H J F c c H F F H F F F F F z H m F H F F F F F F F F H b c h * * g k z z c F z F F F F F H m H F H H H F H K F H H H H H M F F F F G I c 1 a &.f.;.H F I H H H H H H H H H H H F H F H F F F b H b z F , g L P H H H H H H K H K H I H H I H I H H H H I H b H ;.c.k./ e 0 p C H H H H F F H F H H H F F H F H H F H H H H H H F H F H F H F K F Z * y C H H H F H H H H H H H K H K H H H I H H H H H H H H H P F H L L M S i 1 0  .k.k.,.I H I H H H H H H H P H I H I H H I H H H H H H H Q z * F H H m K K H H H H H H I H H H H H H I H H J K S I =.i.k.! > - u F G A F L L K F F J I H H H H F F H H H H F H H F H F H H F H F H F b 2 , k k c c F b S F F F H F H m F F K H H H H H H P H F b H J H F L H H H H c 1 ) q.<.K y F ~ F H F H F F H F H F K H F F F F H Z z m b F j = 6 6 6 6 6 8 6 6 6 2 < , , , , = = = = = # * + & # X @ O X   O , 8 j j b z F F z z z m z M z F F F b F m F F S F F m S F z m z F b m z Z u = 2 h k k h k z c c c k c c c k c k c k c c k k c c k p i x c i i k C g u ; & 1 ..f.6.W c z k c c k c k k k k k p x k p h z j j h j h j h y * C k t i i ",
"k i j i g * 2 i k k k k c k c p c c c k c k k c c p k k k S c c x c c j g z Z k g e m ;.6.{ D S b b F S b b b b b z b b S m F b b m z b b z c b M U j @ 3 z z c b b b b b m F S b F F F F F F z z b H K F b S I O.6.' 1 @ e k F F b c k F W J k H F F F H F F H H F F F F F F F F F F F F F F c 9 > * y k z c C z S m F F F F F F z H F H F H F z K K z l S H H K F F C z q f ` s.;.! m F H K F H H H H H H H H K K K H H H F H H b F b z Z > j I H H H H H H H H H H H H H H H H H I H I H H I I I F F 3.S.f.E & 0 x F z H I I F H H P H H P I F H H F H F H F F H H H H H H H H K F k * t c H F H H H H F H F H H H H K H H H F H H H H H H H H P K H H H k g - 0 H r.B.9./ x H H H P I H I H P K H P H H H H H H K H H H H H I Q k ; F H H P H K H H H H H H H H H I H I H H K K I ! H F I ` 3.k.5.k - 3 C L L Z Z K I I P m F F H H K H H H F H F H H F H H K H H F H H F b 2 > z x S c F b F z F F F H F H H F F H F H F H K F H I P H P J M z S F c 0 S 6.:.! z F ~ Q F b F H F H H F H F F F H F F F F F F b F b H j = 6 8 8 8 8 8 6 6 6 6 6 6 , , , , , , , = = = = = # @ @ * X O O X = 3 y j k z F Z z m z m z m F z F F b F z F F F m F F z b S z S m z z Z u = 2 h j k k k k c c C c k c c c c c c c c c c c c c c c k k k F z j 8 3 * - I f.s.I e b z z k c S k k k x k k c c p k k h h h h h j j h u y * h k y y p ",
"h j h u i * , h k k c k k k k c k x k c k c c c p c k c x c c c z h j S b j i e j X.6.X.E c F x F z b b b b b b b b b b b b S m b b F b b b b c P ~ g * t C k S b z z b S z F m z F F z F F F F F m S F F c b l m I 6.u.H * 2 3 z l S J F k c P F F H F F H H H H F F F F F F H F F H m F H F z h > * y z c c S m F S m F K F F F F H H F F F H P v z H I I F b H H I f 1 H 3.w.` P m P I F K U H H H H H H H H H H F H H F F F F m F b z S > i I H H H H K H H H H H H H H I H H H H H H H H I m H K P P ` 6.m.6.N - ; b K K F H H I H H F F F H K F H F H H K H H F H F H F F H H S k * t S H H F H F H F H F H H H H H H H H F H H H K F H I I z z H ! c < - x 6.B.t.! H P I H H P H H H K I P H P H H H I H H H H H H H H K P ! k ; F I b P F F H H H H H H I H H H H I H I H F H P I F F H z ` g.v.{ 0 * 3 z K F b c I I H F F F H H H H F K H H H K H H H H H H F H H F c 2 - k p c c F b b F m F z H F H F F F K F H H H K F F H P J S z ! I S e y +.6.` H F F I H S F I H F F F F H F H H F H F F F F F m b H b K p ; 8 y 8 y 8 y 6 8 8 < 6 6 2 4 , , , : , , # = = = # % # @ @ O O     * % 2 y j b b F b b S Z S F F F b F F F z F F F z F m F b b b b z z C u * 2 p j j k k z c c c c c c c p c c c c k c c c k x c c z k p a x p 3 & v 6.f.X.x x b c k c c c c k x k c k k c k k x p j k h k k j j j g t * C c t i p ",
"z j j i i * , i k k k k k x k p k k c p x k k p c c k k k k k k k k F S i 1 x ` ,.X.! c k c H F b z b b F b b S b b b b F z z z z b S m z z b b N U g * 3 c c S b b m b b F z F z F z b F F F F H F z b F K K I z F f I q.6.b * * i c C H E H c F F z M F z F F z H F F F H F F F F F F F F F z g % * g k c c c z z F F F F F F F F z H F H H F M N H m S c K U b r & c 9.s.` J m m m H P H H F H F H H F H H H F F H H H F H H K F H b z z > g I H F H H F H H K H H H H H K H H H H H I H H H U H F H b H ! ..k.d.O.e & 8 F H H H F b F I P H H H H H H H F H F H H K H K H H m H S z & y C H H H H K H H H H H H F H F H H F F H H H F H H H z H I b 1 & l $.c.u.O.P K I I F H I H I K H H L P H K I H I H H H H H H H H H I I Q j ; F G H H H H H H H H H H H H J H H H H H I H F H K I I I I F x { B.l.! w & e F U I F F F H H F K H H H F H H F H H H F F H H H F F H F z 2 ; k k b b z b F F F F H F H F H H F H H H F H F I H F v P Q Q j e 3 Q q.;.H F c P I F S H H H m H H F H F F H F H F F H F F H F b b b H p ; 6 8 y 8 y y y 8 8 8 8 8 6 6 6 6 6 ; : , , = = = = % # * # # % #       # , 8 j k b z z Z F F b b b b b z S F m F F F z S z z b F z S k Z u = 2 p j h k k k c c c c c c c S c c c c c c c c k k k k k p C c * O f 3.k.O.m c F b b S c c k c c k c k k k x p k c k k k h k j h h h p j y * C k y i i ",
"k p k y g * , g k k k k k k k c k c k k c p k c c x c x k k k k z k y 1 d ~ | #.{ z d b H b c F b b b b b Z b z c c z b b z z F b c b b b b b b H I g & 6 C c S b b b b z F F z F F z F F F m F c H H F F F F F z M K b j } q.| t 2 3 i c F H H F F F m m F F F H F F H F F F F F F F F F H F S y ; * y z c c c S F z F F F F m F F H F H F F H m H H b F H S i 0 x #.w.O.E J c J E H F H K K S H K H H K H H F H H F H H F H F H F F b b S > g P H H H H H H H F H K H H H H H H H H H H H K H F I I J H P P H v ,.B.z.~ * * f H F H F H H H H H H H H H H H F F H H H H H H H H K F k * 8 c H H H H H K H F H H H H H H F F H H H H H H P H F L F e & e ..t.f.O.^ H E I S z U H H H H H H H H H H H H I H I H H H H H H H H H H ! z * F I F H H H H H H H H K H H H K H H H H H H H H I H H H K H P P N %.k.t.~ q & i K I F H I H H H H H H H F H H H K H H H H H H F H H F z 2 ; k k c c b b b z F F H F F H F H H H H F H F K F F H I I c r q Y q.4.H k J H P H F H K H F H F H F H H F H F F H F F m F F F F F F b F k , 8 y y i i u u y y 8 8 6 8 6 6 6 6 , 6 , , , = = = * # # * = = + &   X O O * , t j C C Z F H z v c z b b F m S F z m F z b m F b b b z S u = 2 p k z z k z c c c c c x c c c c c c c c k k c c c k h C 3 O e O.u.,.P H v c c c k k c c c c k k k k c k k k k c c k k k k k x p j k h u & z C y p k ",
"k p j g g * , h c x k k k x k x c p c p k x k k p k p c c c c c d t e b { ;.{ K e m P M k c F c b b b S b b b b b c b b b m z S b b b b b m b b N U g & 3 k c S b b b b z S m F m S F z F F S F b F F F F F F b z H M F I F H =.6.~ 1 & y c S k K K F H H F F F F F F F F F H F m F F F F F F l h * ; y k k c c z m F F H F F H F F H F K F F F K b b H H k e i / 6.<.Q m b b ( k F I Q K F H ~ F H F H H F H F F H K H H H F H H F F b z z * y I H F F H F F H K H H H H H H H I H H H H H I H U b c I ~ I H K ! c F 6.V.u.H & 3 i b I P b c b F H F F F H H H H H F H F H F F M F F h * q c F F H F H F H H H F H F H H H H H H F F H P H F F f - - P u.c.6.! m P H b K ! U m H H H H K H H H H I H I H H H H H H F H F H H F H I j ; F H K H K F H H H H H H H H H H H H H H F H H H H H K H F I H H P v ^ 5.d.$.l - - d K U H H b H F F K K F H F H H F H F H H H F H H m c 2 % k k c c F b z F F F F H H F H F F H H H H F K F F I F i i k 6.<.Q x J H c P F H P I H b F I H F H F F H F H F F K F F F F H S F F b H p , y y y u u u u i y t y y 8 8 6 t 6 : 6 , , , , , = % ; * # * = # # # + +     & * 2 h g k k z F z c z F b b F F z F S z F b S z m z b b S h = 6 h h j h k k c c c c c c x c c c c x c p k c c c k k p & & ~ u.w.{ b b x p k S F b c c k c k c c c k k c x c c k p c k k p x k k j p h y * k C p p p ",
"k p j i g ; , i k k k c k k k p k x k c k k k x k k c k k x p p 0 x ` %.{ F j l H b k z S z c c b b b b c c S S c c c b b z F b b b b b b z b b m L g @ 6 k c c b b b b F m F z z F m S F F F F H b b b F F H H L z F H S F H x ! 6.6.F O * p C b b F H H H F F F F F F F H H F F F F F F H F z 9 > * u k c c S z F z F F F F F H z F F F F F F L Z F z e 0 P 3.6.I b H K F F F U K F F z m z H H H H H H H H H H H H H F H F F F F F b z z * i I H F H K F H H F H F F F H H H K K H H H H H H S I U F c F H H F U I x ! t.k.9.i ; 3 x H P H I H H H H H F K H F H H H H H H H F K Z k * t c F H H K F H H F H H H H F H F H F H H H H H c p i & n 4.x.9.^ F P I H I Q I H N H H H H H H H H H I H H H H H I H H F F H H H H H H I j ; S J F H F H H H H K H H H H H K H H H H H H H F F K I I ~ F H I H I P c ' t.g.| e * e b c F H H H H m H H H H H H H H H F H H H K H F c 2 , k k S c S S F F F F H F H F F H F F H H F H F I I k q p _ i.( m m P b H P H H H H z H I K b H F F H F F F H K F H m F F F F F F F m H p , y u i u u g g g i g y y 8 y 8 t 8 6 4 4 4 : 4 , , , = = % = # # # # # # + O X + + , 2 8 h z b z m S m z m b z m F F F F b z b S z b c C p - 2 j j j z z k c c c c c c c c c c k c c k c c c p i t & N 6.u.} l i c k H H S k c c c c c c c k x c c c c c p k c x k k k k k p x p x C 8 * k C j k p ",
"c p k i g * , i k k k x k c k c c p k k c k c p k c k c p p y e ) ..{ P l z S S b k k z F Z c c b S b b b b b b c b c m S z m b b b b b b b b b F U g & t c c S b b z z F S S m F z F F S F m b H b c H H F F b F F F F K m F I v j ! q.<.p & 3 k k b F z F F F H F F F F m F F F F F F F F F k h > * y c c c c Z m F F F F F H z F F F F F F K h L g > x ,.3. .F H H S F I G F c K I H H P H z H F H F F H F H H F H F H F F H H F F b z z * i P H H H F H F H H H H H H H H H F K H H H H H H H K H H H H H H I F K I H P  .a.c.` 3 * p S F H F K H F H H H F H H F F H K H F F K Z k * t c H H F H H F F H H F H H H H H H H F P L F k e > - #.f.h...S P Q P J F H J P J P P H H H H H H H H H H H I H I H H K H H H F H F H H U j * F H H H H H H K H K I H H K H K I H H H F H H H H H H F F H H H H H H I m m ] u.u.~ 3 & k c F J H H F F H F H F F H F H K H F F H H F b 2 * c x S n F c m S F F F H F H H F H H F H H H K b q e ) 9.;.p m J J H P H H F H H H H H H H K F H F F H F H F K F H F F F H F F F F S H c , 9 y y y i g g g g g g i y y y t y 6 6 6 6 6 , 4 , , = ; = = = = = + # # # # X       # , 8 j l m z z z S b F z S z F z F S m b b F b c C 7 ; 2 p k h h k C c c c c c c c c c c c c k c c c i q - - 3.u.,.H x b K h b k k C F F x x k c k c c k c p p c k c c p k k k k p k k k k k h u # z C p p k ",
"j g j y g # ; B k k p c k k k k j x c k x k k k j k z j e e H O.} Q b k c F F c c b c b S l b b b b b b b b S b b b b b S m b b b b b b b z b b H I u * 6 C c c b c b b b m F z F m S F F F F F z F F F F F F F F F m F F F F F z L M M ..6...e & t h k F H H v F H H H H b b F F F H F F H b c y * > y k z z z b b b b F H F b m m F K H S S L x 1 e X.q.{ H M H H F H H F H F H K H H H H H H H H H H H H H F F H H H H H F H H F F F z z * i H H H F H F H F F H H H H H H H H F H F F H F H I H H K H H H H H H H H P P H K %.j.d.! > > k I F G J K F H J m H H F F F H F F K F z h # 8 z F H H F F H H H F H H m z F F K F T Z z i * 1 ^ j.i.=.I H H H H I H H L H P H L P H K K I H H L P P H L P H L P H H H H F H F H H H P x * S H F N K K F H H F H F H H H H H H H H F H H H H H H H H J H H I H H H G U H H X.f.5.P ; 1 y H Q F c J H H F F H I H b F K F m H H b k 4 > k g c c F S F b c b K F K I Z F S K I K F K i 3 H 1.2.I x P H H H F H F H H F F H F H F F H F H F H F H F F F H F H F H m F F F F z K k ; u i u g j z g k g g g g g g d y y 8 8 3 2 6 6 6 : ; , , = , , # , = + & + # & & +     + # , 8 u C b b F m b b m F b b b b b b b b c x C u = 2 h h c k k c c c c k c b b k z S S k C C j 1 & e ..a.:.I k c F c z b c c c c c c c c c c c c c c c c k c c k p c p c c k k k c x k k j i * c c k k a ",
"g g k y g = ; h k k k c k c x k z k k j k k k j C h e 2 j ` { ! K b c z c c c z c c c b b b b b c c b c S z b b z b b S z z b F b c b b b b b b H I i # 6 k c c b b b b z S F S z F F z F F S F F F F z z F m F F F F F z F F H v F M c c P +.6.H 3 > y g j F K H H b c F P P b F H F F F F F c g > * y k k z c F b b b m F H P H H H S c I K , 1 ! 2.;.I H F F F H K H H H H H H F F H K F F H F H F H F F H H H H F H F F H F K F F F z z ; u H H F F H H H H H H F H K F H F H H H H H H H H K H H I H H H H H H H H P K P K x ^ 5.l.6.F - * k b K S b J H F H H H H H H H H F H M k # 3 z H F H F H H H H H H F H L U H K F z h 1 * P t.f.,.` P S F I I H I H H H H H H H H H H H H H H H H H H H H H H H H H H H F H H F H H P j * S H H H F H H H H F H H H H H H H H H H H H H H H H K H H H H H H H H H K H P H z ! &.f.=.p & 2 p H I F H S S K L H H H K H F H F H b c 4 > g z z c b b b F P I H b b m L H K m k F z * x O.6.! f b U K F H H H H H H H H F F H M H F H H F H F H F H F z H H H H z F F F m F F F k ; u u i g k g g g z g k g g g y d y 8 8 8 8 6 8 6 6 4 4 , , , , , = = = = = # # # X + X     X * 6 y j z b b b b F F b b b b F F S m c k F u = ; h g k k k k c c c c l k b k h c C c j y - ; W 9.e. .H z x b b b k S c c c c c c c l k c k c k c k k c c p c c c c k k k k k c k k k k i * k c p k k ",
"z g g y g = = h k k c p k k k k i j k k j p p x t 3 j ~ } ) v c p k b b S b c c c c b b b b b b b b b b b b S b b b b m F b S z b z b m m b c c F I j * 6 k S b b b b b m z F m S m F z F m z F F F F F z F F F F z F F F F F F K z l H P m m Q <.=.k & > k S K c b H I H c b H b H H F F H b k 9 * * y c k z c F b z F K F b b S F k b H f e z =.O.~ v c P I H F H F H H H F F F H H H H H H F H H F K H H H H H F H F H F H F F F K F z k * u H H F H H F H F H H H F H F H H F H F H H K H F H H H H H H H H H H H H H H P K I P m U 2.c.,.e - q i I Q b b H F H F H H H H F H F M k = 8 z m F F H H H H H H F I K m S H K z 1 * d #.d.6./ H F F F J I H H H H H H H H H H H H H H H H H H H H H H H H H H H F H F H H H H H H H j - S K F F K H F H H H H H H H H H H H H H F H H H H H H H H H H H H H H H U F F P ! H P ! 0.q.) - - x c H F H I I H m M H F H H b H F b k % > h j b k b F b b b c b H H H F b k H I i g { <.) z b I ! H v H F H F H H F H F H F F F F H F H F F H F H H F H F H z H F F F z H F F K h 2 u g g k k z z k k k h j g g g i u 9 y y 8 y 8 8 8 4 4 , , 4 4 : = = = , = * # * # # & O     O @ * 6 y j C b b b v b b b b S m F F c c C u = 2 u j k k k c c k c c H k x S H k p S 2 & i 3.k.=.m k c k k b m b l c l x c c c c c c c c c k c c c c k c c k c k k c k x x c p k p k k g * k c p i k ",
"g g g y i # = h k k p a k k i k k j i x c c i 3 i F ~ U m c c c z c S S c c b b c c z b b b b b c b c b z b z b c b b z z b m z b b b b z b c b H H u * 6 z b b b b b b S F z F F F z F F F F F m F F F F F F F F S F F F F F F F F F F F F F b m / 2.;.e O , h P F c c F F F H m F H F F F F z g # > g k k c c b b b F F S b z Z F I c * e ..3.X.I z M P H H H H H H H F H H H H H H F F H H H H F H H F H F H H H H F H H F H F F F S C z * y H H H F H H H F H F H F H H F H K H H H F H H F H H H H H H H H H H H H H H H K F P L m H X.9.k.W i 0 e c H K K F F F F H F H H F H z k & 6 k F F H H H F F F F K F K K H C q & d  .h.u.{ x k ! I H P P H F F H H H H H H H H H H H H H H H H H H H H H H H H H H H H K F H F H H H p - b K H F H H F H F H K F H H K F K K H K H H F H H H H H H H H H H K H H H F P P P H F m m ` s.s.c & 1 r J I F z b H K N F H H b H F F z , > k j c c S b b F F F F H F c F I I e * I <.{ H F H L H b F I H H H H H F H H H F H H F H F H F H F F H F F H F H F H F F F F F F F F K h 2 u k h k k B z k k k k z h k g g g u u y y y 8 8 8 q 6 6 4 ; 6 6 , , = = = = = = # # # # X @ O O   # = 8 j z b c c b b b b z b b b c z C u = 2 p g k k k c k k k c j c c k c F q O 1 ,.x.&.S k F C b F F c z b b z b b c l c c c c k c c c k c c k c k c k k x c k k k k k k k c c k y * k c p k k ",
"g l g d u # ; g a c p k k p k k k z k j e e i z ! ~ I b x j C b b c c c z z k c c v b b c c b b b b c c b b c b b c b z b z F b b b b b z m b b F J u * 2 k C F b z b b z z z b z F F z F F F F F m F F F m F F F F F F F F F H z H H F z F H H l m b ' 6.} 8 @ 2 j F F S H H c S F F F F H m z u * * y z k c c k F H z x c H H F k > 2 ] <.] U x F I I H H F H F H H H H H H H H F H H F H F H H H H F H M H H H H F K H F H F H S F F Z z * y H F H F H K H F H H H H F H H H H H F H H H F H K H H H H H H H H H F H H H H H L Z m I P N U o.f.3.J 1 1 k H c H H H F F F F H F M z k # 6 C F H H K F H b H H G C S F i * e ! f.9...m H ' ~ b I H F K H H K I H H H H H H H H K K K H H H H K H H H H H H H H F H F H K H H H H H p & c H F P F H H F H H H H F H F H H H F H H F H F F H H H H H H H H H H H z I ! K z H Q I m N v { u.2.x * & e F I P H m K H H F F F H z l , * h z c l S F b F H m b b H I I i & l <.=.K H H H F F F I L H H F F H z m F H H F H F F H M H H F F F H F H F F F F H H H z F m F F F G h ; y g k k k Z k k k k k k k k h k g j g u u u y y t t 8 6 6 6 6 2 2 = , , # = = = # * = = * # X +     + # , t g k z c c b b b b b z c c c y = 6 h j x c c c c c c c K j j S q O q X.f.;.P c c b F F c c c x c m F b c c c c c c c c c p c c c c c S p k c k c c k c k k c p k k k x k y * k c p k p ",
"g g g 9 y * = u c p k k k j k k i x k y 3 i F ) I c j H P c k k c c c C S b b k c c b b b c c m c c b c b c S b c c z m S m b b c b b b F S z b F I y # 6 k c c b b b b m F F F S m S m F F b F F F F z F F F F z F F m F F F F K H m H I H z k Q z m N P =.,.P - > y F H b S K F H H F F F b c y * ; y k c c c b F m b z H c i 2 2 H #.{ H M z H H b z F I I H H H F K H K F F H H H L H H H H F H H H H H F H F H H H H F F H F F F F Z l * i H H F H F H F H K F H F H H H F F H H H F H H H K H H F H H K H K K H H H H H H F U I F m H H v ! 4.x.4.c & - c H H H H H H H H F H z h & 8 z F H F F F H H H H K S i > 1 c O.u.O.! H H H z F I H F F H H H H H F K H F H H K H F H H F F H H H H H H K H F F H H H H H H F H F H H p - c F H F F H K H H F H F H H H H F H F H H F H H H H F H K H F K H F H K L H F H U I F S P P P m H ,.y.} i 2 3 c J H S F F H H F F H z c < > h g c c S F H c k b H F b b 1 x | <.~ m H H Q M F I H b S I F F H F H H F F F H F H H F F F F H H F F H F H H F H F F F H F F F F S K j 2 u g k k k Z k Z k k k k k k k k k h h g u u u y u y t 8 6 t 6 6 2 : , , , = = = = , % # # # + # # +   O O # 2 y k k z c b F S S b c c C u = 6 h g p p p c c c F c z F j & - Q 3.0.] K x b S z z c c c c c F z b k c c c c c l c c c c c c c c x k c x k c p c x k c k c c c k k k k d * k c p k x ",
"g g g y u # = p p k k i k x k k z 0 1 e F ` U F k m v g p F K k c c b F m F b b c c b z c c b b z m c c b b b b b b b b b b b S c c b m z b b b F H y & 2 c S b b b b b S F S F F F z F F F F F F F F F F F F F F F m F z F F F H z z z z z F U b F H H m x P 3.=.z * > j b F K F H F F H H z k h # * p c k c c m k k F K k y 3 l } O.U H M H U L H K I I K F K H F H H F H H H H H F F F F H H H F F K F L H H H H H F H F H F F F F F z k * y H H F H H H H F H F H F H F F H H H F H H K H F H F H F H F H H H F K H H L H H H K H P P H H H I b I 3.s.;.x O i x z F F H F F K F F k & 6 k F K F b H H H b b u 3 > f { a.5./ H H H K K K H I H H I H I H H H H H H H H H H F F H F H H H H F H H H H H H K H H H F H F H H H H H p - c F F F H F H H H H H H H F H F K H H H F H H F H K F H H H H H H H H F F F F K H z K ) b I H H M m ~ <.q.I * O y F H b F H F F H F z k 4 > k g b k F c K z S I I k e > ` $.{ m v M z H b H H S H I H z H F F H H F H F F F F H F H F H H H F H H M F F F H F H H F m F m F F F K p 2 y k k k k k Z k k Z k k k k k k k k j u i u u y y y y 7 y 8 t 6 3 6 4 , , , , = = , * * # @ # # # X &       # , 8 i p k c S b b z c c C y * 2 h j k a k c C S c i i * & k ;.i.+.x z k b K H b b F b b b F m b k k c c c c c c c c k c c c c p c c c c c k c k c k k c k x k k z z k y * z n p k k ",
"g g g e u * = p k a k k p k i k - y c I I H b j m l c z F k k S b c c k k k b z c c c b b c b b b c c b b z b b c b b b F z z m b c b z b b b b F H u & 6 c c b z b m F z z m F F z F z F m F F F F F F z F F b F F F F F F F F F H H F F K F k H F F z F ! P x ) ,.X.t & t b j F F H F F F m z g * * t c k c c c c b F i 1 g ~ %.! M H K H F k z H K K F F F K H H F F H H F H F H H H H H H F H H H H H H F F H F H H H H F m F F F S z k * y H H H F F H H F H H H H K H H H F H F H H F H H H K H H H F H F H H H F F H H H H K H H P H H H b Q J F { w.9./ & 3 i c F H F F F F S h & 6 z F H F m F H b k p * 3 P 9.9.] N N S K I G K L K F K H H H H H H I F H H F H F H H H H H H F H H F H F H F F H H F H F H H H H H F F H i - c F F m H H H F H F F H H H H F H H F H F H F H F H H K F F H K F H H H K I L I K K K z I H H K P H M M I 6.4.m & - p C F H H F F H F l 4 > g z b c S S b m F b e > F :.X.P c H P P H m K K K F F F K F F H H F F H F H H F H F H F H F F F H F F H F H F F H F F F F F F F F F G h , u g k k k k k k k k k k k k k k h k k j p p p u u u 7 t t t t t 6 6 4 6 , , : , , * = = , = = # + # # X O       X 3 e p k b b b z C z C y = 2 p j c k k k c c p e & 8 } u.6.P x H b S S c c c b S b c c b c k c m c c c c c c c c c c c k c c k c k p c c k c k S c k c k z k k k k d * k S p p p ",
"l g y y y ; * p p p j k k j q - F I I H c k c c c k c k c c c c c c c c c c c c c c c c c c b c c b b b b b z b c b c m b z b b b b m S b b b b F F i & < C C F b b b b b b F z z F m F z F F F z F F F F z F F m F F F F F F F H F m H F H F F F F H F F H F F F F ` <.` > & i c c F H F S F x 8 % > 8 h j z k C F u * 3 P ..] F H F F F H F H H F F H F H m F H F F H F H F H F H F H F H H H F H H F H F H H H F H F H F F H F F S K b k ; y F F K F H F H H F H H F H F H H H F H H H K H H H F H F H F H H H H F F H H F H H H H H H H H H H K H F F I | q.3.m * * h F S C z L G t @ q b b A Z Z Z Z y ; & W 3.u.o.F H L K H H H H H H H H H H H H H H H H H H F H H F H F K H H H H F K H H F F H F H H H H H H H H H F H K K y * k F H H H F F H F K F H K H H F H F H F H F H H H H H H H H H H K H H F H H F F H H F H K H H K H H F H H m ' 6.#.d @ - z F H C F H F k 2 > g k k F C C b F i - x } =.I K F K K F H H H F F H F H F H F H F H F H F H F H F H H F H H F F H F H F H H F H H F F F F H F F F F m K k 2 i p k k c z c c c Z z k c c c k k h k k j h k j h u i u i y y t 8 6 6 6 6 4 6 : : , # , = = = + = @ @ @ X @ O O X O & , 6 j k z c c l S y # , h i C u i c b e & * ! 6.u.! g b H k c c c c z v l S b b b b b z c c c c c c c c c c c c c c k c k c c c c k x k k k k c c k c k p c C y * p k c p c ",
"y k k u 6 * * i x c k i 3 0 p H b F F c c c c c c c c c k c c C c c c c c c c c c c c c c b b b c c b b b b b b c b c z m z F z b z S b b b c c F K u & 6 C c S b b b b S m S m F S F z F F F z F F F m F F F F F F z F z F F m F F F z F F F F H F F F F F F F F S b H | :.P * * k c p S Q H k h @ * 8 j g C I p * - F { ` P m H F H H F F H F F H H F H F F H F H H F H F M H H F H H H H F H H H H H H H H F F F F H F H H F m H b K Z j ; y F F K H H F F H K H H F H H F H H H H F F H F H H H H H H K F H H K H H F H H H H H H H H H H H I K H H F F H ~ ,.w.#.i O q S G H j C j > > k m k z M k * O k X.3.o.P m m H H L H H H H H H H H H K H H H H H H H K F H H H H H H F H F H F H H H H H H K H F H H F F H F F H F F K g # z K D H F H F H H H H H H F H H H F H H H K F H F H F H F H F H H F H H H F H H H K H H H F H F F H H H m H H K | ,.' e & ; c F F H S c * > k k h C z F c * > I *.~ S S F F F F F F F H H H F H M H F H F H F F F H H F F H F F H F F H H F H F H F F H F F F H F F F F F F F F F h 2 d k k k c z z b c z z z z k c c c k k h k h j j k u u u u y i t t 8 8 4 6 6 6 4 4 , , , , , # = = % @ @ @ @ @ O O     O # 2 y j k H j k g * 2 k b 9 h F p & & b 6.t.) f f b z F H b c b c b b b b b c v c z b c c c c c c c c c l c p c k c c c c p c c c S k x c c k k c k c c k k y ; p k c k k ",
"3 g j j 8 ; * i k p y 0 t k F I c c k z c F c z c k c p c p c c c c c c c c c c c c z c c b c c b v z b b S S b b c b b S F m z b b b b b b b b F F p & 6 C k b b z m z b F z F z F z F F F F F z F F F S F m F F F F F F F F F F F F H F F F H F F F F F F F H F K H b b ~ } } i & 1 c c k c c 8 > < < k F k * , j Q ` Q K F F F H H F H F F H H F H F F F H F H F H F F F H F F F F K H H F K F F H K F H H F F H F H H F F H F K b F S h * y F F H H F H F F H H F H F H H K H F K H H H H H F H F F F H H H H F H H H H H H H H H H H H H H H H H I I F b F H ! 3.w.` 2 & ; m I S 6 * ; x K P z * O d | 6.;.) N m P U H F K H H H H H H H H H H H H H H H H F H H H H F H H F H H H H H H F H F F H H H H F H H H H H F F H H K y * k F H H H F F H H H F H H H H F H H H F F H H H F H F H H H H H H H F H H H F H F F H F H H H H H H F H m K H c b ) X.O.I q & ; S L F z 2 ; y j S F y 2 & K } ` S b F H F F F F H F H F F H H F F H F F F H F H F H F H H F F H F F H F F F F H F H H F z H H z F H F F F F F F K k , i k k k c c c z c z z b c k c c c k k k h z j h h u j u u i y y 8 9 8 6 8 6 6 6 6 : 4 , , , = = , % # * @ @ % # O X .     O = 6 i g g Z B , * y p j k > O i ;.9.+.H c n H N z c m b b b b b b b b c c c c c c c c l v c c c c c c c c c c k x p c c c c k k c k c p c p k k c p x k u * p c c p p ",
"@ @ < k C ; * g p q 2 i K I F k c k x j c S c k c c c c c c c c c c c c c c c c c c c c c b b b c c b b b b z b z b b b z z S b b z m b b b b c F F y * 3 c c b b b b b z F F z S m F S m F F F F F F S F F F F F z F F F F z F H F F H z H F F F F H F H F F m F m F P S k H } =./ q O i b k m h O O k k 3 - q M ` { F k H I b F F F H F H F H F H F H H H F H F H F F F H F H F H F H H F H H H H H F H H H K H F H F F H H F m F S F S h ; t m H F F H F H H F H H H H H F H H F H H H F H F H H H H H H H F H F H F H F F K K H K H H H F H H F F P I P H H P c c { w.4.E - O > K k & * z k 1 @ 1 I :.%.` P b m P P F K L L H K K H H H F H H F K K F H H F H H H F H H F H H H H F H F H H H H H H F H H F H F H F H F H F F F i * k K H H F H F H H F H H H F H H H F H H H H H F H H H H H F F H F F H H F H H K H H H H F H F H F H F H H F H H F b H ` =._ c - * 8 k g = 2 Z k 3 2 q p ~ ~ H k S ! L j m H F H F H F H H F F F H F H F H F H F F F H F F H F F H F F H F H F M H F F H H F H H F F F M F F F z F j 2 g x k c k c c S b b b z c c c c c k z c k k z k k h h g g g y i y y y 8 8 8 8 6 6 6 6 ; : , , , # > # # % # # X + + X       + = = 2 h C 8 @ 2 j u 2 O - { w.O.J n i b F b l H z j z b b b b b b b c b c c c z c c c c c c c c c c c c k c S c c c k c c c c k c p c c c x c c k k k y * p k C k k ",
") e O & ; = & 8 t p c F H c k k x k k c c c c c c c c c c k c c c c c c c c c c c c c z c c c c b b b b b S b b c b c b m b z b b b b b b b b b F F i # 2 C k c b c b b z F S m F F z F F F F F F F F F z F F F F F m F F F F F F F F H F F H F F F m H F F H F F S z F P I b j Q ~ | ~ & & y k h @ O 2 2 * j { ! H v z H H K S H F H F F H F F F H F H F H F H F H F H F M H F H F H H H F H F F H F H F H F H H F H F H F K F F F b F S j ; 8 F F H H H F F H H H H H H H H F H H F F H F F H K H H H H H K H F H H H H F H F F H H F H H F H H H F H F F H H n Q E F F X.;.,.c O * y   = g & - l X.6.X.v l P K ! H b S H I F F H H F H H F H H K H H H F H H H H H H F H H F H H F H H H H H F H H F H F K H F H K F H F H F F G i & k H H F F H F H H F H F F H H F H H F H H F H H F H H F F H F H H H F H H H H H K H H H H F F H H H H K F H H H K I F z J ` X.) g O * 8 , % i 3 & q c Q H F F F z c b P F H F F F H F H F H F F F H F H F H F F H F H F F H F H H F H F H F H F F H F F H H H F F F z H H z F F F k 2 g k k c c c b b b c b F c c c c c c c c c c k c k k k j h j i i u y 9 8 9 y 8 8 6 6 6 4 4 , , = , % = = # # = # & # X X     X   O * 6 8 : = 2 ; O @ U 6.%.! H c f H b k b F z m z c v b b b b b b c b b c c c c c l c c c c c c c c k c k c c c k c c c c k c c p k c c k k c k x p y = p p c p x ",
"6.O.J 2 * O # 6 c F F b k i k S c k k c c k k c k c k c c c c c c c c c c c c b c c c b c b c b c c b c b z S b c b c m S F z b c c z b b b b b F S y & 6 C c c b b b b m z F F z F S m F z m F F F F F F F z F F m F F S F F m F F F F F H m F H F F F F F F F F K H b k b H P k m K ) *.H * * , % , * e K ' K M z H P K b b U F H F H H F H M F F H F H F F F H F H F H H F H F H F F H F H H F F H F H F H F F H F H F H F F m F b F Z k * y F F H H F F H H H F H F F H H H H F H H H H H H H H F H F H H F H H F H H H H H H H H F F H H H K H H H H F F F I c c F H H Q X.w.} 6   + * , 8 { ,.O.P c H ! H H F H H ! K F F F H H H H F H K H F F H H H H F H F F H H H H F H F H H H F F H K H H H H F H H H H H H F H H F F F y # k F F H H F F H H F H H F H H H H F H K H H F H F H H F H H H H H K F H F H F H H H F H H H H K H F F H F I I S c F I I H c K } | L 8 > , @ * , p H F F k b F S F H K m z F F F F F F H H F F H F H H F H F H H F H M H H F H F F H F H F H F H H F H F F m F F H F H F F F F F F k 2 d k k k c b S c S F S c c c S S b c c c c c c k c k h k z j p g g y g y 9 y 8 8 8 6 6 6 4 4 , , , % ; = = = = # & X + # # X &         % 4 # O = y #.,.o.z j b P H k z H H F k l F b c b b b b b b c b c c c c c c c c c c c c c c c c c c k c c c c c k c c k x c c c k k c p k k c y - p c S p k ",
"e ' <._ 2   # C F c k k p k c S c k k x c k k c c c c k c k c c c l b c c c c b c c b z c c c c b b b b b b b z b b b b b b b b b b m b b b c b F F y & 6 c k c b z F S S F F z F m F z F F F m m F F z F F F F F F F F F z F F F m F F H z F H F F F F F F F F F m F H H F m L M H H H I } Q 3 %     g U T H j H H m S F H K z F H F H F H H F H F F H H F H F H F H F F H H F F H H H H H H F H F F H H F F F F F F H F H F K z F b F C h ; y F H F H H F H F F H H H H F H F H H F H H F F H F H H F H F H F F H H H F H H H F K H H H H H F F F H H H H H H H K I J F m b m b 4._ ; =   # T { I m m M F z z F F F K H z H U H F H F H H H H H H H H F K F H H H K H F H F H H H H H H H H H H H F H H H H F H H F H H H F H K K i & C F H m F H H H H H H F H H F F H H H H K H H H H F H H H F H F F H H H F H F H F H H F H F H H F H H H K c b I U H Z l c P H k J *.L *     y j k c c x H b z K H S z K F F m F F F F F F F H F H F H F F H H F H F F H F H F H F H F F F H H F F H H F F H F H F F H F H F F z K k 2 g c x c c b c S b S b c F c c b b c c c c c c c k k k h k k k k p g g g y y y 9 8 6 6 6 6 6 , , , , = = = = = * # * # # # # # + O   X   . O & Z <.o.P j k K F k k z M k j c H H k b c b c b b v b c b b c c c c c c c c c c c l c c p c c c k c k p c k c k c c k p c c x k c k k C t - p p c p p ",
"x f q ; * O + , e i i c b b x k c k k c c c k c k c c c c c c c c c k c c b b k c c z b b v b c c b c z b b S b b b b F z z F S b b b b F b b c F F y & 2 c k c b b z m z z z F S F z F F F F F F F F F m F F F F F z F F F F F F H z H F F F F F F H z H F F H F H F F H H H z M H F F S k y 6 +   @ 2 y l H M P m F H H H z M H F H F H F F H F H F H F H F H F H F H F F F F H F F H H F H H F H F H F H F H H F H F H F K F m H b F S p * 8 F F H H F H F H H H F H K H H H F H H K H H H H F H H F H H H H H H F H F H F H H H F H H F K H H H F F H I H F F H F b F F m H x y 3 ,     = 6 g k F H F H K F G K L F H P H z H H H K H F F H H F H F H H H H H F F H H H H K H F H F H F H F F F H H H F H H H F H H F F H F S K y * p H F H H F F H F H H H H K H H F H F H H F F H H H H K H H K H H H F H H H H H F H H F H H F H H H H F F K K S z F K K m m S F c i 2 ; O   , t k F b v b F m b F H F b F F F H z H F F H H F H F H F F H F F H F F H F F M H F H F H F H F H F F H F H H F F F F F F F F m F F F h 2 g k k c c b b b c b F F C F F c b c c c c c k k k z k k z k k k p h g g y g y y y 7 8 9 6 6 : 6 , , , , , , = = = = = # # & # X + + X     . O = y d l z F F Z Z F z z c F S S C C c c c c b c c b c c b c C c z c c c c c c l c c c c k c c c c c c c c c c k k c k c p c c c p c p t - p p c k p ",
"0 0 * Q ` x c & = , 6 i h C z k k k k c c c c c c k c c k c c c b c c c c c c c c c c c c c c c S b b b S b S b b c b b F b b m b b S z z m S b b c y # 2 k z z c c b F b F m S S F z F F F F F F F F F m F F z F F F F F F F F F F F F H z H F H m F F F H F F b b v F K F F L L A F k e 1 f #.M q K k & ; K C K F S F K F F K M F H H F H H H F H m F H F F H F F F H F F H F H F F H F H F H H M F H F H F F F H F H F H z H F z F F F g * y c F H F F K F K F F H F F H F H H F F H H H H F H F H F H H H H m K F K H H H H F H F H H F H F F F F H m H P F H K F F F z k k 8 4 O     h L @ % 3 i z b F H H b F H M F F H L F H H F H K H H H F F H F H H H H H H F H F F H F H H H H F F H K H F H H F H F F H F H F H F H H Z y * h F H P F F H F F H F H H H H H F H H H H H H H H F H F H H F H H F H H H H H H H H H F H H H H F H H F z m H H F F M M F z k C 6 & * u 2 m $.M e p F x z z Z M F F H z F z m F m F F H M F F F H m F F F F F F F F F H F H H F H H F H z H H m F H H F F F F F F F F F F F K F K h 2 p p k x c b b b b b b z F b z m S b c b z c c c C c c k k x c k k k h g h g g g y y 8 9 8 7 6 6 6 6 4 , = = , $ $ # % X # = # + # & O F ~ & v 4.n , t k k b F b l l v M F S S S S c c b c b b b b c c c c c b c c c c c c c c c c c k c c k c c c c c c c c k k k c k c c p c k k p t * u c p c k ",
"2 b ,.u.m t ;._   O ; 2 8 i k S c z c c c x c k c c c k c c c c c c b c c c c c z c c c c c c c b b b b b z b b b b b b z S b z b b m z F b z b c z y & ; z z b c c b b F b m F m F F z m F F z F m F F F F F F F z F F F F z F F F F F F F F F F F F H H z H F c I ~ K z F K b z C c - 1 ` a.m.] @ o.v.| * & k b K U H z H I b F F H F F F F F H F F H F H H F F H H F H F F H F H H F H F H F F H H F H F F H F F H F F F H z m F z z Z i * t b F H F m H K F F H F H H F H F H H H H H F H H H H H H F H H F F K H F F H F H H H H H H H H H F F H H H F m H v F F K b k 9 < @   X X X h U d & # , t j k C K H m M H F F F F H H F H H F H H H H H H H H F H H F H H H H H H H M H L H H H H H H F H H H H H H F F H H F F F H F y * k F H H F F F H H F F H F F H F H H F H F F H F H H H H F H K H H H H F H F F H F H H H H H F F H F F H H H F v F M Z F M h 8 , # & 2 u * K c.l...f d c H z F F H z S F H F F F F F F F F F F F z H F F F F H F z H F F H F F H F F H F H H F H F F F H F H F F F F F F K S F S F j 2 j k k c c b b b b b b b b b b F z b b b c c c c C c c c c k k k k h k h g g 9 g y 8 y y 8 t 8 6 6 = , 6 6 , # + % , # % 2 # # & O i X.d.{ q P d.M.%.l * d z z k K F z j z S c F H c c c S b c b c c c c c c c c c c c c c c c c c c c k c c c c k c p k c k x p c c p k c k x c p S t # u k x p k ",
"} d.;.U k 1 H =.=.k O O > y y g z k k k k c c k c c c k k c c c c c c z c c c c c c c c c b v z b b S c S b b b b b b b z m F z b S z b b b z F b z y @ , z k c c c b F z F S F F z F b F F F F F F F z F F F F F F F F z F F F z H F F F F F F F F F F F F m F J F b F L H H H c - O F c.N.;.;.U 1 f ) g.x.~ & * k b c I H F F K H F H H H H F F H F H H H F H H F H H F H H F H F F H M F H H H F F F F H H F H H F H H F m F F z S b F i * t b F H F F H H H F H H F H F H F F F H F H F F K H F H H H H F H H F K F H H H F F H H F F F F H K F H F F F F F m b z z g 8 ; X     X X   g U k , O   # 6 j z h z Z F F K H K F z H F H F H H F F H F H H F H F F H H H H F H F H H H F F H F H F H H H F K H H F F H F H F H F F z e @ k F H H F H H F F H F F K H H H H H H F H H H H F H F H H H H F H F H F F H F H F H F H H F H F F H z F K F z z F K b z d , O   + = < 8 , y ..5.m.k.X.w e c v c l F K F F F F K H F F F F F F F H F F H F H H z H F H m F H F F H F F H z H F H K F H F F H H F F H H m F F G S F h 2 p p c c c b b b b b m b S F z b b z b b b b b z c c k k c k c k k g k g k g g u i u y 9 y y t 8 8 y : , , 6 < 4 7 # , % & & O q } d.d.} t > x ` 3.l.t./ e 3 c H S z z z H F x c F S c c c S c b c c c c c c c c c c c c c l c c c c c c c k c k c c c c c c k c c k c k x k c k x k 8 @ g k c z h ",
"6.H j H 1 2 Q y P ;.X.y O @ 9 9 x k c b c c k c k k c c c c c c c c c c b C c c c c c c c b b z S b b b b b z C b b b b b b b S z m z F z S m b c z y @ ; k z C b b b b F F z S F z b F F F S F z F F F S F F F F m m F F F F m F z F F H F F F F H F F H F F F C K K K F K k q * x s.M.3.! E ^ L 3 m c f O.f.h.P & > H H b F H K H H F H H H H H F H F F F H F F H F F H F F H F H F F F H F F F H F H M H F H F F H F F F F F m z F b Z i = 8 b F H H F H F F H F H F F H F H H H H H H H H H H H F H H H H H H H H H F H H H F F F H F H F H F H F F F H F K m c g 3 , X +   * X O @   < L j u 2 # + # , 8 u z z z F F F K H H z F F H F F F H H H H H K H H F H K F H H H H H F H F H H H H H H F H H H F F H M F H F H F H H z y * h F H H F F F H H F H H H H F H H F H H K F H K F H H H H F H H H F H H H F H F F F H F F H F F H F H H F Z F H F k i 6 # O X   # : 4 , O k ' m ` w.c.h.! f d F I Z k L b b b F F F F F H F F H F F F F F F m H F F z H H F F H F F H F H F H F H F F H F F F F F F b H F F F F F j 2 h k x k c b b F b b b S m b S m z b b b z c S c C c c c c c k k c k k k h g h u j u u u y y y y 7 8 6 6 6 6 2 = X 2 * - & & ! i.h.{ c i t q c ` / m 5.A.s.m - ; k Z Z Z l c P F x c c m c b v b b b C c c C c c b c l c c c c c c k c k c c c c c c c k c c c c p c k c k S k k k k 8 @ g k c k j ",
"k g y c p q c c i x ` ,.) *   ; 2 t k k C z z k x c k c c c c c c c c c c c c c c c c b c v b b b b C b b b z b b b b b b z z m b b F S F z m S b z i & ; k z c b b b F m F b F F b F b z F F F F F z F F F F F F F F F z F F F F F z H F F F H F F F F F F H F I Z S K b i ; e %.f.s./ E H b +.z < x M / m m 3.g.<.j O e P H H H H F F F H F F H F H F F H F H H F H F F H F H F H F H F H F F H F H F H F F F F F F H H F F F m S F z Z i * t b F F F F H F H F H H F H F H F H F H F F F H F H F H F H F H F F F H F F H F H H F H F H F H F M z m F F F A Z k 8 , @ O   + . # O O #   3 I k y u 9 , O   # , y g Z Z Z F F F H F H m H H F H F F H F F H F F H H F H H F H F F H F H H F H F H F H H H F H H H F F H H H F H H z y * k S H H F H F H F H H H F F H F F H F F H M F F H F H F F F F F H F F H F H F H H F H F H F H H H H F F F F F z g 8 = #   X + # , 4 : # + Z $.P x S +.b.B.3.m i x P H c F F b m S F H H H F F H F F H F F H z F F F F m z H F F F z H H H F F H m H F F F m F F b H F F F F F F G g 2 h k c c b b b b b b F b b b z m S b S b b b b S b c c c c c c c k k k k k p j j j g g g u y y y y 2 8 y 6 , 6 t 3 2 @ O k g.M.+.E k k I k & c ..P F c W w.l.5.N 1 2 d S H S k c b b b b b b b c b C c c c c c c c c c l c c c c c c c k c c x k c c c c c c c x k c p c c k c k k k t @ d z l k j ",
"x F K k 1 ; F K F c p F } =.K & & * 3 y j C k z c c c c c k c c c c c c c c c c l c c l c c b b b b b b b S b b b b b b S m b b z b z m b b F z S c y # 2 k z c b z m z F b F b m F b F F F F F F F F F F z F m F S z F F F F F F m F F F F F F F H F F F F F F F z F k 1 1 / k.c.{ E H v P ! ..U > j k c b P x ) 6.c.X.1 * l F F H H K H F F H F H F H H F H F F H F F H F F M F H H F H F H H F H F F F H H F H H F F F F H F M z F z Z i ; t b F H H F H H H H F F H F H F H F H F F F H F H F F F H F H F F F H F H H F H F F H F H F H F H F H F F F C k h , = O + + & # # > O O #   8 U k j p u y 2 * @ O # , u k Z F F F F H H F F H H H F H H F H F F H F F H F F F F H H F F F F F F H H K F H H H H F F F H F F F H F F F y * p S H H F F H F F m F F F H F H H F H F F H F H F H F H F H H F F H H F F F H F F H F H F H H H F F F b Z Z h y , X O O + = % , , 4 = % # d ~ P Q H x x @.k.c.#.i e k J H H H F F F F F F F F F F F F F F F H F F F F H H F F F F H H z F F F F F z H F F H F F H F F F F F F F F j 2 g k k c c b b b b z S m F F z F F b b F z b b S S c c c c c c c k k k h k k k h k g g g u u i u y u y 6 ; 6 y 8 - * d 3.v.3.H x k F b j , * H X.^ J F p F X.f.a.%.j 3 0 c F k k F c b b b b b c b c c c c c c c c c c c c c c c c p c c c S k c c k c k c c p k k k c c k c c k x k y @ h k z k k ",
"z i z C 2 y I j c k k i c Q } ;.y 2 * * 6 p h k c k c k c c c c c c c c c c c b c c c c c c b b b C C b z S b S b c b m F b b b m S b z z S b b c c y # , k z c z b b F F S z F F z F m F F F m F F F F F F F F F F F F F F m F F F F H H F F F F H F F H F F H F z 1 * P f.l.5.F P H b I E m ) F 3 z F Q Y F H i b { g.g.L 1 1 j c K I K H H H H F H F F H H F H F F H F H H F H F H F F H H F F H F H H H F H F F F H H H z F F F S b S u - y b F H F F H H F F H F F H F K F H F F H F H H F F H F H H F F H H F H F F H F H F F F F F F F F H F Z z j u 2 = X X O & # # = * % # # #   t Q k c k i i z u 6 @   O # 2 u z b S F F F F H F H K F H F H F H H F H F F H F H F H H F H F F H F H H H H H F H H H H F H M H F F H F z y & k F H F H H F H H F F H F H F H F H H F H F H F H F F H H H F H H F F H F H F H H F m F F F H F F m b b h g 2 # @ + + # = = = , , > % = O z X.M H F J E N P ;.c.k...x e b F F F F F F z F F F F H z F H H F F H H F F F H z F H H F m F F F F F F F H F F F F F F F F F F F F F F h 2 p x x c b b F b F F F F z S m b z m F b F b b S S S c S c c c c c k k z z k k k h j h g g g u i u y 8 t u t 2 & * ..d.a.( k F I G F b k y q k I ! z z H F l H O.f.u.~ 1 & j K K h b b b b c c b b c c c c c c c c c c c c c c c c c c c c k k S c c c c k c p c k c k k x k c c p k t # h k k k k ",
"z d k C q ; k S k k c x k k n P -.U 2 & & 3 y i c c c c k c c c c c z c c C c c c c c c c b b b b b b b b b b b c c b b z b z F z F b b F m z b c z y & , C z c b b b F z m F z z F S z F F F F F F F m F F z F F m F F S F F F F F z F F F H m F F m H z F F F e & d 1.c.9.! v J H P F c F L } I & j S C z K K P H z l O.c.6.z * e l F H F F H F H F H F F F H H F H F H F H F F H F F H F F M H F H F F F H F F H H F m z H F m z F S Z i * t b F F H F H H F H F H F m F F H H F H F H F F H H F H F H F H F F H F H H F H F F M H F F H F F m b l h y 2 #   . . . + # = * # * # = &   y ~ c k z z z g t t u 4 #   & , t k x F F F F F F M F F F H F H F F H F F H F H F H F F H F H H F H F H F H F K H F H F H F H F H F F F b t & k S H F F F H F F H H H H F H F F H F H F H F H F F H F F F H F F H H F F F F F F F F F F F F F F S z z 8 % O   O # # $ : = = , < > # * * z ] F I K Z F b H P ~ 9.Z.9.W j j z b H F F F F F F F m H H z F F F F F F F F m H F F F F F F F H F F H F F F F F H F F H F F F F K S F j 2 p k k c S m F F b F z z F F b F F z z S S S b b S S c c F c c c c k z k l k k c z h j g g u u u u u y u y * * ! k.k.+.v x c K F h x c S 2 & F X.P K z m F F c S Y 4.k.s.J * > u C c b v c b b c c z c c c c c c c c c c c c c c l c c c k c c c k k c c c c c c k k S k c c p k k k t @ g k c k p ",
"k k k S 1 t S c c x k c k k S k x  .;.H & & % 6 8 h C k c c m k c c c m c c c c b c c c c b b S b b b b b b z S S m b b b S b F b z F b S F b S z l u # 2 C c S c c b b z F m F z F m F F S F F F z F z F F m F F z F F z F F F K S S S F m b F z M L J F C t ; 0 #.m.u./ b H K K F H F H H K ` K ; y F z F H F H H F F b K ,.z.,.j * d H H F K K K K K H v F E F H F H F F H F H F F H F H F H H F H F H F F H F H F F H m F F z F F b F y * t l H H F F F H H F H F F F H F H F H F H F H F F F H F H F H F H H F F H K H H F z F H F m F M z C h u , X   X X # & = # # = = # # # % # O y U b b b b b k k k j 8 8 , #   O 4 u l k c M m H F b z H H H H z F F H F H F H F F H H F H F H F F H F F H F F M H F H F H F H F H F F k 8 O h F H m F M H F F H F H F F F F H F H F F H F H F H F H F m H F F H F F F K M Z F K Z F z H z F F k 8 ,     + = = , = = , : , , , 6 ; # O h [ H N m F K M H K M P ..u.V.%.E r k F Z Z J F F F H F k b H F m F F F F F H F F F H F F F F F H F F F F H F H F F F H F F F F z F F F g 2 j k z c z b b F S z F F z F F z F b z m F b b b b b b b c c c b c z z k k x k k k j j z g u h h 9 i j 3 * b w.k.3.S c b F F z F b z k k 6 * c ` Q c S b F m F F F z ~ 6.k.,.a * e j b b c c b c c x c b b b k k c c c c c c c c c c k x c c p c k c c k S k c k k x c c c k k p c k t # i k k k k ",
"x k k S ; e S c k c c k x k k c v e k ;.:.z & & 6 2 6 p c c p C c x c c C c c c z c c c c S b b S b z S Z b b b z z b F z m b z b b b b b F F b z z y # , z c c b b b b F z F S F z F S F F F z F F F F F F F F F F F F F F F z b H H F c b J J Z Z C F i * e I l.s.#.P c H I K F F H F K H H { F > y F z H F H F F H I H F H { w.d.{ - & c Y F S F F F H Q H k H F F F H F F H F H H F H F H F F H F F F H F F H F H F z H F F m F z b Z i * 6 b z F F F H F F H F H H H F H F H F H F H F F H H F H F F F H F H H F F H J F F F K F S F F z k 9 6 = + O O & % # = # # # # = = * * * # O t Q F F z S b b k k k g u y 6 * + O O 3 y k z z F F K F K N H H H H F F H F H F H H F F H F H H F F H H H F H H H F H H F F H F H H F F z 8 * h z K M F H F H H F H H F H H F F H F H H F H F F F H F F H F H H F H H Z M H H F M F F F F z l y 8 * + O & # = = = , = , , , , , , = # @ h [ H F H F K K P P M m P / +.b.f.O.x i I I p z z F z F I F j F H F F H F F F F F F F F F F H F F F F F F F F F F F F m F H F F F H F F g 2 h k z c b S F F F S m z F m S S m b b S z z b b F b v b l c c c c k k c k z k c k j Z j u h u y C 3 & e ,.x.9.! x F F b c b F m b C z z t * c ` Q c F b F F F F b k v H ' 9.k.#.p 3 q p F H c k b c k k k S m F F c c c c c c c c c S k c c c c c k c x c c k k c k c k k k c c k k 8 & i p k k i ",
"k k p c - t F x k k c c c p c k p H b p F =.` p   * y i y y k F c c k k c c c c c c c c z b z b z b b b b b b b F b S z F b S z b b z m F z F S z l t @ 2 C c c b b b m S F F z F S z F F F F F F F F S F F F F F F F F F F F F H c v I Q J S S Y J p 1 1 M 3.j.O.! z v H H F z K F H F F H F ` K > t F m z H F H F F H H F b F F ` k.x.J & 1 c L H F I H c b H H F H F F H F F M H F H H F H F H F F H H F F H F H F H F F F F F z b c Z i * t z F H F F K H F F H H F F F H F F H M F H F H F H F K F H F H F H F H F F F F F H M m b z z g 3 > X O   O # = = # = = & * = = # % = # % # t U F F S F S b b c c z h h u 8 2 #   O # 8 g z S b z F F F K z F H H H H F F H F F H F F F H F H F F F H H F F H F F F H F F F H F H F z 3 & h Z K z F F H F F H F K H F H M F H F H F H F F H F H F K F H F F H H F z F H H F F F F k k g 6 % O     * = = = = : = , , , , , 4 6 , # @ h [ F H H F K H K H H m F m b Q ,.x.g./ 0 r ~ F F F F F b b K F F F F F F F F H F F F F F F F F F H m F H H F F F F H F F F F F F K S F g 2 h c c b b F F z F F m S z z F F F z F b b m z b z c b c c c c c c k k b c c c k k k g k k g b j + 0 O.M.u.~ k b H F F b b F S F b c k k 6 * c ) E b b F F F F F F b H b x P #.w.q.P e - r C j j F c F F S c c k x S c S c c c c c c k c k c c c c c p c c S k c p k k c k c k k k k 8 & i k k k k ",
"k k k C - q c k c k c k c c k c K j p c c c Q O.` 1 O * p p 9 h c k z c c c k c c c c c z b b S b S b S b b c S z b m z b b m z z F z S z S b b z k y @ ; z c F b z F S m F z F z m F z m F F z F m F F F F z F F F m F m F F F H m b F c z S Y y t - e O.B.a.H z v K I H z Z L F F H F F H F ` F , i b F H F F H F F F H H H P m c c X.x.w.F 1 e k m F H I I F F H F H H F H H F F H F F H F H H F H F M H H F H F H z H F F H m b F c F y * 6 c F F F M H H F F M F H F H F H H F F H F H F H F H F F F H F H H F C F F F F F M z S z g y % #   X O # % ; * * # = = # = = = = % * # * @ t U F b F F b F F S b C h g g g h 8 6 X O O , y k z k F F F F H m F H M F H F F F H F H F H F H F H M H F F F H F H F H F H F F F H F F z 8 @ h F H m F H F F H F F H F H F H H F H F F H K m F H F H H F F F H F F H H M z z z F z F u 8 , X   + X % = = = , , 4 , 4 , : , , 6 , , # @ j ` m N F F K K F F H H H H P m m / 4.k.s.^ 0 j m F b b H H S F F F F F F F F z F F F F F F F F F F F F F F F F H F F F H F F F S F F F g , j k k z b b Z F F z F F F F z F z S m z F S F b b b b c c c c c c c c b c x k k k k k j j k > 0 ] c.w.{ m c H I S F F b b m b F b c k z 8 * c ) Q b b F b F F z S H v m H k x Q 3.f.3.b & ; K J u k c F x c b b b c k k c c k c c c c c c k c k c c c c c c k x c c k k k k c x k k 8 & y j c k p ",
"a c p c ; q S k c k c k x c k c k C C C c x x c ` X.I & O , g 8 j k z z S b c c c Z c c c C b b S b b z z b b b m F b b b b z b m S b z F S F b z z y @ , k c x b b b F S z F S F z z F F F F F F F F F F F F F F F F F F m F F c H K F F H C t * w ..g.u.Q c J P K K F z M L L F F K F F H H ` F > 8 F z F F H F b F H H K H z E J J k m 6.g.O.3 e d z H m K I F H F H F H H F H F H F H F F F F H F H H F H H H F H F F F H F M F z b b i * t c S K F H F H H H F F H H F H F M H F H F H F H H b H m H b H b F F F F F F F F b b j t 6 = +     X = % = = = = = = = = = = = = , * = # & y I F m S F F F b F b F b c k k p p u 9 : O   O 2 y z C Z F F z H H N H z F H F F F F H F H H F F M H F F H F F H F H F H F F H F H F Z z 8 @ g Z F m F F H F F H F H H F H F F F H F H H F H F H F H F F H F F F H F H F F F F z h y = # +   + # : $ = = , = , 4 4 6 6 : 6 , 6 4 4 # @ h ) F F M F K K H K H F H H H K I H P ..f.a.#.c f x m K k b H F F F F F m F m F m F F F F F F H F H m F F F F F F F F F H F H F F F F F p 2 h c c c c b F S S z F F z m F z F b b z z F z m z c c b c c c x c c c c c c c c c C j z i * x 6.k.,.Q k c J F F F b b b b F b b b b k h t * k ( E b b m F F b b m z c v F H b c f ! 4.d.,.k & > j F c k k x F F c c c c c c c p c c c c k c c c c k c k c c k c p c p c c c k k k k 8 @ y j z k k ",
"k k p c ; q c c p c k c k k c k F c j k c c k a k H } } j O   y 8 g g z b c c c c c c c c c b S b z b b b b S b S z z b b F z F F z b b S m b F z k t @ 2 k c c S l m F F F m F m F F S z F F F z S F F z F F m S F F z F F F z M l F I F r 1 1 ] 8.s.{ m H J S Z S F F K U K z F F H F F H F ` F > y F z F F F F m K F K F m H F Q I F H m / w.s.' 3 1 k L H z H F F H H F F H H F F F F H H F H F H F F H F F F H F F F F F F z z F b b p * t c m F F F F H F F H H F F F F H F F H F H F H F b H b H F H b H F F F F K F C c z g 6 # +   O % # * , = * # = 4 = = = = = = 4 = , % # % O 8 U b b b F F F F F F b b F c c k j j 8 7 6 = O   # < h j C Z F F H P m H F z F H H F F H F F H H F F H F F H F H H F H F H H F H M H F z < & g Z K M F H F H H F F H F H F F H F F H z H H F H F H F F F F F F F F F H F F Z z g , O +   + + 4 4 , # = , , : 4 6 6 6 6 6 6 6 4 6 4 = * h ) m H M F K F H H H H F F F H F F m b Q 3.k.k...i e F H F k F F F z F F F F F F F m z F F m F F F F F F m F F F F m F z F z F S K F F p ; j k c c c F F F F F S m F S F F z b F m S b z S b b b b c c c c c c c k k C c c c j f * e 5.B.6.P i c H H H b F F F F b b b F F b S j z < & k ! P b b b b b F F F M z b z c b m H k x ) w.u.~ e * q i c F S k p k c k c k c k c c k c c c c c k c c c c c k c k c c c c k k c k k h 8 @ i j c k k ",
"p x p c - q S x c c x k p c k c i c S c c F m c k y i I O.` i O , , 8 h k c c c c c c c c b b b S b S z S b S b b b m S m S b b b z m F F S z S z k 9 @ , z k c b b b z z S F z F z F m F F F F F F m F F z F F F F F F F F F F L Z b j - * c ;.s.o.H m H S S H H I K K F H F F F b H F F H K ) F > y z z m F F H H H z S F H P I j C I H b m b O.u.y.H 1 3 S L F H F F F H F F F H F H H H F H H F F F H F F H F H H F F F F H F F b b S i * t b F F F F H H F H F F H F H F H H F F H H F F F H F H b H b F F F F F F b c k p 6 ; & + O O & $ = = = # # = = , = , = , = , ; , % * = = O y I F b F b H F F b m b v b m b c c k y i u y 4 & O   , < 9 k z F H z F F F H F H M F H F F H F H F H F F H F H F H F F H H F H F F H F k 3 @ g Z H v F F H F F H H F H F F H F H H F H F H F F F F H H F F H F H F F b b k h 8 , X O & + = , 4 , = = , , , 4 4 4 6 6 6 6 6 6 6 6 , ; @ g ) b m H F K F F K J K K K K J H K F K F F F #.k.f.Q 0 j H F F F F F F F F F F F F F F F F F F F F z F F z F F F F F F F m F F F F F F g ; j c c c c z F F F F z F z F z m S b z b F z m b b c c c c c c c x c k k c c c p i 1 f O.p.6.! m F H S S F F b m J F b b F F b F b S k k 2 * c ~ P b b b b b F b b H l z F K F z m F H F b { u.7.^ 1 1 e c c k c H c c c c c c c c c k c k p c k c c c k c c c c k k x c k c k z k g 8 & i k k k k ",
"i k k S ; q S p c k k c c c c p c k c x k k k c k H b i c ~ { ! O # % 2 y p c c c c c c c b S b b b b b b b b b z b b F z z b F b b S z Z b F b l k y @ , k c c b b b S F m z F S F z F F F m F F F F F F F F F m F F z F F F F B Z 8 O e ;.h.8.Y K F K K N H F F S F K K m F H H F H F F F S ' F > 8 F S F F H F F H H F H H z S K K K J P H m l m O.g.<.i & g H F H M H F F H H F H F F F H F F H F H F F H F H F K F F m H z m b F z Z y * 6 z F H F F F H H F F H F H F H F F H F H F H F H b H b H b H F H b b b b z j i e +     + # = # = = = = % , , = # , # , = , = = , % ; = = X y Q b b H F F F F H b P H b S S F c c F k y y y 8 $ +   # , y k l b z H F F F F F F F F F H F H F H F H H F H F H F H F F F H F F H F S z 2 # g S H z F H F H H F F H M H H F H F F H F H F H F H H F F F F F F F F F z k y , O   + % , : # = = , ; 4 , , 4 6 6 6 6 6 7 7 6 6 6 8 2 % @ g ~ m F H K S H F S F F K K K H F F I K F K I m / 9.x.4.S t k b m S F S z F z z F z F F b z F z F F F F F F F F F F F z F F F F F F F F g ; k k c c S S F S S m F S F m F z F b S m z z S b m c c c c c c c c c c k c c k t 1 ^ t.f.X.m S F b z K K z b P P x F b b m b F b b S k k 8 & k ~ P b b b H F b b b l F K b z F m b Z S C c v ^ #.9.;.c & - i c k x k c k k c k c p c c c c c c c c c k c S k k x k c k k k c k j z j 3 @ y k k k k ",
"k k p C = 6 C k k k c c c k c p c c c k c c c c p c S S k k D Q | b * @ 2 t u h F C k C c k c b c c b b b b c c S b z S z m m S m b z z S b F z z k 8 + ; k c c z b m z b F F z F S F z F F F S z m m S F F z c c m H b z Z Z Z e & - ..d.4.~ m K F H F H F H F H F F H z H F F F F F F H F H ( b - 3 F z F S F F F H F H F H H F H F H H H H H K K m H 3.g.o.0 % h F S F K H H b H H F F K H F H F H F H H F H F F H F F H F F F S F k S y = 6 k C H m F H F F F H F F H F F H m H H H F F F H H F F F F F m z m F c k i , O   O & # # = # = = = = = = , , , , = , , , , , , , ; , = = * y I F F F F H F F H F F F F z z b z b z z z k j u t q $ +   & 6 h k h z F H z F F F S F F F F F H H H H F H F H b H H F H F F H F H F F k 8 X u F F m F K F F H H F H H m F F H F F F H K H F m z M m m F K F S Z z z u $ O   O # = = = , % = : 4 2 ; 6 4 4 8 8 8 8 y y < y 9 < 9 8 ; @ k I K M m F K K F F F H F H H H F K K F H H H v M H { t.k.+.a e k m b z F F k F F F F z c b H S F F m m F H b F z z F F m F F F z F F F g ; j k k c C F F S F b F z F m F z F m S F b b b b b b k k b z z l z B z l k e 1 N 8.p.=.K c c F F H z F F F S F F m S F F b F F S b c k h 2 * k Q P b b b Z F S F b S F b S z F b S b b z m S b F F 7.8.o.i & ; z C Z z z z j k k C c c c c c c c c k k c k c k c k c k k k c k k c k 8 * t z k c k ",
"x k j B = 6 C k k c c p k x c k c c c c k c p c c c c c x k c F b ` ] y O * 8 y 8 C H C C J S p b b b v c b b b b b b S z S z z S b F b F F b F z k 8 & , c k c b b S b b S m F z m F F z S F F F F z F z b H I F b z F K z e > 0 Q 4.6...N m J H F F F F H H F F F F F F F H F F F z F H F F ( S - 3 Z b F F z F F F F F H z H H F H H H F H F F K K m b ^ 4.m.H 2 , z F S H H I F b H I H F K H F F H M F H F F F F F F F F F m z Z z C y = 6 c F F F F F H F H F H F F H H F S F F F F F F F H H F F F F F F F k i 2 ; # + + + X # * = = = = # = = , = : , , = , , : , , : = 2 4 = = * t H H z F F F F F F F F F F F F F m z z z z h k h p y 7 6 # O   * 8 h k b F F F F K F K F H H H F F F F F F H H H F F K F F H F H F H H k < O u F S b F F F F F F H F F F F F F F F F m F F F F F F H F S S F F Z y , # + & + = = = = , , , 4 2 : 2 6 6 6 6 8 9 8 9 y 8 8 y y 8 y 8 , @ j I P H m F F S K H F F H H F H K F K F H F H K H c k H X.w.k.! k d m K Z k K F F z b H H H x F F F F F F b H F F F F F F F F F F K F F g 2 h k z c S b S F S F b F z S F F z b F F z m z b b z F S k k F F k L z i ; x 3.f.5.~ K c F I H F F F F F F F F F F F F S F b S b b k k k 2 - k Q P b b S F b b b F F S F S F z b F b F F b z b m H m / ,.6.` q & - Z g j z F F S k c c c c c p k k c k c x k c k x p c x k p c x p h 3 * t k k c z ",
"j k g C = q c k k k k c c k c c c k c k c c c k c c k c c c k k c x I X.` 2   = 8 h u y p F H C c b c c b b b b b b b b F m S b b z m S b S S z z j 8 & ; z c c b b F b z F F z F z F z F F z F K b b F F m b b Z z b b j 3 1 e ;.,.O.P b H P b F H F H F H F H F F F F F F F F M H F F F F K ~ S * t F b F F z F H F F F F H H m F F F F H H H L F F H F b P { d.2.b - i l c K k H Q H F H H m F H F F H F F F F F F H F m F F F b F z S u * 6 k b F F F F F F F H H F H F F H m F F F F F F F F F F K K F F z d < % @   O & # & # = = , = , # , = = , , : , , , , , , : 4 2 , 2 , , = * y K m F F F F m F F H F H F m F z F S z z z z C C k k t y 8 6 O   + % < u z S F F H H F F F F F F F H F H F H F H H m H F H F F F F H F g 8 @ g K F m F F F H F F F H F F F F F F F H F F F F F F S K F F S Z g 8 = X   & + = = = , = , , , 4 4 6 6 6 7 8 8 8 y y u u y 8 8 y 8 9 8 , @ k I P M F K Z F F F H H F F F m F F H H H F H L K H I F m ! O.c.3.H e e b m b z z Z F m l c J z F F F F F b F F m F F F F S F F b F F F g , j k k c F b F F F m F b F m F m S F b b b S b b b c z b b z k z m d 1 0 ` x.d.` b b l b F F F b H F F F m F z F F F z F F F z b b c k k 2 * k Q H b z m S S z b S Z F b b S b F b b z z F F z F F l c H ..3.=.H q @ d K c i k S S c c k c c c k k k c c k p c k c c c k c k k k k g 8 * t k h l k ",
"k j j C = 6 c k x p c c k c p c c c c c k c c c c k k c S S x k k F c k L } I *   * 8 h h p k G b c c c c b b b S b b F z z F b b F b b F z b F z k 6 & , k k c b b z S m z b F m F S m S F F F b b b F K F b c F K z e & 3 / u.=.` H c m J H F H F H F H F H F H F F F H m F F Z H z F H F F Q S ; 3 F b F F F F F F F F F F F F H H F H F H F F F H P P P b x N ,.g.;.3 , k u Q F k F F F H I H F H F F H F H F F F F F H F F F b Z z C y * 2 c b H F F H F H F H F H F H H F F z F H F F F F b S F F F C j i % % X @ X = # = # # = = = , # , = 4 ; : , 6 ; : , 6 4 4 6 , 4 6 6 4 , , * y I H z F m H H F F z H z F F F F F F F z Z z C C C k j p p u 8 = +   + , 8 k b b b b b b F b b F F H F F F F H b F H F H F H H F H F F z < @ g F F z F F F F H F H F H F F F F H F F H F F F F F S C m b l 8 = O   + & = , , = , , 4 , , 4 6 6 6 t t t y y u y y u u y 8 h 8 8 y y , * k P P H F F K F F K F F H F H H F H H F F H F F z F I I F c F P 6.k.#.l e x b H c l F F S c F F m b S F F H b F F F F F z F F F F F S F g 2 g k c c c F S c b b S b b b F z z b b b m F z b b j b S l b m j 1 w ! f.z./ k m H H H H F F c F H z F F F F F F F F F S F F S b S c k p 2 - p I m S b S F z F b F b S F b F F z S S m z z b b F F b z x i J =.3...j * & j H c p p C x k c c c c c k k k c c k c k c k c p x c p c k 3 * t k k z h ",
"j k p C & 2 C k k k c p x c c p c k c k c c c c c k k c S c c S H k p z S F Q _ h % O > y k B C l b b b b b c c Z b b z b b F S b m S z z F z S z k 8 O ; k z c z c b b F z F F S z F z b F S S c F H b z K H H k g * & L u.9.! F c F P H b b P H F F F F F F F H F F m F F F F F H z F H m F Q S * 3 Z b F F F F F F F F F F F F H F H F H F H Z K F b c H I J m v m 3.z.} 3 3 i c H H H H H b F H F F H H F H m F F F F H F F F b S z Z y # 6 z m H F H H F F F F F F F H F F F F F F F F F F F F F S k y 2 ;     X X # = = = = = = = = = = = , , , , : , 6 : < 6 4 6 6 6 < < 6 6 , , = y H F F F F H F F F H F F F F F F F F z F m S F S b z b c j g u 8 , = X + # , i k b F C F S F H H F K F F F F F F F F F F H m F F F H F k 8 @ h z z M F F F F F F H F F F H H F F F F m F F F F F F C j y 2 * O + X % 4 ; , , # , 4 , 6 6 6 8 8 8 t 7 y 9 9 u y u u u y y y h 8 y t , @ k H H m H F F F F F F F F H F H F H z H F F F F F S K F K J Q P x ! u.f.{ x i j N K H k x F c S F z F b H b F F z m F z F z F F z F F Z i , g k k c c S S F S z S b b b z z F b b b b b b b b K k j F v d i c 4.f.,.m S P K H b F F H H F m z F S z F F b F z S F z F F b b b c z p 2 * k Q H b b S S z F b S b Z m S b b S F b S z S S m b b z S b l z b ~ +.,.~ e & 1 k F m c k k p k k k k c k c k c k c c p c k x k k c p k 6 * t C j z j ",
"j j u p = 6 c k x k k c k k c c c c c c k c c c c c c c c k c F p z F F c c S H { U 8 & @ 6 u p z k b S b b c c b b b S z b b m b z b F S b F b z g 3 @ ; k z z b c b b z S m S F F m F F F F F F F S S F H k t > & k <.6.! k K H F b c b H H H F F F F F F b H z H F H F H F F F F z F F F F ~ S * 3 F b F F F F z m F z H F F F F F F H F H F K M F F K K F z P P I F ! 6.4.I > e c F H P H k H F H H F F H F F b F F F b H F F b b z S y * 2 c b b F F F H F F F F K F F F H F F F F F F m b F F h g 6 , O O O + @ @ # = # = = = = = 4 = = , : , 6 4 6 6 6 6 < 6 6 6 6 6 6 6 6 6 6 , = y I M F F F F F F F F F m H F F H F F H z F z F S b b b v S l g u y t = X   & ; 6 u h F F F H H F F F F F F H F H F H H F F F F F F F F k < @ g H F z F F H F F H H F z F F z F F F F z z S F F Z h h 6 *   O # , = # , , # , 6 , 6 6 6 6 6 8 y y t u y y u p p u p u h y h y 8 y y 2 * k K M F M F F F F H F F H F H F H F H F H K H K K I H K K K C m P H z { 6.6.! j d j N P k c H F z S m b F F F z F S z F m b F F S F F F i ; u k k c c S c c F F m z b S b b b b b b b c b c c g z F b e q ` c.6.! v H F F H z F F F F F F S b m F F z b F b F F F F S S F b b k k p 2 & k Q m b b b F S F F b S F S F F b S b b b b m F S b b F z k m H c k m ~ ,.,.F & & i p c c c c k k k k k c k c k c k k c k c k k k k c j 6 * 8 h j z k ",
"h k p C ; 2 c p c k p c k c c k x k c k c k c p c c c c c c k c F c k p k m c i z ~ } U 3 O * 6 y p k l c m c c b b b S z F b z F z b b S F F S l k 8 @ ; z c c b z m b m F z F m F S F F S S F K c c F C i 3 - v o.,.{ H H H F b H H H H F F c F F F F b H H F F F F F F F H m F F M F F b F I Z * 3 S S F F F F F F m H z F H H F F H H F F H M H K I F Z K T z F b m H H ] u.>.j & e b b F I F H H F H F F H F H H b F F F F F b F z Z y # 6 k b H F F F H F F F F F F F F F F F z F F F z c k p 2 % # +     = # & = = = = % = = = , , , , , , 6 4 6 6 6 6 6 < 6 < 8 8 8 8 6 6 8 , , = y H z F F F F H F F F F F F F F F H m m F F b b F F z c c m z C z p p 9 6 = # X # ; 8 i c c F F F F F b F m H H F H F F F F F F F F F F h 8 O g F F F F H F F m H F H F F m F F z F F M m z z k u < , + X   + , , 4 = = # , : 6 6 6 6 6 6 8 8 y 9 u u g g j p p p p p h g g g y g y , @ h H H m M F F F F F F m H F F F F F F F F F F H z b S K K K F F z b H ! ~ %.d.X.z 3 f J J C z z S F z F b F b F m F F b F z F z m F S F g ; i k x c c b F c b b b z F b F m S b c c b b b v b K l > 1 ` x.d./ b H z z K K S K K H m b b z F F z F F m F m F F F b F F F b b b z C j 2 * k I m b b F z F z F S z F F z F S z F m z b z F b c c k z F c k c c S k x ` 9.;.i & * t i c S c x c c c k c k c c c x c k k k c k c p h 8 * t z j k j ",
"j j p k + 2 c k p c c k c k c c k S c c c c c c c c c c F S c c c c c S S c S F v x z Q ~ Z =   0 e g x c c c c S z b S m b b b b S m z z F b S z k 3 @ ; k c c b b b b z z F F S z F z S F F S S c F c q O 3 Q 3.o.I F m F F F H F F F F F F H H F F m H F F F F F H F F H F F F K z F K b F Q S * 3 b F F F F F F F F F F F F F F F F F H F F M H F F S K K z K F K H z m H b ;.u.:.e & k P b F M F H F F H F b H b H b H F F F b Z z S u * 6 c F b H F H F F F m H F F H F F F F z m F b z k t 3 * O   + o # + = = , ; 4 , ; = , , , , 4 6 4 6 : 4 6 4 4 6 6 6 6 8 8 8 5 6 8 8 6 6 4 ; t H m m F F F F F F H F F F F F F F F H z b F F F F F H z k k S S k k h u 9 4 #     = 0 y p C F F F F F F F F F F F F F F H F F F F H K k 8 X g F b m F F F F F F H F F F F F F F F F N z z k h < X     . # = % # ; 2 , , 6 , 6 4 6 7 6 8 y 8 y y u p g g h j j k j j h d h h 8 y t , * g H m F H F F F m F F F F F F H F F F H F F m M M H H F z Z L F H L F b z F P 1.u.O.f 1 k J b F m z F b F b F F S z b F F S m F z F S Z g 2 g k k c c c F c S z b S m z z z b b c b b b c c c 2 3 I u.d.X.m v H b F L F F F F b F F F F F F z F z F S z F z z S F F S z b b b z k j , * j I F b z F S z S b b F b z S b b F z b b b b F z c z z c c c c F c c F x i b } ;.` i & 1 i k c k p c k c k x p c p c c c c c p k k x j 6 & 6 z g z h ",
"k k g h * t p z k k k c c k c p c k k c c c c c c c c c c c c c c c c c c c c c b b k i b ` ~ z   # 6 8 u C F c F c k c S F S z b b b S F b S F k z 8 & , k c c b b S F K F S S M z l z z z F F C Z 8 & 1 ! #.&.F F F F F F F K F H F F F F F F F F F F F F F F z F F m F F F F F b F F m F H I z % t m F F F F F F F F F F H F F F F F F F F F F F F H m F F F F K F H F H F H z K %.u...1 * l k K L K z b F H z m F F F H F c F b S c z y # , k b F F F F F F S F F F F F S F m b z S b z 9 8 @ O   O * = = & # = = , # : ; , , , ; 4 4 6 4 6 6 6 3 8 8 8 8 8 8 y 8 8 y 9 9 8 t 6 8 6 * y H F F F F F F F F F F F H z H F H z H z H F F H F F m F F z b b z b k j i y y 6 # &   # 8 u k C S F m b S F F H F c F F F F F m F F S z 6 & y F b F z m z F F H F z Z z F F m z m F C B u 6 = + O O % , , % = 4 , , , , , 8 6 8 8 t y y y u u g p k g k B z g g k g k g g j u u y 2 = p H F F F F K F F F H F F F F F H F F F F F H H m H F H F H F H F H F F H H F F ) 2.9.] q ; m F C C c F c c b F F F m b S F F S b S F F g > g k j k b c b b v F D c C F b b m C z z S F F i - v 5.f.#.H S K L F F H F F F F F F F F F F z F F m F F m F z F z m b b b b b c c k j k , * k K F F b F F b S F b b b z m F b b b b S b z z S b b b b b b b C b b F F b c b H { =.K i & > p k k C j c c k k F C p p x k k p c k k p 6 & 6 k k k k ",
"k k h h * 6 p c k k k k k k k c c c c c k k c k c k c c c c c c c C c c b C c c c b b c z F K H ) 6 O * j p y k c F F c z k S K b b b b b z b b k k < @ ; z c c S l c l c b F F z z M F H H c c y & * S | | ! H F F H F F F F F F F F F H F F F F F F F F H H F F F F F F F F F F F m F F b H I k * t S S F F F F F F F F F F F H F H F F H H F F H H z F F F F F F F H H F F F H F m ) ,.4.U & 8 g j Z ~ I S F P H z b F F b F F b F z S 9 * < x c F F b F F b F F F F F F F K z m F l i 6 % X O @ & # = + = = # # , # = , : , , : 4 4 4 6 6 6 6 6 8 8 8 8 8 y 8 y y 9 y 8 8 8 y 6 y 8 ; t F F F F F F F F H F F F F F F F m H F F m F F F F F S z F z b b b z c k p k u y 6 , # + O # 6 u z b b b F b F F F H F F F F S H F b S h 6 # y H b H F F F F H F F F F m z F F F Z l 9 8 #     + # 4 = = = , , , 4 , , < < 6 8 8 7 y y y i u g j j h k h k k z k g z z g j h y u t 2 * p H H F F F F F F F F m H F H F F F F F H H z F H F F F H F H F H F H H F F H P m F ] 4.6.! e r c F S c F K F z z z S m F b l F b F S Z y * g j x c b b b b c c F F k k v F l p F F C p > i O.f.%.I m F K F z F F F F H F F H F z m F F F F F F S z F S F m F F b z b b b b c k z j , * k K K z S b S F z b F b b z S z z m S b b b b b b b b b b S b b b b C c c b c c c F H { [ z 1 & y k p z p k F k i k F c p c k c k k x p q & t l h k k ",
"k j h C = 6 p k c p c k k x p c k c k c c c c c c c c c c c c c c c c c c c c c c c b F c j k H S ` U &   * u u u z F F K F C h S z b z b z b S k k 3 @ = z z c S b b b b S F K z H F z l c p 2 * k ` X.) L S K F F F F F m F z F F F b m F F F H F F K K F F F F S F m F F F z F z z H F S H K k * e F b F F F F F b F F F F F z F F F z H F F F F F F F F F H K F H F H F H F m F F v Q O.3.,.r 1 i F z z K F b F F H H c F H m b F b S y * , k z F F b F F b H m F b F F F F z z g 9 , X     # # # = = = # , = = # , , = , , 4 6 4 6 6 t 8 8 6 8 8 8 9 8 8 y y 9 9 y 9 8 8 8 t t 8 6 ; 8 F H F F m F H z F F H F F F F F F F H F F F F F F H F F m S b b b b c c k k h k u y 6 = O   # 4 9 h C Z S F F F F H F m m S F F H F S k 6 & y A c F F F F F F F H m F z b S F k g 8 % & O O # = , , , = , , : 4 < 4 , 8 6 8 8 y y u g g j j j h j h k k k k z k z h z g h j u i y ; * p H F H F F F F F F F F F H F F F F H F F F F F H F H F H F H K F F K F H F F z P M m J X.;.;.p i f k F F c j z z F z b c b b b b F b F g , y j k k k c c c c c c c m H F z z E F c e w ~ 9.w.' P m H H F F I F F F H F F F F z F F F F F F F z F m z F z F S b b b b b S b c z k k ; * h K F F b F S b S F S S m F b b b S m b S S b b b S c b C b b b b b b c c x b c c c k F ' } ~ f * - t h C k j k c c p k x k k c k k k j 2 & 6 k g z k ",
"j j h p * q p c k c c x c c c k c c c c k c k c k c k c c c c c c c c z c c c c F x k b b k k b b k I ` F * O 2 t u j z z S S F F S S b z b z F z j 3 O , k k c b b F F F b b S Z k z K z 2 * q N { #.L l S L F F b F F F F F F z F F F F F F F F F F F F F F F F F F F F z F F F F F F F F H P C * e F b S F F m F F F m H F F H m F F H F F F F F H F H F F F F H F H F H F H H F F H c c I | 6.{ 3 @ k F F L b F H H F F F F F S b z F 9 # , x z F F F F F b F F v b m Z z l h 9 , # +   + + * # = = = = , = = # , , , , 6 : , 6 4 6 6 t t t t t t y y u 8 y 8 y y 8 y y y y y t y 6 > t K F H z H z H H H F F F H F F F H F z H F F F H F F F F F F F b m F b k c C k C h g u 9 6 = O X + , j h Z F b F F F F F F F z F b H Z k 6 # y F c H F F b b F F S F m b b z k 9 4 O     & , , 4 = # , = , 4 4 6 6 6 8 8 8 8 y y u i g g h h j z k k k k k k k k k z C j h j u u y 2 # p H F H F F K H F F H F H z F H F H z F F H F H F H F H F H F F H F F H F F H z H H H c m ( ;.9.! i t k c F F F m b b c c b F b b b b S i * i x k x c c c c c b F b c k k c I f e - b w.s.} P m m c b H H M z F F m z m F F F F F F F F m F F F z S F m F F z b b z b b b b b k k k ; ; j K K S b b b F b b b F z b b b F z z b z b b S b b b b b S b S c b b c c c c b b F b l j F ] } H e - @ y C k x k C a k p c k k p x c h 3 @ 6 k g k g ",
"h k h B = 6 p k k k k c k c k c k k c c c c c c c k c c c C c c c c c c c c c c b c x k F S b z c c c b I U u O & 2 i k k C C F F S S b c b S F z k 2 O ; c c c c k b b S F S z S F k 2 * 3 F ) X.! c l H K F k b b b F b F b F F S z F b F b F F F F F F F F S F z F F z F F F F F F F m S F L k # t F c S F F F F F F F F F H H z F H H m F F F F F F F F H F H F F F F H F F K F F F H H b j P 3.i.~ @ * z j H H F k b H H c F b F z S y # , x b F F b b H b m c S F S Z g t < % +   O + = $ ; % = = = , # , , , , , 6 , 4 6 6 4 6 6 6 t t t t y y y y y y u i y u u u y y y t t y 6 * i F F z F H m F F H F F F F F F F F F F F F H F F F F F H F m F z F F b b v C b z k j h h h 8 % + X X = 2 u h Z Z Z F K F F F F F F F S j 6 # y A b F S F S F F K F F S b k i 6 = + O * = = = = = , 4 , 4 2 < 6 6 6 8 8 8 9 y y g p p k k k h k k C z c k c k l z z k z g j k i u y ; * g K F H b F F F F F F F F H F m F F F F H H F F m H F z H H z F F F F F F F F H c c E Q F c H ` ,.3.K ; y c C H z x k F F b b b b S b F y , i j h z c c c c c z S c k c J x q 1 x 6.f...b m b H I F z b P H c F F F F z F F F F F F F z F z F F z F m S F z F F b b b z b c c k k k % * j F K b S z F F S b F b b F b m S b b b b b b b Z b b b b b b b c b C F m b k c c c x x b c x P } ) S 2 & * i S c k k c p k k k c k k h 6 @ 2 k j k h ",
"j k h p * 2 p k k k k c c k c k c c c k k c k c c c c c c c c c c z c c c c c c c b b b b S z m F v c k k F K I 2 * * 2 g C C j z b b b b S S b k k 8 O ; k k c b b b c z F F F g i , & t ~ } ) H m c H H b b L b F F b F b F F m F F z F b m S F F F F F F F F F F F F F F F F m F F F S b F K k * e b c F F S F S F F F F F F m H F z z H F F m H H F H F F F F F F H F F F F b K K F F H P Q m z ! <.6.b @ t g b H F F F F F F b S z S y # , j b F F b F m b F c c c k g 8 , + +     + = = # , = + = , , , = = 4 : ; 6 4 4 6 6 6 6 8 8 t 7 y t y y y i u u i u u i u i u y y i t y 8 , t F F F F F F F F F F F H F F H F z H H F F F F H F F F F F F H F F F b b b F b b z k C h u u y 6 , #   O = 6 h k F F F F F F b F b b z k 2 @ 9 F b F F F F F F F S b C h 6 2 + O + + = 4 4 = = ; , 6 2 6 6 6 8 8 8 9 y g y u g g p p k k k z k z z k k c c c z z c k C j h h i p y 2 # u K F F F F F F F F m F H z H F F F H H z F F F H z F H z m H F H H m F F K F H H F F x S m J x c ` 6.O.x ; x x k b H F z k F b z b b z y * g j j k c c c c c l k c H c i r p =.w.;.P P P F H j S I I K S F P F F F F F F z F F F F F F F F F z F S F F z F m m z z b z m c c c k k > # j F F F S F b b b F z b b z z b b b F z S b b b b c Z b S z b b b b b z c c b c c c k k F H c j z I { ) j * & q p k c k c k x k k k x h 2 O 8 k g k k ",
"j k g h = 6 p k k c k k k x k c k c c c c c c k c k c c c C c c S b c c C c c c k b F b b l z m k z b H J F b H U k = O * 6 g Z k z b b S b b b k j 3 O * k k c m b b F F b c j 2 @ 2 ' ,.~ m b z M m F m S F F F F m F F F F S F F F F F F F F D S F D F F F F F F F F F F F m F z F F F z F H k @ 3 b c c F F F F m F H F F F F F F H H F F H H z H z F F F F F F F F F F H m K b M L L z c c U F c M { q.#.x 3 i k H H C F I F b F z S y # 4 j z F b b F F b S c j u 8 , = + + O # # = = = + = = = = , : , = 4 ; 4 4 6 6 6 6 6 8 8 y y y y y i y i u u g u u u u u u u u u i y t y 6 % y H F F z F F m F F F F F F H F m H F F F F F F H F H F F F F F F F F F F b F z b b b C z k h k j y 6 = # @ # , 8 g k k c b z F F F b Z k 2 @ y F z F F F F F S b k j 6 , = O O + # 4 = , 4 6 4 , 4 4 6 6 8 8 8 9 y 9 g g g g j h k k k z k z z k k k k c c c c k k c z j h j u u i 2 * u F H F F S F F H F H F H F F F H F F F z H F F H H F F F F F F F F F F F K S b F F F H J H c K K x v ..u.O.r i j c F b j z F b c b b z y > y x i k k k c c c Z Z F k 1 - J w.9.! c H H F K Z L K z z F S b F F F F F F F F F z F F F F F F S F m F z m F S F F b b b m b c c c k k > * g F F b b F z b S b S z b m b z b z z b b b S b c S b b b C b b b b b k k x b b b b b F i k F K k j b I ` ! i O & 9 C k k p k p x k k k 2 @ 2 k g k j ",
"j j g h & 6 p k k x c k c k c k c c c k k c c c c c c c c c c c c c c c c c z z m b k b F F b c S S z k c v m x S L L k * O , g j k z b b b b b k u 3 O = z z k b z b F F k e & > K [ T F v M z H b b K K K m z F F F F b F F m F F m F b F F F S F F S D F C D F m F F z F F F F F S F m b F H C # e b c F m S F F F F F F F H F F F F F F F F F F F H F F F m H F F F H F F F F F K F Z F F H z H H m c N ..5.Q t * i K F c F F b b b b t # < j c F b b b F b C p u 6 ; #     + = * = = = = ; = , , , , , 6 6 ; 4 4 6 4 6 4 6 y 8 8 8 7 y y u y i u g g g g u g g j j u u u i u 7 u 6 > y F F F F H F H z H F F H F F F H F F F H F F F m F F z F F F m F F F S S F m b b S F k c F S k i i i 9 6 # O O * 3 8 x k b F F F b b Z j , & 8 F z F F F S b b k i i + O   O # = , , : 4 $ = 4 6 6 6 8 6 8 y y u u u g g h g h z c c k k k k k k c c c k k c c c c k C h k j u u y 2 # p F F F F F F H z F F F F F F F F F F F H m F F F z H F F H F F F H F F H F F F F F F b F F F F S F P F N ] 3.K i ; p m K c k b c b b F y * i p k x k z c c z Z Z 3 & m w.w...c H H S S K K F z F K F K H K F z m F b z m S F F F m F m F F F S F z F S z F z z b b b b b c c c k k , # k F S F F z S b F F S z F b S F b m S b S b z b b b b b C b b b b b b c c c c c k c b C S c k k F F z n v K ) K 2 + & p k x p k p p k h 6 & 2 k g k h ",
"k j C y = 2 p k k x c p k c p c c c c c k c c c c x c c c c x c c c c c c c c c b b b c b b c b b b b S c c b b k x H J S p * O 9 < d k F Z c m z y < * * k K k k z z k 3 * , i [ ~ K M S F S b F F z F F F m F F z F F F F F F F F F F F F F F z F z F F m F F F z F F z F F F z m S F F b F H g @ 6 c F S S S F F F F F F m F F F F F F F m F F F F F F H F F F F H F H F H F F H F F F F F F F F F F b H F F ;.3.Q - & k G C b F b z F y & q j Z Z z z F b x y 8 # O X @ # # * # * = = # , = = , , , , 4 6 4 4 6 6 7 8 t t 7 y y y y y y y u u i g g k g g k g g g g g g g g i t y 8 , t Z H F F F z F F F F H b H b H b F F F F F F F F F F F F F H F F H F F b b F b b F b z b z z z k k k j i t 2 * O O + 8 i j k S S F F S j 2 & t C S F c c c k p t =   O & = , , = , : 4 % , , < 6 6 6 e t t y y i u p g g j k k k c c k k z z z k c c c c c c c c c c z g z k h g y 2 * h S F H H S F F F F F F F F K F F F F F F F F F F F K F F F F H F H F F F F H H F F H F F F F H F F H H m F F $.' F 0 e C J k k z k F S 3 - p i z j g k F c S x & 3 | u.O.H F F F F F F F H F F F F F z F F z z F F F F F F m S F Z F F z F F F z F z z F m F F z F b F F z z c j h , & k F F Z b b b F z F b b b b b b b b b b b b b z S b b b b b b S b b S z z c c c C c c c c c c c c k c c p p F ( ~ c -   , u h h k h u j 3 # = 9 C j p ",
"z g p y * 2 p c k p c c x c c k c k c k c c c p c c k c c c c c c c c c S c c c b c b b m z c c b S b c C F c b H c k F J J x y   , h 9 y k z k k d e # * g k k k z g * & d I ) H H m b S F F F m z F S F F S F F F F F z F F m F z m F m F F F F F F F F F F F F F F F F F z F F b F F F F F H h # 3 c b F b K z F F m F S F F F F z F F F F F F F H F F F F F F H F H F H F F F F F F F H H F F F H F H b H F x P ;.;.c O ; p F K S k C y & 2 u z F z z z k t % % O   X * % # # * % = = = = , = = , , 4 6 4 < 6 6 6 6 7 t t t y y y y i u u p i u g g g k k g g g g g g g g g j t y 6 2 t F m z F F F F F H F F F b H F H m H F F F F H F F H F F F F F F F F F F F S F F F F F S S b c c c c j j u 8 6 ; * X O = y g k k C F Z k > * t F F b C C p 2 = O O # & # # , , , , , % 4 2 8 6 6 8 8 t t t y y i p p h h h h z k c c z z k c z z c c c c c c c C c c z g k k g g i 2 * g F S F F F F F F F F H F F F F H F F F F F K F K K F G F F G F F F F F F F F F F F F F F F F F F F F F F F F l ' #.` k - t C Z K Z k z t ; 6 i g z z k k k 1 e ] u.6.) m b F F F H F m H F F z F F m F F F F F F F F S F F F F F z F F F S F z F m F F z F S F b z S b S b k c h z ; * j F F b z b b z S F b b b F S m b b b Z S c b b b b S C b F c z b b b c c z c c c c c c C c c c c c c c c c k c J P I C =   2 C C h p h * @ 8 C h i j ",
"j j h u = 2 p k c k c k k k k c c c c x k c k c k x k c c c c c b c c c b c c c b b b c c z c c b c F c b b b S F c c c b F J J C *   > y g k z j d 8 * ; p C S y > & ; F U U K m z l S F F F C S F F m F F F F F F F S F F F F S F F F F F F F F F F S F F F F F F F F F F F F F F F F F z F H h % 8 z S F b F F F F F F F F F F F F F F z F z F F F F F F H m F F F K F H F F H F F H F F F F F H F F b H b H H H c Q <.} y - t f c F Z 8 & 2 g k b k j 8 2 * O X O O # # # # = = = = , , , , , , , 4 6 6 8 < 6 6 6 8 y t t u y y u u u p p p p j h j k g k k g g g g j g g u i t y 8 , y z H F F m F F F m F H F F F H b H b F F F H F F F F F F F F H F F F F m F F F F F m F F S Z b c C c k z k g u 8 6 ;   O O , 8 u h h h h % @ 6 z c k j y 6 + O   + $ % , , 2 : , , 4 , 8 < 8 8 8 y y y y i y u u p h k k j z k c c c c k c c c c z z c c c c c c c c z k k k g z d 2 # g F S F H z F F F F m F F F F F F F F F H F F K F S K F F G F F F F F F F F F F F F F H F F H F H F F F F F F F z H ) ` Q k q t z z k j 6 ; u g g d k z > 1 I ,.,.{ F x F H H F H H F F F H F z F F F F F F F F F F m F z F F F F S F F S F S S F F S S F z F S F b b F S b z z j j % * g F F c b b b F b F S z z b m F b b F b c S b b b b z c c c c b b b S c c c c b C c c c c c c c c c c k c c c k k F I S K u & & 6 s k t 2 = , 9 g j i ",
"z g p t ; 2 p k c k k c k S c c k k S k c c c c c c c c c c c c C c c c z c c c b c b b c c b b b S c c c F b b k F F F k c c F G S i # & , y h z g , O 6 S t y & > k U T K k z z z b F F F F F F z z F z F F S F m F m F F F F F F F F F z F F m F F F F F z F F m F F F m F F m z F F F b F H h * 2 z b F b K F F F F z F F z F m F F F F F F F F F F F F F F F F F F F F F F b F F F F F H F F F F F F m H b m c K H F _ =.H 0 ; t i k y * , j z k y 6 = +   O O O X % > % * = = = = # , : , , 4 , 4 4 6 8 5 8 8 8 8 t y y 7 i u y u h p j j j k h k k k k g h g k g g g u g p t y 8 * t z F F F F F F F F F b H F F b H b H F H F F F m H F m H F F F F H F F F F F F F F F F F F F F b F b S z k z h g y 6 , #     % 6 u u k h , * 6 k k t = # & O & $ $ = $ , , : , ; 4 6 , 8 8 8 8 9 y 9 y i p p h h k h k k k z c c c c c c c c c c b b c c c C c c c c z h k k g g g , * g F F F F F F z F F F F F F F F F F F F F F S F F F S F F F F F F F F F F F F F H F F m F F F F z H F F H F F F F k z Q } ) b 2 3 y F J t = 9 j k b y & x ,.5.| H j l H H F b F F F F F F F F F F F F F F m F z F F F F F F F F b F b F F z F F m F z F m F z F b S F b b c z z z j > * g Z F b b b b S b b b b F b S b b b b b b z b b S b b b F b C S b z b c c c c c c c c c c c c c c c k k c c c c k k i S K H z ; O & i k 2 + % u C e & ",
"k g h u + 2 p c p k c k x k c p S c k c c c k c x c k c x c c c c C c c c b c c z c b b b b z b b b b b b c F S F S c F S F c k p G Y p ; & * , h g 2 O = 6 & ; i F U H c c F F H H F F F b F S F F S F F S F K F F F z F F F F z F F F F F z F z F F F z F F m F S F z F F F m F F m F F z F F h @ < z F S b F z F F m F F F F F F m F F F F F F F F F F F F F F F K F F G F F H b F F F F F F F F F F H F F H d U L l b c H +.} y * t k 8 + 6 g i 6 = # +     @ # * % = = = % = = , , = , , 2 4 6 6 6 8 < 8 8 8 8 9 u y y u u u u u j g h k j h k j h k k k p k j h j h h j h p t i 8 , 8 F F F F F F F z F H F F F F F H F F H F F H F F F H H F F H F F m H F F H b b F F F F F F F F b z S F c z z C h h u 9 6 4 +     = 6 g u , * 6 u 6 *       # : : $ # , , , , 2 , 6 6 8 8 8 9 y y u p g g g k j z h k C k k Z c S m S c c b b b b b b b C b b c c c c l k k k p p y 2 & g S b F H b F F F F F F F F F F F F F F F F F F F S F F F S F F F F F F F F F F F F F F F F F F H F F H F F H b I I z k b Q ` ~ b 3 3 j 6 = y g y & 3 #.u.+.P x z H H K F S S F F F F F F F F F F F z F F F F F F m F F F F z S S F F S F F F z F m S F z S F F S S m b b b c z j h ; * g b F c c b b b b b F m b z F F b b b b b b b b b b S S b S b b b b b c c c b c c c c c c c c c c c c c c k c c c c c z k k F K p = O 6 O O 6 6 & & 1 ",
"k j h y ; ; p k x k k c k c k c c k c c c k c c k c c c c c c c c c c c c S c c c b S v b b m c S b b S b b c c S c c c m c S b S p k P J u , & > , , + + 2 q p Q H c k c H H F F m F S b F S F F b S F F F F F F F F F z F F z F F z F F z F F F S F F F F F F F F F F F F F F F F F H F S F F h @ 3 z b F b F F F F F m F F F z F F F F F F F F F F F F F F F F F F F F F F F F F F F F F S F F H H F F F F F T k k S b P E i H ` ! > O k 8   6 , * O   O # # # # # > = % = , , = , , , 4 4 4 6 2 6 6 8 8 8 8 8 8 8 y y i u p g j g j h j h k k k z k k k k p k k k k h j u p p 8 y 6 > y z F F F z F F F F F H F F H F F F F m F F F F F F F F F F F F F F b F F m F F F F F F S F S F F F F F c k k z k h z h p u 6 = +   O % , % + 2 6 * O O = # : : # : : % , 4 < 6 6 8 8 8 8 8 8 y u u p g k h k k k z z k Z z b c c S S b c S b b b F S b b b b c c C c z h k k j p i 2 @ h F F F F F F m S b F z F F m F F F F F F F F F F F F F F F F F F F F F F F F F m F F F m F F m z F F F m z F K S C F H b S F ` ) F i 3 ; , y 1 > ~ 6.=.K c k H H F z b F K H m F F F F F F F z F F F F F z F F F F F F m F F F F F z F z F S F z F z z F m F F F S F S F c z z k z ; # g S b b c b b z b F z S b b b b b b b C b b C S b b b b b b b c b b S C c c c c c c c c c c C c c k c c c m S k p k F j z k g c P C 2 +   # % = * S ,.",
"j g k y ; ; p k c k c k c k c k c c c c c c c c k c x c c c c c z c c c c c c c c c c c b b c z b b b b c S c C k c F S k k c F x F F k S K C t @   &   O y S Y c c F I H x k H z F F F F F F F F S F F F F F F F F F F F F m F F F F F F m F F F F F F F F F F m F F z b F F F F F F F F z F K h * < b S F b F F z F F F F F F F F F F F F F F F F F F F F F F S F F F F F F F m F F b F b F F F m F F F F F F k I I z b b c F m k K L y X   % # +   O O + = # # @ # % % = = = , , 4 , : 4 6 6 6 < 6 6 8 8 9 9 8 y y i i p p h g j j h j z z h k k k k c k k k k k k h h j j u i y y 8 % e F z m F z F F F F F F F F F F F F H F F F F F F F F F F F F F F b H F F F F b H H F F F F F F S F S c c b b k z z C z u 9 9 8 8 #   X O     # +   O # : 4 ; , = ; 6 2 , < 6 8 8 8 9 9 y u u u p p h k k k k k k h z z c b z c F c S b S b b S z F b b b b S c c c c z k k k g g i 2 @ g b S F F F b S m F z F F F F F F F F F F F F F F F F F F F F D F F F F F F F F F F F F F F F F F F F F F z F F c b H I c l b e P ` U S ,   # l O.1.[ m b F ! F z F I K z b H F F F F F m F F F F m F F F F S F F F F F F F F F b F S F F F z z F S F F S F z F z S z b S c c z j j > * g z S c m z b F b S b b F b z b b b F b b b b c S b C c b S b S S b z c c c c c c c c c c c c c c c k k c c F c p i k F p h z k y k U y ,     6 ` ,.,.",
"z u C u ; 2 p x p c p c k c k c c k c k c k c k c c c c c c c c b c c c c c c c c b b c b c c c b C b b S c S c H C c c F F c k b k k c c z k D u # O     y k k F F b c c F H c z F F F F S F F F F F z F F F F F F z F F F F F F m F F F F F F F F m F F z F F F F F F F F F z F F z F F z m F h @ 3 c b F S F F F F F F z F F F F z F z F F m F S F S F F S Z D F F G F F F A F F F F b H F m F H F F F H F F F z F H H b b H m j z F h , X       O + + = + + # % = = = % # = = , , 4 6 2 6 4 6 6 6 8 8 8 9 9 y y y u p p h j h h k h k h z z z k k z k k k k z j k k k h h u x t y 8 , t z S F F F F F m F H F H F F H F F F F F F F H F F H H F F H F F H F F F H b H F F F F F F F F F F F c c S F c z z b z k g u u 8 6 6 % X   . + & # 4 # = = = 4 6 4 ; , 2 6 < 8 8 9 9 y y 9 p p h k k g h k k k z z z z c c c S c S c b c b S S S b F b C b F S F c c k k k k g j y 2 * y S b S F c F F F z F F b F F F F S F F S F F C F F F F S F F S F F S F F S F F F z F F F F z F F F z F F F F F H F b C F K c P c g k z =   = H P H l l I P c K K K S F F K F F z F F F F z F F F F F m F F F F F z F F F z F S F F F F S F F F m z F m F z F F b S b F S c c z k k , * d b b c z b b F b S F b z S m b b b b b b C b b b b b S b b b b b b b c b c c c c b C c c c c c k c k S c k k c c c c k z k k k c j 3 8 =     2 k c x ",
"j g h y = ; p k k k c k S k S k c c c c c k c k k c c c c c c c c c c c b c c c b b S c b b S S b C b S b b S b S c c C S S c c b x k z C h u 6 # O O @ d % * p z z C b F F c x v c b b F H F c F b F F b F F S F F z F F F F S F z F F F F F F m F F F F F F F F F F F F F F F F z m F z F F S h @ 3 c b b b F F z F F F F F z z F F z F F F S F F F F F F F F F F F F F F F F m F F z F F F F F F m S F z m F S F F z b H H c C C h y , # & & +     X   X # o , # * % , = , 6 , , , , 4 6 6 6 8 8 8 8 u 9 u u g i i g g g k h j z j k k k x k k c k k c k c c g h k k g h g g g y h 8 * 8 b m b F z F z F F m F F F F F F F F F F K F F F F F F K F F b H b F F F F F F z F F b m S F F F S F F C S F c F F c k x c p u u 8 6 O #     . X # % = , 4 = ; 4 6 7 6 8 8 8 y y y y g j g h k z k h l z k c c c c c c c F F c c c b c F F c C F c F F b F b c b c c Z k k k g g y 2 * y c c H F z F F F F z F F m F m F F S F F F z F F F F F F F F F F F F F F F F z F F z F F F F m z F F F b b b S F F F F c S F C k h > 1 k , K 3 - e H G F S K m H z z F H H b F z F F m F F F z F F S F z S m F F S F F F F F F F Z F S F S F F m F z m F z F S z F b F b b z c j h , * u S b b b S m F z S m S z b F b b b S b b b b z b b b S b b C z b b S c c c c c c c c c c c c c C c c k k k c x k c z x k z k g y 6 6 O     2 c q & 2 ",
"k g h y = ; p k c p x k k c k k k c k c c c c c c c c c c c c c c c C c c c c c z b b b b b b b b b b b b z b b c c C c S S S c c c c k j 8 = &       y 2.<.c O - i C c c J I K H H F F c c C K S F F S F S F F F S F S F S F F F F F z F F z F F F F z m F F F F F F z z F F F z F S F F z F m h @ < c b b b F F z m S F z F F F F F F F z F F S F F z F z m F F F F F F F F F F F F F F z F F F F F F F F F F F H H F b b S c F u 2 * * , 4 ; C X   + % % % # O = , , , 6 6 = , 4 4 6 6 8 6 8 8 8 8 8 9 u u 9 u u g g h g j j h h h k c k c c c k k c k S p c k k k g k k j g g d h 8 ; 8 S F F z S m F F F F F F F H K F K F K F F K F F F J F F F F H b H F F F F b F F F F z F F z F S F z C c C F F F c m c c S p y 6 = + & , X   X   X   , = = 6 7 q 2 t 8 8 y 9 8 i y y g g j k h k k z k z c c c c c c C c c c b S b b F b C F F c F b c F b S c S c c k k k h j h y 2 * i c F F F z H z F F F F F S F F F F F z F F F F z F F F F z F F F b F m F F F F F F F F F F F F F F F F F b F F b b C F F S c u 2 % * g U k ) f.) 0 ; g F F z P z F F H F m H F F F F F F F z F z F m z F F F F F K F F F F F F S b F b F F F S F z F F z F S b F S b b b b z c z k ; * u c C b b z z b z b b z F F z S F b F S z S b b S b C b b b b S b b b c c c c c c z S c c c c c c c k c c k c c k k k k j j i 8 , & O ; X O C 6.w.F & ",
"k i j 8 = ; j h k c x c c c c x c c c k c p c c k c k c c c c c c b c c c c c b z c z b S b b b b S b b S c b Z x D c c c c c c k k u y 4 # X   O + & ; =.d.s.6.- * e c b c x F b b F H F S b K F F F F F F z F F F S F F S F z F F F F m F F F F z F F m F z F F m F z F F m F F m F z m S z F h @ < c S S c F S F F z F F m F F F F F F F F F F F F F z F F F F F F F F F F F F F F F F F S F F F z F F F F F b m c c F F S z 2 , * * y h y ; C Z h ,     # X 6 $ = , = % = 4 < < 6 6 6 8 8 8 8 8 9 u u 9 u u g g j h k h k k j k z j c k k k x k c k k k c c k k k h h j g g g y y 8 ; 3 b F F z F F F F F F F F F F K F K K F F F F F K K F F F H F F H H F F F F F F F F F z F F z b F S F b F F b b b c c z C C u = + + # < k % O + + # O   , 6 , = 7 u 6 9 y u 9 y u i p k h k h k k k c z c k c c c c c F c F c c b F F S b S b c F F S F C b F C c c c z j k k h h u 2 * u c S F F b F F F m F F z F F F F F F F F m F F m F b m F F F b F b F F b b F F F F F m F F b F F F F F m F b F F c F S z y t 2 & & & 8 F * i O.s.w.F * e P H l k K K m c b m F F F F F b F F m S z F F m F z F F F F F F F F b F S F F F F S F z F S S z m F S S z F F b b z c h j , # u z c b b b b z m F b F b S S F b S z b b b z b S b b b b b b b b b b c c c c c c c c c c c c c c c c c k c k c c k k u u 8 , = O .   % X   8 O.d.9.>.",
"k j h u * 2 p k k k k c p c p c c k c c c c k c c c c c z c c c c c c c c c c C c c b z b b S b b c S b b b b c S c c c m c c p g y 6 = +       + # = * F Q &.m.c.^ * & i b z F F F c F I H F b F S z F b F S F z F F F b F F Z F m F F F F S F F F F F F F F F F F F F F F F F F S z b F F F z h X < c F S b F m F z F F F F F m F F F F m F m F F F F F F F F F F F F F F F F F S F F F m F F b F F F F F F F m b c F F S u , @ > y h F S y ; F 8 i L K e & @ + = # + , 8 6 % 4 6 6 6 t 7 y 8 8 u y y u u u h g h j j j k h k k h h z k k c c k c k c x k c p k j k z k k g k d y g 9 ; t F b F b F b F F m F F F F F F S S S F F F F F F S F F F F F F F b F F S m F F F m F F S m F F F F F H F m b S b c c h 9 6 * & = 4 7 y Z 6 O # 4 , = 6 &   , t 6 t p y 9 y y u i x p k h j z k k z k k c c C c c C c c c c c F S b S b F F c F c c F c F F c b c c z Z g k k h p i 2 * y c S F F F F F F F F F F F F z F F F F F F F F F F F F F z F F F F F F F F F F F m F F F F F F F b b F S b F F F c z k 8 ; #   O ; 2 i Z * y F m ;.k.,.e & r K K K z F H m c F m F F F F F F z F F z F S z F F F F S F F F F F F F F S F b F z F m F z F F z F b F z b C c c z k h ; * y z c b b b F z S z z b F F b b F z F b b S b b z b b c b b C b b S c c c C b c c c c c c c k c c k c k k p k C c j y 9 6 = X     + + @ @ * y J W } q.",
"h j h y = ; p k c k c p c k k x c c c k c c c c c k c c c c c c c c c S c c c c c c c c b b b S c c c c c c b z c c x c F F k t 8 = +     X + % = # * 3 Q x a E 6.M.i.b & ; c j H H F z z F F b F S F F F F S F F F F S b F S F F b F b z F z m F F F F F F S F F F F S F F F F F z F m z F m b g @ 3 C b F b F F z F S m F F z F F F F z F F F F z F F F m F F F S F z m F F F F z F F z F F m F F F F F F F z F F F F k 3 * & i k l z C z y ; z j i j H { ` j O O * 6 6 * % 9 6 6 8 8 8 8 y y g y g y h u h h k p j h j k h k k h h z c c c k S c k c c c k c h z k k g h g g g y g 8 % t b F z F F z F F F F F F z F F F F F F F F F F F F F F F F F m F F b F F F F z F z F z F F z F F F z c c z F H F z j y =   O 8 h p y y G 6   = 6 6 2 , h g = # 6 p t y y u j h k k k z k c k c c c c c c c c S c F c c c c F c F b S F c F C c F c b b S F b b F c c z k k k p p y 2 * y C C F F F F F F F F F F F F F F F F F F F F F S F F m F F F F z S F F S F F F m S F F z S F F F z S F F F S C C j y < % @   + * 6 7 k D = C P v r Q 6.g.#.1 > e b F K m F H F F F F S F F F F F m S F z F S S F S F F C F F F F F z S F F F F m F S F m S F F S z S S b c c c k j ; # i z b b c b b F b b b z F F S S S z F b c S S b b S b S S b b b b Z b c c c c c c C c c c c c c c c c x p k c k k 9 8 = # O   + # # = , O   g ' P j z ",
"k j h 9 * ; p k k k k c k k c k c k c c k c k c c c c c c c c c c c c c C c c c z c c c C c c c C c c c c c c c c c c c z h t , + X     + % = $ : , # 1 Y H c F x ! i.Z.<.3 & e i k K F z m F F F F z F S F z F S F b F F F F b b F b F F S F F F z F F F F F z m F F F F F m F z F F S F z F F h @ 2 c S z b F z F m F F F F F F F F z F F F F F F F F F F F F F F F F F F F z F F F F F F F F z S F F F F m z G F p 2 * * < k z z k g z S k 6 U x i c j p Q >.=.k O O 2 9 3 , 8 2 8 8 8 y y y y 9 h g h h h h h h j k k k z k z z z k c k c c c k c c c k c c h z k k j z k g g y y y , t F b S m z F F F z F F F F F F F F F F F F F A S F F F F F F F F F F F F F F F F F F F m z F S F S F z v S F Z k 6 , & # < y k k h p j L 6   = : 6 6 2 y k K j - * y g g j k k z x k k k k c k c c c S c c c b F C F F c F C F b F F c F F b F b F C F F c C b c c c S h k k g u y 2 * y c F F F S F z F F m F m F F F z F m F F m F F F F z F F F F F F F F F m F F z F F z m F z m F S b F K F S c z g 8 * O   X * 8 6 6 6 u k O y c J P c x ) 6.z.z e 3 i c c F I z F F z F F F m z F z F z F m F F F F F F F F C S F S F F b F S z F F z z F F z b b F b F c S c z k h , & y z c b c z b z z m S F z S S F b F b b b b b b b b b b b z b b b c b c c c c z c b c c k k c k k k k S c k p g 3 , #   O X + # # # = #     3 ^ / c h ",
"k j h y = 2 p j k k k c c k k c c c c k c c c k c k k c c c c c c c c c c c c c k c z c c c c c c c c c c c c c c c p u 8 , # + O   + # = , = = % , > , F c c J H c c { f.N.+.1 3 q p b H F z z F S F S z F F F F b F b S F F F S m z F F m F b F m F z F F F F F F F F F F z F F S z F F F z z h @ 2 z F z b F m S z F F F S F F F F F F F F F F F F F F F F S m F F z F F F F F F m F F F F F F F F m F b b z h t , * - 3 c P c c z j F I c 3 b S z b x c S k / 6.#.t O * 9 8 3 8 8 8 y y y 9 g g h 9 h h h h z j k k h z k C k z k k C c c k c c c c c c c c z k k k z k h h g y g 8 > 8 b b F z F F m F F S z F F F F F F F F F F F F F F F b F F F F F b F z F F F F F S F S F z S F b F F F F F j y , = & * 8 Z F B j j z z Q 6 O 6 8 6 t 8 9 y j L ~ C * y y g k k c k k c z c k c c c c b b c F c F b F S F F c c F F C F c c F b F F b c F c F S c c z z j k k j p i 2 * y c S F F z F F F F F F F F z F F F F F F z F F F F F F F F F F F F F F F F F z F F z F S z F F F S z S S k j 8 , # & O # , 6 8 6 6 6 p C * z U z k b F S H ~ l.%.l 3 i Z S Z F F m F F z F F F F F z m S z F F S F S F F S F F b F F F S b F z F m F z F F z F b b F S c b b c k j ; # t k l b b m b b S z z b S F m F S b S S b b C C b S b c Z S b b S S b c c C b c c c c c c c c k c z k k j i 6 , % O X O @ # = = = * * O + # i Q J p j ",
"k p p y * ; u z x p c c k c k k c k c c k c c c c c z c z c c c C c c c c c C c c c k c c c c b c c C c c c z c k k p 8 = O     + # % = = = = = 6 = O , U H c S j H H c P 3.k.c.F q & i z z v H F F F S F F F S F S F Z F F S F F F z F z F z F F F F F F m F F F F z F F z F F F m F z z F m z h @ 3 b S S S F F z F z F F F F F m F F F F m F F z m F F z F F F F F F F F F F z F F F F F m F z F F F b b b k 2 # @ 8 K H c i k F F C b F k 3 L z k b c c c c l P ,.6.) 2 & 2 8 8 8 y y i g h h y g g g h g h h j k h k z k z z k z z c c c c c k c k c k c k k k z h h j j k d y y 9 ; 3 b F z F m S F F F F F m F b F S F F F F S F F F D S b F b b b F F b F F m F m F F F F z F m F F S F b b k 8 * # = 6 k k z g l z z z k I q + t 8 6 y g i y y k H ~ } 2 3 y j c c c c c c c c c c c c b S c C F c F F c F c F C F F F c F b S S F c C F c F F c c c k Z h k k u h u 2 * i c S F F F F F F F F z F F F F F z F b F F F F F m F z F F F F m F m F F F z S F m F z F F S F b b z c z i 8 & O   + = 4 6 6 y 6 u u p z & z J F C F F m F v x 5.g.X.e , u C F F F F F F F F z S m F F z F z F F F F S S F S F F S z F F F F F z F S S F m F S b F S S b b c z k h = @ i z k b b b b m b F b b F z S b b b F b b b b b b c b b b b b z b b b S c c c c c c c c c c C x k k z j t 3 2 # O X   > % * # * = ; , =     t ( Q x b ",
"x g g 8 # , g x j z x c c c p c k S k k S c k c c c c c k c c c c c c c c C c c c C S c S c b b c z k c c z k j 9 8 %     X O % # , # = = : , # ; , # 3 F Z F F F z S K F b ) ,.C.6.m - * j C S S F K Z S H H H b b F z b b S K S F b F C F F F c S F F F F b C F c F F S F F F b b b z F S F b 9 @ < Z Z b F F b m S F F F F S F F F F F F F z F F F F F F z F F F F F F F F F m F F m z S F F b b b S Z h < + * q k F c c S F c c b c b H F q H b c b b b b S z z l U 4.s.~ & & 8 g y 8 u p p y p k j h k h h j z h z C z k k c c z c c c b C b C c c c c b c k k z k k k k g k t u 9 , 8 z b m F z F F F F F m F F z F m F F F F F F z F F z z F F F F F F F m H F F F D D S m b b S m m c c h 8 = & & q p c c c z b b z b b z K y + 8 6 y i u j j p i i c F 6.! 0 > i S C C c z c K c k C F b b b b b b m S S F F z F m z F m F z F F F z F b F F b b z c c c k k p p p y , * y z k F F b F F F z F F m F F F F F F F F m F F F F F F F b F z F z F F F b F b b F F b b b m b z k k p 6 =   O & = , 6 6 6 6 e y i p z k * c I c F F b H F F H f K y.u.~ e 1 k Z Z F z z F H H b b F H F S S F F S F F F S F m S F F b z S F b z F z F F S z F b F b b b z z c k j = # y k c C c F S c F C c F S b F b c c S C b b C b b b b S S b b b b F c z k c c c c x S c c c k c k k p 8 , &   O # # # # # # = = , = = #   O g L K k k ",
"j g h 9 & , g k k h k c c k k c x c c c c k c c c k c p c c S c c c c c c c c c S c S c b b b b c k k z z k p i = % @ O O O # > = = , = , , , , = , # 2 K F F b b z m H z c S I Q h.B.;.e * e k F Z F K F F c c m m F F F b S S F F F F b F F C F F F S S F F F F F F S F F F b b b b z F m b z y * > l Z b F S S S S F S F b F z F F F F F F F F b m S F F F F z F F m m F S z z z b z F F F S k F K h 6 # = , z z F S c c b F b c b b b H S q H F b k b b Z m F F S j F ..6.s.h * * i C i u p z g i j C g g j z k k k k z z z c k c c c c c c c c c c C c c c z z h k k k g g j y i y ; q z F S z F b F F m F F F F F F F F F F F z F F F F F F F S F F F F S b F F F F F F D F F H F z k k k : # & ; p S S k c k z z S z S F z K y & y 8 i i u j j k k k c S i } <.~ t ; k L j c k j F D c C b c b b b b b b m F z F F S F z S F F z S F S z S b S z b z c c c k k k p j i , * 8 k c F m S F F z F F F F F F F F z F F m F F S F z F F F F F z F F F F m F z F z z m b b S F z z g 8 = + # # = $ : 6 8 t t y y p p x c z - c P c F F b F F F H H x f ] i.q.E O t z z H I F z z m z z b b F H F S F b F z F F b F F b m F m F b F m F S F F b F S b F b b z z k z j ; * y c c c S b b F c b F F b C F F c b b b b b b b b S b b b b b b C c c z c C c c c c c k z c c c p y 6 = X   + # = # * # * % = , = = = # X O d I P k c ",
"k g k 8 # * p k c k k k k k c k k c k c c c c c c k c c c k S c c c S c c S c c C c c c c c c c k c z k g 9 < =     O O # * % % , = = , = , 4 , , , @ 3 F Z b F b b b F F b b z m m { c.l.` e * y g Z F H H H H F F F F F F S b F S F C F F F F F F F b b F F F F F F S F z F S b b b S m F b b g * , Z b b S F S z F F z F F F F F F F F F F F F F F F F F F F F z b F F z m F m F z F F F F b F C t , # ; 8 z F S c z C F F F b b b b b I F q K b b b S S b F z z K F c x ! ..g.X.i & > p k u 8 k S g 8 j k c k h z k z k k z k c z c c c c c c c c c c c c c h z k k h k k g j i u 8 , 3 z b F z F F F F F F F F F F F F F z m F F F F F F F F F F F z F F m F F F F F F F F b F F S z y 2 # # % t k c S c c c c b b z m b S c H u & y 8 p p g j k k k k c c z i m :.,.c * 0 K c H F p b J k b b b b b b m S F z m F z F F F F z m S F F F z F S F b S c c c c k z h u h u 2 & y c c F F z F z m F F F F F F F z F F F F F F F m F F F F F F F F F F F z b b F S S F S S F S h y < # O   # : 4 4 6 6 8 y u y p k p c c c - F P c F F b K F F j m K H c m X.u.6.j * g k k S F K H H H F K F F F F F F F S S F F b b b S z F z m z S F F b F F b S z S C c c k k k g * * u p C S c c F b F F c c F S c F b F c b b b b c b S b b S S b c c c c C c c c c c c c l z k j y 6 = X X O O # = % % # * = * = = = = = #   O y I H k k ",
"k g h 9 X ; i k k k c k c c k k c c c c c k c k c c c c c k c c c c c c c c c c S c c k c c c k k k p u 8 = +     O # # = , % , = , , , ; : ; 4 , , # 3 F b b b b F b z F H H H c J F J ,.V.a.W & 2 i Z C F D F S z m S F F F z F b F F F S b F F C F F F F C F C b F F F S F F F b z m S z b b 8 * , k z b F S F F S F F F S S F F F F F F F F F F b F m F F S F F z b z F S F F F z F F S C z g 3 @ * e z S z c k k c F F F S b F F b S H F t K m c b F b S z S z k F H b k c Q 6.i.` e - y p Z g 8 j S z k k k z k k k k z c c c z c b c c c c c c c c b c c k k z k k k k g j y i 8 ; 3 z S z F S m F z z F F F F z F F F F F F F m F F F F m F m F F F F F K S F S F b c F b b Z h 8 , # . 8 g C C c c k c c b S z S S F z F L u & u 7 h j g k k k k k k z h Z k p I <.;.m & k b k H F k H c b b b F b F b z F S z F z m S m F z F S F b b b b b b b c c z c k k j u j u , * t c c F F S Z F F S F F F F F F F F m F F z F F F F F m F F F m S F F F F b b F Z F S b z j g % X + O # $ 6 4 6 6 6 6 8 t u u a k k c c c - C I c F b b K S m K z b H F b S H #.u.{ > > z S F z S l b S K F S S F S F F F b F S F m b F F z F S F z F F S F z F b F b b c c c z z h = = y h C b c c F F b C F F c b F c b C c b S b C S b b b b b b z c c c c c z k c p c c k z j g 3 ; # X   * * # % * = % = % = = = , = = = # X O y I H c k ",
"x g h 9 * % u k k k k x k c k c c c c c c c c c c k c k c c c c c c c c c c c c x c c z c c c k k i 3 ; & +     # % % , % , , % , , = , , 4 4 4 , 2 * 3 F Z z F F F F b b F F b K K F c c ! 6.N.q.F & 3 j k k J F F S F F F F F F S F F F F F F c F S F F b F b F F F F S F F b F b b b F F b b g * , k c c F S z S z F F S b F S F S F S S F F S F S b F S F S m S z F F m F z z z Z S F z u y # * 6 g b z b c c F F H F F F c F z F z F P F y K S b z F F b F K S c c b H H H x x { f.9.F > 1 t g z j k c c i k l c k c c c c k c k c c c c c c c c c c c c c k k k z k k g h j y y 8 ; 2 z S F F F z F F z F F F F F F F F F S F F z F F F F F z F z F b F F S F F F F F F c S k i , + X 6 h S z h c F F F b b z F b S F b S b I g * u u B p k k C k c c c c z C S S k m ] <.O.3 & b F C F S b S b F z F m S m S F F F b S m S F F m S F S F F S S b b c c c k k k k g g g , * 9 c c m m b F z F F S z F F F F S F F F z S F F z z F z F F z z F F z m F b z F F z Z h u 6 = O   X = < 6 7 4 6 8 9 y u u p j k k k c F c 1 b P c b F b H F F z F H F b b m F l H 6.d.U * > i b F F b b S S F S F F F Z F F S b F b H c F F b b F m S F F F S S c F b b c c c c k j = & u h z b C c F C F S b c F S F F b b b b S b z b b b b b z C c c c c c c k k c S S s p g y , # O + X + % % , = # * ; , , = # , , , = # %   O y I H k k ",
"k g h 8 # > u k k k c k x c k k c c c k k c k c c c c c k x c c k c c c c c c c c k c c C c k p y ; *       + % = , = , , , , , 4 4 4 4 6 2 4 4 , 6 # 8 F F z F c b F F m F z b C z S F F c P ] u.c.<.e & k K i K H F K F F F F F b F b S F S S S F F F F F S F c F S F S F F S F F b b F z S l 8 * > k c c F c F z F F F F F F F S F S F F F S F F F F F F F F z b b b b b z b z z S Z j 8 , & , y k S m c c b F F H F F C S F b F F S S L F e K m b S F F S z p K J H b c z z W H x k X.g.<.l - t k k p p c c k z k c c k c C c c c c c b c c c c b C c c S c z k z h k k h j j y i 9 ; 3 z c m S z F F F F F F z m F F F F z F F F F z F F m F b F F b F b b F S S F H F S c g 6 # O = y k Z S S c S S F b F S S b F z F F z F K i * u u h j k k Z k c c c c z z S H F j j b | 9./ > 0 H F k z b m F F z z F F z F z b F F b z F z F S F z F Z m S S b z c c c c k k g j y 2 # y k c S F z F F z F m z F F m F z F S F F F S b F F b F z z F F S m F S z m b F S k g y 4 & O O # , , 4 4 6 8 t 9 y p p p h C k k x C C c - c P c F F c H b F L z j H K F S H H m j ! u.6.b 1 y j F I H S b F F b F S z F F F b F F b F F m F z z F z F S F z F F c F c F c c k k j ; = u z b b b c F F c F c F c F c S c b C b b b b b b C b b b c c c c c c k c c C k S p p 6 = #     X = $ = = = , , % % % , , , , 4 , , , =   O i J H k k ",
"j g h 9 * > g k c p k c k c c k c p c c c c c k c c c c S c S c c c c c c k c k c k k k c p i 3 * +     X # = , , , % = , , , 6 4 6 6 4 6 6 6 6 8 < # 3 F F z m c c b F H H F F I F b F J J F k N o.d.p.` * & j k c H F F z m z F F C F F F F F F c F F C b F F F F F F F b F F m S b F F b b b 8 * 2 k b c F c F S F S S z F F F F F F S K S F F S S F S F S F F z m F S F b S F F j y 2 ; ; 2 b b z z z S z F C F S c c C F H m S F m S I b e H F b F F S F b C F F F F K K F C C F P H P ,.c.X.p & i H c p C k z k k c c c c c c c c c C c c c c c c c c c c k k k k k h k g j y i 8 % 3 z b F F F m F F F F F F F F F m z F F F F F F F F F F z m S F b F b z m S F S c u t = # @ 2 j F b j k S K F c k m F F F F F F S F F F I y # u p k j k k k z c b C c F c c b F F H K g m ;.<.K - i H z m F z F F F z z F F S F b S F F m S F F F z S b S b c C c c c k k z h g h y , * y k c F F b F b b z F F b F b F F S F F S F F z b m F m z F F b F F z F z S z k j t 2 # + + + % 2 8 < 6 6 6 t u u p h p c c k k c k c S b 1 F P c b b c F F F z M K z b F F k z F H l c { 6.,.q 2 > x F F F K F S F F S F z F F b F b b F F b F S F F F F F b b S c S C c c c k z u = & y j S b b b c c F c F c F c F F c b b b b S c S b S b z c c c c c c k c c k p p t 4 : + + + + * = ; , # * % % , , , % : , , 2 2 : : , % O O i P H k k ",
"k g k 8 O , g j k c c k c k c k c c k c k c c c k c p c k c c c k c p c c c c c c c k x i t * &     O % = = = # , , , , , 4 < < 4 6 6 6 6 6 8 7 , 8 # 8 Z Z b z F c k z m F z F k F K F b b F F m l N ,.x.i.I & 2 i z F F m z H S F F F F c S S F F F C F F F S F S F c S F F S F F b b b b b z 8 # ; k z c F b b b F F F F F S S F F F S S F S b F F F b F S S b b S z z z b m z g e & @ ; p F k z b F F F F F F F F F F H F F z z z b S I S q K F b z F F S S F S C C F S S F C F H b c c b H w.r...; & k I u k k c k k x c c k c k c c c c c b c c c c c C c z k k z k k g g j t u 8 ; 2 z b z z F S m F F z F F S F F F F F F F F m F S F F m F z F b F m b M z c k p t 2 & O 6 h z z x c m F c c C K K F z S S F S F S F S F K t # h p h k Z k k k c c F F b b b b z F z k F b l / ,.,.b * z S z b F S m F F z F m F z b b z F F z F S F b F z F b S z c c c k z k p h y , * 8 k b F F F S m z b F b F b F S F F b F F F F F F S F S F m S b b F S m b b b i t > O   + $ 4 3 , 4 2 y i i y u p p j p p k c c c c c F F ; F P c b F c m b F z z F S F F F F K F S m m c W o.d.~ ; 1 j S b S F F z F F F S F b F b b F b b b b m F z F S b Z b S F F c c c c k z p = = u k b b S b F F C F c b C F b C F c b S b b b b b c c z c c c C c c z c k p u u 4 ; O     # = 6 2 ; * % , = % % , 4 4 ; 4 : 4 6 6 , , % O O y P H j k ",
"k h g 9 O ; p k x p k c k c p c c c c k c c c k c c c c c c c c k c c S c c k z k j p 7 # & . . + & + = = = , , % , , 4 6 4 6 6 8 8 8 8 8 y 8 8 t 6 * 3 Z F k F b F b b z F F S z F S F m F F F S L m e ! u.k.9.t 2 3 j b b z K H c x H H c c H F S F F F F F S F S F F S F F F z z b b b F b c 8 * , k C c b b S m b b b F z F F K S F F F m F Z z z b F F H m H m c C F S C h 8 #   = g F F k b S b F z F F S F F F F F F b F F F F F F H F e F S z F F z F F F F F m F m F F F F F F F F F F k X.u.6.H 1 3 c C h j k z z b c c c k S b c k F c c c C c c c c k k z g z k g g j y i y , 2 k b z m z F F F F b F F F F F F S F z b z F F S F z F M Z F F F b b z z k g , & O , x k k c c c z b F S c F F F S F S F z F m S F m m K y = h u z k k c c k c c b c b F F S b C F F C H H c F ` #.;.3 3 d v F b z F K c k H H k c K m F z F F F b F b S F z b z c c k h z h p j i ; + t k c F H F S S F S F F F S F b z F m m S F z F S c c b b F F v z S S F k p 9 % O   O = 6 6 4 2 3 6 y y u p p h h z h z z k z k c c c b c ; F H z b F F F F m F z b z F F m S S F z F m S F F M 1.6.H - 0 z b H F k Z F C z F F F F b F F F F b S F c S F b C F b z F b b z z c k p # @ y k k z b b z b b b F F S b F S F b F z F b b S F c c k k c c k c c c p p y 6 % O   + , = # = = = = = , , : ; 4 : 4 6 6 6 6 6 6 6 6 2 #   * t F H j k ",
"k g h 8 @ = i k k c c k c k k c c p c c k x c c k k c k c c c c S c k c c C z j p y 2 * + O + + # = = = = , , , , 4 4 4 6 6 8 6 8 8 8 y y 7 y 8 3 3 2 3 z F b F b b F S S F F F F m F z F F F F k z I Q b k / 9.M...1 * e z k k Z I P c p H E c F F b S b C F F F F z F F b F S S m F z z z c c 8 # , k b C H b F z b F z z F F S S b F F z S F z F F F F S c m c c b K K z 8 * O % u C C z c S m z z F m F F F b F S z F S F F F S F b F I S y K b S m F z m F F F F F S F F H S F F F c F b F P k c o.t.%.l & h j z b c j x F c c c k c F c k c c c c c c c c k z g z g k k g g y y 8 ; 2 z b z S F S F S S F F F m F F F F F F z F F m b S m z z Z F z z b C F y > # # , 8 g c k k b c b S m F F F F S F F F m F F z F F z F b L y * h u k k c c c c c c b S F b c F F F F b F c k C F F P ` 6.U e 3 b P K j z H H k k H H x S z F F z S F S b F S b b z c c z h k j u p y ; + y k S F F S D F F F F z F F F z F F S F z z F S S H F F C c c z b j k z g , O O # # = 6 6 6 : 8 6 8 y u u j p h C k z h z z z c c c c S c ; F H b b b F F S F z F F b F z z F m F F z F F z F v f ~ q.,.k & e j z K F c H I k F S F b F C c c F F c F b c F F b S S b b b c z k k j * & t k k z b S b b b z S c F F c b S S z F S b b F F c c C c c k c c k k 9 6 % # O + # % # = , = = = = , , : ; 4 6 6 6 6 6 6 t 6 6 t 6 2 = + * t F K g z ",
"j g g 8 @ * p k k p c x k k c c c c c c S c k k c c c k k c k p S x k k C h p u 2 = O   O + + = = = , , 4 , , , 4 < 6 6 6 8 t 8 8 9 8 8 y 9 y 8 8 8 , 3 S F z S b F b S b S F S F z z F F F F F L z k F m c v ! { k.l.! & 1 z D C h z F H S c F S F F F F F b F S F F S F S F F F b b S b m c c 8 = , k b c S b z b S z m S m S m b F b z F F S z F F F c c c C k b F C y , ; = < g z F c c c S b b S m S z F F F S F F b F S F F z S F F H S e H F z F F b b F b b F F F F F b F F F F F F F F f I I j H t.u.} e 2 3 k H S j h p c S c c k c c C c c c c c c c k k k z k k g g j y g 9 = 3 j b F b F m F S F F F z S F z F F F m F b z m z z F z m S S z k k z 8 > O * 3 p z z c c b b b F b z S F F S S F c F F z S m z F m z F K y = g p k k k c z c c S c c c F c b c F F S F F b b c c c F F ;.,.l & i H H c c c H H F b m F z m S F F F b F S F b S c c c k j z h u h u 2 ; t k c F F m S z F S F S F F b F F F b F F m F c S H F S c S F z k k 9 2 = O   O = 4 6 6 6 6 8 9 y u u u j k p z h k z z z S c c c c C F c 1 F H b m F z F F z F F z F F F F z F z S m z F m z K K k x { q.O.3 * i k F I C x P F S F F F F F S c F F c F c F c F S m Z c c c c k z p # * i j k c c b S b z b b F b c c b S S b F c b z c c c c c c k c k k u 8 , * X   + % = = = = , # , : , , , , 4 4 6 6 6 8 6 8 6 t 6 6 2 6 % X * t K K g k ",
"k g g 8 @ = p k k c c k S x c p c k c c k c S c k c k c c k c k k k k k p u 6 = O     O + = : : , = , , , 4 , 4 < < 6 6 8 y 8 y y 8 y y 8 y 8 y e 8 2 3 Z F z S S b F z b F F F z S F m z F z F F K F c v H H l n m O.c.r.c & - h Z G z c F J c F S b F F S F F F F F z F F z F F b z m b c c c 8 = ; C Z c b b b b m z b F F z S F b F F b F m m z b b c c F F S C h 2 # * 6 g K Z g j b F b c F z z F F F m F F F S F F S F F F S F b F H S t F z b F F F b F z F z F F F F F F F F F F F b F U c l K z j U q.6.~ e 3 i z z C c k c F F k k F c c c c c c C c k k k B k k k g j y i y , 2 k S b b z F F F b F F F F F F F m F F S b z S b F z F m b c z k 8 4   # , g z c c k b b b F m b F b F S S F F F S F F z F F F z S F b K y * h p k k c z c c c C F c F c F S F b F F F H P b c H H c H j I 2.;.j - e c P H c j b H b z F F z F S z F b b b b b c c c z k h j p j u ; + t k k m F c D F F S F F F S F b z z b z b S z m c c c S S S S k h 8 %     + , % , 6 < 6 6 y u y g h h h h c k k z k z z z z c c c F c S C ; S H z z z F F z F m F F b z S m F z F F F F z S F l H I G l m { 6.~ ; 2 j k c K b C F F F F F F H b C C F c F b S b S S F c c c z k k i = @ t k z c C b b b S b F c b b C b b b b b c z z c c c c b c k z h y , # X X # * = , 4 , = = , , : ; , , 2 4 4 6 6 6 6 8 8 8 8 t 6 t 6 2 % O * t F K d k ",
"x g g 8 & ; u h k x c k k c k c p c c k k c k S k x C c z k c c x k j u 8 4 # O   X + % ; = , ; ; , , , , 8 , < 8 6 6 8 9 8 y y y y i y i y y y 8 8 2 3 F F z F F b F F b F z F m S b F z F m S z z b F F b b H F c c E 6.c.%.f * 2 y k S K F F S b F S F F b S b F F Z F S F F z F m z b z b c 8 * , k z b S m z b m S m F S F F F F m S F z F Z b b S F Z C z Z 6 * & ; u C C z z S F F F F F m S F z F z S F S z F F F F F z F b F b F K S q F m z F F F F F F F F b b F F F H b H b m F F F b b m F F S z l o.w.6.b & e z h F k p c F H c k c c c c c c c z k z k k h k g g j y i 9 ; q c b z b F F S z F F z F z m F S z F F z S m F z F F b b c k p 8 = O , 8 p k c c b F b b b b b F F b F S b F F F S F S F F z m F z F b G y * h p C z z c c c c c c F b C F c C F F S c b F b c K H C F F k m } <.[ d 0 j F H F c c c F S F z F F b z b S S b b b z z j j k z i p y 2 # y h C S F S F F S b F S F F F b m z F b z b b F D x c S S C p 9 =   O + $ 6 : 8 2 8 2 6 8 y C g g g k k k c c c c c b b b S F c c c F b c ; F H m b S F F z S S m b F F m S F F S F z F S z b S F S k z H K z <.| k & i c k F b F S S c b F F F c F c b F c F F b c F S b c c k k p * # y j c c b S b b c S S c S F c c F b b c c z z c c c c x c k i 6 ; X X X # % , , , = , , = , , , , , : 6 6 6 6 8 8 8 y t y y t t t 2 t % @ * 8 F K g z ",
"k g h 8 & = u j k c p c c k c k c k k c c k c k c k c c z j k k h j y ; & O   O O # = ; = = ; ; , , , , , , 8 < 8 8 8 8 y y u u u u u u y y y y t y 2 3 Z F z S S b z S z S F F z z S m F z F z H b k F K K b b D Q J k x ..a.l.[ y & 3 b c b H F F F F C F F F F S F z b F F S F z S b b z c c 8 # , k z b F b z F b b z z F z b z z b b b b F b b F F K Z h 8 ; % ; 6 k F C C z b F F F c c F F z z F F F z m F F F S S F S F F S F S S K c q F F z S F m m F m S F z F b F b b F b F F F b F H F F S K K H H c x ] u.,.k - j i c F k i c F c k c c c c k z z z z h k z k g g j y i 8 ; 2 k b F z b m F F F S F S F F z m F z b b F b z F m F C h i 3 = & = 6 h k k z c F b c b b b b b b b b F F F F b F b F m F z F S z F S b H t = h h z k c b c c S c F b F F c F b F F F H l c b F c c F k H H k j H X.<.I t 1 k I F c H m F z F S Z b S S b F S S z c c z k k h i p y , & 8 k c m F c F F F F F Z F S F b b z S S m F z F S S S C j 8 , + + O + = 6 6 6 < 3 8 8 u u p g g h h k k c c k C c C b c F c c b b b F F S ; F H b b F S F m F F F z F z F F z m F z F F m F F I z z S S l l m k ` 6.;.q & e c c F H F F b C F b F S F F b F c c S F b b b c c k k j * @ y j c c b b b b b b S c b b b c c S S c c c c c c c k c p t , # O # # % = : , % = % , , , , , : 6 6 6 t 8 8 y 8 y 7 y y y y t y t t t % O * 8 F K g l ",
"k g h 8 O = p x k k c k c k k c k c k x k c x k k k c k k x j p y 8 = O   O O * % = ; = = = , , 6 , , 8 < 8 8 8 8 8 y y y u u u u u g g u i y i y t 2 3 b F z F F b b b F F S S F S z b b F b F b H H F Z F F S D c F I H k z ' l.6.) 0 * j S Z F S S F b F F F F b F F F F F F m Z b b b c c c 9 * 2 h z c F b S m z F b F F S b m S b z b z S l b S z j u 4 ; @ 2 g Z c c c F H S c k b S b c z F b F m F z F F F F F F b F b F F F b S H b 3 K F b m F S F F b b z F b F b b H b F F F F F F H F C C F H z j F K F I >.u...1 t i c x p i c S c c c k c k l z k k k k k k k g j y u 8 = 2 k c b b z F F F F F F m F F F z F F b b F F b b z k h y , & & , p C S S c b F H S c b m b b F b b b b F F S F C F F F z m F F F F m b K y * h j k k c c c b b F F S c F F b c F F c H c c H H C b K H F F I H v l z ,.} S 2 3 k H c z F F m F F S m F b b c c c c c h k z h u g i ; & 8 h C F F S F S z F F z F S b b z F b z F z b c c c p 8 , # O   + 4 6 2 6 6 7 3 8 9 y u g g g k k z k c c c c c c S b c b b F b b F b F c ; S K S z z F F F z F z m S z F z F F z F S z F F b c S K H K S z F c c x ( ,.} i & i p S F F F S F F b b F F C F c F c F S c c c z k z u * & y h c c b b S S b c F c c c C c c c c S c c c c k p i 6 4 = & O # = , = = : , % , % , , : 4 4 6 6 6 8 8 y t y y 7 9 y y y u p y y t t < O * e S K g k ",
"j h h 8 + ; p k p c k c k x c p c k c k c k k c c c c k k p p y : +     + X % % , = % = , 6 4 , , 6 < < 8 8 9 9 8 y y u u p u p g g g g g y g y y t ; 3 Z F z S b F S F b F F F z m z F m S F z F z l S F F Z Z m c c C F F F H R &.f.5.c & > h F F b F F F S F S F F S S F b F S b m z z m c c 8 * , z z c z F z z b b b b F m b z F z F b z m S F z g 6 ; # # j k z S c c x c c c F F F m m b F b F b F b F z S S F z F F S F S z F b b H b 3 F S z F F b z F b F S m F F m b H b F b F b F F z S K F F F H H b F S l l ! %.s.P ; * k I c i c k c c c c c k z k z k k h z g g j t u y ; 2 c S z b F z S S F b z F z S m F S m b b b F b k k j 4 # O # p C C k k m H S c C S S b b F F b F F b F S F b F F F S z F S z F z F z c K y = h p k c c c c S c b c F b S b C F S F F b b b c F H S z S F F z b z K H j ~ :.} x 2 y H F z F S F F S F z S F b C c c c z k h k u g y 2 + t k c S F c S F F F S F F F F S z m b m S b b k k p q # O   + 4 4 4 2 6 t t t 9 d g h u g k k k k z l c c c C c c c c c C b c b b b F F c - F F m b F F F m F z F F z F F S m z b F m F z b F F b k z F F F b F H F c H } X.I * q p S S S S S c C F c c F c F C F c F C c c z k z u * @ y j z c b b b b c b S c c c c c c c c b b c c k k i y # + O X = = , , = $ = , 2 < , , 6 4 6 6 6 6 7 8 t t y 7 y t u y u 7 u t t 7 t t , O # 3 F F g k ",
"k k h < = , y k k k k c c k p c c k c c p p c c z k k p u 8 : &     + & = = = , , = , = 4 4 6 6 8 6 8 8 y 9 y 9 y i u u u p j p p p p g u p y y y 8 3 6 k F Z b b b z S S b b b F b b F b F F z S F F F b F F F F m S F F F F F H x P 6.z.;.p & 8 g Z Z S K D S z c b b m b b b b F F c F F c c y @ , k b c S b F F b z b b S F F S S b S S S b S h y - & & e D S b z b S z F b b b F z F F z F F F S F b F F b F F F b b z F F F b F b F H c 2 z F m F z F F z F z S F z F m S F F S S F z F b F F F F F F F F m F F S z b H K h.O.n e e k Z C j C S S c k c c k k z h k g g j k y y 8 = 2 k c F F F z S F F z m z z m S z z F S m c c C y , &   > 8 h z k z b z b b b b m S F z F m S F m S F S F F F S F F S z z F z F m S F S S i @ g k k z k z c F S F c F F b S F b F z F F S F F S F z F F S z F S m F z F j c } :.Q e 2 F Z F b c v b x b S c C F b c k C j k k g g y : + 7 c c F F c S b b b H F b b c z b S C c k c C u 8 #   O O = , > < < < t y y y g g j h z k k z c c c c c b b b c b b b S b Z m c c F c D k 1 S F b b b F c S F F S b F b F b F F F z F m S z F m F z F S F z F F b b F c c I } O.x - e C S C S c c c F F S c c F c c F c c c C c k g = # 8 g b b c c F c F c c D S S S c z S S F C j g u t , & & & # = # , , = = , , , 4 , 6 6 6 2 6 6 8 y 8 y y y y y y y u u i u i y i y t 8 : O = u S F j h ",
"k k g 3 # = y k a k k k p c c k x p S S c x k k z g i t 2 , + O O + & = # = = = , = 4 , 4 6 6 6 8 8 8 8 9 9 u u y y u h j h h h k p p u g i u y u 8 3 t k F F Z b b F b z F S F b F S z F S b S F S S F F S F b z F F z z F F F z L F k ` i.9.` * > 3 k F F F C K F b b S F F b C F F c b C c k 8 @ , k b c F b b b S S S b b S z b F F F z z z i , & * t p c k b S b S b F z F F z z F m S S m z F F F F S F F b z F z F F z F F F F F S H c q F F S z F S m F z F m F F z F F z F F F F F F F F F F F F z m F F F F F z b F K n %.9./ e 3 d g F z x k b k k k h k k k k g g g j y u 8 = 2 p S m S z F m F b F v c b b F Z F z j z c p 8 # # + 6 y k z b z b S b b b b F z F F F z F z z F z F F F z F F F b F F F m F z F F z b F y @ u j k z c k c c F c F c S b z F z S F F b m F b F F F F z m F z F F z F k I P j c | } F * i k S J b c P H F F c k k c c k k k g u h y ; & t p c S S c S b b b b m b F F S c z C S C p t = # O O # ; 2 6 < < < 3 y y y u g g h j h z k k c c C b S b z b b b b F b b b z c c S c F c 2 S F F b S F S S F b F b F F b b b S m F z z F F z S F F z m F F z b c b F b c b H P O.{ ; O t F k H F F F c c b J F c C c c c c c k k g # @ 3 j l F C c c c C F c c F c c c z b S k k k i 6 # O O # % = = , , = , = , , , 4 6 6 6 6 6 8 8 8 8 8 9 y y y y y i u y u y y y y y y e : O * t S F j k ",
"j k h < + : y k k k p c c k c c c p S S c c k i y 8 6 = + O   O # # = = , , , , , , 2 6 6 q 8 8 8 9 y u 9 u u p g g g g h j j h h h p p j u u y y t 3 t z S b b b b S F F z b S S z z F b b F b S F S F z F S F F z F S F F F F F b b S c H *.i.s.K & * i F C C m b k b F F F b S F F S F F c c 8 @ > z b b b b b b S S F b b z b b z S F z y 6 # * 2 t k S D c b z S F b S S b b m S b z F F F S F F F F F z S z F m S m S z F b b F F F F c q z F S F F z F z F F F z F S z F S F F F F F z S F S F F S K F F F z m F F m F H H f F 2.t.U e 3 j k k k c D m S g k k k k k g g p 8 u y ; 2 k c z F F m F z z F F z b b Z Z z k C B 8 * O & 6 u k z Z z S z b S b z b b z F m F m z F F S m F z F S F S z F F F F z F b F z F z z F e @ u z j z c c C c c F S F z F b F F F F S m F b z S F F F F z F F z F F b H c k b F H ! } } p e j c S K z c c c c S c c c h k k k i g y = & t p c F m c S c b b c C F S S m z c z k u 6 #     # = 4 6 6 6 < 8 8 9 y g g h h z j h k z z z c c z b b b c S b b z z b S b S m c F c H k ; S F z z b S F C F F F C F S F F F F F m F F F m F S m m S F z F z m z b F F b k b m c ` ;.) ; & u c F c k b J H k F c c c c c c c c k p = # 8 g C F c c c b F c c S x c c c z C z k y 6 * O O # $ = = : , , , , $ 4 : 6 4 6 7 6 t 8 8 8 8 y y u u y y y y y u u u u y i y y y t t <   * t C F j k ",
"j h h 8 + ; t k p k c k k x k k c p x p k k p p 2 = #       + # * = , , : , : , 4 < 6 6 t 7 8 8 y t 9 u u u u u g g g j k h j h h u j h h p u i y y 2 3 k F z z S b b b F F F b b F S b F S b F F b F b F F S b b b F m m S z F F b m K F k c J O.d.5.c O * z F z b b F F S m z c F F c c F c c 8 * , l b z S c S b b b b b z z m F b z i 6 = X * t c C c k c F b F S b b F F b b b F F F z F b F F S F S F F F F z F F F z F F b F F F C H c q F z m F z F S F m S z F z m F z F F S F S F F F F F F F F S F F F S z z F H F S z K b i P 6.,.m @ t b c i c k i k k k k h g g g p y u 8 = 6 k C m z b S S m z b K F b z z Z C k B 4 & + = t k C z z z z b F S b z S m z F F S z S F F z F F z F b F F F F S F S z F b F F S m F m z y & u z h z k c c C F c F c F z S S b F S F S z F F F z F S F F S m F z b F b c b H H k k H P O.! 3 2 z C F c c k c F F c i k g k h y g y , = t p c b F C F b b b S c c c c b z h y 2 = + + & # = 6 t 6 6 6 8 y 8 g g g g h z h k z z C k z c z b b b b S b c b S b z S F S S c F c F k 1 S H b b S F F S S c F F c b F c F z z S z b z S b F F z z S m z b K S z m F F F F b l k F ` *.K & - y C F b k c F b S F F c c c c k k g * @ 8 j z c c c c b S c c c c k z z z g y 9 , O   + # 4 4 4 , , = , , , 4 4 6 6 6 t 6 8 t 8 8 y y y y 9 u u y y y i u u g u u y y i y t e < O = y C F j k ",
"j j g 8 + ; y p p k x k k k k k c c k j p i t 2 # +   O + # $ = = = , , 4 4 6 4 < 6 6 8 8 y t y i y p p j p p p g g g z h k j j p h p p g u u u u 8 2 q z S b F b b S S S F b F S F b b z F z S F S b F b F b S z F b F m F z S z K H S F H H p c ! ,.f.O.2 O 3 c b H F z z b F b F F c S F c k 3 @ ; k z k b c b b z c b F S b k b z y & @ ; 8 z z z b F F c c S F b S F F F F b S F z z S F z m S F z F b F m m S F m S F m S F b H b c H c 2 m z F m F z F m m F z F F F m S z F m z m F F b F F Z F F F F S F F b F K F F b Z K K b j b ] 6.#.x * e c k i F k k k h j g g g p t u 8 = ; c c S F z F b b F b b S C C Z h u 8 + # = 6 p c c k Z b S D m S F S F F m F S F b F F z F S z F S F F F S b F z F F F m z F z F F z F Z y * g k k z c c c b C c F S S F b b F z S F F z S F F S F F m z F z b F b F c K H c b F F k P x ~ =.H ; 6 h K K S c c k c c C j h j y p 7 ; & 8 p c F S c C b b b F F F C S j g 8 = O O O + , , 6 t t t t t y y g h k h j k c k c c z c C c b b b b b z b F S b b S F b b b b b F c J k 1 S F b b b S z F F c F c F F c F c z F F S S b b b z S z S z F F Z F S b b z b S K b F F z l K ~ } k 3 ; k F k k I c F c c S C c c k k g # & 8 g k C c c c c C c c c c k C C y 6 , X X O # $ 6 : = , , = = , 4 4 6 6 6 6 6 8 t 7 y y y y y i u u u i u u u u p u p u u i u y y y t < X * y C S p k ",
"j k g < + = y k k k k k x k k k p C h u t 6 + +     + X : : , # = = , , 6 4 6 6 2 6 8 8 8 y y u y i j h h h k h k k g g k k h h C h p j h u u y y y 3 8 k S b S b b b F b b S z F b F S S F F b b b F z S z b F S m b b F z F F Z S S F m c F J H b b ) 6.u.) * - 3 j b H F F z b S F c b F C k 8 @ , k c z F c b b z c S F F b k 8 > @ * 2 i j F z j z S F F c F b z F F b F S z m z F F m m F F z F b b F b F z F z F z F F z b b H b C K c q S F F S S m z F S z F S z F z F F z S F S z b F F S F F S F F F F S S F F K S b Z C S I H z c H O.<.` e 1 k H i k k h k g g g g j y y y = 4 p c b b z b S m z b c S C C g 6 % & & ; u C C c k c c b c F F F S c S m F z F z F b m F z m F m F z F z F F F F S F F S F F F z S m z F e @ g k k l c c c S b F F b b F F b b F F S z F m F F F S F S F m F F F m S m b c F F F F F c Q F F _ ` k 2 q j S S c k c c h j k j i p y ; & 8 p k c F c S b c c b S D C p 8 , @   O = # : 6 2 6 6 8 t u u y u g g k k k k c z c c c c c S b S z S b S b S b S F S S b S F F c F c F k 1 c F m z F F F C F F c F S c F C F S b b b z F S F b F F b z S S m b b F S b z b b F m z k S H I H ` H e ; e k c c c c S F S c c c k k g # O 8 g c c c c c c c c c c c k p u 6 + &   @ % , , , , = , , , , , 6 6 6 6 6 t t t t t y y y y y u u u u u u u p u u u u u i y u u y 8 6 : X = t c F k k ",
"h h j 2 + = t c k k k k k k k i u u 9 6 , + O O + + = = , 6 , * , , , 4 6 6 6 8 8 3 8 8 y y u u g g g h h h h p z g g z k k z j k p p p h j u i u 9 2 3 k F z b S b S z F F S b b F b S S S S S b S b S F b F z b z z b b F F m K F k p S Q H i F D c b P o.4.u.j e 3 e k F H c F F F c F F c z 8 * ; k c c c c S b z b S b j p 8 = @ * i z b k z b S S c c F F b S F F F F Z F F b S F F z S F S F F F F b F z F F m z F m S F b b b b F F k 3 F z F z z F F S F F F m F F F z F F z F F F F b S S F S F F S F F F b F S F F b K z z z F F z z d H #.<.U & & p g g k j k g i y j 8 y 8 = 2 p c b z F S b F b S S z p 8 , = * + p k c c z z F F c c c c c c F C F F F F z F b F F S z F F S z F S F S F F S F S F b z S m F z F z F i @ g k k k z k c c c F c F S z F S S F F F F F F z F S F z F z S F m S F b k F F b z K F k F j k C F U ` Q t i i x c S c k h z j g y i t = + 8 p c m S c C c c c c p p t 6 # X   O = 4 6 6 2 6 8 7 7 u p s g h h j k z c z k c c c c c S b z b b b F S F b b F b F S F S F F b F c F k ; c F z b S F F S F C S S F S S S F S F b F F z z F F F b F F b F S S S F F F b S b F z c F m k c b H ` ` C ; 1 p x k c c F b c c c x h g # O 8 g k c c c c c S C c C h y 6 # # # # , , , , = = 2 6 : , , 4 6 6 6 6 8 8 7 y t y u u y y u i u u u p u p h j j p h p u u u y u i y t < O * t C F j h ",
"j z p 6 + = y p k k a k k k k k y 6 , &       + = = = = = = , 2 , , 6 4 4 < 8 8 8 8 y y i p u p g g g h k j k j g z z j k k k k h h j k h p u i y y 2 3 k Z S F b b b F z F z F S z F z m F z b b F F S b F z S b b F b b z z F z z K H F k c J C F K S k x ^ o.g.} e & 3 x b b C F F c c F z z < @ ; p c z c c S S b b b j t ;   % 9 C k c c c z b F S S F c b b F F S S F z F b b m F z F z F m F z z b F F z F z S F z F F z b b b b c F z 3 m F z F F z F m F z z F z S m F S m F z F z b F S F S F F S F S F S F S S b F F z S F S F F F F N z c P =.;.H O 8 y g k k h y y p e y 8 * 2 p C b z b m z z b m h y 6 & O = 6 C S x k c F F S z F F F F c S F K F F z F F m F b z F F z F m F z F F F b F F b F b F F m S F F z z F y @ h h k z c c c c F C F c b F b b b F F F m S z F b F F F m F z F b F b b H b b b m c b F z F F F z x c E ` b q ; k H F i h j k g y i u ; & 8 p k S c c S b c k k p q = &   . o , , 2 6 t 6 8 y p p u u p h j k k k c c c c c c c c c c b b S b b F z b F S z S b c F F F b c F c F k ; C F S b b S z F S F S S F S F S S b b F S b F S b z S b S z F b S b b b b z F F S k S K b b S m F C j F ` ) y - 2 k k c c c c c c k k h * O 8 f c c c c c c b C C u t 2 + O + # 4 , % # * 2 6 2 , 6 4 6 6 6 6 6 7 8 8 t 9 u y u u i i u g u g j j p j h p g h p j u u u u y i y 8 4 O = t C F h z ",
"d j h 6 & ; y g l l k x k p y t , #       # * = % = = , , , : 4 , 4 , 8 8 8 8 8 y y y u u u p k h h h h k h k h z g z k k k k k g g z g g g u u u y 6 q z S c S b b b S F F b F F b S b S F b F F S F z b S z S F b b S b S z S S F F S F F b F F F m F F F z F E 3.a.` > & 2 C k F F k S F c x y @ % h Z k z c v z k h 6 2 + O i g k b b F b b b S F z F m b S F z Z F z F b F F z F z F F F z m F S F z F z F z F F F F S z F b z F b F S j 2 b b b S z F z F z S F z F b F z F F z F z F m b F F F S F F F F S F F z m S F z F F F F F F F F z F m b K ~ } =.3 > 1 l z y 8 j d y y 6 = q c c b b S S C C h h 6 # + & 6 k c k z c z c c F m S z z S m F z m F F z m F z F F z F z z F z S F F S F F F z F z F F F F F b F S b F S y & h h k b c c c F c C b F S F b b S F F z S b S b b Z m S Z S F z F F b F z F z m S F S F F S c F F c C F c ~ ) k 1 2 p S k g k h u u t ; * 6 p h b b c b z g g < = O   O # , , ; 6 6 8 8 8 y y y g h h j z c k c c c c c c c c c c S b b b b S F b S S S F b S F b S z F b b F c K j 2 k c F b F c F F c S F S b F C b F z F F S F b S F F z S b S b S b F b S z F S F b b S F z F F F b S b b b P ~ H i O 2 p k Z F C p z k y # & 6 i k x c v b C k u y = +     = 4 , = , = , % , , : , 6 4 6 6 8 8 8 8 y t y y u u p p u g h j h j h k h h h j h p j j j g y g y y y 8 < + , 6 c k j z ",
"j j h 6 & ; y g g g h g i 6 ; =       O # % % = = % % , : < 4 , , 6 , 8 8 9 y y y y u i u u p h k k h h k k k h j z h k z g k k z h g z k h g g y t 2 q h S c S b b b b b S S z b F z F F b F z b b F S F b F b b F b F F b F b F S F F F S F S z F F S F S F z F x ! s.u.I ; - c p c F c c H v < @ 2 k k k z b k k g < * & 6 u j k z b b S b b F z b S F S F b b S b S F z S S m F z F m S z F F z F z F m S F F F S S F F F F z m S b S F g 2 F z z m b F F z F m F F b F b F m S F z F z F F F F F S F S z m F z z F F z z F z S m F F z S m b b b c z b I ~ | U 3 @ < g k i y g g 8 + - i k b z z Z C h 8 # O = 4 y z C m k b z c c b S F z F b F F z F S z F F S z F S m F m F F S F m F z m F b z F m F F z S F z b b F b F S t # h j k b c c c C c F F c b F F b S b z S F F z F S F S S S b z S b S b b S b F S b Z b F b c F c S F b c K j k ) I q * t z j g j B h 7 # @ t u h S S b c 9 8 % O O X # % , , : 6 6 8 8 t g y h h h j z k k k c c c c c c c c c c b S b b S b F b F z F S b F b F F b S b b F b c K i ; z F c F b F b S F F c F c c F F b S b b b z S b b b F z F F b F F z S S b m S z F b F b S b b S b b F z x k F Q Q K 6 * 3 k j k F k k h * # 6 i k b k j k h u 6 & + & & = , 4 = = , , , , , 4 4 4 4 4 8 8 8 8 y y y y y y i u j g j h j h j h h j k j k k h j h j g g g i u y y t < O = 3 C c j k ",
"g g h 6 O * 8 h g u y 9 6 =         # # % , = = , , , 2 4 6 4 6 6 6 8 8 8 y y u y i g g u j h p g k k h k k j z z g z k z h h z g l k h j h g g u 8 q 6 k C C S Z b b S F S z F b S z S b F b F b F b z S F F z S b S z S F F z F F F S F F S F S F z F m F z b F J c x ` u.;.p O 0 k c H k e c 8 * , g h C Z k d < @ @ ; y c C Z b b S b F z b z F S b Z z F F S F F m b S b b S z F S F F F m F S F m S F F m F S F F F b F S z z F b S F g 2 S b F z b F F F F m z F F b F F z F m S F S F z F b S F F m F z z F F m F F m F F z F z z F z F b F F b c c z c K o.| Z - > e y y t 8 , = t b K z z C h 8 ; # & , 6 u C S c c c b b S b b b S S b m F z F F z F z F z F z F F z S F F m F z z F F z S m S F z S F F F S S F S F z Z y & h k k c c c c c c c S b S z F S z F b b b F F b z F F b F b b b F F S F S F F z b b F z S S S F b F c F j F F k F P c - & 3 j z y 8 8 6 & 3 h z F Z u 8 > @     O = , , : : 6 6 8 t u y h h h h k k k k k k c k c c c c c c c c b c b b z b b S z F S F b z S z F S F b c b F c F u , h C F F C c F C b c F c F F b c F S F b F F b S F F b b S b S F b F F z F b b S F F b z F S S z F b b S b k c H L H J k - > y k k k h g # O 7 u k k k k 9 ; = & + + * = 4 4 , , = , 4 , 4 4 6 4 6 8 8 6 8 y y y y y y y i p j p h j j j j h j h h k j j h j h h k j g u u y i y t < + , 2 C c k k ",
"8 y u 8 + % 8 y h y 6 * + X     # = * % , = = , , , 4 4 4 6 8 6 8 8 8 8 y y y y u u g g g h h k h k h k k k z j h z k z k z k k z j z k h j g g y y 2 6 k F c S b b b S b b F b F z F b b S S z F z S F b F z S F F z F b F z S b b F z b F z F z m F z F z F F S C F F c x } h.;.; O q k b F p g * * g C h h 6 % O * , p F c x S S S b b S b S S b F b b S S z F b z S b F F F z F b m b z b S b b z b z z b b F z b F S z F S z Z z b F S g 2 m b b z b z m S b b b b b b z m z b z F b b m b z F b F z F z F m z S b z b S z m F z F S m F b z F H F b b b c z g K =.[ 3 @ 3 g y y 2 ; ; j z C h u , O O # 6 C C C h c k c S b b b b S S F b S b z F S m F S F z F F S m F S F z z F z F S m z F F F F z F m F S F z S b b F b b y + p k k c c c c c S F b F b F b b F z S F b b S b F z b F b F S F b z S b b F z S S F b S F b F c F c F b C b c k c D H F 3 2 * 3 u B u # & e h k h 8 = #     O @ = , 4 6 6 6 6 8 t u u u h h l g k k c c c c c c c c c b c c c C b c b b m b F z S F S S S F F b b b b F c F c k F u 2 j F c c F b S F c F C F c c C F c b b F S z F F b F S b F F z z F S z F b F F S b S b F z F b F z F b F H K z x j c S H F d - , 8 j h h # O 6 u C h h 9 , + O + : % = , , = = , 6 , 4 6 6 < < 6 6 8 9 y 8 8 y y i y u p p u p h h k h h k h k z j z h h j z h h j g g g i i y y y , + ; 2 c c p k ",
"% < 8 8 # = 6 8 6 4 # O     X + * , , = = = , 4 , , , 6 6 8 8 8 8 8 8 y y y i y g g h j k g k k k k k k k k z z k k k k z k z k k k k j k h j u u y 2 6 k C C S Z m b z S b F b S S m Z F S z S b S S z F z F b b S S F b F F b S S F b S F b S F F F z F m S F C F C F F H P E :.9.) @ @ e p p 3 O = z C < * O O , u k C c b b b b b b b S F F F b S F m F b F b F b S b S F z z S S b b F z F F z F F F z b F b S F b S F b b z b F c F F j 2 F b b b F S z F S S F S z F S z F b b F b S S F F F F F F F F F S F S z F z F b F S F F F F S F b S F S b S S F c F k x I X.I 2 & 2 y 8 ; , y k u , X O * 8 y p p k c c S F S c b b S z F b S b b F m S z F z F m z F m F z F m F S z F F S F z m S F z F z z F F F S z F b S b z Z t * h h k S c c c b b C b F b S z F F S z F S S z F F b S z F z F S b b S z F b b b S S b F b b S z F c F F F k k F S p p F L i , * , 8 8 = & t g 8 , X O     + = , , 4 4 6 8 8 y 9 i p p i h h g z k z c c c c k c c c b b C b b b c F S F S z b b S F F S b F b F S z F b c b b z F i ; k c F S b S F c F c F C F F F c F F b S b S b S b b F b S b S F z F S F b z b S z b b S S z F b F F k x b F b b b c c S H K g 2 > 8 8 9 * O 8 y u 9 , +   # , : = 4 , = = = , 4 6 2 4 6 2 < 8 8 8 9 8 y y y u i u u g g j j h k j j h k h h j k h j h z j j h j k h j g g y y y t 4   , 6 C z k k ",
"O @ % , # # 4 4 + X   O + # # = # = , , , 4 , 4 2 2 2 6 6 8 8 8 y 8 y y u u p u g g k g h k g h k k k k k z z k k k k k k k k k k k k k h j u p y 8 3 3 k S S S b z S S z F F S b F S F b b F b b F b F S F S b F z b F S b S b F z z S F b F z z b S m b Z m b S F D H c k k n k I ,.q.z & * u 8 O , h ,   @ % y g z c c c c b z b z b b S F F z S F b S z S S S z b F b F b S F b F F S z F b z S b S m S S b F b S b b b F b z b S b F S u 2 z z m S b m F z b F z S F z b Z b F F z b F b b S b z F S b S S F S b F S F S b S F S z b F z F S b b b b b S b b b b b b F K ~ t 2 = # = 7 u 9 + + @ , t k C k c k c c S F F F S b z F z b F F z z F F F S F m S F F S S m z F F m F z m F z F F z z F m F F S F b F F b F z F m Z t @ h h h C c c c S b F F b F S F z b b F z F b F z S b z F b S b b S F z F F z S F z b F z S F b F b S C b a F F k k F c i C k k t + & = , @ 2 , # +   O # = , 6 6 2 2 6 6 9 9 y y p p k k l g z j l k k c k c c c c C S c c F b b c S S b b F F S F b S S F S b S z F F S b b b c F p ; k F c c F F c F c F c F c S b F c b F F b F b F F b S F z b F b S b b b F S F z F F F F b F z S S b b c b b k b F c F z j z L S 0 * , < # % < ; 6 # X X + = 4 : = , , # , 4 6 : , 6 6 6 6 6 8 8 8 u 9 y u i p u j j j h j h h h k k h k j k k k z h k h j z j h h j g g g i u y y < O ; 2 c C j k ",
"O O % % O X # +       X # = = = = = = , , , 6 4 6 6 6 6 8 8 9 9 y y u i p p p p g k k g z g k k j z k z z k z z z k z k z k z h k k z h z j u u y y 2 3 k C z b b b b F z F b b F b S b F b b F b b F S z S F b m F S z z S F b z S F b b F b F m S z z b b z b F F k k D W H k z k x / 6.:.k & % X # > O @ 8 g F z k k F F c z z c z S S F S F F b b F F Z F b S b F b F b z S m S F z Z F b S F b z F S S z F F z F b F F F z k Z F b S F u 2 b S z z b F S F z S F z b S S F S b S S S b F F F S F z b b S m z b z S z F b b F z F b b S b F F S b b F z F b j F H b b b F z ~ z 2 O   # 4 + & % t j p k c F H S c c c c c F z F S F S F z S m b z F F m F F F z F z F F F S z F S F F z F m z F m F S F F m F S S z b S S b b Z e @ p h j c c c c c b b c F b b S b F b F S F z b F F b b F F b F b z S F b b S F b F m z F F S F b c F S F F C p c S c c c j i u p u y =     % % O O & + = ; 6 2 6 6 8 t y y y p p p p k k B g z z z z c c c c c c c S b c c b c C F c F F b m S b b F S S b b F b S F b S z b z z F h - h c F F C c F F c c F c F b C S b S z b b b S F b S b F b z F S b S z b S z S F b S z b b b S b b b b F F b c k k H k j F b k c H 3 < % * + = + =   + = : , = ; 2 = , , 6 6 6 6 , 6 6 8 8 9 y 9 y u u g g j j h j h h h k h j z j h k j k z h k h h j z j j h h j h j g g g y y t 4 + = ; c k j h ",
"% @ @ @ X       . X X # * = ; = , , , = , 4 6 6 6 6 6 y y u u u g g g g j k j k k g k k g z k k k z j z z z z Z k k k z k z k z k z h z h j u u u y 2 2 k C C S S b b z S b F S z F z F S b F S S F b b F b b F S S z F F b b F F b b F b S S z b b z F b b F b b c C H S c c S c F c j H { ( t       X = g F j j z C F c c S F b S b F F F z b b F S z S b z F z F S b S b F b Z F z S b S m S S b F z S F F z S S z F z F z F z z S S F S u 2 m b F b b b m F F b b F F b m S F b F b z F b S b b b S S F z F S F F b F b S F b F z S F z S b b z b b b S b b F b k b F F z g l k k 2     & # 8 y j k F c c c k c S H F F F S F F F z S b F S b b F z z F z z m F z F z F z m F z m F z F F S F F S z F z z b F F F F F z S b b z e @ p h j c c c c F c C F c F b F F z S S S m S S b b F S z F S F z F b F S F S z F S S S b Z m S S F c F S c c c c c c k k z h z C y y 6 &   X   + = 6 ; ; 4 4 2 6 9 y y y u u i p p p k k z z z z C c c c c c c c S c c F S b F c b F c S b z F Z S z S F F S b F z z F z b S c z F y ; k F c F b F b C F b S F b F F c F b F S F F z z F z F S b S b F F z F b F F b F S b F S F b F F S F b c c b b m b k Z z z k b c i F y , X       + = = = , , 6 ; = , , 4 , : 4 6 8 8 8 8 8 9 y u 9 u u u g p k k k j k h j k k k h j z h k k k k k k z k h z h k z h h g g g i y y 4 O ; 2 c c j k ",
", % # # +       # # > , , , % % 4 < 6 2 , 2 2 e t t y y y i u u g g j g k h k k h k k k h z k k z k C z c k c k c c c p c c c k k g z k k g g g g 9 3 2 k Z z b b b b b b z b S F z F F b S F b m S F z b F b F F z F S S b F z b F b F b b S b S b b F F z F S F S c c S F F C z k z C z i * ; >     % $ p p p c k k z c b c c b b S S S z b b b S z F b S b b S S z F S z F b S F F z F S F Z b S F z F z F b F S F b b S z F z S z b F S g , c S F F c c b S S b F z b F z S b F b F F z z F F S F b m S F z z S F z z F b F b z b z m F b b S F b b z z S z b b b c c C S s S 3 X % *   # O y y h C k k F b c F F S c c F F C F F b b F C b F b S b F b S F S S z S z z F z F b S F b b S z F b F b S F b F z F F z F F b F b z 8 # u j z k c c c c F b F S m b z b F z F b b F b m S F b S b F b S b S F z F F z F S b S F b z S b S b b C F h k F F c x c x j l z i > O % +   @ & & : : 4 8 , 2 , 9 g g 9 j k j j x c c k c c z c c c b b c C c c c b c c b b Z b b b b Z z F b F b b F S b S F b S z F S c c b c b g * z b S z F b F F F b b b S F z S z F b F z F b F b b z z F b m S F b S F z S S z F F b S b F b F b b b S S S c D c k c S z k j z Z u = # X O =   . $ # % = ; 2 2 : 4 6 6 4 4 6 7 7 t t y y y y u p h j h k j h j h k k k k h k k k k z k k z k j h z k k k j k k j z g g g g g y y 6 O % 3 k p k p ",
"% # O   + O   + X O # % , , , , , , , 2 6 3 8 8 y t y y y i p p g g g k g k k j j z k k h z z k k z k k c c c c k c c c c c c c z k k g z k h g g y 2 3 k S z b b S b S S b b b z S S z b F z F S F z S S S b b b S b b F F z S F z S S S F S b z F S S S S b S C S C b S c c k l z Z h y , @ 6 K *     O # u C c C c z c c c c c c c b z F S F F S F z b F F b F b F z b F F b S b z S S m b b b F b S S F S b b b z S F S F b k F S b m S g , c b b F S S b F F F z S F z F b S S b b b S F z b b b F S F z S F F z S S S b b b F b b S z m z m z b b m F m F z F F b c S p i & & ] s.F Z { * O 3 y k H H C F F c k c F F F F F S C F F c c F S b z F F S S m b F F b F S b F z F F b F S b F z F F S b b S z F b z S b S S b b z 3 * p h k k c c c c z z b S S b F S b S b F F z S S b Z F b b S F z b F b S b b F S z F S b b b b b b z b b j K F p i S F k h k g 2 & 1 ! 6.* z =.! 2 O + 8 2 2 g k h 8 y k k j j k k c c p c k c c c z c b c c c c c b C F b c b b b b b b F z S S S F b b F z S b z F F z c b b k F i ; h S S F b F F S F F S b F b F S F S b z S F S S b b b m b b F b z b F b F z F F z S S z F F S S S k b c c S c c S S z z C Z z u 8 6 X     = A ,   + $ 4 ; = : ; 2 6 = = 4 t u y p t y y y u u i p j j h h j k k h k h j k k z k k k h z j h k k k z h z h k h z h h l g g g d y y 6   , 2 k h c k ",
"* # + + # + . #   O O # % % , 2 , , , 8 8 t 8 3 t y y y u u p p g g j h g k k k j h k k z k z k h z z k c k c c c k c k c c k c h k B h h k g g y y 3 2 j S b b b b b z b b b z F b F S F S F z F Z F b z F S F F b F b b S F b b S F b F b S F z F b b b b z b c c b b S c z z k k y = + O % B T @   & + O & ; i p C S c c c c c b b z z F m S b b S b F z F F F z b S b S F S z F b b z S S F F b z F z F b b b F F z F b F z Z F z m F b i , c c S F F b S F b F Z b b S S F z F S F F b b S S z b S F Z F b b F F b F b S F b S b F z b S z b b b b S b b z K g g F H i 1 - n a.M.5.x - P 5.P - * t p k F h F F F J F k k c c F c c c F F S b F z S b F b F F z F F S b F b S z b b b F F S z S b b b F F z b m S b F b z F S z t & p h C k c c c C b S S b z z m m b F S F z F S b S z F F F S z F b S z S S S z S F S z F S b c b b b b b c c b K Z u p Z h k , @ H k.b.@.= i <.V.i.P & O 3 i g t y g k g k h j z k c k c k c z c c C S b c c c c c F b c C b c S z S b b S z F b F b z F z m S b b b b F c b b c F g * g b F b S S z b F b F b S F S z F F b b F b S z F b b b S z z F S b S F S b b b F b b b b z b b b l z c S S S C c F c k C z u 2 & +       = ( p # O     = 7 4 , 4 6 6 8 u 9 6 2 q p i y i p h u j h k k h h j h h k k h z k h h j h k j h z k j k k k k k k k j h g g g g g g y t 6 O , 2 k k k j ",
"O # # = = # & # % # X O + * % , 6 6 6 8 8 8 8 y y i y i u u k h g g k h k k k k k z h k k k k z z C k z c c k c c c c c k k c c z k z k k j g g u y 2 3 j Z z b z S b b C b b S S b b S b b b S b b S b F z S S F S F z F z S b b F b F z S b F b b b b b b b S c c c c c c z j h 4 X   O = 6 C F X + $ = + O O # 6 g C F c c c S S b b b S S F F b F F b S b S m S b F b F b b F z S F F b F b S b F z F b S F F z S F b F z S z Z z z z S i , c c F C b b S z S b F S m S b b F z b b F S F S z F F z S b S b S b S b F z b F b m b z m b b F b F b b b z b b g S I k 1 & x ;.V.e. .! x ; F N ,.,.b & - y k F c b F H F c S F F c S F F b F b F z F b b S S z b S b S F b F S b F S F S z b b F b F S F S b S S S F Z b F S b S l t @ u h z z c c c b b F z F z F S z S S b b S b F b z F b S b b b F F b F S F b F m b b F z b b S b S b z S z c k j C F C i , & k 6.N.3.W n , i / 1.k.B.%.v & > e i j k g g k k j j k k c c c c c c c c z b c c c c c c b b b b b b b b b S b F z F z S S b F S F Z S F S b c b b k Z i , j b b z S z F S b S z F b b b F z S b F z F b F b m F z z b b z m F b b b S F S b b S b b b b b z b c c c c n z C z b k u 6 = + + O X #   & J h 9 t y ;   O 6 u 7 6 6 6 8 t y u p p y p i j p h h j h j j k k z j k h k k k k z z k z h z h k k z k j h z k h j z z j g g g g y t 6 O % 6 k h k k ",
"@ * = , 4 + & # 2 , * @ X # # # 4 6 6 9 8 8 t g y y g g j h j h h g h k k k k k k k k k k k z k z k k k C c c k c c c c c k c c k k k k k k j g u 9 ; 3 j S c S b b z b b b C b z b b b C b b S b b b b b z S b b F b S z S z b b b b b b b b b b z S b b S b b F c c c Z k i 3 % X O X 6 7 8 C G ; + # $ : = +   O , 8 j C C C S b S b z b z F F b F z b F F b S S b S F b z F S m z F b b F b F m S S b F S b b S S F b F F b z S b b F S g , c c F F F c c F z S F b F b S F S b S F S F b b F F b F b S F b F S F b S F z z c b b c z b b z b b b b b b b b F Z e & r ..w.h.| c m } i ; s t v ! 4.,.p @ 3 p F F F k b H H c F c S F c b F c S F b F z S S b z S S z b F m S S F b F b F b F F b S S m S F b F z z F b b S z b z t # u k k k c c c b b S b S S b z z z F b S F b S F S b b F b b b b S b b C b S z b b b b b c c c b c c c b c k c c b i 2 & r %.b.9.` F c y 2 j N N / r.h.b.{ i & > z j j k c k k k k k c c k c k c c c b b c C b c c b F S b b b b b S b b F F b b b b S F b b b b z S z m b b b z Z i = j b b b c S S S F b b z S S m S F F b S S b F b F S b b z m S b z b S b z b b S b b b b b c c c C S c k c z z z C g g 9 2 # O & + = # X   & J h y i z K C ; O O ; y y 8 6 8 p p y u u u j j j h k k k h k p k k k k j k k k z k k k k h z k k k h k k k j h h k k z g g g g d y y 6   , 2 j k j j ",
"% , = = , # + $ % , % 4 = % @ O & % 6 y 9 y y y d i g g j h h h k g z h k k k B h k z k z z k z k z z k k c c c k k c k c c c k k k k h k k h g g y 3 ; k S z b b b S b b b b b b S S b b b b b b S S z b b b b b S F z F S F F b b S b C z b C b b b b b S b b c c c c j 8 = O X X = 2 7 y t F L % O # = 4 6 , = # O O % y c F b b F S S F b b S b b S b S b F S F b F z S F z F S F z S F S b z S S F b F z F b F b F S b S b z F b b m S g , c F c F S c F b F b b F z S F b z F F b b F F b b S S b b F b F b b b F S m F S c c c c b b b b c b b m F b b c g - > ! i.c.4.! h F k K S : y F c j p ` w.} q & ; p F F c c c k C F b c F C S F b F b S F b F b F F z F S z F S b F S z S z S b S b b F Z F S b b S F z S F z F c z q * u k k c c c c S b F F b z m F S F z b F S b z F F b F S b b b S b z b b b b b S b b b S c c c C c c c c F k b b q & y { h.j.&.P p k A S , 3 ! ' E F ` h.B.t.! 3 & 3 j z k c c c c c c c c c c c c c b S c c c c c C c c C b S c b b b z b S F S F S F b b b Z b b b b S b b b b F i * j b b Z b b b b F S F F b z F b Z b F F b F z S S z z b b F z b b b b b S b b b b S S b S S F b C b z k k z z k k y 2 # O # # % # = X     ; W p y i 2 g ~ _ k & O = 6 g i y y y y g h j j h h k h h j k k c k k k h z h z z h z h k z k z k k k k h z h k z j k h g k g g g g y t , O = 4 h g p x ",
", 4 = = , + + = > 4 , , 4 , % % O + = , 8 u u y g g g g j j j k k g k k k k k k k z k k k z k C z k C z c k c k c c c c c k c c k k k k k k g g y 9 2 3 k z z b S z S b b S b c b b S b b b b b b z b b S b b b F S z F F b S z b b b b b b b b c c z c c c C l k h p y , % X X , : 6 6 8 t i H H * # , < 4 , , < , # O O * 6 u k b z b F S b b F b b F S F S z z F b b F b S S Z b b S F z F b F b z F S F b S b b S z z S F b z F b b F b i , c c b C F c F C F z b S F b b F z S b b F z S S F b z F b S z S F z b S z F S S v z b c b c b b b b b b b k j i @ v 6.c.w.Q c m F H J ~ p + p C F H F p c #.3.~ 0 3 t k F c b H b F c F C F b F F b F S z F F F z F F b F S Z b F z F S F b S F F z F b b F z F F b b S m S F b b z t # u h k k c c c b b S b b z F z m S b F b F b b F b S S b b b b z S b b b b z b b b b z b c c c c c c c c p k y & > ! e.b.;.Q x c F c p y = i U K k D F m ..k.V.4.c 3 3 t p p c c c c c c c c c c c c b S c c c c c c b b b b b S S b b b b F b F F b S S b b S b b S S b b b Z z F y = u b b S b b b b S F b S F b F S z S z F S b S F b F m S F b z m F z S b b z b b b c c c c c c c c c k c k z h y 2 = # @ O = , = # # X X   1 J k g C C u 3 H ;.X.C & # 2 p h i p c j h j h k h k j h z k k p k k k z h z k k k k z k k k h k z k k z k z k z h k j k g g g g i y e 6   = 2 h k k k ",
"= , : 4 , X + % 4 , % 4 = , , : = & O # , 8 u i g g g g k h h h g z k k z k k Z h z k k z k z c k z z k c c c c c k k c c c c k k k k k k g g g h y 3 2 k z z b b b b b b b b S b b b S c b b b b S b b b b b b b b b F b b F F b S b z b S b S c z c c c c b z g g 8 *     + $ 6 6 9 y p j i b K * O 8 8 , % 8 : 8 8 , X + + & j j z z b S b b S b F z S b S b F z S F F b F b S b F S b F z S S b F z S b b F S F z F F b b F z Z b b b S i , c c F F F c c F z S b F b F S z F b F S z S F m b F S b F b F F z S b F S b F S b b c c b b b c b b b k j i 0 > %.f.d.{ c v H b H x x Q C ; u z k z b K l x E 3.<.S & > c C c b F b F c F c F c z S b b F b z S F b S b b b F b z S b b b F b F b S z F S z F b F S Z F S S b F b k t * p h z k C b c b b S S F b b z b F F z S S b F z F z S b b S b b b b z S b S b S z b b S b c c c c c c c C 3 * c 4.n.9.^ Z C k c F c x x = y U U S K S b n W ,.c.c.O.k - e i k k c k c c k c k c b b b S c c c c c c F S S b b b b b b z S S b b b b F S z b z b b b b z b S S z F y ; j c c b b b S b b z S b b F S b F z F b b b F b b b b b z b b S z b b b b S b b S c c c c c c c c b b c b h 8 > O + # , , = % # # ; # X   & ( S g 9 p k C p i J 3.} u O * p p y p k k k k k z h k k k k k k k k k j z k k k z k k k z k z z h k z j k h k k j z h k g g g g u y y 6   ; 2 k h k p ",
", = < = $ # O 4 4 , 4 : 6 , 4 6 , 4 % # O O < u g g d h k Z h g z g g k j z z z z k C z c k C c k c k c c c c c c c c c c c c k z z k k h g g g i y < 2 j S C c b b z S b S b b c b S b c S b S b S b b c b b z z F b S S m b S z z b F b b b b l z z b l k k z 9 % +   X , 6 , 6 t g y g k g F F = * 6 8 8 6 y 6 6 6 6 6 , ; + O , g z z z c m b c c c b F S b Z b b S b F F z F b S F b F z F b b z b m S b b F b b b F z F S S z z b z Z g 2 k c F S b F F S F b F b b b S z b b S F b S z F b S b S z z F z z c S S b b c b F F c c Z S F K C C C p - 1 / k.g.| F z S m b H C F M ! h = p j k c c F S F c C / 3.;.x & 3 b z k c F S F F c F c c F F S b S S b b b S F b S z F F b F F b S z b F S b z F b F b b z F S b b b b k t @ g j z k k c c F c F b C F S F b F b S b b b S b S b b Z b b b S b b S b k b S F c c z k z k k S S c p p * a O.x.d.` k k S b b S k z k y * y I ! F S K S F H m Q 4.M.j...e 1 > j c z h C k c b c b k k z c c c c C c c c b b S b b b S S b b c b S b b b C b C b b b b Z b c b b S u ; g c c z b S b b z z F z S b b S z S z F b S F S F S b F S b F F b z z b S S S b b c b b b z z z z Z k h 6 = # = # = = = = = = , = = #     2 H C g j h k k j h j h / ;.{ i O 2 C h p h j h C C k y k c k k k c k c c p c p c k p c z k h z k k z k C z k k z k k h g g k g g h y 8 6   = , p k k k ",
", , , , , %   6 < 6 6 6 6 6 6 6 8 < , 4 % # # X 8 y g h g g h z k k g k z z j h k z z k c c c c c c c c k k c c c c k c k c c c k k k k k g g g y i 2 , g S b c S b b b b b b b S b b b b b b b b b b b S b b S S S F b F S F S b C S S b b c F z z b z Z k 8 2 X X + # , 8 8 9 y 8 g g k k j H F % * 6 8 8 8 8 8 8 6 2 6 ; 4 = # O @ , j S S k S F c c S b b z b b b b S S b b b F b b S z S b b F z F b b b F b F S F z S b b F F z b F b i , k c S F c F F c b F b F S F z F F S F z F z S b b F F S F S b F c b b b z b c z k k k F S k k k z g > & P d.k.3.~ F z F L F b F S c z U C = h j k c c F F F F b l z [ <.[ e & 3 F k F J k k F K C F c S c b b b S F b F S b z F S z S b S b z F b b F b F z S S F S F z m Z z b b k t & u k z c k c c c c b b c b b z S S S z F b b b b b b b b Z b b b b b b b S z c k S F H F z F F k p k ; O / f.c.X.k c I F F z b z k z k t * y K I z m K S c F c x H  .9.k.6.P 3 2 i p k k x c c k k z S S c c c c c S F c z b b b z S b b b S S b b b b C b b b b S z b b S b S b Z y * g c z b S S b S b b b b b b b b b S S z F F b S S z F b S b S b S b b b b b c b b b k k c Z F z z h 9 , # # # = $ = = = = , = # = = % X   2 J S g k h k k k z z k x m } 4.) * O 3 k C z k i y k K c k c c c k c k c c c c k c c c k k z k z k k k z h h k k k k k k g g g g d y e 6 O = 6 k i k i ",
"< , 6 4 : % + 6 < 6 8 8 6 6 9 8 < < 6 8 6 6 * O X > 9 g k g g j k k z k z k k k z k h z c k c c c c k c c c S c c c c c c k c k k k k k k k h g i y 2 2 g Z b c Z b b b z C b S S c b Z S b b C z b b Z b z b b b C b S z b b b F S b b c C c c z z k k u 2 #     + , 6 6 8 y u y i k i k z k F G ; = 8 8 9 8 u 9 8 8 6 8 6 6 6 , # X O = t h C c C c F c b S S b b b b z F S F S b S F F z F b S z b b z b z z b S b S F S z F b F m b b Z i , k b F b b F F c S F F S m S F b F b S S S z F F b b z b b b b b b b c c c c c b Z F c k Z F S p 1 & f ,.x.w./ c z k c m F F b F S F b ! p = p z k c c F S F c c Z z j H | 4.Q 1 & p c c I J j j F c F F F F b c S b S z F b b b F b F b F b b F S F S F S z b b b b S S S b b S b z 3 @ u h C h c c c c C b F c b b m S b b b S z b b S c S c Z c b S b Z b b b F c c z c c c k z j k k 1 & P g.M.&.H x H H b c S b b b k z j 8 * y K ! m b F S C F H H v x Q ..f.x.4.b * 1 k c k C C c c F z j c c c c c c C b c c c S b Z b b b b c F b b b b S b b C b b b z b z S b Z i ; u c c b b F z b S b b b b b S S b b b b z b b b b b b b b b b b S F b b z c c c c c c c c S S h i < = # & + # , = , = = = = = = = + = +   2 J K h k z k k z z k k k c k H X.<.Q * & e k k h Z z i x k k c c c k p k k x c k c x c k k k k h z h z z z j k k k k j g l g g g g 8 t 6   = 2 p j p k ",
"6 4 6 , 6 = & 7 8 8 8 8 8 y 8 y 8 8 8 8 9 9 6 , @ @ * , y k z j h k h k k z k k k z k z c k c c c k c c k c c c c c c k c c c c k k k k k g h g y y 2 , g F b c b b S c b b b b b b b c b b b b S b b b b b S b b b b b z S b b c c c c S k z c k B h 2 X + + + , 6 6 9 9 8 y h p p z k k z j H F % * 8 y u 8 u u y y y 7 y t 8 < 8 2 % O O 6 u p k c c z b b b b b b b b b S S z F F b S F z S m z b F F b m S b F F b F z F z b S S z Z z y ; z b F S C c F b S z b b S S b F b b F S z F b S b b S b b b S b S b c c c b c S k j k c F l 3 & r ..k.x.{ j j H F K H b c b F F F c m P p = u j c c c C b F S b h F F k k Q +.3.b - ; b C j S K F F C c S F F F F F b F b F S F b F S b b F S z S b b F b F F b F b F b S b b b S k 3 & u h k z k c c F c b c b b b b Z b S b c S b b b b b b b c b c b b c S S z b b b c c c c k z 3 & f 6.k.7.P m v F S x c P S z b z k k j 3 # y H P b b F Z K C C K F c b H Q ;.g.g.X.x - 1 p p k C k k k b c k c c c c c c c c c c b b b b b S c c b S b b b b b b S b b S b b S b z y ; y c c b b b b b b b b b S b z b b b S b S b b z b z S b b b S S c b b C c z b S b k k z c C g 8 , # # # * ; , : = # , : = , = = : = = X   6 K F h k z c k k C z z j S S p c ` ;.;.z , * g F h p C k k k k k c c x k c k c k k k c h z k z k k z k k k h z z z z h z g g g g g y t 6   = 6 j j k k ",
"8 2 8 6 6 , # 8 8 8 8 y y 9 9 9 u u y 8 y 8 9 8 9 , @   & 3 j z z k k k k k c c z k k z k c c c c c c c c c c c c c S k c c c k z z j k k h j u u y 2 , g Z S b c b c S b b b z b b b b b b b b b b S z S z S b b S b b b b c S c c c C C C C h 9 8 , # O + $ 6 6 8 8 u y g h C p p C p k c x P K - > t i u y g p p u u u u 7 t < < 4 6 , = &   t u k C Z k z k z c c C b b S b b S b b b b b b b b z z F z m z S z F S F m S S b S b b z z i ; k c C b c F C b b F F z F S z F b z S b b b z b b S b b b b b b S b z c S F S F Z k F F 3 O q ~ j.r...m x L U S k F H F F F F k F z m I u * p k c c c c F b C F J C h C S c m ~ 4.{ e & e k j H F c C c c b F F b S F b S z b S b S b S F b z F z F S z S F b F b F S b S b b b b z 3 # y k c k k c c c b b b b b z b b b b b b b b b b b b b b c c c C c c c c b c c k c F b b q & q =.g.w.] n c m F c b H F k F b b z k k g 8 * y K P z b F S C C F S c b H J x c ! 6.x.w.! r - ; i F H c p c c k c c c c c c c c c c z b b c c c c c C c c c b b b b b b b b b z C c S i ; i c c b b F b b b b b b b b C b b z S b b S z b S z m S b c S b b c S c S b S S F c z z g y 4 = O & = = , , 6 , , , = = , , = = = ; % X   6 J F h k c c c c c z c F C h k c c P / q.` e & t c C k c c c k k c k c k k c k c k k k z k z h k k k k k z h k h k k j g g g g d y y t 6 O = , h k k k ",
"8 6 8 6 6 : = t y 8 y 8 8 y y y y y u i y y 7 u 9 8 2 > # # % 6 h h k k k z c c z C z k C k c c c k c k c k c c c S k x k c c c l k k k k h h g u y 2 2 g S z b b b b b b S S b b S C b b S b C S b b b b b b b b S b b S b S c c c c C c C B y 4 #     + 6 7 8 9 8 y u h k h j p p c k c c p J K * 2 t u u u g p h j p p p i t 8 6 4 < 6 4 , +   = 8 j k Z z z z c c b b b b z b z b S b b b b b F m S b z S F z F F z z S S F z z S l b z y ; k c F b c b F c F z S F Z b F z b b b b b S b S z b b S S b b Z S c z c F F S C G k e > 0 H <.z.;.! c b F b Z F c F b F F F m z F z v U u + p z c c c c c F b c k K J H c c c k F } <.) 1 * x p S F F F C b S S F z S b b F F b b F F b S b S F F z b F b F b S b b F F F z b b z k 6 & u i k k k c c c b C S b b S S c b S b C S b S z z S b b c c c b c c c c F c k c S k e & q ) u.d.O.m c J F F F F b k c F F k c c k j j 6 @ d P W v b S Z c F H F F H b k F I F k ` i.c.6.E i - e c c c k c c c c c C c c z c c c c c b S c c c S c c c c c b S b b C b b c z c c C i * u S z b S S b b z S S c b b b b b b S b b b b b b S z b S C c b b c c b b S b c c C j y 2 = # # * = $ 4 , = # = 6 = , , , , , , , = % X   q J F k c k c k c k c z h F K C k x x x F =.q.Q - & q p c S c c k k c c c k c x k k c k k k k z z h z k z k z k z k z h z j z g g i y y 2   = 2 h j k p ",
"8 8 y 6 8 6 = y y 8 9 y y g y y t y y u p u p y 8 y g 9 2 # X X < < d z k l z k k k C z c c c c k c c c c c c c c S c c c k c k k k z h k j g u y i 2 2 g S S c C b b b b S b b b z S b b z C b z b b b z S b c c c c c c c S c c c k h u y 4 = +   O = 6 y y t y u j j k k k k k k c c c c k F F = 2 y p k u h k h p u u p p p u u 8 6 2 6 6 7     % , 8 g l S c c c c c S S b b b b c b Z S b b z b F m S z z b b b F F b F S F S b c z z y ; c c b b c b F c b S S z b b S m b S S b b z b b c c c c c c c c b c c c b S k a y 1 * p =.k.9.^ b F S F F K S k H F b b b b b F S z b P u & p k c c c C F c S F F c c H F C C I z k F X.<.I 1 > p z S F F F F F z F b b F F b F S z F F F z F S S b F b F b z F S F S z S b z b b k 2 & u p k k c c c S b b c F z b z c z c z c b b S b b b b S c c c c c c c c c c b k i t p j r.s.3.P k b H c c F F k c K F j F c k c h z d 3 & y H P c c F Z F F c k c J J H c F F F c m ..u.k.+.v 1 - y c F c k c c c c c c k c z c c c z c c c c c c c c c S S b b b c S S c c c c C y * y c z b b S b b b b b C b b C C b c b c c z c c c c c z z c c c c c c c F b b z k y 6 , # + # # = $ 4 = = = = , , , , = , : , , , = , #   8 J K k c c c c k c c c H k p b F b c F k j K | =.H q & y p c c c k k c k c c k k c k k C k k z k z z k k k k k z k k j k g g g g i t t 6 O = 2 j j k k ",
"t 3 y 6 t 6 # y y y g y y i u u j g u u p p p y k d y 8 9 8 $ $   @ 3 k B z k c z k z k c c c c c c c k c k c c c c k c c c c c k z h z h j g g g y 2 , g F c c b b C b b b b b b b b b b b b b b b S b b b b S c c b c c c c c S x p u 8 ; +   & # 7 y y 6 t p i u p p k k c F k k S x c c k H K * * i u h j h h j u u p p p k y y i y y 6 6 ; 9 , O   O 2 y j c c c c z b b b z S b b b b b b S m b z z b S m S F S b S b b S b b b b F z y , k c b c c S c c b F b F S Z F S b z b b b S b S c c c c c z c c c c c c b b k i @ t } f.r.` n m C S F S b z S F b c c H F b b b F z b I p * i k c c c c c F F S n F F k C F G p b F b c I =.} c & 0 j b b c c F F b S F b S S z z F S z b S m S F b F S z S F z S b b F S b b S z k 3 + u p k k k c c c b S c c c c c c c c c c z b b b b S b z c c c c c c c c k c z 3 & i =.x.8.^ k x K I A S F c c H F c b F b c k c k j g < * 3 H P c c F z x x m H v c c c F S c F F F H H %.j.f.X.i * 2 u c c k c k c c c k c z c c c c c c C c c c c C k b b b b b b b b c z c c C i ; i c c z b S b b S b b b b b b b b c c c c c c c c c c z b c c c z z c c S b k j j = # @ O # = , % : , = , 6 , = = : ; : , , , , : = = +   6 G F k c k c c c c c b x c F c k c z k z S k k ` <.} x & 0 p S k x c c k k k c c k c k k k k k k z h k k z k k h k z h k h j g g y y t ,   = 2 j p k i ",
"y y y 8 y 6 = u u u y u u u u u g g g g g k k g g g g u g y y y , # O # 8 C C C j j b S C c k c c c c k c c c c k c c c k c k c k k h h k g j p u y 6 2 h F C b c c c c b S b c b S S c b b b b z c S S b c c c b z z k k c c x h d 8 % @   O # 4 2 8 8 y y u u g k k k k z k z c z c c c c C H F 2 > u j g j k h h h k k k k k h p p u u t t t 6 8 6 = O O = $ k k k k C b c x b F b c c c c H c b b b b b c F c b b b b b S b c c c m S S t : k c c F c b F c b b b b b b b b b b b b b b b b F F c c k c c c F h h K b r 1 - ! 8.f.+.F S G S F z F F m F z F b F b S b S F z K b M L g = y j c c c c c C F c c b b F F c F F b z b m b S ~ #.' d * i c C c S F c k S F c c c b b b b b F b F b m S z z F b m S b b b b b b b b j 2 * 9 h k k z k z c c c F b b C F b S b S c C c c c c b c c x F F c x k C k z y & w ..f.r.` F S F S F F F S b z F F b b b b c k z k g k h 6 @ 8 F H m z S b F b F b S S F F F F S S F z F F F L $.k.h.! q - y u p C C k S S p c F c k c c F c c c c c c c c c c c c z c c c C c F c C t * y z k c C b c F S b b c c C F c c b Z b b b C b S c c b c c z k z F Z k k B u = & & = = , # , : = = = , , , 4 , 4 , 4 , 4 6 , : , = , , O 8 F z v z b b b c c c C z k c c c c c C c k c c c F _ <.` e & e c k j h k h C k z z k x z h k z h k k z h z k z j h g k g k j g g i y y 6   = 2 i u k k ",
"y 8 g 8 8 6 * u y u u i i u u u g g g g g g g g g g p h g g y i y 8 % # & ; y h z z j j c S C k c c c c k z c c c c c k c c c c l z k g g k g g u y 6 , h S c c c c c c z c b b b b b b z b S b z c b b c c c b j c F C k k k c g , X   O = 6 8 6 8 8 y u p p u k h k k k z C C c k c c c k C F S , * j h g k k k k h k k k k k h j p p u u u 7 8 8 8 < , = # = = 6 h Z C k c c c c c F b F C c c C b S b b c F c C F c S c b b c c c c S S p : k c F b c b C c b b S b b C C b C b S b c S b S c k k c c k c F z c C p * & F 4.f.#.H k b K S z m F z S S z F S F b F b b F b S C c z K i = 8 k x c c c c c c b S b b C c F S b b b S b b z z H { O.H - 1 k S c c F F k k K H k b b F b b b F b b z F z z S b z b b b C C b b S b k 2 O g h k l z z k c c c c C b c c b b b b c b c c c F C F c F c c c z k k h * > P a.f.O.F c F F F F F c F F F S b S b b b b c c C k j k g , * 8 F H b b S z F S z b F F F z z F F F F F z F g M M / 7.k.3.H & 2 i k c k p S F F c c p c c k c c k c c c c c c C c c c c c c b c c c C y - i z c c c b b c c C b F c b b F c b b b c b b b b S b c z z k z c k k k y 6 = # = = = = , : , , , , , , : , 4 < 4 , 6 6 : , 6 4 6 , , =   5 F z c z b z b c b c c c c c c c c c c c c c c c k C F } ;.I & & i Z S Z k h k z k k x k z k z z k k k k k k h k z z g h g h g g y 8 y 6   ; , u g p k ",
"9 d 9 3 u 6 = p u i u u u u u g g g g k g j g j j h h j h g g g y d 8 2 # + # 4 g h C C z k k c c k c k c c c C k c k c c c k c z g k g h h k g i y 2 , h C c c c c z c c c b Z b b b b C b b b k z b c c c c c c c c z C z y ; # O   O ; 8 y t y 9 y g p k k p k k k k z k z z c c c c c c c F F 2 ; u j j C h h k k k k k c k z h p k u u u y 8 8 8 6 6 6 = # O O = 8 C C C C c c c b D S S k z c S b C b b b c F c c b b c F c C c c S S t ; k c C c c F c c b b b b b b b b b b C b b b b b H x c F H S k p c c q & i ;.w.6.P m x H F b F L S F F m F F F m S S b S F b z S D b b K p # y k k k c c S c F S c c c F F c F c F k z F F b k c c m | ;.c & ; i F S S H c k c H b b b b b b c F S m b z z m b b Z b b z S b b b z k < O 9 h h j c c c c c c b b b c C b b b c F F c c c c c c c F z p k F C e & x ,.k.,.H i F J F S F F F F S F F b S b z b b Z c k z j g k g 6 & y F H F b b z b b S F S b b F S z b F F S F F k H z x m ..w.i.O.k & q c D S x k x k k c F c c c c c c c c c c c c c c c c c c b c S c F y * y c c c S c C b b b b S b c F c c b b b S b S b b c c z c z z Z S h g 8 2 # & # = # = # : ; , , , , , , : 4 2 6 6 4 6 6 6 6 6 6 , , < = O 8 F F c c z c c c c c c c c c C c c c c c c c F F c k x k F ;.<.b & - t j F F k p k c c k k k h k k k z j k k z k k k k j j h g i y y t 6   = , u g j k ",
"d 8 g y u 6 = p u u u u u p j g k g g g k h k h h h j z j k k g i i i u y 6 + + @ < h C k k k c c c c c c c c c c c c c c k c c j z k k l h g g i y 2 6 p C c x c c c c b S b S Z b b S b b S b c c z z c c c c b c x j u 9 =     X , 6 8 8 t t y u g g p k c c k Z k k k z z c c c k c c c c H S , * i h j k k B k k k k k k k k z h C p p p p h u 8 6 8 6 < 4 , % X + : u C C b c k c c S c S z b b b b b C F c b b C b S c b c F c x D S t : k c F c c c F c b b S z b b C b b b b b b C b b k c S c k S D D 0 & 1 ~ r.s...c c b F F F F z z b b z b b z b b m b b F S b F S C b c H p = 8 k c k c c c S c c C F c b C F c F m b b b F F b F c z p F =.X.p ; 0 p c c F H F k b b b b b b F m F z S m b b b m b b b b b S c b z j 2 O h h k k c k c c c c b C c F c c F c C c F c c c c c c k j j C F q & r #.c.5.P x b I H h C F S b b S b b S S b b S b b b c x z j g k h 2 @ t F H b b b b b b b S F F z S b F S b b F F S H l m H H k E O.s.9.` e & 0 p S k k k k c c c c k c k c c c c c c c c c c C c c c c c c C y * y c c c c c F b C b b b b c b b C S b b S b c b S c k c z C z h h 9 2 # # # = : : = , = , , , , , , , 4 < 4 6 4 6 6 6 6 8 6 6 6 6 2 , = O < F Z b c c c c c c c c c c c c C c c c c c k c S F S c x c j H ,.| g & 2 e g c c c c p k z k z z k z h z h k h h j h k k h j g y i y y 6   = 2 u g j z ",
"y u i y u 6 = p g g j h g j h h j h k g k j h g j h k j k h h k k j g i u y 6 $ # # * 8 p D c k k S C c S z k k c c c k k c p c z j k h h j j u u y 2 , g Z c c c b c c c b b c c c c c c c c c S c c c c c c k k k k t =     + % 4 8 9 3 3 p p g h g k k C c p z z z k c c c c c c c c c c c F S 2 * u j j k k k k l k k B k c k z j z h k p p h u y y 9 8 6 6 8 < , @   # 4 B h C C C c c c S c b b b z b b b S b c C b b C b c S b b F c t : k c S c c c F c b Z b z S b S b c c C c c c c c C k k S D k q & - P 6.u.{ x x E H H F k c F F j z S F z z m S b Z b b b C b S b C c b K u = 7 k k c c c b b b b b b b F S b S b F S z b b z c b c z K m g ~ =.U t 2 q c F j k H b b b v b b b b z z b z c b c b b C b b b b S b z k 2 * h g h x k c c c c c c c c c c c c c c C c c c c C c c c k F i O 1 X.w.4./ m k F J c z J b F b F S S F b b b b z b S c c z k k k g k h , @ e S F b c b S z b b b b F b z S F b F b F F F z l c F H F S S ^ %.u.6.J > - 3 z c c c j p k c k c c c c c c c c c c c c c c c c c c c z t * y c c c c F c c c F c b S S c F c b c c c c c c c c c b Z z i 8 6 % @ O # # 6 : , : , , , , , , ; 4 , 2 < 6 4 6 6 6 8 8 8 8 8 8 6 6 6 ; O 6 K b b c c c c c c C b C c c c c c c c c c c k k c c b F S F x i ) =.Q 3 * 3 b S i y F k z k k k z h z h z j k k k k k g k k g u y y y 6   = 2 u i j j ",
"g y i y i 8 ; p j h j j j h k h h k g k h g z k h k h j k k k g k j k g u y u u , % O # , y C C k k c c z z z k c k c c c c c c k k h j h h p p y y 2 , g Z c k c C c c b b b b c c c z c c c C F c c c S F c c j t 2 * O   & 4 9 6 6 8 t i p p h g k k z z c c z z c c c C c c c c k c c c C F S ; > i h p z h l k z B z z z z k k z h k k k p u p h h h 9 8 8 6 6 8 , # # & = y u C C C c c c z S c S S b b F b b c F c b c c c S b b S c y : k c F b c c S c c b b b b b z b c c b c c c c c G C k C i ; ; p 5.6.O.m k I I j p c H H S z b H z m b b b F z F b b b b b b b b C c z K u + y j k c k c b C b S c b b b b F F c z b F F b b b b c m z z H b z ) =.z - ; k k k c b b b b b b b b b b b b c b c c b b b C b b b b b g 2 O 9 g k k c c c c c c F c c c c c c c c c k c c c F C c c c & & P w.r.+.P x m F k h F H S S S b S b S F z b b S b S c c c l k k k g k y 2 @ y F F b c b c b S b b b S S F S b b S S S b b c K F c p c H I b c ! 9.f.;.x 1 2 0 p k c c c c c k c S c k c k c c k c c k c c c c c c c y * y k c c S C c F c c b b b b b C c c c c c c C c c b c z k y 6 ; & # # % , = , : 4 , : , , , , 4 4 2 6 6 6 6 6 6 6 8 8 8 8 t 8 t 8 6 6 , O 6 F b x c c z c c c c c b c c c c c c b c c F c k k z z z S z c F z F } } S - & y Z C g k h z k k k k k k k k k k k h h k j g g u y t y 6   = 2 u u z k ",
"g u u y u t = p h j g h k h j h h j k h k k g k k k k z k k h z h k k k k p i i 9 8 2 = & = 6 p k p c k z z h k k c c c k c c c k k k j z j h u y t , 2 p C z z c c c c c S b S c c c c c c z b c c c c c c k p 6 =     = 4 < 6 8 8 8 y j k p i k k z k z k c c z c c c c c c c c c c c c c S H S 2 ; u j h z k Z h z z z k z z k k k z k k k k k h h k B u u y 9 < 2 2 < 6 # O # , t p k S c c c b b Z b b b S c c C b F S b F c F b b F c y = k c S b c F F c b S b b S b b b c c c c c c C b u C k q & 0  .d.#.~ F z H F z z L S k z b z b S b S z z z z m F b C b b b b S b S c z K p = 8 h k k c c b S c c F S b C F c F F z b m F F m F F F k k b x z F k F =.=.k & 2 c S b b b b b b c c b l S b b c b b b b b b C b z S b k < O h h k k k c k c c c c S c c c C c c c c c k k c k j i y & v ,.u.,.P x j H b S A F C c v z F F b S b b F b S b c z b c c z k k k g h g , @ t b H b b c c b S m Z b z b z b b b F z F z F F k c D J F k k S I b x ! 9.5.] y ; 0 e c c c k k k k x c c c c c c c c c c c c c k c c C y * y c c c c b b S b c C C b c c b b c c C c c c z c z k i < , = & # % , 2 , , , , ; , , , , 4 6 6 6 8 6 6 8 8 8 y 9 t 7 t y y t 8 7 6 8 , O 6 H F c c c c c C c c c c c c c b C c c k c S c c c S b k g c F j k b x K } } k @ & i Z z k z k h z k z k k h k k h k k g k g g i y y y 4   = 2 u g j k ",
"y g u y u 8 ; p j h k h j j j k g z j k k g k z k k k j l h l h Z k y u h z j j g y y 6 : : + + p p k k z z z z c c k c c c c k z z h h h j h p g y 2 , u C z k C c c c c b b C c c c c c c c Z c c k k k i e ; O   + = 4 6 7 y i y u i y u k c k k k l z z c c k c c c S c F c c k c c c c c F C 2 * u h j k k B z z k z z l z l k k z c C k k C z h p u u u p y e t 8 3 2 2 4   O + 2 p x c D c b c b b b b S F c b b c c b c b F b b S S 7 ; k c F c c c C c b c b S b z S b c c c c c c c c h 8 & * Q r.6.^ z z b S b S S F k C K S S K S z b m b F b S b z b z b S c S b b S c c F u # 8 k k z c c b b F c c c b F c F C b b b z z b b b b S b b F H b b F C j I X.` i * q c c b c c b b c b b b b b c c c b C b b b b b b b k 2 O 9 h h k c c c c c c C c c c c c c c c c c c c k x e ; * #.9.6.I x F H S c z C F F S x P F z b F z F S b S c b c c z b c c k k k g k g 2 & t b H b c c c c z z S b S b b b b b z S b S S c F S C h F F F k z c F H P ..9.<.U 3 * ; p z C k c c k c p c c k c k c c k c c c k c c C t * y c k c c b b b b b b c c F c F b c c c c c c z Z g t 2 * # * = $ 4 % # = , 2 , = : , , , 4 : 6 6 8 8 y 8 y 8 8 y t y y 7 y y t y t 6 ; & 2 D F x c c c c c c c c c c c c c c c c c F c k c F S z F C k c b z x c x k H } ~ y & , k k k k z k k k k k k k k k g k k g g g y i y t 6   , 2 u g k k ",
"g g g 9 g 8 = i h j h h k k j h j h k g k k k h k j k k g z k z h k k k k z g z g h h y 9 6 ; +   > y k z k j k k c c c z k k k k k h h k j j g 7 u 2 2 p C c c b c c k c k c c S c c c c b z l b C j g y 2 &   # * % < 8 t i i g j g h c k k k c k c k c k z c z b z b b S b b S c c c C c c F Z , * u j k c k c c c c c c c c Z c c c c c c c k z h k k j h j u y y y t t 6 6 4 = # O # 2 h Z k c c c c c c S c b c c c c F S c b c m S c t = k c c k c c c c k F F c k c c c b b k c C C j y * 1 c <.6.{ c c z S S b S b b b b S F b b b S z S z F b S F S z b S b S b b b b S c z K u ; 6 j x c c c C c b b S b b S b b b b F b F b S b S F b S F z F b F b F F k k ~ X.Y - - y k c S F F c F c c F c k c H F c c S b b b z b k 2 O g g k x j k c C c c c c c c c k c c c p k h h i - 0 ^ s.6.` F F F b z b S F b S F b b b b b b b b b S z S b b z c c c c c k k k p h u 2 & 8 C F c S S S b S b b F c c F c C b b b b b b S b F z b F F z c c b b b H b F @.8.3.H - & 3 j A h h k c k k c c c k c k c c c c c z k c y + t k c c C c c c b F c c k c b x c l z z k k k k k = = + & = , , , % , , , , , , , , < 4 4 6 6 8 8 8 8 8 y 8 u 9 y y y y y y y y t 8 6 6 & 3 S C z c c c c c c c c c c c c c c c c c c c C c c c c z z c k c p c c k c x k Q X.I ; ; t k k k z z h g z Z j i g k k k g g g g g y y ,   , , u g g h ",
"y g g d g 8 * g j h j j j h h j g z k k k h j k k z h k k k k k k h k k B z z g k j h h h y 6 4 , # O * y S S z k k z C k k c c k z z j k h g j u u 2 4 p c c c c c c c c c c c c c c S c k k k j j u 2 # O O % % , < 8 y i i u u j h h k k c k c c c c c z c c b S b S b z b F F c c F b c c F k > * i h j k k k c k c k k c c c c b C c c c c k k z k z h j k p u y y p t t q 8 , = # # * , 6 z k c c F S c c b c S F S c c S C b c c S c t ; k c c c c F c c c S c k z c F c c c k k c p ; O l o.5.{ H z D H F b F b z F S F S m b F S F z F S S F b S b b F b z b b b b C b S c z F u + 8 k k c c c c S b S z b b b b C z b S b S S z F F b b F b S b F S b c b c p x K ) } k - q k k p k c S k k k S H S k F c b b b S b c z k , @ 9 h k k h k z c c k c c k k k C c c p c k z t & v 6.w. .I C p c F m z b b S F z F z S F b b b S b z b b b b c z c b c C c k k k k h u 2 + 8 S S m c S C b c S b c b C b c b b b S b z S F F z S S z S b c b b b b b H b n ! ;.3.X.c 2 > < k Z j p c c p k c c k c c c k x k k z C t & 8 k c c c c c c S S c c c c c c b z z k z Z B 6 * = # # = = : , # ; , , 4 , 4 , 6 , 4 4 6 6 6 7 8 8 8 y 9 9 8 y 8 y p u i y t i t 8 6 2 @ 6 F C z c c c c c b c C c c c b c b c c c c c b c c c c k c c c c c c c p c b k k H Q Q u * @ e z k g j Z i y k b k g g h g g g g g y y , X > , g g g k ",
"h y h 9 g 8 % g h k j k h j k k k h h k j z k k k h k k h z z k k k k k k k k k z j k k g h p u 9 2 @ & ; 8 u k C z p j c c k k k k h z j h h j y u ; ; p C c c z k c c c c c c C z c C c z k g u 6 * O O O % : < < d y u u g j k j k h k k c c c k c c c c c c z c b b b b b S C c c c c c S F C , ; y k k z z c c c k c c c c c c c c c c c c k z k k k h k h j j p u p u 7 y 8 < < , = * & & 2 y k Z C c k c c c c c F S c c C b c c S C t , k c c c c b c c c c F c c c z j j z F z ; O y ` ,.O.' m c K F k z F F Z F z F b F S z S b F F S b b b b z b b b b b S b S b C b S c c K t = 8 j k k c c S b c c b b S b S b S b b b S b b b b b b S S b S S z F c b H H F k c K ` _ y O e H F S F c c F c c c c S b b b S b b c z x , * g h h k z k z k k c k c S K F j j b F k w & q X.w.X.F b j x c b F b b c b b b F b S b F b b b b b S S b b b C c c c c c c k z k h h y 2 & t S F c F F c b b b b b b b b c F S b c S b S b F F b F b S F b b b b S m b b c x H ` <.<.! e O > i k k i p c k k z z k z k k c k k z C t * 8 c c c c c c c c c c v c c k c b j z C p y , & O = # , , 4 6 , = , = , , 2 : 4 6 4 6 2 8 6 8 y 8 y 9 9 y u y u 9 y p y y y y t i 8 8 2 @ 6 F C z c c C b c c c c b c c c c C c c c c c c b c c c c k c k c k c c c k c c k i c Q ` I i @ * j F k z g j Z h p i k h j g g d y y 8 <   % , g g g k ",
"h h g y g 8 * h h h h h h j z h j g z g z h h k k z k k h z h z k k k z k z h z h j j p h h C p 8 y y , # & ; 8 k h k c c c k i z k k h h j k p y u 6 ; p C c c z z c c c c c c S k j C C C i 6 % +   O = 6 9 7 d 9 y h g p h p h k k k k c c c c c k c c c c c c b b b S z z b F c c c b c S F z , * i g k z j k c c c k c c c c c c c c c b C z z C z z k z j C k j p p p u u 8 8 6 9 6 2 = #   # < y k c c n c k c c b b c c C b c c S k t = p c c k S b c c k c C c c c c b C z 2 O - I ;.3.' z j z m l z H z S S m S F S b Z b F b S b F z b S z b b b b S S z c b b b b b F c l K u = 8 l c k c c c S F c S b c b b b b c b b b b b z b b F b S F F b F b F c x z H c k k S H } ` q O e k H S c c F H c k b b S b b C c z z j < O 9 h k j h z k k k c c c k j h z z k ; & 1 ' s.<.P x c F S H F b b b b b S F S b F b S S z S b b b b b b b S b c c c c C c j z k j g y , & t S F c c c S b S b z b C b b c c b b b b b b S b S b b F S S b c b b b b b b c F c k F ..,.#.M 3 & - k F C c p j h z k k z k c k z k C y * 8 k k c c c c c c k c c c z k z c z h u 2 # O # , = = # , ; , , = , , 4 , 4 6 4 6 < < 8 6 8 8 9 y 8 y y y 9 y y y y y i y y i y t y 6 2 X q S C z C c c c c c c c c c C c c c c c c c c c c c C c c c c c c c k c c k k c F c p p k L [ K 2 & & p k Z j g k C z y k h g g g g e y 6   > , y g k k ",
"h h h y g 8 , y j k k h k h z j j k h k h k k g k j k k g z z k z k z k z z k z k k k k h C k h k p u 9 8 , = & ; 8 k b c p k F k j h k h g g g y u : = p C k c c c c c c c c c Z z j h p 9 = #   X % 6 < 6 9 u 8 g h h h k j k k C k k c c c c c k c c c c b c c b b b b S b F F c c b b c c F C ; * i p k c k c k c c c c c c c c c c c b z c c c c c c k k z k k k k h k p p y 8 y 8 8 6 6 6 $ # O # y b b c c c c c c c c c S c c x S c t = x C c c S c c c F c k k b S b b 8 & & z O.,.` H x k b F F z z F F b S F b F b b c b Z b b b b b S b b S b b b b b S b b b z S b b z z F 7 ; 6 x k c c c b b S b b S b b b b Z b b b b b b b b b b b b b C b S c F C c k k c F H c F k H } I ; & ; c K c z F K z S b b S b b S c b k , O u u p k k z k k k c c c k j k C t & e H u.#.Q m H K F z F F c k c b F b z m b b z S z C b S b S b b c S b b b c c c c c c k k k p j y 2 & 9 C F c c S C b Z b z S b b C C b b b b b b b b b b b c S b b b c c c b b b m C k C F c c P +.1.{ H > @ q z C Z k k k k k C z k k c k z t * t k k c c c c k c c c z Z c C z p p 6 + O # , 4 = = = = # , 4 ; , , : 4 6 6 6 6 6 6 8 8 8 8 8 y y y y y u u u u i y u u u i y y y 9 8 6 & 6 F C C b c c c c c c b c c c c c c c b b z c c c c b c c k c c c k c k k c c k c c c S z g j I ~ G q O 2 y z j h C k h j h g g i y y 8 <   = , y g k h ",
"h d h y g 8 ; h h h j h k j k h k h z k z k k z h z h k z g k k k z k Z z k k k c k k k k k k j C g y u h 9 2 = # = , 8 p C c c z h k j j j g g y y 4 ; p C k c k c c c c k k k k k h u = &   + # ; 6 6 8 8 8 y g g h k k C Z k k k z z c c c c c c C c c c b b c S b b b b b S S c c C c c C F z > * u k p c k c c k c c k c c c C c c c c c c c c c c c z z z k k k k k k p p g i y y 8 8 8 6 6 4 % & & * y h c C F c c k c c k S c c c c t = p S c k c c k c F k k c S j 3 & & i ) 6.;.F f x F b z b F F z x b F b b F z S F b b b b b b b S b b b b b S b S b b b z b S b b S z z F y + 6 g k c k c b b b S b z b b b b b b z b S S b C C b b S b C b b b c c H J F b F c k H c c c S ) { k ; 0 i b S j k K S b b z b b b c b g 2 O 9 u j k j h h z c z c k K c y - > l ..u./ E b c l F S k b c c c b m b z b Z b b b b b b b b b b b b b b b C S c c b c c c k z k h h y , + 6 C F c c c C b c b b b b b b b b C c b S b b b b S z b b b b c c b c b b b z C z c F H v v x P o.,.[ f * * t k k k k z k k k c k k k z t @ 6 k k x c k c c c b c z k k h p 8 = ; & = = 6 , % , , , , # , : 6 6 6 4 4 6 6 6 7 < 8 3 8 t y y y i y u u u p u p u i u i u y i y y 8 2 & 6 S k k c c c c c c c c c c c c c c c c c c c c b C c c c c k c c c c c k c F k c S S c j F F k z I J c * * 6 j h p p z h j y h y g d e ,   * , y g g g ",
"h d h d g y , g k h z j k h k h k k k k k k z k k j z k z z k k k k k k k k k k k k c k C c k k j j j p g y 9 9 , * & # e k k j k k z h h j u i 7 u 2 ; p k c x c c c c c c k p g y 6 * + X & # 8 6 2 6 h g i 8 g k k k k Z k k z k z k c c c c c c c c c C b C c C C b b b b b b b c b c c b F Z % ; i j j c k c c c c c z c c c c c c C c c c c c c c c c k l z k z h h z C h j j j u 9 8 6 7 4 6 9 = O   * 6 t p c c c k c S C c c c c c t = i c c c c c c c k k k k x 3 ; 2 ! O.;.H i c I K F b S F b j k H S b S F F S S S S b b b b b b b c C c c z c c c C z S b c b b b S z z S y # 8 j k k z z S b b c C b b C z S S b c c c c c b c c b b b b b b c F c c k k c H H c p c k F K j z ` I q & t m b k j S b b b b b b c b g 2 O 9 g h k k k k k z z x p y 2 * e ` 3.#.N C c z F K Z S H F b b F F b b z b S b S b z b b b c b b z b b b b S b c z c c c c k k k k k u 2 O 8 C F c c S c b b b b b b b b F S b c b S b S b z b b z b b b c c c b b b b b x F I c i c b H c k K X.O.U 3 @ 8 8 g h C k h k c k k k z t # 6 k c c c k c c S b c z j u 8 4 = + & 4 4 , = = , ; 4 , , , , 4 , 4 2 < 6 6 6 8 7 8 8 6 y y u u u u u u j h h u j u u u u i u y u 8 8 2 @ q C k z c c b c c C c c c c c c c b c c c c C c c c c c c c c c c c c k c c c S S D k r S i i S C k k Q F 6 & * k C j y j g g i g y e 8 <   = , y g g k ",
"h h h 9 g 8 ; p k k h j k j k z z h k k g z h z k z h k B z k k Z k k z k k k k k k p k c c k j z k k h h h g u 7 8 6 * @ * t k z h j h j h i p y u ; ; p C k c c k c c k k p k t %     # $ 5 6 4 8 y u y i j l k j k k k k k k k z k z c c C c c c c c b b b b c b b b S b b S S c c b b c S F C ; * p h j c p k c k c z c c c b c c c c c c z c k c c c c z k z z z k z k z h j j h h g p 9 y 8 6 4 6 6 6 #   * 0 p c k c c S c S k c c c 6 = p c c k c c x c k c c e & & F X.;.! x x F C k z Z z z z F F z z F b F b z F z S b b b S z S b b c c c c c c c c b b b b b b b b b c k F t * 3 z c k z c b z b b b b b b b b b S c c c c c c c c b S c b S b b b b S F F F c c c K F S c k F F k I ` I > @ t S z F b b S b b S c b g 2 O 9 g j k j h j z C j i i & ; J 4.3./ x n F F F S S S F b b c b F b k c m b b z b S b b S b Z c S C b S b b b b c c c c c c k k k p h y 2 & 6 c S x S c S c S b S C b b C c c c F b c b b b S b b b b b z b m b b c b c z H k p F H b c b H b l H ' O.' K * > < g h k k h k j z k C t & t p k c c c c c x k c k g 2 * # + 4 4 = = = = , = 4 ; 4 4 , 6 , 6 4 4 6 6 7 8 9 8 t 8 y y y u u u i g g g j h j g u u u u u u y y y 8 2 & t F z z c c c c c c c c c c C b c C c c c c c c c c c c k c k c p c c c S c c k k k c D z z k j k c c k J J k , & ; u C h j u u y y y 3 4   = , y g g h ",
"g h g g g t , i g k k k g z j z k k k k k h z z j z z k k k k k k k z k k c k k c c k c c c c c k c k k c k x k h h < < % ; # + u g p j k j p i 9 6 : , g C k C k l z z k g 8 2   O # = , 3 6 t y y g y h h h h z g z z c k c c c c c c c c c c c c c b z C b b b b C b b C b b c c c c S b C b z * ; y h k k k z k k c c c b b c C b c c c c c c c c c c c c c z z c k c k c c h k h k g h h g 8 8 8 8 6 6 , , O & = 3 k S z j x l b c k p 6 = k k z k c z k k j 8 @ & j } +./ c c S b b b b b b b c c c c C b S b b b b b b b b b b b S b b z C b b b b S b b b C b b C b b b S k b c y + t j z k k c c c c c b b b c c C c c c c S b b b c b b S b b b b b b b b b b S b z b S b b z S b b c S z H ) S * & k F k j b F S c c C h 2 & 8 h j z h h h k k t > - H $.,.~ k F H k F S F c S S F S b b b S b b b b b S S c b b b b F b C c b C S c c c C c c c c c C k k k p p p ; X 6 k b c c c S c z b b S b b b z b b b S c c Z b b z S z b b b z S S b b S b b b F c b b c b F c c c c c K ) X.) b > * e k k p g k Z h h 8 & 3 k c x c z z z h C y , = & # = = = , = = , = , = , , , 6 : 6 6 4 8 6 8 8 t 9 y u y y u i u u p h j j h j h j h j h j j h u u i y t 8 2 # 2 Z c c k k c c c c c c c c c c c c c c c c c c c c c c p c k c k c k c c k k c c k c c c k c c k k k c y Z L F y > * , h u y y y y y y :   = 6 6 p u h ",
"g g g g g 8 * i g z h k k g g z h k k k k k k h k g h z k z h z k k h z c k c k c c k c k c k c c k k k p c p k h h h y 8 2 , ; * 6 u h j u i j h 8 , = 8 k C C k k k i t , * X & # = 4 6 8 t y y u g g h h k k k z l j c c c c c c c c c C c c c c c c c b b S b S b b b b b b c c c c c z b b h ; , y j k z k z z c c c c S c c c c c c c c c c c z c c c c c c z c c c c k c z h k k k g h h y d 8 8 8 6 6 , , = O O * t k F z k x c F c t & i b F j p z C y > & 3 ~ =.~ m c c C b b S c C b b S F b F c F b c b b S Z b b S z C b S b z b b b b S b b z S b b b b b b b b b S c b z t + y h k z c c c c c c S c c F b b F b F c S b c Z S b b b b C C b b C b C c S b b b S b b b C b b b b c j k F ` ~ k & @ g K z p c F c p i = + 9 u y k 8 9 z j > O p { #./ H l c S c c S S c F b F b b C b b b b b C b b b b b z b S z c b b c b b b c c c c c c c c p k k k j p p y 2 X 6 k S c c S c c z b b S z S b b S b S b b b b S b b b b S S b b b b b b z b b b b c C c F C c c c c c c c F J } ] P t & & t D F h h u k 3 & 6 k k x k Z F j y 6 4 = # # = = = , = : , , , , , : 4 2 : 6 6 6 6 8 8 8 8 y y y 9 y y y u u u h p j h j h j j j h j h h j p u u y y t , # < z c c c c c c c c C c c c C c c c c c c k c k k c k k c c c c c c c c k c C k c c c c p c k p c c k c j g k z F z e * X 4 8 j p y y t ,   = 6 y h B j ",
"g g g g j y , i k j k g h k h h k h k h h k z h k h z k k k z k k z z k k c c k k c c c c c c k k c p x k k c k g l k h u 9 8 2 # # = 2 u h i i g 8 > > u z k k k h 9 2 # O O + = , < 6 8 9 g i p j j j k k k B k c z z c k c c c c C c c c c c c c c c c b b b b b C b b S C b c c c c c c b b k * > y k h k k k k c c c c b b c c c C c c c z c c c c c c c c k c c k k c c c k k k h k k h h h h 9 u y 8 6 6 4 4 # + O * 6 t z c k k z p y # x j j S b p ; & * J O.` F C F k c F S b F c b C b F c b F c c c b b b b c S b b b b b b S b S z S b b b b b b b C b b S b b b C S z c l y & y h k c k k c c c c F c c c F c F C b S b b b b b z b S b b b b b b b b b b b b b b b b b b C b b b z H F p p H I H y > > i c k k F b S , O 8 u 8 k F g @ @ i _ ;.` ! b f c b c k F c b c S b b b S b b b b S b C b b b b b C b S b c C c F b b c F c c c c c k c c C k z j u p y : O 6 k S c c c S c c z S F b S b b S b z b b b b b b b b b b z b b S b z b S S z c C b b c b b c c c F F c c c c k I } } H t * & 2 u Z p h 8 = 6 k k j k k k y 2 + & # # = = , = , = , , , ; : 2 6 : 6 6 6 7 8 8 8 8 8 8 9 9 u 9 y i u u u u j j k h h h j h k h h h j h u i u y y 8 6 X 6 C z c k c c c c c c c c c c c S c C c k c c c c c c c c c k c c c k c k C k S c k p c c k c c k k x c z k g k z Z k k = * , 3 i p y 3 4   = ; t h u u ",
"g g z d j t * y h g k k k j z k k z j z z j k k k k z k k z k k k z h k c k k c c c k c k c c c c k c c c c p c h h k k g h 8 8 8 # O O = 6 9 y y t 2 , g z j j 9 2 , X O O # $ 6 8 8 y y u i g k h h z k k k l c k k z c c c c c c c c c C c c b C c c c S b b b b b b b b b b c b C c c c C b k > % y h g Z k c c c c c b b S c c c c c c S b c c c C c b C c c c c c c c c c k z z z k k k h g h g y u y y t , < 6 6 , * X # 3 g k c k u 6 = g g C C q & - p ` ` Q c k z C F c c b b c b b c b c c C c b b S c Z b b b c b b b b S b b b b b b b c S b b S z b b b z b C b b S l z z y & 9 h k k c c C c c c b b C F c c c c b c b b b b S b b z b b b b C b b b C b b S b b c b b S z b b S c C F c k b F H K h 2 * 3 k c j j c *   9 Z g i 1 * > M +.X.! F i k H F b k b H F b S c S c b c b b S c b b b b S z b S b b b b b b b b b S c c c c c c c c c k k k z j p h u ;   8 j c c c C c c c b b b b z b b b b b b S b S c b Z b b b S b b c b S b b b b c F c b S b c F F F C c c F c S k c F ~ ` ( c 1 O , y h B y & 4 p z C C i , * & # # # = , = = = = , , , : 4 2 : 6 6 6 6 6 8 8 7 8 t y y y y u u u i u p u p u h j j k h k h j h h j p j u u u y t 8 6 + < C z k c c k c c c C c c c c c c c c c c c k c c k k c c c c c c k c c c k k k c c c c c k c x k c k k k k k k y g z F z 8 * & * 6 y 6 , X & ; t k y i ",
"g g g g h t * j j k k k k g h k k k z j z h k k z h z h z k k k k k k k k c k c c c c c k c k c c k k S x c k c g k k k k g g g y 7 6 # + + = 8 g 8 , > t p y y # * O   # , 6 7 8 8 y y g h j k p j k h z k k k c k c c z k c c c c c c c c c c c c c c z S b b c b c c c c c c c c c c c z c b C = * g j j k k c c z c c c c S c b z c c c c c c c c c c c c c C c c c c c c c z k C z z k k k z h p j p p u 7 6 9 6 6 4 = # # O * y k z j 6 & k k 3 @ & y I ` / c p F L k h S C b b b b b F c b b b S c b b F b c S S z b b b c S b b b b b b b S b b z b b S b b S b b b b b S k c l y & 8 k k k k c c c c c c S b c F c b S S b b b C b S b b b b b c c C b b b b b z b b S S b S b b S b b S c k F H F k k F I K p > > t k j j # O u h * @ - i ` ;./ x e b c F F k k F C z c c S b c F F c C b b C b b C b b S b z b b b b b c c S c c C F C c c c c c k c C k k k j h u 4 O < k Z c c c c c C b S F b b b b b b b b b c b b S b b C b S b S b C z z b b b C b b S C b b C c c c c c c c c H c p k H Q ( ( p & & 3 C 6   4 k p j 8 ; # + # = = , , = , = : , , , , 6 : 6 4 6 6 6 6 t 7 t y y y y i i u u u p u p h j p p p h k z j h z z j h k k j p u u u y 8 6 # 2 z k k c c c c c c c c c c c c c c c c k c k c k c c c k c k c k c c c k k z k k c c c k k x c k k c c h k k k z k g y z C i , # & = 6 %   > 2 y p t 3 ",
"g g g y h y ; u h g k h k k k j h k h k k k k h k k k z h z k z z k k z c k c k c k c k c c c c c c c k k k c k k k k h k g k h u u p t , # # # 2 8 2 2 y 8 , * X   O = 2 6 t t 9 8 y u g j j z k k k z k c k p c c c c c c k c c c c c c c c S c b c c z b b b c C c c c c c c C c c c c b S b k * % y j k k k k c k c z c b b c c c c c c c c c c c c b C c c c c c c c c c C k c c z z z k k k h h p h h p u u 8 6 < 6 6 6 4 @ O O > u h 8 % y * & ; F } ` F r c F c k F S z F b C b b S b b b C b c C b c c b b b b b S b b b b S b Z b b S b c b b S b b b b b b b z S b b S z c z y + y k k c k c c c c c c F b b c b b b b b b b b b b b b S b b F c F b S z b C S b b b S b c b b b b b c F F k j k c F C c C I Z 2 > < k u 4 = =   & p / *.X.x p H P c K c k c c b c z b S c F c c b b b b b b b b b b b b b b b S z S c F b b F c b b c c c c c c c c k k k h u h u ; O 8 k b c c c c c c b b S b b b z C S b b b S b b b b b b b b b b b b b S b Z b b b b b b b b b c c b C F c c k k k c c C F H Y ~ K 8 * , 4 = < j 6 * @ @ # = = = , # # = = , , , : , : 4 6 4 6 6 6 t t t t t 7 y y u u u u u u p h j u p h h k h k h j h j h j j j h h j u u u y 8 4 & 6 c c c c k c c c c c c S c c c c S c c c c c c c c k c c c c c c c c k C z C k c c c k k c c c c k k k l k g k z k g u j k k j 8 = # & %   # 6 t y ; * ",
"h j g i j t * u g z k h h k k z z h k k k h z z k h k k k k k k k k k c k k k c c c k c k x k k c k x k c c p c C k k k k h g h p p y u u 7 , O O % = = 4 = O   @ * , 2 8 y t t u y u p p k z k c k k c c k c c c c c c c C c c c c b c c c c c c C c c c c b S c c c c c c c c c c c z c c b b k > > y h k k k c c z c c c S b c c c c c c c b C c c c c c c b c c c c c c c c c k c C c k z c z j k k z h p p u i y 8 y 8 6 4 5 % O & = , , = @ , j Y / J k k J c i z F F b z c F c b b F c b b S F c F b c F S b C z S b S b Z b b b c c S b S b b S b b z b c S Z b b S b S S k c z 7 + t h k k k c c c c C b c c F c C b b b b b C b b b b b c S b c b c c b b z b b b b z b b Z b b Z c S c F c c C H F i a C b k F L k * 4 = % & & 2 H X.` H k k S F c k k z c F F c z F c c c c c c c C S c b b b C C b b S S b b b S b S b b C b b F c c c c c c c c c z h k z u j y 2 + < k Z c c C c c c b b b b S c b b b b b C S b b C b S b b b b b b b b b b c b b b b b b b b b c S F F F c c c c c c k z c c c P ] ~ t ; 4 # , 6 *   O # % = = & # = , = = , 4 , , : 4 6 6 6 6 t t 7 7 u 7 7 y y y u u u g g p j p h p h k k p z h k k z k k k h z j h p u u i y y < & 6 z k c c c c c c c c c c c c c c c c c k S k c k c c c c c k c k c k c z k z k k c k c k k p c k c z k k k k h i i h z j i g h C u 6 X .     % = = O   ",
"g g g u j 8 ; i g k k g z j h k j z k k k k k j k k k k z z h z k k k k k c c k k c c c c c S c c c c c k p c c h k k k k k g h p p p i u t y t X # X     O + # , < 3 t 6 y y i h j j p k k z k k c c c c c c c c c c c c c c c b C C c c c c c c c c c c b b S c c c c c b C c c c c c c c S b B % , i k g Z k k c z c c z b b c c c c b C C c b c c c c c c c c c c C c c c c c c c c c c z z k z k k C C h j z j j y i 9 8 6 4 5 < % # & O   % F _ I p k c m c k c K F l x b c c c S b c c C b b c c c C c c b b b b b b b b b c c S b b b b b b b C z b b S b b c b b b b S S C b z y & y h k c c c c c c c b C c b b b C c S b b b c S S b b S b b S b b S b b S b S b S b b b c b b b b c c c c F c k c F c c c b b b F I 9 o     6 ` o.N k k C k c S F c S S S k z S z z c c c c c c c c b c c F b b b b b z b b b b b S b b b b S c c S c c c C c k c k k k z h u p u , O 6 k b c c c C c z S b S S b b b C b b b b b b b z b b c S S b C b b S b b S c C b b b C b b S c c c c k k c c c c k c c c c c k l F U G ,   # & O # = , * % = = , , 4 = , = , , , 6 6 : 6 8 6 7 t i y u u p p u i g g g g j g p p k k h p h h k k k k k h k k j j h j g u u u y 8 6 # 4 C k c k c k c c c c c c c C c c c c S c k x c c c k c c p c c c c c c k z k z c c c c c c k c z k k z k k h g k k k u z z h g u y 9 9 o       O X + + ",
"g g k u g 2 * g g k g k h k k k k k k k z h z h k k h z j k z h h z k k k k k k p c x k k c z k k c p c x k c k k k p p k k k k i g h k p u 9 9 y = X   # % , 6 2 3 8 8 u p h h h j p j j h z k k c c c c k c c c c c c c c c c c c c c c C b c c c c c C c c c c b c c c c c c C c c c c c c C k % = y j j k k c k k c c c c c c c c c C b c c S c c c c c c c c c S c c C c c c c c c c c c c z c k c k x c p k p i i u y 8 8 6 3 8 , , +     , 3 g j j F F k c c b c c c z Z c b C c S c F F b c c C b b b b b b b b S b b b b b S b C b b C b b b b z b b S S b b c c c c c z b l k y + 8 h k c k c c S c c c c c c c F c c b b b b b b b b b S b c S b S b S b b b z b S b b C b b S b b S c F c F b c b b c x H c z j k C 6 6   O 8 t p h k c b c c c C F c S b F b S b b F b c c b S F c b S b b b b b b b S b b z C b c c c c c c c c c c c c c c c c c z k k g g k y , O , k z k b b c c c c c b S b b b c c c c c c c S c c Z b b b b c c c c C c c c c c c c c c c c c c c c c S c C c c D x z k b z k x z y h #   # . o % + * ; ; - = ; ; 2 , , , 4 4 < 4 6 6 6 8 8 t y y y i i u p u u u j p p h h k h k h j h k j h k k k h z h k h k k h k g h g y u 4 # 6 g c k c c c c c c c c c c c S c c c c c c c c c k c k k k k z k k C z k c k k k c k c k k k k z k z h C k h j j h k k p i g g h u 5 ;   O     O # = . ",
"g g j y h 2 % y k g k g j h k g g h k j j k k k k k k k z k k z z k k z h z z k c c c c c k k z c k x c c p k c k k p c k k k k k g g y h h u 9 # + #   , , = % 8 8 8 8 u h j g z h h j C k z h c c c k c c c c c S c c c c c C c c b c c c c c c c c c c c c c c c c c c c c c b c c c c c c c k * * u g p z h c k c c c c c c c c c c c c c c z c c c c c c c c c c c c c c b c c c c c c b c k c c k k k k k k c z i i u p 8 y y 6     6 u 6 K > @ g Z p p S z z z c S S b z c b b c b c c c c F b b S c c S b S b b c b S b c b b b b b b b c Z b b S b b b b b b z c c c c C b z k y & 8 k k x k c c c c c c c c C c b c F b b C b b S z b b b b c b b b b z b b S C b c b b b b C b b b c c c c c b c b b m c x k S Z y 2 # u 6 u y = 6 u c c k z c F c p c b b S m S F S c b S F c c c S b b b C C b b S b b b b b b b b c c b C c c c b c S c c c c c k k k k k h k y ; X 8 h z k b b c c c C c c b b b c c c C c b b C b b b b b b C b c c c c b c c c b S c c c c c c c c c c c c c c c c c c S z z k c g y , , , % T K *   * = = = = , ; = = = 7 6 , 4 < 6 6 8 9 8 7 y y y y u u u p u u u p p k k p k j k k z h h z z k k h k j z k k k j k g g g g 8 y , # 8 h k z k k c k c c C c c c c c c c c c k c k c c c c c k c z k z k z k c x k c k c c k c k k z k k k k j h z z z h j j j j g g y 6 = +     O B g     = ",
"g g k y g 8 # g k g g h k k k j z g h z k k k k k j z k h k k k k k h C z k z k c k k k k k z k c k k k k c k c j k c k k k k j z g g h h u 2 # # O ; + 6 6 # O % 6 u u u y h k j h z z h z z k c k c c c c c c c c c c c c c c c c c c c c c c c c b c c c z b c c c C C c c c c b c c b z c c h * * y h h z j k k c k c c c c C c c c c c c c c c c c c C b c C c c c b c c c c c C b c c c c c c c c k k k k F g y k C p p p t & O i } L > y F , X * 6 u h C z k k k S b b c c c c F b S b b b b b F F c c c b S C b b b b b S b c S b b b b b S b S z b z S b b S c c c c c C c b k y + 8 j k k k c c c S k c c c c c C F c C b C b b C S b z b b Z S b b z b b b b b b S b b b b b b z b b c c c c c b S S g C k C g 8 = & * g 8 k C # & + q y C Z c c c c c c c c Z b b S c c b c F c S c b b b b C c b b S b Z b b b b b c c c c c C c c c c c c c c k c k k k k p h u , O , j c c c b c c z c c z b c S c c c c c c c c b b b b c S S b b c c c c z c c c c c c c b c c c z c c c c c c c k k c C z C g u , * @ 6 y 2 J h.%.f & * $ $ 5 + = 4 9 6 , , 6 , < , 8 6 8 9 8 t i y y u u u h u p j h p h k h h j k j j k k k j z j z k k k k k z g h g j g i y y , # 6 k z k c c c c c k c c c c c c c c c c c c p c c c c k z k C z z k k z c k k k c k c k k k k k z h k h u j k k j j h h h g y 8 = & O O X   # L | I y   ",
"g g g g g 3 * y g k g k g k h k h k k z h k j z h z h k z k k z k z z k k k h z k c c k k c l k k c k c c k c k k k c k k g g g g h h 9 6 % * * , , 6 O 6 6 = # O # 4 8 u g k k g h k z z k z z c c k k k c c c c c c c c C c c C c c c c c c b c C c c c c c c c b c c c c c c c c c c c c c c k = ; u j h z h k c c c c c c c c c z c c c c b c c c c c b c c c c c c c c c c c c c c c b C c c c k c c c k c y z F k x p y q & j :.-.I g t t h 8 >     4 y 8 C k C k z z c b C c c c b b S c b C c c b b C F b b b b b C b b S b c F c b b C b c b b C b b b b S b c c c C c C c c k t + t h c c k c c c c S c c c c c c c b b b b b b b b b S b b b b b b S b S b b b b b b S c b b b S c b c c c c c c c C h C C 8 *   + , g g * 8 D 8 = + O ; 9 g k c c F c c c c z c c b b S b b S c c S b C b b b c F c c b c b S b b C c c c c b c c c c c c c c c c c C k k h j p u = + 6 h z k b b c c c c c z S b b c c c c c c c c b S b S b b b b c c c c c b c c c c c c c S c z c c c c c c c k c c k p C h y 8 = O # * i y & 2 N @.k.;.* O $ & 6 : % # , : 6 8 8 < 8 8 y 9 y y y y y u i u u h p h g p k h p h z k k h k k k k k h z h k k k k h j k k h g u u y u 2 # 6 h z z k c k c c c c c C c c c c c b C c c c c p c c c k z z k k z C k k k c c k c k x k k k k k k k z z z h j u h h C h 9 , @     X     X > j ` O.#.~ ",
"g g g g g 6 # g k g g k g k k h k g k k k h z h k k k k k k k z k k z k k z k z k k k k k k k k c p k c k c k c z h k k j h j k k k 8 , * * 2 8 y 8 8 X 6 8 , , = +   & 6 u j y h k z h k k z C c c k c c c c c c c c c C c c c b c b c c c C c c b c c c c c c c c c c c c c c c C C b c c c c k * > y j h C h c c c k c c c c c c b c c c C c c c c b b c c C b c c c c c c c c c c b c z c c c c c c c c c c F k k l h i e q { 4.{ i z F 3 * k 8 2 , O   O % 8 y k z c k c c b c c c c S S S c c c c c b c c b b z b S b b C b b S b b C b b S z S b b S b b S b b c c c c c C c c k y + t j k x c c c c c c S c c c c S b b b c c C c b b b b b b S b S b b b c S b b b b b b c z c c c c c c l z z Z z C k A u =   O , 9 h d k , i C 7 t 6 % O O , i c S c c c c c z c z c c c c c c c c c b b b b b c c S b b S b b S z b c c c c c c c c c c c c c c c c k k k k j k u = X 2 h z c c S c c c c C c S b b c c c c c c c c z c c c c c C c b c c c c C c c c c c c c c c c c c C S c c k c c k z g u 6 = = X + , , 6 3 O i c j k ,.g.` * &   , 8 , , 8 8 4 8 6 8 y 9 y y y y y i u u g h p j g k j h k z j j h h z k k k h k h z j h k k h k k h k k h j u y y : = 6 p c c c c c c c k c c c c c c c c c c k c c c k c k c h z C k z C z k p c c k k c z k z h k k k k h z z j u h C h h y < * O   O + X #     O k F v / +.",
"g g g i u 8 > 9 g k k g g k k j j z z h k k k k h z h k h z k k z h k k k k k h k k k z z h z k c c c k c p S k z k z h z C z z y < * # > 8 9 y 8 8 y * 6 y 8 6 : = # + O * 6 i z z z z h k z c k c c c c c c c c C c b c c c c c c C c c c c c c c c c c c c c c c c c c c z c c c c c c c b C k # > 9 j h z j k p c c c c c c c c c c c c b c c c c z c c c c c c b C c c c c c c c c c c c c c c c c c c c c h Z S j ; 3 ( 3.<.b p z j t 3 3 Z 2 , y 4 O + # + ; 9 k k k c c c c c c c c c c c c c c c c c c S c b b b b b b b b b b b b b b b b b b b b b b c c b c c C c c S c c k y + 6 p k k c p c c c c c c c c c c S c c F b b Z b c S Z b b b z b z b b b b S b b S b c c c c c c c c z z k z C C s u : # + # 6 g h g g k , d F y y t 6 # O O = 6 p c c c c c c c c z c c c c c c c c b b S S b F c b b S b b b b b S c b S c c c c c c c c C c c k c k k k k j h u ; O 6 h z c c b C c c c c c c b b c c C b c c c c c c c c c c b c c c c c c c c c c c S c c c c c k c c c c c c k C k g y 4 # + & # # 2 , y 2 O u Z B h k Q 9.e.^ , * > t 8 : , 6 3 8 8 9 y y u y i u u u u p p j h j h h j k h j j z k k j k k z z k k z z k z k k j z h j g u u y y , # 6 p c x c k c k c c c c c c k c c c c c c c c k c c c c z k z z k k k z c c c k c k k k k z j z k j h j j g g h h h 4 = X O O + % = % O $   X z ~ x e i ",
"g g h u u 2 * u k k g k h h k k j k k k z j z h z j z j k k k z k z k k k z k z k k k k k z z k c c k c c c p k k h k k z h j t % = > 2 g g u 8 8 8 9 # 6 y 6 6 , 6 6 =   O * 2 t i j C z k k z c c c k c z c c c c c c c c c c c c c c c c b c c c c b c C b c c C b c S c c c c c c c c c c c k * > 9 j j k k c k c c k c c c c c c c c c c c c c c c c c c c c c c c c c c c c b c c c c c c c c c c c c S b k k 2 > H 6.4.( y j j j K C , 6 k 8 6 6 4 6 , # O # = 6 y p k k c c c c c c c c c c c c c c c c b b b S z b b b b b b b b b b b b b z b b b c S c F F c c c c c C z c x y & 8 k k c k c c c c c c c c c c S b c b b F c b b b b c b S b b b C b C b b b z C b b C c c c b z c b z z z z k u 6 ;   & < 9 g h j u k g & i K j d 8 8 8 4 = +   = t i k k c c C S b c c S b c c c c c S c c b b F c b c b b b z b b c c c c c c c c c c c c c c c k z h k j p p u =   6 j c c c b c c c c c c z S b c c c c b z c c c c z c c c c c c c c c b C c c c c c c c c c c c k c c c c z h u t 6 % = # + # , % 2 , u 7 O ; k k k k c x ` s.1.c & & , 8 8 8 t 8 8 y y y i u u u u u p h h g j j h j h h k z k k k k k z k h k k k k k k k k g k z j j g u u y y , = 6 h c k c k c c c k c c c k c c c k c c k c k c c c k c z k z k C k z k x c k k k c z z h k k h z j k k p j g y 8 < # # & & & # % * # O     # z F k z c ",
"g g j g h 6 > u g h k g k k k h k g z h h k k k k k h k k k z h k k z k z h k k z k z k k z h k p c x k k c c x C k j k j u 3 & , 2 y u g y 9 g u u u # 6 y 8 6 , % = , 6 6 + O * 2 i h k k z z k c c c c k b C c c c c c c c c c c c c c c c c c c c C c c c c c c c c b z c c c b c c c c c c k * > y j p k p k c k c c c c c c b C c c c c c c C c c c c c c c c c c c c S b c C c c c c C c c c k C C c c S h * g :.q.! i x C Z F j j k 8 , z y 6 8 6 6 : , = X   & - y k i z c c c c c c c c c C c c C b c b S b b S b b C S b b C C b b C b b S b b S b b b C c c c c c c C z l k y + 8 h c k c c c c c c c c c C c S c F b b C c b S b S c b c b b S b b b b b S b b S b c c c c c c c b b z k j i 6 & O 6 6 u p h j h c k j * g L h k g 8 8 6 6 = + O + e y p c c c c c c c c c c c c c S b F c b b C c b c Z b b S b S c c c c c c b C c c c c c k c k z z k k p p p : + 6 j k c c S c C c c c z b b b c c C c c c b C c c c c c c b c c C c c c c c c c C c c c c c c k k k c k k j j 6 , O O O # = $ 2 2 8 , 8 6 O 7 i x c c k z F S @.t.;.d @ 6 u < 8 6 y y y u u i u u u u j p h g h h h k z j j h h z h k h z k z k z h z z h z z k j h k h j u u y u , # 8 h c k c c c k c k c c c c k c c c c k c c c c c k z c k z k k z z k z k k c c k k l k k k k k h k k h z h j 6 = X O + # $ , * # @ @ # X   @ Z U b p i ",
"i u u u g 6 = 9 k h k j k h k h h g k k k h z k g k k k k k h z k k k h z k h z k k k k k k k k k C k z c k k k h k Z k 2 * ; 2 h j g g u u i u d 9 y # 8 y 8 6 2 , , , 6 , , : O O @ , g k k k Z z z z g k z b c c c c c c c c c c c c c c c c c c c S c c c c c c c c c c c S c c c c c c c c h * * g h k k k k k k z z z z c c c c c c c c c b c c C c c c b c c b C c b c c c k c S D S S c p S F c c F j * e X.w.X.k p S S z k z p C p 2 q C u 8 8 6 6 4 4 4 , % X   O , 9 h g k k c c k k c c c b b b b b c c c c c c c c b b b b z b b b b b S b b b b b c c c c c c C b c k c j y + 6 h k k k k c C c c c b c c C c b c S b c F b b S b b z b b S b c S c c S c c c c c Z z k k S F F k B p u 2 + + : t h j j k k k k k k k > g K j h k g i y y 8 6 = #   + , y j k c v c c c c c c c c b b b S c c c c c c c c c c c c c c c c b c c c c C c c c c k c h h z h p j u ;   6 g z z b c S b c c c c c c c c c c c c c c c C c b c c c c c c c c k C c c c k z c c c c k k z z z k B u 7 6 + & & = # , , = ; 6 : t t 2 + 2 k h k k k Z z z z K ;.q.} ; & i h 8 < y g y y g k g y i g k g k k j g z h k j z k k k k k k z k z k z h z z h k k k h k g g u u y 9 6 & t u S k z k z k c k c c c c c k k c c c k z z k z k z k k z k k k k k k z k k z h k k k k k C j u g j z u 4 # & # # = # # * = = # = # * +   = p P c p k ",
"g i u u g 6 * u g j h h g k j k g z k h j k g z k k j z h z z j z k k z z k z k k z z k z k k z u j z C c k k z Z g , * = 2 y h j h j g u i u u y 8 g > 8 y 8 8 8 < 4 < : 6 : , = = # @ % 3 h k k k k Z z b z k z c k c c C c c c c c C c c c c c c c c C c c c b c c c c c c c c c c c c k c k h # > 9 g g z j k k z k z z c c S c c c c c c c c c c c c c c C c c c c c c C c k F F p i x D S G k i z k > 3 ! 6.{ b i c F S p z k z j k k 2 2 k u y 8 9 6 4 6 < < , = # + + + 8 9 k k k k c F c x c c b b c c C c c c c c c c b b b S S b Z b S c b b b S b C c c c c c c c c c k l j t O 8 h j h z k c c c z c C c c c c c c b b c c b b b b b C b b b b b b k c b c c c c b k Z F Z h z S S h 8 & O & 2 p p k h k h z h z k k k > g K j j k j u g y u 8 6 4 ; X + * 8 g k k C C p c c S m c b b b b c C c c c C c S c c c C c c c c c c c c c c c c k c c c z j k k p h y ; O 8 g k k b b S c C c c c c c c c b C c c c c c c c C c c c c c c c c c c c c c k z c c c k k c Z k u y u 6 # + + + # = , # , , 6 2 t 6 y 2 O 4 j k h k k z z k c c x ( q.<.I 0 , 3 9 y g h g h g g k k k g h g h h g g k k k h k k g z k z h k k k k k k k k k k l k g h g g g y y 3 @ t u Z l C k k z c C c k k c c c c c c k z k C k k z k z z k k k k k z z k k z z k k k z z g h h z C g 8 4 = @ @ # * = = = = = = = # * # +   * p J k f p ",
"g u u u h 6 * u k g j k k k h k h j j k k h g z k h z h h k h k z k k z k z k k k z h z z k k z z z x j k k l k u , * * 8 g h h h j g g u u u u y 9 y * y y y 8 8 6 6 6 6 6 4 4 6 4 = + O & 6 u h k z C z k Z z k k c c c c c c c c c c c c c c c c c c c c c c c c c c c c c c c C c C c c c c g * * y g k z h k k k z z z c c c c c c C c c c c c c b c c b C c c c c c c c c b x p m F F c c H F F e & m ,.,.U c i c H c c S C k k j k p 2 2 C p y y 8 8 6 6 , , , , , = # O   * 8 h h c z z c c c c c c c c c c c c c c c c c b S b b b c b b b b b z b b z c C b c c c c c z z z k t O 6 p h z k z k c c c c c c c c c c c c c C b S b b S b b b C b b b S c c c c S c c c z z k Z F C p 8 , = + ; y s p p k z k z k z z k Z k , g L k k k x u k i u 9 9 8 6 % * O @ % 8 u C k h z c c c c c c z z c c c c c c c c c c c c c c c c c c b c c c c c c c k c C h k j u h i -   8 h k c c z c c c b c c b c c c c c c c c c c b c c c c c c c c c c c c c c c k c c c k k c c g g u 8 % O O & # * , = , : , , : t 6 6 7 2 & 2 k k k k Z z z z b x z k c } 4.=.8 t y i 8 3 y h y g h g g g k k j k k k h z k k k k k h k k h z z k k k z k k k z g k k g g g g y 9 2 @ y u Z k z k z C c c k c c k c k k c k c k k k z z k C k k z z k z k z z k k h z k z k k k g h h p p 6 = # & + # = , ; = # = = * = = # # +   , j P k k p ",
"i u g u h 6 # u g k h g k g k k k k k h k g k g k k k k z k k k h z g k h k k k j h k k h k k h S k k c c k y < & % 6 h k h u u h h j g p u u u y y g * 8 g y y y y 8 8 8 6 6 6 4 4 7 4 # # X # 3 u h C k j k S c c c k c c c c c C c c c c c c C c c c c c C c c c b C c c c c c c c c c k c c g * % y g g z k k k Z k z b c c c c c c b c c c c c c c c c c c c c c c c c b c S c c c k c S J p y * d ,.6.) c x l c c c c c c z k C g k p 2 q C p y y u 8 8 6 8 , , 2 6 6 , = O   O % y h j g k k k c c c b S c c c z c c c c S b z b b b S c b b S C b S b b c c c c c c c c z z l k y + q p h k k z c c c c c c c c c b c c S F b b b b b b b C b b S b b b c k c c c c c k c z l z C u $ O O = t p C k k k k k k z k z c k k k 2 g L k k k k k j p u u u y 8 8 2 = # + + % y h S C c k k c c c c c c c c c c c c c c c c c b C c c C c c c c c c k k c c c c j z h u g y ; O 8 h k c c c C c c c c c C c c c c b c c b C c c c c c c b C c c c c c c C c c k c k k C k k k 8 8 < * O   # , = = , , : ; 6 : 6 6 7 6 u 6 O 4 k h g k k k k k j H z i c b I =.u.! , * y h g h g g y y g k k g j h g k g k z h z h k z h k z k h z k z k k z h j z h j g z g g 9 y 2 # 6 g z k k z k k c c c c c c c c c c c k C z z k k z k z z k k k k k k B z k h k k k g g h k g u 6 + ; + # # = = = = = = = ; % , = = = = +   ; j J k i i ",
"g u u i g 6 = u k g k g k k g h g z k h k j k z k k h z j k k k g z h k h k k k k k k h z k j z p p c c g 6 > @ 3 y g k h z h k h h k j p p p u y y g ; y u u u y 9 8 8 8 8 8 6 , 4 6 6 < , + + O = 8 h C C k k c k c c k c c c c c c c c c c c c c c c c c c c c b c c c C c c c c c c c c c c h * > 9 g k k k k k k z k c c c c c c C c c c c c c c c C b c c c c c c C c c c j F F c c F c q - e { q.` x j k S K S k k S S p k k k h z h 2 2 C h u p u 9 8 8 9 8 8 , 2 : 4 4 6 = O   & , y k j C C z c c c c c c c c c c c c c c c c z c c c c z c c c c b C c c c c c c c C c c k j t O 8 h k k k z c c c c c c c C b c c c c c b c c c C c c c c c c c b z S c z k c c z z k c z u , # + $ 6 y C p p x k c k k c c c k c c z k > g K k k z c k k p h h u u u y 6 < 2 $ +   * 4 y C k z C C z z k c c c c c c c c c S c c b c c c c c c c c c c k c c c k c z j k j p h y *   6 u x c c c c S c c c c c C c c c c c c c c c c c c c c c b z c c c c c C c c z z h C C h u 8 2 % O O + , ; = , = , , : ; 4 ; : 6 t 6 u : O 2 h j j k z k Z k J y k H z k F p P 3.q.~ 3 2 y i k k g g j k g g h k g z h z j k k z j z k k z k k z k k k h k k k z g h g g u j y y < & t u z k k z k z k c k c k k z k z k k z k z k z k k z h k k k z z z k k k h j z h z k k h h y , * # = = # = , , , = , = > > % % , = = = X O ; i K j k p ",
"g u u u g 6 = u g k k h g k k k h g g z k k h k k k k j z h k k z j k k z z h k k k k k z h z h k k p t * # , t k k g g j z z k z j j h k h p j g y g * y j p u g y y 9 y y 8 8 6 6 6 4 6 4 6 4 = + O = y k C C c c c c c k k c c c z c k c c c c b c c c c c c C c c c c c c c c c S c c c p c g = * 9 g g k k k k z C c c c c c c c c C c c c b C c c c c c c b c c C c c c c C h k K H i e q Q ,.X.F c p k J g k F F F C S F z k C g z h 2 6 S k j h h u y u 8 y 8 6 6 6 ; 6 4 < , # O O = 2 h h C h c c c x c z k z c k c c c c c c c c c c c c c c c c c c c c c b b c c c c z l j t + 6 h k k k k z c c c c c c b C c c c c c C c c c c c c c c C c c c c c c k c c S c b k p 2 = O O 4 9 p p p j p c c c z c k c c c c k z z > g L k k z S p k k z k g j u u y u 8 8 , # O O & 4 u D C h k k c c c c c c c c c c c c c c c b c c c c c c c c c c c k c c C h k k p h y 2   6 u k c c c C c c c c c c c c c c c c b C c c c b C c c c c c c k c c c k c c c c z j p y 6 # # + O # , 6 : = = , = = ; : 4 6 t t 7 6 y : + 4 h k h k k k k z c J c k c k p b j x ! 6.,.S - ; < e g k g y g k k g k g k g k k k h k h k k k k k h z k k z k k k k k g j j u u 8 8 6 + t u z k z C z k c c c c c k k z k z z C k k k h k C k z z k z h g h k j k k h k k z k k y < # + # = : # , , = = = = , 4 , , , , , , % ; #   = i I h p p ",
"g u u y g 6 # u g k g k h k h k j h k h h g z k h z h z k k h z h z k k k k k k k k k j j k k k g y 3 = = 3 i Z k k k j z h j i h k k h p h p h j u g , y p j p g g y y y u 9 8 y 6 2 4 < 6 6 6 6 # O O & 6 y h k k k c c p c c c k z c k c c c b C c c c C c c C c c c c c c C c c c c c k c k g * * u j j k h z k z k c c c c c c c c c c c c c c c c c c c c c c c c c c c S F F c p ; 1 S =.=.H j k c H F p Q C j j S c k k z k Z k z h 2 q b k k j h g u 9 8 8 y t t t 6 6 = 4 6 6 = # O   6 6 y p k c k c c c c c c c c c c b C b c c C c c c c c c c c c c c c C c c c b c c z p t & 8 h h k z k c c c c c c c c c c c c c c c c c c c c c c c c c c c c c c k z b c k g y = O & 2 9 p p k j k z S S c k c c c C c c c z z j > g G k k Z c c c c k k h k u u h g 9 8 8 8 = # X & 2 8 u h c c k c c c c c C b c c C c c c c C c c c C S c c c c c c c c c z h z h p h u * O 8 p k c c c c c c c c c c c c C c c c c c c b c c c c C c c c c c c c c c z k k k g y 6 = # &   # , , = = , 4 = , 4 , 4 2 4 2 6 2 t t y 6 O 6 j j h g k z k k x j C F z K H x c F k x ` 6.;.x y 3 3 g k d u k k j g k k z k k j z k k h z k k z k k z h z h z k k z h g h u u y 8 6 & 8 i k k k k C k c c k c z k k k z z k k k z k z z k k z z k k z k k h z k k g g h j d 3 % # O & = , = = , # = , , , 4 4 , , , , , , , , #   ; i K j p k ",
"g i u u j < # g k g k g g k k k k k j k k k g k z j k k k h z j k k k k k h k k h z h z k k h z 4 @ & ; h F k y k k z k h j h z z h j z j k h p h u j * u h g u h h g g g g u u t y 8 8 6 < 4 4 : : : = + O * 6 k k c x c c c c c c c k c c c c c c c c c c c c b c c c c c c c c c c c c c c c k % * y h k k k k k k z k c c c C c c c c c C c c c c c c c b c c c c b c c c C k F p & p =.;./ k b F z C c c D p C G F c S c c k k k j k p 2 2 c c h j C g g g u y 8 t y 7 t 6 7 4 = $ < 4 %     X , 8 k c c c k c k c k c z k c c c c c c c c z b S c c c c c c c c c c c c c c c k p y & 8 h k k h z c c c c b c c c c c c c c c c c c c b c c C c c c c z c c c c c c k i 2 + + % 6 u p p C j k k z c c S S c c c c c c k c h z , y K j z z c c k k z z j j k h u g j g y 8 7 6 , +   & 6 g k k k c c c c c c c c c b c c c c c c c c c c c c c z k c k c k z j k j p j y ; X , p k k c k c c c c C c c c c b c c c c c c c c c c c c c c c c k c k c c z z i p y 2 = + & o 4 $ % = , , ; 4 4 4 = , 4 4 6 7 6 7 t t y 2 O 2 k h k k k k k k z z z h z j k S c k z v l H  .6.I j 3 y k h i g h h g k g k k h z h k k k k z z k k k k z k k k j z j h h j u u y 8 6 & 6 g k k z k z k c k c z k z C z k C k z z h k z h k k k h z k h k k k k z g k k g y , *   # = , , = = , ; : = , , 6 4 , , 2 < , , , , , # O ; i F k j p ",
"g y u y u 6 # u g g k k j g k g k g h k h j z h g h g z g k k k z z z k k k l h l g d z k k < # * < y k j k g k k k h k j z k k k j z j j k j h g g g ; y h z j j g g u g g j u y y 9 9 y 8 8 6 4 4 4 6 4 # + O = 8 h C c c x S k c c c k k k c c c c c c c c c c c c c S S b b c c c c c c k c u * = y h p p z h z k z k c k c c c c c c c c c c c c c c c c p c x c S S C C D x * 1 [ ,.) c c b b b b b S b b c c c c C c k c z k C k C k 2 q b k k k k h j h g u y y y y y t 6 6 4 < 4 , , : # + O & 6 h h h z c c c k c k b z z z C c c c c c c c c c C c c C c c c C b c c C c k k 6 + 2 j k k k z k c c c c c c c c c b c c c c C c c c c b c c c c S S c c x z k h 6 +   2 < t p p p k c z z c c c c c c c C b c c c b c z b * j F c c c c k c c c c k c z k h k h p j u 8 8 6 2 = # +   8 i h z C x c k b z c z k k C Z c c c c c c c c c c c c c k k c k k k p j h 8 >   2 u g z z k c z z z z c c c c c c c c c c c c c c c c c c c c x k C Z z p j j u 6 +   & # = $ , = = , , = , , , , , 4 < < 6 6 3 < 8 8 y 4 O 6 k h j k k k z h h z z k z c c c c k c c c c C c 3.&.~ 0 - y S h d k k k g h h h z k g k z k g g h k k k k k k j z h h k h k g u y y , # < u z k z z k k z k z k z C k k z k z C k k z k k h C z z j h j k k z k h h h y 6 + + + , = , , , ; ; , 4 , , 6 4 6 6 6 2 6 6 6 2 6 6 , % O 2 y K k g u ",
"g y u i g 6 # y k g g h h k g k g k k g k k g z k k z h k k h k g h g k k k h z d k z k 8 * * , y d k z k k k k k k z k h j k k k h h j h h k h k g j , u k h k h g j j h g u j y y y y 9 8 y 8 8 6 6 , 6 : = + + & , 8 p C c p k k c C c c k z c c k c c c C c c c c c c b b b c k c k c c c c u = * 8 h p k k h k k z c c k c c c k c c c c c c c c c c k c H J C S S c S k ; 1 Q ,.o.H k c c b b b Z b c z b c c c c c c c c k z c h c p 2 2 z z h k k j g k g g u i y y y 7 8 6 6 6 6 , , , 4 , # O   # < 9 j z c c c k b b z z z z C c c F c c c c c c c c b c c c c c c c c b x k 8 & 2 j j k k z c C c c c C c c c C c C c c c c C c c c c b c c c k c S z C j 6 #   = 6 3 y j k k k c S z k k c k c c c c c c c c c c C k C , j H S c c z c c k c k c c k k k k j k j g u y 8 8 < , # O   = y h k k k F k k z k C c z z c c c C c c c c c c k c c c c c k k k k j h y #   8 u j z z c C C k k z c C c C C c c c c c c c c c c c k k k k F z g j k h u y = & O # # = = = , , , # , , , : , , , 4 4 6 4 6 8 8 8 8 y %   6 k j h h k k z z k z C k c k c c c c c c c c c c a ! ;.O.H 3 2 y b j y g z h h h k k h k k k z j z j z h k k h z g l k g g k u u y 9 , & , h k k k k k k C k k z k k z z h z k k k z h k j z k z p z C S k k j h h u 4 # & + = 4 = , = : , 4 4 , : 6 4 , 6 < 6 4 6 6 2 6 6 2 ; 2 #   ; y F h j u ",
"g i u y g 6 * y j h k g k k g g k g g z k k k g k h k k g z z k k k g h k z g g B k 9 , * % < 9 j k k k k h k k k k z h z k h k k k k k k k j h j g u ; u p C j h k p j j h h j g g y 9 u 9 8 y 9 6 6 4 4 2 6 4 = X O O 2 p C C k k k c c c c k c c c k c c c c c c c c c c S b c c k c c c c k u # = y k p k k z j z z c c c c p c k c c c c c F k k c F c k k p F C p c i q i | } P k j b F c b S b b z S S b C c c c c c c c z h c j C p 6 2 z k j k k k h k k g g g u y u 9 8 8 6 6 6 4 6 6 , 6 4 = O O @ > 8 9 g k c k c c k z k z c c c S c c c c z c c c c c c b c c c c C b k k 6 & < l h z h k c c c c c c c c c c c c c c c c c c c c c x c c c c c k h 9 , & @ ; 6 u g k k k c c S k c c c c z c c c c c c c c c c c z z * j F C c c c k c c c c c c z k z h k h k h h h u u 8 8 4 =   O & = y p h C k k c c c c z z c c c c c c C c C c c c c k c k k k k k g j y >   2 g j k c k c z z k z c c c c c c C c c c c c c c k c z k z k k k j h p u ; & O O # = : 2 = = = , , , , , , , 4 4 6 6 4 6 9 6 8 < 8 8 9 , O 8 h k k j h z k k z k z k c c c c c k c c C c c c C k F } ;.) c e t p j g y y h S h g g g h k k h k k k h z h k k l j g k j h u y y 8 , # 2 i k k k k z j z k z z z k z k C z k z k z h k k z k k z h k z k k g k < , & + # $ : : = = , = , 4 2 6 2 2 6 6 6 6 6 6 6 6 6 6 6 6 2 4 # O , y F p g p ",
"u y y y u 6 * 9 g g g j g j h k g k k g k g k g g k k j j g z h z k k k B z z g k < * & 2 g l B k j g g h k k k k h k z h z k k j h h k j h j k k u u ; u p h k h j k k h h h j h h h h u u y y y 8 6 6 6 6 6 4 6 6 # & + = 7 p c c k C c k k c p c c c c c c c c c c c c c c z c c c c c c k c u = = y j p h k k k h C k c k c c c c c c c c c k c c S c c c k F p F C - 1 ( ,.] b x k F c c c b b b b b b b b c c c c c c c k z z c p C k 2 q z k k k k j k k g k k g p p u u 8 9 y t 8 6 6 6 2 , : 6 , , O   + , 8 g k c c x k k z h c c c c c c c c b c c c z c c z c c c c c l z k 3 # , g z j z z c c C c c c c c c c c c C c c c c c c c b c k c C C k t : &   + y z h y k k k k k k x c k c k c c c c c c c c c b c c c j Z > j F c z c c c c c c c c c k k k z k k z k k h g u u u 8 6 8 %   O = 6 u u c c c c k k c c C c c c c c c c c c c x c c c c k j k h j h 9 >   < u j c c c C z c C z c c c c c c c c c c c c c x k c z z k z h k h h 2 = + O # # = ; , , , , : = , , , , 6 : < 4 4 6 9 8 6 9 y 8 9 8 h < O 8 k k h j k k z k k z k z c c C c c c k c c c c c p I F e b ;.,.P > d x i g z k y j k g k k k z k h k j z j z h z h z h g j g u u y y , # 2 p c c z z h z k z k h k z k z k z z k k k k k j h k k C j i p k k y 6 O X = # 6 6 = = , 4 ; 4 4 ; 6 2 6 6 6 6 6 8 8 8 8 6 8 8 6 2 2 2 % O 2 y F k j u ",
"i y y y u 6 # 8 g k g g h j g k k j k h j k k k h g k g k k k g h h g k C h u 8 + = 6 y h h h l z h g k k z k k k k j h z h k k z h z h h h k k k g g , g k k l k k j k z j h j j h j p u u u u 8 y 8 8 t t 6 4 = 4 7 4 # + + # 8 u k C k k c c x c c c k c k c k c k c c c c c c k c c c c k z u = = 8 h p k C k k k z c k c c c c c c k c k c i F F c x k F H h b ; & Q 3.` c e k H F c k z c c c c c c c c c c c C c c c c c k k z j C k 2 2 Z k k k Z k k k k k j k h h h g y 9 8 y 8 8 8 6 8 , = , 8 6 , % + + # , y p c c z k k k z z c k c c C c c c c c c c c C c c b c C b j k 8 # 2 g k k k k c c c c c c c c c c c c c c c c c c c c c z l z k i 2 = O # 4 u p c k k k k k k k c c c c c c c c c c c c c c c c c c S C Z * j K C c c c c c C c c c c z k k z k z z k z j j h p p u 9 9 9 < #   O = 6 p p z C c k c S c c c c c c c c c c c c c c k k z h k k p k y =   , p i k c c C z z k z c c c c c c c c c c c c c k k k c k k h h h < * O X # : , , , = = = 4 6 ; : , : 2 4 6 , 4 6 6 6 6 7 8 9 y 8 y y u 2 & t z h z j k C z k z k z C k c c c c k c c C c z c F u h G c i H +.#.k > i k i i z k k h h h k k k z g k h k j k h z g z g g g i y y y , @ , g c k h z z k k C C z k h z k h z k z z k z h z k j h h h h h p t : + % # * = , , : : , , 4 4 , 6 6 6 8 3 8 8 8 8 8 y 8 8 8 6 6 6 2 6 % O ; t K p j u ",
"y y u y u 6 # y g g g g j h g g g h h j h k h k k k g z k h k k g h k k u 8 , = % 8 h k k h h g k k z k Z k k h z h z j k k j z k k k j z j k h k g h 2 p k h g k k k k h j h k h j h h p u u u u u u 9 u 7 6 6 4 4 6 4 6 # + & + = 8 h k C c c k c c c c c c z c c c c z c c c c c c k c c c k u # * y h j k k h k k k c c k c p c k c c c c c c C c c F b k y 3 & b ;._ c a c b c x p k F C c b C c c z c c c c c c c c c k c k z C h C k 2 2 Z k k z k k k k k k z h k k h j g y g y y 9 8 8 8 8 6 , , , , , = X   O = 2 y p h k k z c z c c c c c c c c c c c c c c c c c C c b k k 6 & 2 k h h z z c c c c c c c C c c c c c c c c c k c c z Z Z h 6 = + & , 9 h C p i k b k k k z c F c c c C c c c c c c c c C b c c c c z z * j F c z b c c c c c c c c C k k z C k k z k k p k h h u u 8 9 9 8 , # O + = 6 u z c c c c c c k c c c c k c c c c k c c c k j k k p h y *   6 i p x C c c z c C z c c c c c c c c k c c c c c c z c k g y y % O O & , , 4 , ; , , , : , 2 , 6 , , : 6 , 6 6 6 7 8 9 8 y y y 8 y 9 p 6 + 7 k j z h k k h z k z k k c c c c c c c c c c c c C C z k c F c f ~ =.] e * e k g j g k k k k h k h k g z h k j k z g h g g j g y y 9 , # , g k k k k k k k z k z k z z k z k k k k k k k h k z h h h h y = & & = = , , , = , , 6 , , < , < 8 8 8 8 t 8 8 8 8 8 8 y 8 8 8 6 6 6 2 # X , y F h j p ",
"i y i y u 2 @ y g g g g h j k g k g k g h j k g j h k g g z h k z h g 8 , , = , k k g g h k k h k k k k k k z h k k k k k h k h k j k k k h k j k g p , u C k z k C k k z k k k k j j h h h p p u u u u y y y 8 i 6 , , ; 6 4 , O X = 2 i k c c k k c k c k z z c c k c k c z c c c c z c c z k u = = 8 h p h k k k k c c c c c c c k k c k c c F k k c F k q > j } X.F c C F G F c k F F c k C c c c b c c c c c c c c c k c k k z C k k h 3 < F k Z k Z k k k k k k z z j k h g g g 9 9 y g 9 < 8 9 8 6 4 4 4 , = # + & & = 6 p g j k c c c c C c c c c c S c c c c c c c c c c b k k 6 & 2 g k k k k k c c c c c c c c z c c c c k c c c z c g g y > # # = , j h j j k z k k z k z k S c c c c c c c c b C b c c c c c c c c z z * g S S z b c c c c c c c c z k C k z k z k c k k p h k p p g y 3 y 9 8 ,   + # = 8 p k c k c c c c k c c c c c k c k c c c k k p k g h y % O 2 u p c c k c k C c C c c c c c c k c k c k c S c p k k u t 2 @ X O # , 4 = X = , , , 4 4 , : 6 , 6 6 6 6 4 4 6 t 8 8 7 u 9 y u 9 y y h 6 & y z k h z k z k z z k k z c c c c c k c c c c c c Z j j Z K z k z j l [ ,.` e * i y g j k j g j h k k h g z k g h g h g g h g g y y y , # 6 g z k z k k z z k z k z h k k k k k k h k k z z k j j u y 6 & + + : 6 = , 4 6 4 , , = < 4 2 8 8 8 8 8 8 t 8 8 8 8 y y 9 8 8 y 8 6 2 6 %   , y F h g h ",
"u y y y g 2 # y g g g g j h g g g g g k g k g k g k g k g h k j h g 2 # & ; 9 Z h h h h h k h g z k k k h k k z k k k h k z k z h k k h z j z h j j p , p h z B k k k k h k k k k h k k h B p p p u u y u 7 t y 3 t 6 6 4 , 6 6 4 %   & * e p p c k k k c c z z c k c c c z z c c c k c c c z k u * = y p p k z k k k k k c k c x k c k c c c c c k c F i & y U =.E c c c k C p k C C c k c S S c c c c c c c C c c c c c c z k z z C j z j 3 3 Z k k k k k k Z k k k h k k k h k k h g i g y 9 y 8 6 4 6 6 6 6 , 2 6 , + O + + t i g k z k k k c c c c c c b c C c c c c b c c C c x k t + 2 j j k k z c c c c c C c c c c c c c k c c c k z z h 6 @ O # 8 9 h j j k k c k z z c c k k c c c k c c c c b b S b b c c C c c c c k z * j F c c b c c c c c c C c z z z z k z h z c k k k C k h h k h y y u 8 8 8 +   O # 3 p k i c p c k c c c k c c c c c c k c k k k i j j 8 >   6 i i c c k S z z z k C c c c c k c c c c c c c p p p y 6 * & X @ % , = % , , 4 , , , 2 4 , , , 4 : 6 6 4 6 6 t 6 8 t 7 y 7 y y y y u p 6 * 7 k k k k k z k k C k z k k k c c c c k c c c c c z S F C j j z S b k x z ) | H > 3 y g h k g g j k j k k g k k k l g g k j g g y t y , # , g z z k k z h k z k z k z k k z k k z k k k z h h h j 2 * + + ; 2 4 = 4 4 = = , , 4 6 4 < 6 < 8 8 8 y y y i t y t y y y 8 y 6 y 6 6 3 % O , e F j h p ",
"y g g y y 6 # y g g g g g g g j j g g g g h k k g j j g h h C C 6 = O ; u C k g h k h k j h k k k j z k k k k j z k k h z k k h z k k k h z j k j j k = t k C k k z k z h z z k h k k k k j h h h h j j p i u y 8 8 8 8 8 6 2 6 = 4 , # + + , 8 g g h k S F z h p z z k z z k c k z z z z z k k u % = y u u h k C k k k j z z z h z C z c x z c k H k * - H X.) k c c c c c c c c c c C c c c c c c c C c c C c z c k c c c c k k k C k z h 2 2 k k z k k c c c k k k k k k h k j h j j j u g u y y 8 8 9 8 8 < < 4 4 4 : : = +   X 8 y u p z S c k c b c c z k c c c C c c c c z S z B 6 & 6 p z h z k z z z k Z z k h c c c k x c c c Z k y 8 O @ = 2 y h h j k x c p c c k c c c c c c c c C c c b c c c c c c c c c c S c c z z * g b b C c c c c c c c C c c c c c c c c c c k c k k c c k h k g g g g y y 6 2 = O O & 7 s k h h z C S C k C c z k C C z z C g k j g h y = O 2 y p c c k C c c c c k c c c k l c z c c c c 9 h h 6 , + O O , = = , = , , , = , , , , 4 4 4 4 6 4 6 6 6 9 6 8 7 8 9 y 9 u y y 9 g y h < @ t k k k k k z k k Z k k z z z k z c c k c k c c c k c k c c c c S S S S c c F ` X.u t 3 y j k h 9 j g g k h g h k h p h p u i y p t y , @ , u x c k z k k z k k z k h h z k c c k k k h k B h 7 = & # = = 2 6 ; ; 4 , , 4 6 4 6 6 6 8 y y 8 y y u y y y y y y y y y t 3 8 3 8 3 2 % @ 2 y z j p p ",
"y y u y y 6 # 8 g g g g g j j h g g k k k k j h j g j h h u 8 % = ; t u g j g j g k k k k k g k z h h k z h k z h k k z h k j k j h h k k k h k h g p = i k z k k k k k k k k k k k h k k k z j k j h h u p i u 8 y 8 8 8 2 6 6 < < < 4 = X + + , y k C j u z F z h k z k z k z z k z C k k z k u * * 8 u u j k j k k C z z z h F z p k F b c z y 2 2 c { ` z b c c c c c c c c c c c c c c b c c c c b c c b c k z c c c k c c z z c k C k 2 ; c z C k c c c k k k C k z k z k k k z h h j j g h y y y y 8 8 8 8 < 6 6 4 : = = % X   # 8 h k h x k x k k k z c c c c c c c c c b b h B 2 O 6 C k k k z k z z C k j k z c c C c C c c p g 8 , # > > 6 u g h k C c k c c c c c c c c c c c c c c c b C c c c c c c c c c c c c c z k * j C b b c c b c c c c c c c c S c c c c c c c c c k k k c k h k g g g y d 9 8 6 2 = & & & g h B k k k S S c k k k z k h j k h k j j h p =   4 u j c c j C z c c k k c c c b z z k z c c p h 8 = O O + # 4 = : = = , , , , , , , , , : 6 < 4 4 6 < 7 6 6 8 t t 8 y y y 9 u g g y g h , # 8 k k g k k k k k k z z k z z k z c k c c c c c c c c c c c c c c k c c c c c F I X.I y 1 q k l k 8 h k y g z z y p k h h p p p y y y , # , i k k k k k k k z k k k C C z z h j k g k Z h 8 , & + # = = , : ; : , , 4 4 < 6 6 6 6 8 8 8 8 y 9 9 8 y y y y y y y y y t y 8 8 < 6 2 % O > y b j h p ",
"y i i y y 2 * t g g g g g j h j g g k k g g g h u C C h 6 ; = = 2 7 p C h g g h k k h h g k k k k k j k k h k h k k k j z k k k j k z k h z z h k g h , y k k k h z z h k k k z k k z k k h j z k h k j h p p p y 9 y 9 8 8 6 6 6 , 4 4 , , # + O * < u h C z h z z z k z k c c k k z k z C k k u # * 8 p u h k g k k Z C z z z h S S k p c k p q i I ` F c F c k c c C c c k C c c c c c c c c c c c c c c c c c k c k c c c k z h C z C k 2 2 z k z k k c k c z k k z k k k k k h z h h j h j g y y g y 8 8 9 8 6 6 4 6 6 4 4 , #   O # 2 y u k k k k c k c c c c c k c c c k z b k k < O 6 p h k k h k z k z z z z z c k k c h k k u = O # = < 8 g h p k C C c k k c c c c c c C c c c c c c c c c c c c c c c C c c c c c C z j * j b b b z c c c c c c c c c c c c c C S c k c c c c k c k k g k h k j g g 9 y y 8 6 # + O O , d B k k k k C z k k k z z z C g k j h p u =   < 9 j c k z C k c k k k c k k z z k k k k i y , % + O & = = : , = = , , : , : : ; , 4 6 4 4 6 2 6 2 8 8 5 8 8 y y 8 9 9 u u u g 8 u u h 2 # y z k k k k k k k z k z Z k c c c c c c c k c c c c c c c c c c c c c S F c c C c S ` } K 3 6 y g z g g k k y y k k p j u u i u y t y , # , g k c k z k k k k h z p k z C z h k k k h y 2 = # * = , 4 4 , : 6 , , < 2 4 , 6 8 t 8 8 8 8 8 8 9 y u y u y y i y y y y 8 8 8 8 6 6 6 % O , y S j j p ",
"y y u 8 y 2 @ t i g g g g g g h k g g y g g j k p p u 6 = & , 9 p p p p k k k k g k k k k k h k k h z k j z k k h k h z h k j z h k h k k k j k j j h ; u h z k z k k z z k z h k z h k k z h h k k k h h g p p u u g y y y y 6 6 2 , , 6 6 6 : # O   = i C h u h h z h z k c c k z k z k k z k u * = 8 j u p k k k z k k h j j F u j K H p 1 ; c ` Q j b F k c c c c c c c c c C c c c b C c c c c c c c c c c c c c c c k c c k z z j C k 2 1 k z k z c c c c k z k k z h z z k k k j z k h h h h h g h y y y 8 y 6 6 6 6 6 2 , , 4 * O   & 2 i g k k c c c k k c c c k c c k c C h k < O 6 h k k k z z k z k Z Z k k z k k k h 9 6 & + & 2 9 i g k k k k k k k k c c k c k c c c c c S c c c c c c c c c b C c c c c c c c c Z k * p b b b c c C c C c c c c c c c c c c c c c c k c c c c p k k k k h j g g y y y 8 8 8 6 ;   X # < p k k p z k k k k k z z k h k j p j y #   , u g z z j C c c c c c k k c k k z k p y 6 = O O + = 4 4 , = = , , , , , , 2 : 6 , 4 6 6 8 4 6 6 8 8 8 8 8 9 y 8 y y u u 9 u g 9 u h h 8 @ y k k g k k k Z k k Z k k c c c k c k c k c c c c k c k c S S k c c c c c c c F C k i S } ` j 2 t 3 j k j g g k g p p u u u u i y 8 y , X , h k k k k z h z k z k z k j j k k h C g < = X # = , 4 , = , , ; 4 6 6 6 4 6 8 8 8 8 t 9 8 y y u y y 8 y y y i y y p y 8 y y 3 8 6 6 2 % O > e z j j p ",
"t y y y y , @ 8 g g g g h g g g k y y y p p h p u 6 # @ , t p p C k y y k k l k j h z g k j k z h k k z h k h z z k z h z j k h z j h z k k j h j j p ; t p C k k z k k k z k k z h k k k k k k k k h z j p k p j j u i u y y 7 u 8 8 < ; 4 4 6 , , # + & , y h h z z k z z c c k z k z z k k k y # # y u u h h k k k k h k k z g K H j * > k ) ) k x c k c F p z k C k c c k c c c c c c c c c c c c c c C C b c k c k k k c c z k c k z k ; 2 z k k z k c k c C z k C z k z h k z z h h k j h k g k g u g i g u 8 8 8 6 6 6 4 8 < , , # # + O % 2 y h c z c k c c c c c c c c c c j h < O 2 h h k k k k z k z k k k k C S h u 7 ,   O , g h u j j p k C c c k c k c k z c c c c c c c c C c c b C c c c b c c c c S c c c c c z k * g b b b c b c c c c c C c c c c c c c c c c c c c c c k c k Z k k k k k g k p u u y y t 6 < % O O * 6 p z k h z h h k h z B j h j p p t =   < g g z z j C c k k c c c x c h B z g 6 ; = & # = # = , , , , : , , , , 6 , : 6 4 6 6 6 6 7 4 6 6 8 t 8 8 u 8 y y y i u u u u h y h h g 6 # u z h k h z z z k k z k z c c c c c c k c c c c c c c c c c c c c c k k c c b c F z K Z i D X.) p 2 8 i y j Z j y u g u u y y y y t y % # , g k j k z k k k k B k z z h k k k g 8 * & + # : 6 4 # = , , , , 8 8 8 8 6 8 8 8 8 y 7 y y y y y i y y u y i u y y y p d 8 y 8 t 3 6 2 % O , y C i u p ",
"y y i t 8 2 @ 3 y g y g g g j g g i g g h p u 6 = + = , y j j p p p k k j g h k k k g k h k k h z j k h z k k j j k j k z h k z k h k j z h z h j p p ; y C z k k z k k k k k k k z k z z h k k j k k j k h h p h h j p u u y p 8 8 8 9 8 6 6 6 : 6 6 = O O * 2 g g k k z k k k k h z k h z z h u * * 8 u u j k k h k h k z z z Z k 2 @ i ~ ) K x C j z F j y I k z z z k C C c c c b c c c c c S c c c c c c c c c c c c c k c k k C k z j 3 3 k z z k c k c c z k z k z k k k k k k k z k k z h j g k j g g g u u y 9 y 8 8 6 , , , , 6 6 = + O O , 8 p h z c c k c c c c k c z c h B , O 2 h k k h k k C z k k k k Z C p 8 ; O # , 8 h h j p z k k k C S c k c c c c c c c c c c c c c c c c c c c c c c c c c c c c c c c c z k * g b b S c c c c c c c c c C c c c c C c c c c c c c k c c k k k k k k k k C h p p u p y t 9 6 : +   & 2 8 j j z z c k h j k h k j p p y =   , y g k k j z x k c c c k c p h h 8 % # + & + = 4 4 , = = , , , , : , : , , 6 6 4 6 6 6 4 8 8 8 8 8 y y 8 8 u u y u u y u u g h u h h k 3 @ y k z z h k k k z z k z k c k c k c k c c k c c c k c c c c c c c c c c c C c c c F k h S c p H ` L d , e g y y k p i u u i y y y e 9 , @ , g k k k k z B k k z k j j k h h 9 4 X # # , , , , ; ; 4 4 , , < 2 6 6 8 8 8 t y y y y y y i y u y u u u y y y u y y y y y 8 8 t 8 8 6 % O > e c u p p ",
"e y y 8 y 2 @ 8 g g i y u g u g i g j p u 6 ; = & , 9 g u i g h i g k k h g k k g k h k k h g z k k k k k k k k z k k k k k k h k z h k k k h j h j k = y k k k z h z k k z c k k k k h k k j k z k h k k k k k k k h z p u p u 8 y y 8 y 8 8 8 , < 4 4 , ; O O , 2 e g k k k k z k k z k k k k 9 = * 8 u u j k k h g k z z k j 3 * 3 ~ } K p z b k z c x b H x z k k k C c c c c c c c c C b c z c c z b c c c k c k c k c c c z k C k k k > ; C k z z c c c c z z k z k z k C z k h z k k k z k k k k h h h h u 9 y 9 y y 7 7 4 < 6 6 : 4 4 4 + + O + , t p k c k c c c c z k z C h k 2 O 6 k j h z k k z h z z C z i 8 , # # & 6 j C h i p k z h k c c c c S z k c c c c c c c C c c c c c C c c c c c c c c c c C c c c c c z k * j b S S c c c c c c c C c c c c c c c c c c c c c c c c c k z k Z k k k k j h p p s p u u 8 9 y 6 = # + + 6 t j C z z z k k g g j i i t =   < y h c k k z c c c k k p p i 8 , # + O # = = # # 4 6 4 , = = , , ; 6 , 6 6 : 6 6 4 6 6 9 8 8 8 8 8 y 8 y y u i u u u u h u g h u h h k 6 @ y z k k k z k k k k z k z c k c c c c c k c c c c c p c c c c c c c c c c c c k k g k k c c c x c L U z 3 2 d k t u y i u i y y t t y , @ , g j k k j z g k k k k k g i y 6 = % X 4 4 < = = = 4 6 , , < < 6 6 8 8 8 8 6 y y u p i y y u u u u i y u i u u u i u u 8 g 8 y 8 8 6 6 = O , 8 c p p u ",
"y 8 y e 8 , @ 8 g i g u i u g g p h h t ; ; + & 9 u g g j k j j k j g g k k k h k h k k j k g k z h k h z j z h h k h z h z j k j h z k k j k k k g p = t k z k k k k k k k k k k z k z z k z h h z z k C h C p k h h j j p p y h u y y y 7 y 6 4 4 : 4 , 4 , = O @ > y g k k k k k k z k z k h y * * 8 u u g h k g k k z k y < , b U K j j c c p z c z c b k k k z C z z z C k c c S c c c c c c c c c c c c c c c c c c c c k z c C h C k 2 2 k z k C c k c k k C z k z k z k k z z z C k z k j k k h h j g g u u g i u y y y 8 8 6 6 6 4 4 4 6 : & O & * 0 y k k c p k c k k z C k k 2 O 6 h j k h k k k k k j j i 2 # + # < h u u i z z c k k z c k k k c F c z c C c c c c c c c c c c c c c c c c c b C c c c c c c c c c z z * g b b b c c b C c c c c c c c C c c c c c c c c c c c c c k k k Z k k k k k z C p p u u p p u 8 6 7 4 % X @ * q p h k k z k g j p i i t =   , y g k c k k c c c k k i i i * @ O O * , : = 4 , , , , , 2 6 , , 4 : : 6 4 6 6 6 6 6 6 8 9 8 e t e y y u y u i u u j g g g j g h h h k 6 # h k k k k k z z k k k z k c c c k c k c c c k c c c c c c c c c S c c c c k k c c z S C k c c D p k F U U k 1 , y i u u i y y y y 3 t % & % g k k k z h z k k k k k g t 2 X + # , $ = # , 4 6 4 + , < 6 8 8 8 8 y 8 8 y y y y i y y i g y i y y y y u u y y u u y d 8 y t 8 8 8 2 % O > e z i p u ",
"e 3 9 d y , + 6 8 u u u i y g g C 8 = O O * 6 u u u u u p k p h h j j h k h z j g z k j k k h z z k k k k k k k z j z h k k z j z g g z k k k k h h g # 9 k B z k k z k k c c k c c c c c c c c k x k k c c k c k h k g h k g k g p u u y y 6 t 3 8 t 6 6 6 ; 6 , #   + 4 y B p k c l z k j k C 8 @ @ 8 h h k g j g j k i 2 2 g U K C k z c z k z k c k c c c c k S k c k c c c k c c c c c c c c c c c S k k S k c k c c c k S c k c k c p > , k c k c c c c k c c c k k c c c c k c c k c k c k k k z k g j k p k h h u i i y 8 y 8 8 8 6 2 2 < < , , % + +   t y g h z l l k B k h h < X : h p p k c k k k z h 8 X X * 8 8 y h j j k k k z k z k c c c c c c c b c C c c b c c c c c c c c c c b c c c c c c z k c c c k c c z u @ y z k C z c k c c c c c c c c c c C c c b c c C c c c c c Z z k z c c c c p j k z k k k k u i y y y t t q # X   * 8 g k j l j k g 8 g y = + 4 i j z l z Z k j p g g 8 $ + O # * = # , # , 4 : , , , , , : ; 4 4 4 6 6 6 6 6 7 8 8 8 8 7 y y y y y i u p g u g j g h j h j h g k j h , # y k k k k B z k z z h Z z k k Z z k c c c c k c k k c k c k c k c c c c k c c k k c k c c c k c k b j k F Q J p & 3 6 y p p u t y 8 8 *   % g k x h z h z z h j j 9 , O O = , , , = 4 , , 4 2 6 6 6 8 8 8 8 8 8 y i y y u y y i y u y u u y u u u u u u i i u u i g g 8 8 t 8 3 6 % # > y i k p u ",
"8 3 8 3 8 ;   8 p u t y u h g g = @ O # 8 g u i u u j u p p h p k h k k g k g k j g g z h k k j h k h z j k k k h k k k h k h k g z z B k k h k k g g > y k z g C k h z c k k k c k c k k c k k c k c c k c x k k k k g k g k g u p u u u y y y 8 3 8 6 6 6 6 6 6 , = & + + < u z k h k z z k u 8 % % y g y y d y Z l 3 * 8 F J F z z k z C z h c c c c c k c k x c c c c c c k c c c c k c k c c k c k c c c k x c c c k c c c k c c k C j 2 , c c c c c k c c k k c c c c k c c c c k c c c c k k k B z k k g p h h j g u u g y 8 8 8 8 8 6 6 , , : , = % # + O = 8 g k k z m k B g k 6 + 6 h c k p x k k h 9 O O O * , u g h k h z h k z k z c c k c k c c c c c c c c c C c c c C c c c c c c c c c c c c c c z k c c c c k C g > 8 F k C k c c c c c c c c c c c c c c c c c c c c c c c c z z b k x c c c k z z h z k h k p u u u y u t t < > +   O , t j g h z g y h y + X = y z z k k g p k u 8 ; # & + X = = , , , 4 , : ; , , , , ; : 4 4 6 2 4 6 6 8 7 6 8 8 9 9 t u y y y y u u h p g g j h j h h k k g k h k 2 * g k g z z z k k k z C k k k z z z c c c k c c c k c c c c c c c k k c c c c k c c c c c k c c c c c z k k c F H P 2 y y q 2 y y t 8 8 , # 2 g j j k h h h k k y , * % # = , : , , , = , 4 4 4 6 6 8 6 8 8 y 9 y 9 y y i y y u u u i u u i i u i u u u u u y u y u 9 8 y 8 8 8 6 2 # O > 3 k k p i ",
"< 8 8 8 8 *   3 y y y u p y < X   @ , 9 u g g u u u u u p j h k g k h j k g k h h h k h k h h z h z h k z k k z k k k k z k z k z g k h k k k g g h h * y B z k k k c k k c k c k c c c c c c c k c k k c k c k j k h k k h g h h j g g u i i y t t 6 8 6 6 6 6 = 4 6 4 # O & % 2 g k z c k h z y @ * y g 9 g z z 2 * 2 z L K z h k k k k C z k k c k k c k c k k c k c k c k c c k c p c c c k k c c c k c c x c c k k k c k c k k c k c h 2 , c c c k k c c c c c c c c c c k c c k c c c k c k k k k h k k z j h h k g g g g u u 9 9 y 7 8 6 , 6 4 4 4 , = = O O O ; y k z k k k j j 6 O ; j g h j k j 8 ; # O # < y g g k k k k k z z k k C c c c c c c c c c c c c b c c c c c c c c S c C c c c c C b c c c c c c c k c c C h = 8 D k F k c k c c c c c c c c c c b C c c c c c S c c c c k c z c c k c c k z z k z h h j j j p p p u 7 t 6 4 4 = O O * , y d h u 9 u y , O = y h j k h j g y 6 ; +   # # = = , 4 , = , , , , 4 6 6 , 4 6 4 4 6 6 6 6 7 8 8 8 9 9 t t u 7 y y y i u u p j j h h j g j k g k g k j k 6 @ h k h z h z z k k k Z k k k z k c c k c c c c k c c c k c c c z z c c k c S c k c k c c c S k c k k c c c k k F I U d * 2 y y t u < 8 % O , y k k g k k k 9 , > # & # = , , , , : , 4 4 4 6 6 6 6 8 8 8 y 9 y 9 y i y y y u y y u i u u u u i u y u u u i u u y u d 9 y 8 8 8 6 6 @ * % i k p u u ",
", < 8 8 y , & 3 y u u y < = O   % 8 g h 9 t y g u u u p j u p h g g g k g k k g k k j k j k g k j j z k h k h z h k h z j k h k g z k k l h k k k h h % y k B l z k k k c k c k c c k c c k k c c k c k k c k k k k k k k k k k h j k k u u u u y g y y t t 6 6 , , 4 6 6 , # O O % 9 h k k k c y O   8 k h 9 y 2 2 y F L z g j k k k z z z k k c c c c c c c c c c c c c c c c c c c c k c c c c c c k c c c c c c c c c c k c c k c k c p ; , c k c c k c c c k c k c c k c k k c c c c k c c k k k k k k k h j z k k k h g g g u y y y y y 8 6 6 6 < 6 4 4 4 4 #   O * 6 u u k z z g 2 O 2 j g h h 9 % O + X 8 9 g h h g k k h z k k z C z z k c k c c k c c c c c c c c c c c c c c c c c c c b c C c c c c k c k c c k c k C j * 9 S c C C c c k c c c c c S c c c c c c c c c c c c S c c c c c k c c k k z k z C z z C z z h h p p p u u 8 y y 7 , % O   > % 9 u g g y =   = 9 g g j h p 2 * O O & , , = , , , , , 2 : 6 , , ; : , 4 , 6 2 6 6 6 6 t t 7 8 8 8 9 y u y p y i u u u u j u h j h h k h g k k g k k g 2 * g j z k k z h k k k k k Z z k c c c c k k k c c c c k c c c k z z k k c c k c c c c c c k k x c c z k k c c z x p z K H y ; 6 t 6 2 < % @ = y j z k B h 6 > @ * * = , , , , , 6 4 6 , 6 6 6 8 t t 6 8 8 8 y y u y y i g u u u i u u u u j u u u u u u u u y u u u y d y 8 8 8 8 2 @ # * 3 p p u u ",
"> > % , 8 2 @ 2 j i 2 * O + % 4 9 y 9 y u h j u i u u u p h p h g g h k j k h k k h k k k k j z h k k k j z j k z j z h k j z k z j z h z k g g h h g > 9 h z h k C k k k k c p k c k c c c c c k c k c c k c c k h k h k h k k h k j h k k g g g g i y y t t t y 6 , = 6 6 , = % O O > t z z p 8 X # y g 8 * * 2 z L F g g Z Z C z z z z k z z z C k z k k c z k c c c c k k c c c k c c k c k k c k c c c c c c k c k c c c k k k C k C h 2 , c c c k c k c p c c c c c c k c c c c c k c k c k z k k k k k k h h k k k g g j j g u i u y y 7 9 8 8 6 6 6 : , 4 4 , # O O + 6 y h k k 2 O 2 j h 9 , * X O , 9 g g 9 g h k k k z k z k z z k z c c c c k c c c c c c b c c S c c c c c c c c c c c c c c c c c c c c k c c c c z g > 8 m c D k c k c c b C c c c c c b c c c c c c c c c c c c c c c c k c c c k C z k C z C k h j h k h h h p p p u 8 8 4 , % O O = 6 p s y * O , y u u y 8 : O X   X ; , 4 = , , , , = : : , , 4 4 4 4 6 6 4 6 6 6 t t 7 y 7 y 8 y u u u u u u u i u p p p h j h k j h k g j h g g k k < & g z k z k k k k k z h z C k z k c c c k c c k c c k k z k z k Z k c c c c c k c k c c k c c c c c C c x k c F c k k j z L F 2 * 6 2 8 , + : 9 p h h y = & = = ; = 4 6 , , , , 4 6 4 6 6 8 8 8 t t y y y y i y y i i u i u u u u u u g p u u u u u p u g u u y u y y 9 y < y 8 6 2 % @ * 3 k j u u ",
"d 2 * @ , , O , 6 =     & 4 9 y u y y y u u j g u u i p j p j h k g j g g k j h g k g g k h k h j z h k h h z k k k k k k z h k h z k k g k k k h g g * y k z l k k c p c x c c c c c c c x c k c k c k k k k k z k z z k k k k k k k k h h k g g g g y y y y t 7 8 6 6 , 4 4 4 , %   X * 6 y y 8 * > , * * 2 h F z j g k F Z j k k z h h k z z k k z k c k z k c c c k c c c c k c c c c c c c c c c c k c p c c c c c c k c c z k C k c j > , k c c c c c c c c k c k k c c c k c k c c c c c C k k Z Z k z k k k h j g k k h h g u u u u y u y 8 8 8 t 6 6 6 , : 6 , = O O O * 8 g h t + 4 8 % %   O % 8 9 h g g h k k z k k k z z C k z C c c k c k c c c c c c c S c c c c S c c c c S c c c c c c c c c b k c c c c k k c z g % 8 S p S k c c c c c c c c c c c c c c c c c S c c S c c c c k k c k c k c k z z z z k k z z k j k k k h k k u y u y 8 6 , = + O & % 6 y 6 . , 9 p y ; &     * , , , , , = , , , , , 6 6 , 6 : 6 4 6 6 6 6 8 8 t 7 t y 7 y y y y y u u p u p u u u j p k p k h h j h j k k k g k k h 6 # u h k k k k k k Z k z k k z k k c c k c c c c c c k c k z k z k z k c k c c c c c c k c c c k c c c c c c k k k c j z k g Z J C ; * , # & 4 u y y , * & O = , 4 : , = , , 4 6 6 : 6 6 8 8 y t p t i y y y u i u u u u u u u u u j u p u u p g p u i u u u u i i u g y y 8 8 8 8 6 @ X > y j j u p ",
"! H d * = #   %     X = 6 u y 7 8 g z j y t i j i g u u p h p h j h g h j h g k k j k k g z k k j h k k k h k k h z k h k h z j z j k k k k g k g h g % 9 h B l k k k k k c c k c c k c c c c k c k k c k z l k k k k k k k h k h k k h k k g k g k g g u y u y 6 8 u 9 8 , % 4 , , , # O X = 6 2 # @ # # < k F Z g g k z j g z k h j k z k k z z k k z C k k z k c k c k c k c c c k c c k c c c c k c c c c k c k c c c k c k z k c k c k ; , k c k c c k c c k x c c c c c c c c c c c c k c z k k Z k z k k l k z z k k z j h h h u p p u y y 8 8 8 7 y 8 6 4 , = 6 6 , & O   * % 7 4 + = = X   # , g h g d h h k k z z k x z z k z z k k k k c c c c c c c c c c b c c c c c c c c c c c c c C b c b c C c c k c k c c c c C j * t D c S c z k c c c c c c C b c c c c c c S k c c c c c c c c c c c k c c z k z C z z k k k k k k k k k h p u g g h u y 6 9 4 #     + 6 6   # < 6 , = + O % $ 6 , , = , ; , , = , 4 4 ; , , , 6 6 6 6 6 7 8 7 t 7 y 7 7 y y 9 y y i p p p u u j p u j h k j k h h k k h h k k k k k 6 # g h k z h k Z k k k C k z z k c c c c c c k c k C k z z k z k z k c c c c x c k k c c c c c c c c p c F F c p i k C k j Z k u k K 2 3 &   # 7 6 : + + = ; = = 4 6 = = , 4 6 6 6 6 8 8 8 8 y t u 7 y y u i u u u p u u p u p h j u u u u u g u u u p u u i y u u y y y 8 8 8 8 < 2 @ @ > 3 j h u u ",
",.X.P g 6 o   . o # : 6 y t y p i t t t g k j i u p u u h p j j h j h j h j h g h k g z h j k h k h j h j z k h k j k z k k h k h z h k z B l k g h h % h z z B S k k k c k k k c k c c k c c c k S p x k z z k k z k k z k z k k k k k k k k g k g k g u u u u u 9 7 6 6 6 8 8 , < 6 , % + + X @   O 2 y k k 3 g k k g g Z Z g C k k z c C k h z k z k z k z k c c c c k c c c k k c c c c k C c p c c k c c c c c k c c c c c k k c k c p 1 ; c c k c c c k c S c c k k c c c p c c p c k c c z z z k z k z z k k k k z k k k k z j j j p y p u y y 8 y y y 8 6 6 6 4 , , , 4 + O O & + O +   @ , 8 y y e j z g g k k k k k b k k k k C k C k c c c k c k c c c c c C c c c c c C c c c c c c c c c c c c c c c c c c c k k c C h * t S k S p c c c c c c c c c c c c c b C c c c c c c c c c c k c k c c c k k z k k k k k k z k k k z C k j z k h i u i u u t 6 7 4 & O X     O + O O & $ 4 < % + % = 6 4 , : , , : 6 6 6 : : 6 4 4 6 6 6 8 t t t y t u y y y u p y u p p p p h p h p h p p h j j k k j k k k g k k k < * u z k k z k k k k C k k z k z k c c k c k c c c c k k z C k C k z c k c k c c c c c k c k c k c p c c k k k c c c k h z h j z k j K z 2   + # & O = = = 4 4 4 : = 4 6 4 6 4 6 6 6 8 y 8 y 7 u u u u u i i g g g g u g u p h p j h h p j p h j j g i u u u u u i u y y y 8 8 8 3 2 % O % 3 j j u u ",
"d U S * * O O O O 6 y 6 6 p g 3 t i u u y y y g u y u u p i u u k g j p h j h h k j h h k h k k j h j h z k k k h k h h k k k k k k z k k j z h k g g ; y h z k k k k Z k k k k z h z k z k k c c k k c k c p c c k c c k c k c p k k k k k k k h h h j j j h j B s y 2 8 h 8 < < < 4 4 4 4 # + .   # ; p y e k x g j k k z k z k k k z k k z h k k k z k z z k z h z k z k z k z k z k z k z k c c c c k k c c c k c k c c c k k c k c p C = ; k k z k z k c k c k c c k c k c c c c c c k c c c k c k c k c c k k z k k k z k j j h j h h k j u u y y y y t t < < 8 8 < 4 , = 6 # + +     X O = 8 u y u j z g y k C z k k k c k k C c c c k k c c k c c c c c k c c c c k k c c c k c c k c c c c c c c c c c c c c c c k k c C i = 8 C c c S k c k c c c c c c S c c c c c c c c c k k c c c c k c k c k c k c c c k k c c c z k l z k c c k p p z j j z g y g i 3 < $ # .   .     o , 4 : # 6 6 , # , , , 4 4 , , 4 6 4 6 4 6 6 6 6 t y 8 t y y y y y y y i u i u u u u j p h p j h p h k k h j g z k h z j k h k k k 2 * y k k k k k Z k z k z z k z k z k k z k z k z z k z Z k z z k z k k z k z z k Z k z k Z k k z k Z c z k k j h k h C z h k k k g l k g g O O     4 # 4 6 , = 6 6 q 4 6 < 8 8 t t 6 t y y y i y u u i y u u u u u u j h j p h j p h u j p p j p u j p u u u u u i u y y y e 8 8 6 6 * @ % 8 i p y p ",
"g 2 * & F p k ; ; & & y p t 8 u y y g i i y y u y y u y u u u u g g p h h p k h h j k j j k h j j z k k j h k h j k z j h j k h k k h k h z k k g g h ; y h k j k k k k k k Z k k k k k k c k c k c c k c k c c x k k k c k c k k k k k k h k k j j k k h h j j t 7 g k g , < g 6 , , , , = O   C t q O & t i y g k l k k k j y h j z h k z k z z k z h z k k z z C C k k z k z C k k z z C k z k c k S S c k c c k c c c k c k k k k c k k ; , k k k z c C c c c c c k c c c c k S k c c c k c c c c c c c k c k z h z k z h z h z h k j k j j g u u i g y y y y 8 , , 4 < 4 , , =       , y & O = u z u i j S Z k j j k k c c c c c c k c c c c k c c c k c k c c k c c c c c k c c c c k c S c c c c c c c c k c k k c c c c C u * t C p c k k c c c k c c c c c c c c c c c c c c c c c c k c c c c c c c c c k c c c c k c k z k z k c k c p D F e 3 g z k 9 6 8 u , O & 2 +     + + = : < + # 6 6 ; 4 , , , , 4 4 4 4 6 6 6 6 6 6 7 t 7 y t t y y y y y y i u y u u j h p p h p k k h p h z h k j k k g h k k k k k 2 * g k z z k k z z k z k k Z k z Z k z k z k Z k k z k k z k k z k C k k Z k k z k z k z k z z k z k k k z z z z z z g j z k h h h z 3 > , @ 9 6     7 +   6 y = = 7 4 4 6 8 y t y y y y y y y u u u u u u u u u p g h p p h h p h p u u h h p h u u u u u u y u u y d y y y t 8 6 2 @ @ * 3 i p y y ",
"<   O * Y F O.,.b l 3 & * 8 i u y y y y y u u i u y y u i u u u g u h p h p p p h k j k h h k z h h k k k h k j h k j z z k h k g z g k z j g k g j p = t k k z k k k k k k B z z k h z c k k k c p c c c k k x k c k c k c k x p k k k k k k k h z k h h j h k h u t y u h g , u 8 6 , & O y ) m W 6.;.F @ = 6 g h k g i k Z z k h z k k k k k k k z k k C z k z k k z z k k C z k z k k z h k c k c k c c c c c c c k c c c c c k c k k C ; = h z k z c k c k k c k c c c k c x k c p c c c c c c c c c c c c k k k k k h z k z h z j j h j k j j g u y y y y g 9 8 8 8 6 4 =   + X   # c ,.4.t * & 3 h C u i k h j C z p k c k c c c k c k c c c c c c c c x k c c c k k c c c c k c c c S c c c c c c S S c c c c c c k k c C u > t C c k c C k c c c k c c c c c C c c c c k c k c k c k c c k c c c k c c k c c c c c c k k c k z k k c k k j j b F Z u 8 B V , O & x ^  .%   X +   + # 4 6 , = = 4 6 4 6 2 : 6 4 6 6 6 4 6 8 7 8 t t u t y y y y u y i i u u u p u j p h p k p h p p p k g k h k g z k k k k k k k , @ g k k h z Z k z k k Z k k k Z z k k Z Z k k k Z k k z k Z z k Z k z k k z k Z z k z k z k k z k z k h j z C z h z z h h k z h 9 < # @ % X 9 h 6 6   & 2 < = = 7 9 6 6 8 8 8 y y i y y y y u u p u u p u u u u p h p h p p h g p j u g p h h p u g u i u u u i i u i y y t y 8 6 2 # @ * 8 p i y p ",
"    % , u - ` w.s.] d 3 3 ; , 8 y y y t y y u u i y y u u i u u g g p j p j p p h j h h k j j h j h j h h j z h j k h h j h z k k h k j g k h k j j p = u p C k k k k k z k z k k k z k k c c k k c x k k S k k k c k k c k c k c k k k z h z k j k k h k k j h c i i g u y y C 8 t & O j *.+.v f f 7.c.u.~ g O , 8 g h g g g j j h j k k k k h k z h z k k k z k z z k k z k z k z k z z k z z c c c x k c k c c k c c c k k c k c x z k h = , k k k k c c c c c c c c c k c c c c c c k c k c k c p c p c k c z h z k k z k k k k z h k k h h k h g g i g i y 9 9 9 9 7 , = O   # = = O 3 #.d.f.) - & q h k z h h z z z k k z c c c k c c c c c k c k c k S k c c k c c c c k c k c c c k c c k c c c c c k c c k c k c c c c Z g * e C p S c c c c k c c S c c c c c c C c c c c k c c c c c c c k c c c k c x c k c c k c k c k c k c x k k c x k k j u h C 4 = & ; ~ 9.,.n # O % = O + O & 6 6 , , , 4 6 4 4 6 4 6 4 6 6 6 8 8 8 8 7 y y y y y y y u y p u g p u p h p h h p h p k p C h k h k k g k k z h k h k k k < # g k z k k k z k z z k k z z k z k k z k z k z k z z k z k k z k k k Z z k z k k z Z k k k Z k k z k z k h k k k j z k g g h i %     # 8 , 2 y j J H 2   @ 6 9 6 $ 7 8 8 8 8 y t p y y i u u u j h g u g u p j h p j p g h p p h p u p g p p j u u u p u u u y u u y y y t 8 8 6 6 # @ * 6 u i u u ",
"  X ; 7 ; & i F { 9.u.] i e 2 * e t i p u y y y y i y y u i y h u g u g u h p j h j h h j k k h j k j k k z j h h k h j h j h j z j k g k k g k g j h ; t z k k k k k z h k k z k k z k c k k z c k x k c c k c p c c k k c k c k k z k k h z k k h z j h j j j y z C i u C p 6 - & y } ,.U x j y 2 H / 9.l.a.R 3 * * i k k g u h k j k z z h k z k k h k z k z z h k z k z k k k z k C k z k z z k k k k k C c k c c c c c c c k k p c k C = ; k k z z c c c c k c k c k c k c c c c c k c k c k S c c c c c c k z k C C k k z k z k h z j h k h h u u g j h p 9 h y < ; # O O = = = , * 2 H R ;.k.d.Q * * e t k z z g h S S j c c c c c k c k z k z k k C c k c c k k c c c c k c k c c c c c c k c c c k c c c c c k c k c k C y > t z z c c c k k c k k c c c c c c k c c c c k k c c c k c c c c k c k c c c c k c c c k c c k c c k c k c x c c i h C p 2 & - P u.i.~ u j # O 4 < = % O O   = 6 8 6 = : 4 6 4 6 6 6 9 6 6 8 9 y 8 y y y y y y u u y p i u u h h j h h h j h k k p k p k h k h k k k k k k k h k k k 6 # h k z k k z z z k k z k k k z k k z k z k k k k k k k z k z k k z z k z k k k Z k k k k k k k k k c z h k z k h z z h g 8 , & & # , , < , ; p i i H ' L ,   , 8 6 y y 9 y y y y t p i u u u j p p u p u h p j p j j h j h j h j h u u j j h g u p g u u u i u u y y y y 8 8 8 3 2 # O % 3 y u i u ",
"% 4 % 8 = 2 i i x J ,.g.6.H e j * 2 6 y y u y t y y y u y u u i p u p u u g h p j h j h j h j h j h h h j h j k j z k k z k k k g k h z h k h k g j h ; y h k z h k k h z k k k k z k k k k c z p c k c p c k x c c k c c k c k z k k k k z k k k k k k z z h p j k g u j k q O t ` 4.X.z e g g 4 9 J c W #.j.n.,.H 2 * 2 y k F k h k z k k z k h k j z k k k k k z k h z h z k C k z k C k z k k z C z c k k c c c k c k c k c k c k c p C ; , k k h z k c k c c c c c c c c c k c k c c c c c c k x k c c c k z k z k z k z k z h k k k k k j h j j j h h j u h y < @   O # 4 , 6 , = * p I x c P 3.v.q.j & 2 % g k z j j z z c k k c c c c c k z k z c k k c c k c c c k c k c c S k c k c c c c c k c S c k c k c c c c c c Z y > e C h s c c c c c c c S c c c c c S c c c c c c c c k c c k c c c c S c k c c c c k c c c c c c k k c c c k p p D C q - & m e.j.` u h C < % O 4 8 2 4 = ; O O & # < 7 6 6 6 6 6 6 6 8 8 9 8 8 8 y y u i i y y u u p p u j p j p h k h k g h p h p h k p k j z k k k h k k k k k k j 3 & g z h k z k k k k z k Z z z k z Z k k k z z z Z z z Z k Z Z k Z k k z k z z k z k k k Z k k C k Z C j k h k z z k y y , % O # $ 4 5 8 8 6 ; p i i g S [ } F @ + t 7 y y u y u p p p i u u u j g h g i p j h p p p h j h g h j h j p u h p p j u g p u u i y u y u i y y t 8 8 2 6 * * * < i u i u ",
"* , = # O , k k y i x ( 6.d.%.v y 3 ; 2 6 i i y y y y i y u y u i u p u j u u u h j h j h j j j h j j h j k h k j h k k j h k z h j k g k g j h j g p * t k h z z k k z z k k z k k k k k c z h c c c k k c k S x c k c k c k c h z h z k k z k k k j k k k k k F 8 i F p & q ( 9.X.K g j S k h < 8 H c c p ! ;.M.s.X.b 2 > 3 i j h j h k z j h k k k h h z k k k k k z k k h z k z z h z k C z z k z k k k c k k c k c c c c k k c k c h h ; = k k k k c c c c c c c c c c k c c c c c c c c c c c c c p c c c k z h z k z k z k z k k z k k z z j k j h h u y 8 , # O O = 4 6 , y 6 #   6 I C c b c ! q.N.5.e > > y k k i k C c c c c k c k k z k k C z C k C c c c c k c c c k c k x c c S c c c c k c k k c c c c k c k z z Z y % t c k C c c k c k c c c c c S c c S c c c c c k k c c c c c p c k c k c k k c k c c c k c c c c c c k c c z j p p - & x O.k.;.P k h h g h * O , < 4 8 2 6 6 # O O = 6 6 8 6 6 6 7 8 7 9 8 y 8 y y y p p p u u u j j p h h p p h p k h k k k h k k C k p p h k h z k z z k z z k k h < # y k k k h z k k z k z z k z k k k Z z k Z k z z k k k z k k z k z k z Z k k z k z Z k k k k k k k z h k j z h h i < , & + = 6 8 6 8 8 y 8 & k c C g t i K | =.S & 2 6 8 y u u u i u u u u u u u u g j p p p p h k j h j p j h j h u u p h h p u u g p i u u u y u i y y t y 8 8 2 % @ * < i i u u ",
"> > 8 ; = # h u p C p y x O.a.s._ F 3 * 2 t i y y y y y y u u i i u u u u u u p j h j h j h p k j h j k h h h j k h j h k k h k k h g k g k g k j p k ; 7 k z j z h k k k k z h k k c c k k z l c k c p c k c k k c k k c p z k k z z k z C k z z h z k z h k c g F k & & H =.3.P c k j k g h 9 1 d J c D C C C R 8.M.u.! y 2 > j j k h j h k k k k k k k k z k k z C k k z k k z k z z k z k k z C k c C C k c c c c c k c c c z l c C k C ; , k z k c p c c p c k c p c k c c k c c c c p c c c k c c c c c k z z C k z k z C z k z k h k k h z h h z k p y t O O O = 4 8 6 4 3 6 , , * 6 G Z x F b k m ..t.k.T 3 O , z c k z c k c k c c c c z C k z k k c k c k c k c c c k c c c c c k c c k k c k c k x k c k c c z c k z C y * t C k c c c c c k c c c c c c c c c c c c k c c c c k c k c c c c c k c c c c k c k c c c k c k c c c c k g B 2 O q =.j.a.Q c i x k k j j # * 8 8 6 6 6 6 = 7 B 6 & X = 9 6 7 6 8 8 9 8 8 9 i y i u u p p u i u p p h p k p p k k p k h z p k p k p h C k z k k j j z h z g g z B k 2 * g k z k z k k k Z z k k Z k z k z k k z k z k k z k z k z z k z k Z k z k Z k z k k k k k k k k z k k z k j j y 3 + X # = 4 6 6 8 8 8 i i ; z h y k l j i x I ..;.= 2 6 7 u i y i g i p u u u j u h p h h h j h h h g h j h j h j u p j h p j p g u u g u i u u i y y y y t 8 < 2 # * * 3 y u y u ",
", , , , # * j j u u j h g k L } k.7./ v e 1 2 e e 8 g 9 9 8 i f u u u i u u p u u u p u p h p h h j h h k j h h k k j h h k z k k k h z k g z z d g y = 4 k j z j k h z k z k k h k z k k k k h k k k k z k k h z z k k k k z k k k k z k Z k k k j l S p u u s l e * f O.q.{ e k k k k k k u y 2 8 H k F c c c p c ] d.c.8.W f ; , t h h g k h k k z g k h z h h k k k k z k z h k k z k z k z k z k z z k C z h k k z z k k c k k z k k h ; * k k c c c c k c c c c c c c c c c c c c c k c p c c c c c k c p c k c c z k z k k z C z k z z z p j u h C 8 %   # , 2 6 8 8 8 y y < 8 , O 8 H b z k c c c c ( X.k.t.! - & e c p h k z Z c k k c c c c k x c c c z k z k z k z z k c k c k c k c c k c c c c c k k z k Z k z k Z z y # 2 c c c z c k c c c c c k c c k c k c c c k c k c c c c c c c c c c c c k c z c c C S c p x x k z C C C j 8 & 1 / f.s.} k k z k k B z g k = + 8 4 8 6 6 8 2 2 8 g k g , @ 2 8 y y 8 y 9 8 y y i p u u i u u u h j h j h h g k g g k k k h k k k g z h k j k k z j k k h z l h z h l < @ i z z z k k k k k k Z z k z k k z z k z k z k Z k k z k Z k k z k k z z k Z k z k k x p j z z C h c k h g y 6 +   % , < 6 6 y t t y y p t 2 c p p g g k k j g z L 7.W 1 - t k p y l 3 3 h z g p k j g g g p j h j j h j h p p j p p g h p p u u u u u u u u u y u y 8 y 8 3 3 2 6 % @ # 8 i i y u ",
", , , , # = h j h j j z h y g F v 3.k.;.H j e * e y y h 9 u y y y y y u u u p j u u u g j g h h j h j k h j k j h k j z k k j h g k k g k k g g j g y % 6 C h z k k k k h k k z k k k k z k k z k k C k h z k z k k k k z h k k k C z k C k k k z z g g c H C y & 3 [ q.+.i y J c k k k k k u u , 3 F c S c c c F b x c +.h.f.#.F , * e k i y h h k k k j p h z k k k k h z k k z k k k z z z k z k k k k z C z z z C k k z C c k k z j k j 2 = k k c c c c c c c k c p k c k c p c k c c c c c c k c k c c c c k c c p C k k z k k k k z k j j u z C y = O # 4 4 6 8 y 8 y 8 y t 8 8 , O y H S c c c c c p c F / 3.f.6.H * & y F h g k x p j z k k k k c c p k k z k C k z C h c c c c c c c c c c k c k c c c z k z k k k k z z i # 6 c c c C c c k c k c c c c k c c c c c k c c c c k c k c x c k c k c c c c k k k k k S H H k p c F h 3 & O K 9.w.X.P C k z k k k z j k k , X 4 6 9 6 y 8 y 6 2 2 9 h z z O * 2 8 y y g j u i u p u u j p g j j h j h j k k g h k z g j k h g k z k k k z z h h k k k h k B l B k k < @ g g B k k k k k Z z k k z k Z Z k k Z k z k Z k z z k z k k z k z k k k k k k k k z c z z h j h C h h j 6 = & = = < , , 8 8 y y i u y h y ; C j h k k g k k g k Z k *.3.H & & y h e z F d 8 z h y h j h j g h j h h j h j p h h h h p p j u u p g u u u i y i u u y d 8 3 8 8 6 2 # # * 3 u u y u ",
", , 6 , & ; j p g y u k k g g g b f I w.p.| b x 0 1 3 3 8 u y u y y y u u y u u u i p i p p p j j h j h h k k h j k h k j h k k g z j k k h g k j g y = < h j c h k h z k z k k h z z h z k k k k p k c k k k z k z z h k z z k h z z k k g k k B h k K c q * * ) 1.$.H i F F i z z k k j j g y 2 8 H k S c c c k F z k x Q 3.k.u...f * - y k p h h d y k c j x j z h z k j k k z k k z h C k z z h C z z k k k k C z k z k c z k k z k k p > % k k c c x c c c S k c c c c c c c c c c c k c c k c c c c k c c z k c k z k z k j k S z g g k z p u 6 & & + , 6 8 u u u u u 9 y y < 8 , O y H l k k c c S c z k j x ) u.f.O.p & > h F h i F G g c k k c c c c c z k k z z z k z c c k c c c k c c c c c c k c k k C k C Z k z k z y = 2 c c S k c c c c c k c k c c k x k c k c c c k c c c S k k c c c c k c k c j j z c c k x h h z z i * > i 6.q.6.~ x c c p k Z k k g k k g , X 6 6 8 8 8 8 8 8 3 8 8 g k F ) u & , y g y 8 y y p h p j p u j h j j h j h k g k g k g k j h k j k h k h k h j h k k h k z j B h B k k 6 @ y z g k k Z k k k k z k k k z k z k k k Z k z k k k k k z k k z k k k k k z k k Z c c C C z h z h p t = + O & : 6 6 4 8 9 y i i u p i h t 2 S j p k h g k k k g g k q F =.=.k & - j t e g j g i h h h j h h j h j j h j h h g p j p h h p g g u u u u u u u y u i 8 y 9 y 8 6 6 , # O * 6 u u y u ",
"2 2 4 < # , h j g y i g k k k k t k k c { u.t.{ f e > 2 8 u u 8 y y i y i u u y y u u g u h h g h g p j j h j h h h h j z h j h g g k h g k k g g g y = 6 k j k z k k j k h z k k j k z h z k z k c k k k z k h k k k z k k k k k h z k k g k k Z k C j 0 1 n ;.<.H y k F p p H j j k k k g u y > e F c S c c k F k b H F i c / 5.k.d.' w & 3 t h h h g h j k k h h j k k z h k j k z h z k k k k z k k k z C z k k z k c k k c z j c k z g , > k k z c c c k c k x c c k c c c k c k c c c k c c c c k c c c p k z C k k z k z k k h z h k h k 8 # O + 6 9 u 8 y u 9 u u 8 y 9 i 8 9 , O 8 H c c k k c F F F c f H b k { x.s.` > @ * h Z C p j k k p c S S c c k z C k k C z k c k c c c k z c k c k c c c c c z k z k k z k z z y & q c c c C k c k c c c c c c k S c c c c c c k c c k c k x S k k c c c c c k z z z F c k k C C j 3 & q { g.2.} z p c S F S k Z k k z h k z , O 6 6 u 8 8 8 8 t y y y 8 8 9 u ) ) y O , i i u u h h u u p k j h h h z h j k k g k g k h k k h z k k j z k z z k z k z k k z z h l k h < @ g h z z k k k k k k Z k z z k z k z k z k z k Z k z Z k Z k z k z k k Z k k k k k z j p h h C p 8 , = & + $ 4 6 5 8 8 9 h u u g p h p k y 2 F h k k g g k z Z g d y k p p Q :.] i @ 2 g k k C h y j k h h j h j h h j h j p p h p j p h j u u p u u g u i u u y u d 9 y 8 8 8 8 2 # # # 6 y u y u ",
"6 , 4 6 # = h p h j g g g g g k z g y g k F O.f.9.{ x - - 3 t i y u y i i y i y u u u u u u j p j g g h j h j h k j k j h k k j k g k k g k h k j g y % 2 h j k k k j k k z k z k k k k z h k k c k k k z k k z k k k z k k h z C k h k Z k k z h Z e O y ;.6./ i x z j k F S k z g k g g g u y > 8 F c b c c k c k c k S H c i N  .e.k.4.Q q & < 9 k z g i j z k k k j z h h z h z k k z h k z k k k k k z z k k B k k k k h z h k k k c p > > x k c c c k c k c c k c c c p c c c c c k c c k c c c c k c c c k k k k z k z k F k y g k Z 8 % O + # 6 7 u p p p u u y y y y y t 8 8 6 O t F k c c c c k k c c L z z b c m +.c.2.L * * 3 y g Z k k k p c c k k k k k z h z k z k k k z k z k C z k C k k c k C k z k z k z z k C y # 2 S x S p c c c c x k c c c p c c c c c p c c c c p c c c c c c c c c c p j S F Z k z S b y p > * I d.d.X.c p p F F k k c z k k k k k k k , O 8 8 u 8 y y i y t 6 y y i u i t F [ U e * t p j h j y y p C j j k h j h z j h k j z h g z h z k k k g z k h Z k k z k k k k k h l B k < @ y z k z h k k Z k z Z z k k z k k z k Z z z k z k k k k k k k k k k k k z k k k z h h h h u u , =   # : 6 4 6 6 9 9 y y i u h g h k p z u 6 F h k k g k h z z h z V k k l p j P ,.U 3 @ t k u y C j h j h h j h j h j h j h p h p j p h p g u g p u u u u u u y u 8 y y y 3 8 2 2 # @ % 3 u u y y ",
"6 6 6 4 + ; g u i g g k j g g j k h g g j k F L q.9.,.! i - 2 t t t y i y u y y y i i u u u u u g g j h h j h j j h h j k h k h g k h j k g k j j g y % 6 k p z z h z h k h k k h k k z k z k z k k z h k k k k k C k k z k z k S k j z S k h j i @ 2 [ 4./ c r F b F S c z c k z l k h k g g y , 3 F k c c c k p F F k k c F F x k F O.d.d.;.D 1 > > 3 g k h u h j k h j z k k k k z h k z k z k z z h k k k z B k k z z B z z z k c k c p , > p k c c c c c k c k c c c k c c p c c k c c c k c k c c c c c k k z k z k k h z k Z Z C y , @   = 6 y u p u p p j p u i u u u u i 8 9 4 + y H k k c c S c c c c j b S b c b b H y.s.,.z & * u g c c c c k c k k z k z h z k k k k c C k C k z k k k z z k k c c C k z k z k k z c y # 6 S x S S p c k c k S k c c c c c c c c c c k c p c c c c c p c k k c c c z z k k z F g 2 ; & p 6.x.=.b j m F Z C C c c k Z k k k k k k z , # 8 8 u y u u y y i i i g g u c p 3 g ~ | L * ; 2 y h k k h p h z h j h k k k k g k h k z j k k h g z z z k z k k k k z k h z k k B l h , * g j k k z k k k k k k k z k Z k z k z k k k z k Z k k z k z h z k h z g k k k z B u C C p < # & & # 4 6 6 8 9 y y y y u u u g j h h p k u 2 F h h k k k k k g z k h k k h g f x k [ [ F * & y C i u g u j j h j h h h j g p j j h p h p h u i u u j u u i y u u i d y 8 8 8 6 6 2 # @ # 3 y y y y ",
"6 8 , < @ = j i y g g g k k k h y g z C j g g y k ) 6.a.#.P e - 3 3 3 t y y y y u i u u i u u u u u g g j h j h h j h k j h k k g g k k g k h h j g y = 6 C j k j k h k k k k z z z h k k k k h C z k z k z k k z k k z h k k k z k k z z g t d * H #.o.H k c H j j z S z i p C k k g g g g d y > 8 H k c c c c b k x c c c k c c F S c J &.d.h.' l 1 > y C h 9 z h k j h k k z h k k k k k z h h k z z z k z k z k k z z z k l k h c k k p ; % k k k c c c k c c c c c c c c c c c c S k c k c c c c c k c k c k k k h C k z k i g h y = O # 4 y y u u j j k p h p p h j h u y u 8 y 6 & 8 F k k c c c c F F c F c x b F F c c x ' t.y.X.i & - y p c c c k c c k k k k k k k k k k z k k z k z C z z k z C p c k z C k k z z k z y * < c S c C c c c k c c c c c k c c k c c c c k c c k c k c c c c c c c c c S k g z k y 2 2 0 ;.k.4.H k c b d z S C p k c c k k k k k k z k 2 @ y 8 g y u g y i u p h u y y q i C h i C ) =.y t t y h c h p k h k k k z h z h z h k z g k k k h z k B z k z k k k k k k z k k B k h k 2 O g k k k k k k k k k z z k z k C z k k k z k Z k k k k k k k z k k z k k k z g z g y u 8 : # + + $ 7 6 6 6 i g u y u u p p j h h z k p C y 2 S j k h k k k k z z g k z z k B k l g y K *.[ j * , g y y u i u j j j j h j h p j p p p g p j p u g u u u u u u i u y 9 y y 8 8 8 6 2 @ X = 6 y u y y ",
"6 6 6 < # * j i k g y y h g g y Z g y j k g h C p i v ..e.w...c ; 2 2 t y y u u y y u y u u u u g j g g h j h j j h j h h j j h g k g h h j g j j g y = < h h z k k z k k z z h k j z k k z k z k k k k z h k z h z z h z k z k j j k C g 3 2 3 %...U j x C c p z z k j z z k p k g g g g h y y > 3 H j c c c k k c c k c c c S S C k C x F  .3.l.6.U e # * 8 B j h k k k h j h k k k k k k j z k k k k k k h z k k l B l k k k k k c k c p ; * k k c c k c c c c k c k c k c k c c x k c c c c c k c p c c c c k z k z h z k k l y * O X : 8 9 u y h j j p p x h j j h j h i y u 8 y < * y F k c c c k k c c k k c c c k c b b n l m X.d.q.~ 1 & q a k k k k c z h z k z k z k C z k z z k z k z k k z k k k c z k z k z k k z z g * < c c c k c c c c k c k c c k c k c c k c c c c c c c c c c k c k c k c c z h Z l 2 O 6 ~ g.3.~ l x b b b b k p C C c C x k Z k k k z z z , * t 8 u i g g g u p u u u g h k k k j j j k c -.U y ; 2 p k C j z h j k h k k k j k k k k k k k k z k z k k k k z k z k k k z k h k k k < * g k h k z Z k k k z k k Z k z k k Z k z k z k Z k z k z k k k z z h k k k h z g z u , &   & , 6 8 6 7 y y t y p j p p k k h h j j h p k u 2 F g k g k k h h z k h k k h k l k k k k i d L [ ) d O y y i u u j h h h j h j h p h h h p h j u g p u u u u i u g y u d y 8 8 3 6 6 6 + + & 6 y y y y ",
"3 8 6 4 % = y u u u u u u u i p h j h j h j j k B k i y H ,.a.9.! l 1 - 2 9 9 u y y y y p k j i y y u u h j u u g g j u j h j h k h p k k h h p j i y = 6 h h j j k g z k z k k k k k k k k k k h g k k k k k k k k Z k p j k z C C h q 1 e / 4.H m c k c c c c k k z k k k z z h g g g g i y t = y c c c k C k z k z k c c c c c c c c F c S c / t.l.1.c 0 1 ; 9 g k h j j h j g g k h k Z Z g k j k k h z k z k k z k k k h z k k z k z h , : h k z z k k z k c k c k c k c k k z k z z k z z h h k z z z k k p z z C z h g u @ O # % 8 u y y j h j h k k j h z g g g k g g p u y y 6 = t S S z z k k z z c c c c c C c C F c z S z j H %.6.9.j 1 * 3 g h h h g k z z k h h k k k k k z k k Z z k k z k z k k Z k z Z k z z k Z y * < k k k c k z k z k C z k C z k z k C k C C z z k z z z k b z h k k z z c k Z y & - W 6.f.~ F k k F S c c c c c k c k c c c k k c c k c c ; & y y p p p g u u u u u p h p j h j k j h h h y ) =.Q 3 * e c k k j h k z k k h k k k k k l k k Z k k k z k z h z k z h k z k k z k k h < @ i k k k k k k z k z h k k Z z k k z k z z k z z k C c k z k z z j z x k x j j y 6 @ * # , 2 2 8 8 y y y y u u j p j j j h h h z k j k h u 6 C h k j z j h h k k k j h h k k z j h g k k h k L T ) @ 3 y e y j k i k j g g h j u i u u p p i u u u i y u y u y y y y y 8 y 3 8 < 2 * O > , y i u u ",
"q 6 4 6 * % u u u i u u p u u u j h j h j j h h u i k c l j ^ +.s.%.P y 2 2 6 t y i g y e y y i u i u u u u u y g u g g h j h j p h j h p p k k j d 9 = , h k x k h k k k h k j h k k h k h k k k g k z k k k k k g g k S z z C p t * - J ;...x F S k k k c k c k z h k k z h h j g g g i g y y = 7 k c k c c C k z k z c k z c c c c c c S c S m c / u.k.+.p q * < y i h k z i k z z g y g k k k z h z k k k k z z h k z k z k k k k j z u , # k k k k k z z k c c c c c c c c z k z C k z k h S z z k j h c C k k j k z u 2 # % = , 8 y g g g h j k h j h j k g h j h g g g g i y u 6 * t S S k z z k z z c c c c c c c c b b h k S F x c ~ ,.p.o.e @ > g Z k C j y 8 h Z Z C k k k k k z k k k z Z k z k z Z k z k k z k k z Z 9 & 3 k k c k z k k z z k k z k k z k h z z k k k h z Z k k k j z Z h k B C c f @ O k 4.f.#.v K z k c c c c c k c c c c c k c S c k c c k k S ; = 9 y k p j i u u u p j h p j h j h h k h j k c q p } ;.Y q * g y g k z g p c k k k k k k B k k k k k k z k k k k k k z k k k k z z h k 2 @ g k k k k z h k k k z k k k k k k k k k k k k z h j h h k Z k k k j k k z u 6 = & # * % 2 6 8 8 8 y y y u p p u h j h h j z j k h k k z u q C z k k h j k j z h k j z j z j h k k g k k h k Z F K } i & e S x y p y i g y y y h h u u u u g u u u u i i y y i p y y y y 8 8 8 6 2 # X % , 9 y y g ",
"6 t , 6 = # u u i u i u i u u u u u h j h j g h k u p c p 0 y H ~ 2.u.O.c 1 > > 2 3 y i i t u h u i u y u u i u g g g g u j g h p k k p j p h h j g y = , h j k h k k g g z h z z k z l k k k k z k z g k B h k Z B k k g j i j 3 * k =.;.c t m c k k k c c c c z k z k k k k k k g g g g u y t = t k c k c c k z k k C k c c c C c c c c c S c k b m H #.u.w.{ d 1 - e u u g C y g k k g g g k h z k h k k z k h z z k k k z k k h k j k p , # h k z z k Z z k c k c c c k c c k z k k C z k z k z C c C z k c k z k h 6 = # # , < g h g g g k z k h h j z h k g l g k j k g g p y y 6 = t F c z z k z c c c c c c c c c c S S F j k K b r c E ! 6.d.{ 2 & > 8 Z g h Z M h g l k k Z k z k k k z k k z Z k k k z k k z k z k k z y * 3 c k k k k z k C k k z k k z k z z z k z k z c z k z z k S k k Z z k i q & j #.u.6.P l m k k c c F c k F c k c k c c c c c x k c k k c k , # y y p p h u u h p p p k h p j h j k j j h h i b k t c } } z , 3 p k F z g t k z k k k k k k k k k k z h k z k k k z k k k k z h k k k 8 @ y k z z k k z z k k k z k z k z k h z k k k z k z z z c z k h k k k k h 8 = # + # , 2 , 8 8 9 y y y i u p p h k h h k j j k k k k j h p u 2 S C j h k k h j h k k h h k h j z h k k k k g g k h g F _ ` 3 O ; k j y i g k h p u y u u u u u u u u u y u y y y y y y y 8 y t 8 6 6 @ O = 4 y y y y ",
"3 t 6 6 % * y u u y u u i u u u g g j h j h h j k k p u k z C y k j / u.u.) f r 3 2 6 u g y 8 y u u i u u i u g u g g g g g g j p p p h p h p h j g y , 2 h k k g k k h k g k z h k B h k k k k z k h k j z k k g z Z k k k 3 & d { =.H y c H i k k p k k c x k k k z h k k k k k g i g u u i y = y k c k c k c z C k k c c c c c c c c c c c c c c z j b ] 3.d.5.U 1 & 2 y g j g g g k k k k g k g k j z h h k k k k j z h k k k k k p z h , : g z k k k z z k c c k c c c k z C k z k z k z C k k c c C k c k h p 8 , O O = 6 8 h h h g g k z j h z j h h j k k j h g h g g g i t u 6 * t C c k k z k k k c c c k c c c c c c F z k j c H b a l z o.y.6.M 1 * % k F j 9 l z k Z k k k h z k z k z z k k z k z k k Z k z k k Z k y & 3 k k c c z k z k C z k z z k z k z k z k z k z z k k k z y k Z Z d 3 - & ) w.y.Q y b H g c c c F c k c c c c c c k c k c c k k k c k x S , # y y c h h j j g h j h h h h j k h h h k z j b i p F z t K :.{ i & 3 k h h F k k k j h k k k z k k Z k k k k z k z h k k k k k h Z k k , @ g h h k k k k k k k z k z k Z k k z k k z z h k k C C h j h h k h h 9 , X O & $ 6 < < 8 8 y y i i u u u p p p k k h h h z j k h k k h C u 2 S C p z h j z k k h h k k k j h h j k g k k k h j j g p i K ` U 0 * t d g g u p u p j u y i u u i u i u y u y y p y y y 8 8 8 t 6 6 3 @ # # < 9 i i u ",
"t 8 < 6 # * y u u u i u y u u u g g g g g g j h t z k i u C C p y k c v { f.5.! y ; * 3 y u y 9 u u i u i u u u u g i g g g g g p h p g p h j p j u y % , j h k k g z g k k g g z k k k k k k h k z g k k Z k k k h h z y @ e U [ U l k z k k D k k c c c c k k z z j h h z k k h j g g u u y t # y h c k k k k k k C z c c c c c c k c S c c c S j z K F a m / 5.t.,.z * - 3 t k k k g g k k k j k k h k k k k h k k k k h z h B z z d h h , # g k k k z z z z k C k c k C z k z z k z k k z k F z j j c c s p y , + O * 6 y u u u j h h h j k k j h k z k k h k h j k h h p h i y y 6 # t C c k z k z c k C c c k c c c c c c u F H p k c F k x m x x ..f.4.c & * 2 f C k k j B z k k z k k k z B k k k k k z k k k k k k k z C y * 3 z j c k z C k z z k z k z k z z k z z C k k k j h k z z F z y 2 * > H >.u./ j j F C k C S c c c c c c c c c c c c c c c c c k c c k c c , # u 9 j j h h k h h p k p h k j h k k z h k h i k Z j k Z Z y I =.{ q O e F k k k z z z k h z k k z k z j z k k k k k k k k z k k k k k 2 @ g z j k z k k h z z k z k z k k k z k k z k k k z k j g h C C k h % = # # = 4 6 5 8 8 y y i i p p g j h h j h j h h j h j h h k h k j z u 6 S k h j h k k j h z j h j j k k k k j k h h g g k k k p j p k I ` S * * 2 i g u u p h u u y i u u i u i y u y y u i y d 8 y 8 8 8 2 2 # O * < u y y u ",
"e 8 6 6 = * u y y y u i u u i u g g u j g g g j j j h j g u p B z g j z m H X.s.X.P e - * 3 y h y y y u u u u u i u g i g g g g j p h h h g p h j u y = , h h k g k g k g z k k k h k k k k k k k g g k k Z k k h z d X * K { ` z j l Z S k h k c c c k c k k k h k k z z h j h j h g g g u y t = 6 k c k c c k k z z k c k c c c c c c k c c c z F F k k c C i H o.u.u.} k 1 - 2 3 g z k g g k k h j k g z h z k k k k k k j z z g k j z h = # g k z k B z z g k k k z k z k z k k C k z k k z k k z C C C u 6 + # @ , t p g u k g p p k z z k k k z k h z k k k k k h k j h p p y u 2 * t C z z C k k c c c c c c c c c c c c z C S c k k c S z k k v b H +.u.} p & ; i i u B g z z h k k h z z Z k z k k k k k z k k k z k h k 9 & 2 z k k c h k z k k z z C k C k C C k k k C k k k c C z z y k ; & x ,.y.$.x b F b k c C C S c k c c c F c k c k k c k c k c k k c c p c C , # u y h h h g p p k p p k p k k h j h j j k k Z k g g k z k g x F ) | U 3 * d k k z z k z z k k k h z h z h z k k z z z k k k k k k k k 2 @ y k k k k z k z k k k k Z k Z z k h z k h k z h k k j k k k u 6 % # O # , < 6 8 8 9 y y g i i p p h j j j h z j z z k k k z j k k k h h p 6 Z k k j k h j j z h j k z h k k h z h k j j k h g g j b k p t j b I Q e 2 2 8 j h u y u y u u i y u u u y y y y y y y y y 8 3 8 8 6 2 # O > , y y y u ",
"t 8 6 , = # 8 u y u y u u i i u g u g g g g g u C u i h z g u j h h j j g j m ~ w.6...F 3 - * 2 t t y y g u u i y g y g i g g g p h p j j p j g g y 8 = , h j p g k h k k h k g h z k k k k k k k g h z k k j d Z O O z | [ K k z z g g j z c k c S c k k c c c k k k h z j h j h h g g g y t i = 8 C k k k C h k z k z z c c c c c c k c c c c x k C J D S c c m j m ,.f.q.! e > > 2 g k h g g g z k h k j g z h k h z k k k k h k k j k g = % h k k k k z z k z k z k z k k z k z z h k z k z h k z C h t , & & , t j i p k k h h j h z k k k z h z k k k z k j k j z j h p j p y i 6 * t C c k z k z c c c c c k c c c c c c F c p c c c k c z z c c b b H Q 9.4.~ * O 6 C u j z h k h z j k z g k k k k k Z z h z k z h k z Z 9 * 3 k z k k z z k z C k k z z k z k z k k c z c z z S z g y , O - +.h.*.F z H z p k c z c S c c k c c C c c c c c c c k c k S c k c c k c c , % u y c h k u h k p k k p h k j h j z h k h k j g z Z z g k F C y i F } ) z 3 t g j z C z z h z k z z z k z k z h z h h z k z k k k k k , & g k k k z h k z k k k k k k z k k k j k k k j k k z z h u 4 % # O , * = , 6 t 7 i y y u j u u p p h j h z k h k k h z k k z h k j z j p u 3 C k k k j h z h z j k k h j h k k j h k g g k k g p j p i x z z j z S ) z 3 & - t p j u i i u y u u i u y y u y y p y y 8 8 t 8 6 6 , # @ = 4 t u y u ",
"t 8 6 6 = % y u i y y y y u u y i u g u g g g u y u h j g j j k p k h g g h j j v  .9.4.` k e , e t t y y y y y g g y g u u g j u u u p u u u g j i 8 = , h j k k g k g j h k k k j z h k k k j k k h j k k g y   h ) ~ Z k h k g z Z k k k k p k k x k k k k C k k k k j k k z h j g h u i i t + t k c c k z p z k z k c c c C c k c c k c c c m c k k C C h C j m c d E 5.d.3.K e * * y k k u k g g z k h k g z k k j k k h k z h k j z g = % h k k k k k k k k C k z k z C k z k z z z k z z k k j t , & # # y 9 i g k k k k h k z z k z z k k z h z k z k k j z h h j k h p i i u 6 + t C c z k z k c c c c c c k c k c c C c k c c c c c c z z c c c k k c n ` 9.6.G O   6 z g k k z k z k k z k z k k k k k k k k k z k k k y * 3 z h k z z k z k z k z k k z k z k z k c k h h z z i 2 & * ~ w.,.Q m c c j z F F C c c c c c b c c c c c c k c k c c c c c x k c k k p c , * y y k p k u k p k k h p C k k k h h j k j k z z i i j C z j j F S j z Q { ] > 3 t p h k h j k k B z k k k k k z k k z z z B k k k k k < @ 9 h z z h z k k k B z z k Z k z k k z h k h z h z p j i 2 # X # , , 8 8 y y y t y y u u j h j k k h k j h k j k h k k k k h j z h h k h u 3 S k j h z k h k h h k k k z h j h k k k g g k C j p z k k j i i j j p g F I c 2 * 6 h u y u y u u i u u y i y u y y y d 8 8 8 3 8 6 2 # X * 4 y y y u ",
"e 8 6 4 = % y y y y y y y p i u u u u g u u u u h j h j h j k j j h j j h j h k k g F | 6.3.^ r , * 2 3 y u h y d d g y y y d j u u u u u j u u u y y = = g k p g h k g z h k j p h C h k h k z g h k z g 2 - * ) U F z k h k k z k h z k z k k z k k h z k k k k j h z j k h k u u u u u i y t * 8 h C z k k k k k k z k z C k k k k z k C z z c k S c c c c c z z z z k F ` 6.9.o.m > * , y p h g j z z i i j h k k g h j k z h g z d k h % # g k k k k z Z k C C z k z z k z k k k z z k h k B u = O # ; 6 8 g g j k h z k k k z k z h z k z k c k c k k x c k j k z j h j h u u y y & t k k k k z h k C z k k z k c c c k k c c c c c c c c z z c c c c c c b k F | 6.=.z & @ 2 k k j j k c z k h k k Z Z k k k k k z k k k C y = 2 C k z k h k k z k z z k g z Z z j j c F C C C p q - 0 k y.,.~ F c c c c c c c k c k c k c c c c c c c c c c k z k z k z k c c c c k c c 2 @ y h h j z h h k h k k k h k j h z k z k k k h k k k z h k k k k j k k z S F =.F 3 3 i j C C k z k k j j l z k g k k z k k z k g z k h 6 # u h k k z k z k z z k k k k k z k k h h h k g j h h 2 O   + : 6 6 2 3 t t i u y u i g g j j h z k k k z h j k j z j h h z j k h k j h C y 6 k z j h j j k k k h j j h k j h k j j h k j j j h h h h j h j h j h j k g k F K z 2 @ t g g i u u i 6 8 8 8 y y g g 8 9 8 8 e e 8 6 6 X O # 2 y y y y ",
"y 8 6 < # * 8 i u i u p u i p y u i u u u j p u j h j h j h h h h j k h h k h j g z g k P ;.<.%.K d & 2 y 3 6 p y y y i h g p t i u u u u p u u i y 8 % = h k h k j h j g k h k Z k u u j k p u g z z e & > Z ' K Z k k k k k z k z z k k k z k k k k z k k z h z h j k h k h j j u u i u y y t # 8 k k k k k k z k z h C k k z k z z k z k C k c k c c c c c c z z b b k p S J o.<.6.] d & * q y k k g i z C j k k k k k k h z k j z j k h = # g k k k k k k k k z h k k k k k c c z h p k k C 4 % # # 2 6 u u p j h h k k k h k k k h z k k k c k k c k c k c k z k h z h h j p u u t & t C c k k k z z k k z c c c c c k c c c k c k k c k k c k c c c c c c i k k c I O.;.X.3 % = e k z j i d k F Z k j k k k k k k k k k z k y & 6 k k z k k k k k z k z C z z j z F F c y h h y - & y _ r.) P b k x c S S c c c c c c c c c k c k c k c k c p z k C k C k c c c k c c k c 2 O u u h j k h k k h k k k z k k k z h h k h z z k k z k z k z z z C h k C Z Z j { X.k @ ; h Z g Z F k k Z z y k z h z k k z k z g z h g 6 & u z k k h k k k k h z z k z h h z z h h k k z g y % @ # = 6 6 8 8 3 8 y g i p u u g g j h h j h k h h j j h k h h j k j k h k j k z h C t 6 k z j k z h k k h k z h j k h j k h k h k h h k h k j j h j h j h j h g g g k Z Z k k & 2 y g y 2 y k g h h y 8 8 y g y 8 8 8 t 6 2 2 # O # , 8 u y y ",
"3 y < 6 = * y y y y y u y i u u y u u u g i u g g g g g h j h g j h j h h j k j h g 9 d k N ] ;.6.] F q & 2 u 6 u y 9 y u y p i i u u u u u u u i y y * = h h j h k h h g k k k u g k Z C k p p k e * * g ~ U k j k h g k z k k k z k z k z h z C z z z z z k z h h k k k h z j p u u u i y y y % 3 h z z B Z k k k k k z k z k k k z z z k z k c c c k c c c c z b b F F a k k x U ,.w.<.~ i O > t g i 8 u h k h j k k k k g g h h z d h u = # g z z k k z k k k k z k k z k k c k k k C h y ; O # , 6 y p p C j h h k z h z k k z k z k k k k k c k k c k c k k h k j j j j h y p y 8 # t C c C k k z k z C k c c k c c c c c k c S c c c c c c c c c c c c c m F c k k S ` =.,.F * * 2 y g Z k k g k z k k g z k k Z z k z k k 9 = 2 C h k k k h z k h z z k z j j z C u h J u 2 & 2 / 4.;.H c k k z c c c c c c k c c k c c k c c c k c c c k k c z z k z k k c c c c c x c 2 * u u z p k j k h k k k k k h k k k k k j k k k h z h k k k k z z k k k k z z l i S } } j ; 2 Z g y k C g k Z k z z z h z z z z g z g k < # u j k k z k z k k z k k k k k k j g k k k B g , #   # , 6 6 6 8 8 t y i i p p h h g j h h h z k k k k k k z j k j h h k k h j h z z j k t 6 C k j j h h k j h j h k h j h h h j k j h k j k j h h h j h j h j h j g g g g g k b F S 2 O ; u j u p 9 y d y 9 y t y d 3 8 3 8 6 6 2 @ O * , 8 u y y ",
"8 t 2 6 # % 8 i u y y u u u y u u i y u u u p u g g g j j h j p h j h j j k h h h g z k j y i z / 9.6.Q p 2 * q 9 9 u y 8 t i i y y u i i u i u i i 8 # = h C j g j j k h g k g k j g j h C p C 3 @ > K ) Z y k k k k k z k k k k h k j k k h k h k j h j h k k z j k h k k h j p u y i u y y 6 * < k k l k k k z h z k k z k z k z k k k z k z k c c c c c c S z k k b F D F F k j x ( ,.9.O.W * * > y C C y y g g g g h k k g k g g g z u = # h k k k Z k z k k z z z k k h z z j z j u 6 +   = , y g B p B p k k k k j z k z z h k k z k z k c k c k k k c k z h k k h k h j p u u y # t k c h k k k z k z k c k c c c k c k c c k c c k k c z k c k z c c c b k k F b x k F ` <.,.j O * t y z h g g k Z k k h z k k h z h k z 9 * 6 h C z j k k k z z k z k x b z i h K C = & - H 3.3.( x F z b b b c k c p k k c c c k c k c c c k c c C k z k z k k z k z c c k c k c c c 2 @ u g h j z k k k k k h k z k k h z j k z h z j z k k k z z g j z z k Z k k j i b z j K } J 6 @ g Z j g Z F h z k z k z k k g z k j z g 2 @ y h k k k z h z k l h h k h k k h g k k y < # O O , , 6 6 6 8 9 y i u u g k h p h h j z h j k h h h j h k k h k h z j k h k z h j h j k t q p C p j z k h j z z h j j k h j k h h h j k h h j k j j h j h g h j h k g k g i y g g k G C * & y h 6 y y 8 9 g g y < 9 y 8 8 6 6 6 2 @ X * , 8 i y y ",
"t 8 6 4 = # t i y y u i u y u y u u u u u u u u g g g g g j j g g j h g j h j h y k k g g k k i v m O.9.O.Y p & > , 8 p s p u u y y y u u u y y i y 8 # = h g j h g g g j j h k z j u g j u 3 * O F [ F y k Z g z k k k k k z g k g z j k k k k h z k k j k h k k j j k j j h k h u u u g y y y % 8 h k z z h z h z k z z k C k k z k k k k C z c c k c k c k c c c k k C c c S F c a a F ` ,.e.} b * @ , y h C k g g g g k k k h g k g j g = # g h z k k k C k k k k k k h k z k k h 2 @ O = 6 y u h k h h k p h k z k k c c c z C z k c k C C k k k c c k c k h z k z k h h j p i y 8 & 8 C k z z k z k z k z k k k z k k z k k c k c c k c c k c c k k c k c i z c k c H S i c c ' <.X.t O @ 2 g z z g g k z h z z k h z z k h y # 2 C p C z j k h z k z k k k k b F k 2 * & j #.6.~ a c P a k c c c k k k c c c c c c k c c k k C z C z k z z k z k z C z k c c k k k c z z 2 * y g j j C h k k h z j z k z h z j h z k k h k h z z z z h z k k Z k z z k k Z k g z k k J } F 3 * g F k g k k z k k z k k k l g k k h < # y k k z g z z g h k k j j z k k k z g 3 * + # = 4 2 6 < 6 8 y p p g g g h j h j h h j j h k k z j z k k h h z j k k h h j k k j h k g k 8 6 k k j h h h k j j h j h k j h z j h j k j h h k j h k h j h j h j h j g g g g g j g g z d z I j O O i g g y 8 y y 9 y 8 y 8 3 8 6 6 , @ X @ , 8 g y y ",
"t 8 6 6 = # 9 i y u y u i u u i y y i y i u u i g g g g g g g j g g j j h j k h g g y y g k k z x x e H 3.q.` J e > * 2 u p y 8 y y y y y i y u i y 8 # = h h j j g k k h k k g i k z j y 2 2 8 U z g k Z k k z z z h k h z k z k z h z k h k k k k k j k k z k h z h k h z h j j u u u y i t y * 8 h z z h z h z k k k k z k z k h z k k z z k c x k c c c c c k c c c c k x c i F J S x x W ` 6.,.) i & & 6 u g h k k k g h k k g k i h u # # g k k k k k k k k k g k z z z z h 8 = @ # , 8 u u h h h k p k c k k k z c C k k k k k z k C k k c x c k k c k x k j k h k h j h i i y y & y C z k k k k z k z k C k z k z C C k c c c c c c c k c k k c c c c c z F C c k c c c j x c H *.<.~ 2 @ > 3 g k k k g k g g k k j k k z 8 * , p k z j z k z k k h k k Z h k g - & y } y.{ b k c k k k c c c k k k c S k c k c c c k c k k z k k k z k k C k z k k k z c k c c c c k z < & y h z h h j k k j z z h k z z k z k k k k k k k k k z B z k k k k k k k z k k z z z c c c c ) U j * > j z k h k k k k k z g k k k k h < O u k h k k h k z k k z h z k k k h 6 ; O O = 6 7 < 8 3 8 8 y u u y g g g g h j h j h k k h k h h j j h k k j k h k k j z k h k j z j j C 8 6 k k g k j h j k k h k h j h j h j j k j h j h h j j h j h j h j h j h g i g g h k k h t g j g k z y @ * < y g y 8 8 y 8 3 3 8 3 6 6 2 @ @ * , 8 g y y ",
"t y 6 < * # y i y y u y u u u u y i y u u y y u i g g g g h g g u g g u j h p j z i i z k g y h k g k j i ( 3.4.~ z q * = 6 8 y y y y y y u i y i y y # = h k g h j g g g g g k h h t ; * 3 Z ) K z g g k z k g h k k g z k z h k k k h k h k h h z k z h z h z z h k h z h k h h u y u g y e 8 # 3 h C C k z j k k k z C z z k k k k z h z h z k k c k c k c c p c c c S S S S S c c p k c c p m +.6.=.I i = O 3 e g k g g g k g g g j h u = # g h k h k k k k Z k k C z z p t , + O = t k g t g g j k k k c c k z k C k k k k z k z k c k S k k c c c c k c k k k k k h k g g p u u 7 & 7 C k k z k z h z k z z k z z k z k z c c k c x c c c k k k c c k c k z p k D S k k H F b l k b ! X.;.k 3 * > y k k y g k k k k k z k z 8 # 2 C k z k h z k k h k k k h h ; O 2 ` ;...c k z b S c C J C c c c c k c c c c c c x S c c k z k z k z k z z k z k z z z k c c c k c c l c 2 @ y h h j z k k k z k k k k h k z h k z k k k k j k z k z k k k k k k Z k k k k S S k p x c p h K ) T g @ > z k k k z k k k z z g z z k 6 @ u k g k k k k h k k j j h h p 8 2 + + # $ 6 y 8 , y 8 y y u u u y g j h j h j h k z k j j k z j k k k j h h k j z h k h k j z h k k j k t 6 h z j j h k j h h j k h h k k h j h h h j h j j j h j p j h j h j j g g g g g g i g g g g g g j k k g @ > 2 8 y 8 8 8 8 8 3 3 6 6 3 2 @ @ @ , 8 i y y ",
"8 3 6 2 % * 9 y u y y i u y u u y y u y i u u i u u g g g u g g g g g u h j g j t j z g g k k g B h p k c x x ` 1.#.! p ; ; < 8 y y y u y y y y i y 8 # = h h j j h g k g k g g u 2 & 2 z L F k y g k k k k h k k k k k z k k g k k k k k z j z k j k h k k k j k k k h j j k k g g u i y i y y # 8 u z z k k k z k k h z k k z h k k k z k k k c k k k c c c c c c k c x c D k k c c k k S C C x x ! +.<.} c 3 * > y g g g g k h g x p h u = # g k k k k Z k k k k k j j i 3 &   $ 8 9 i g j z k k k k k c k k k k k k k k k k k z k z k c k c c p p c k c k c z h k z h j j g i u y y & t k c z h k k C z z k k z k C z k z k c k c c c c k c k c c k c c c c c S c a k c c k j k z b k x H ! ,.) y * * 2 d k k g h k k k h z h y * , h h k j z k k k k k z h 8 + & S =.O.! n c k z z C C p p c c k C c S c p c k c k c k c k z k z k z k z k z C k z k h z C k c c c c k c k 3 @ 9 h j p k h h z k k k z k z k k z k h z z k k k z h k k z k k Z k k k k k k C h g j c z k k z j z K U K y O g g k k k z k B k g z g h 2 @ y h z g k k k k z g l z k j 8 & O # $ 6 6 4 6 8 i 8 9 u i p p h k j h h k k k z j h k h z j h h k j h j z k k h h j k k k h h j k k p p t 6 k C j h j k h j k h h k j j h h k k j j h j h h h j h g h j h j h g g y g g g g g g g h g y y g i j z Z 8 * @ , y u 8 d 8 8 < 3 6 2 , X O @ < 9 d y y ",
"t 8 8 , = = 8 y y i y y u y y u y y u i y u u u y i u u u u u u u u u u g u p u j j h j h j h h h j h h z j k j K X.4.o.m e 2 * ; 8 u 9 8 y y p 6 y 8 X = g h i u p i u p h u y O 2 h K Z k k j k k k h h k k j z g k z g k k k k k k k k h k j z j h z z k h k k k k j j h h j h h u y y y y t * 6 u k k k k k k c k k k k z k z k k k k k k z k k z h z k z k k z k z h C k z k c k c z z z c j z z j U <.<./ h 4 @ * y g g y g g h i j g = # i j k g j S Z j h k z h 6 # + O t t y y g g k k k k k h z k k z k c k c c k c k C h z k k k z z z k k h z k z k h k j k h h j h g u y 9 # 6 k c z k z k z k z k z h k z k z k z k c k C k C z k z h z k C k z k c c c c c k c c c c c p c k c k N ] #.~ q O * t y h k h h k h i k 9 # , h C k h k k k k h k 6 O O x | ,.) b k b c k c k c c c k k z k z k z k z k k z C C k k z k z k z k z k z k C z k z k C z h z k k k k z k , & u g k j C k k z k k z k h z k k k k k k k k z h k z k k z h k k k k k k B z z z k z h k k z k k h k k F L U * 2 i j z C C j k g k z C , & u d k k x h k k h h k h 8 #   + $ , 2 8 < 8 8 9 9 u g g j h k j j k h h j k k z h k h h j z h k h h z k j h j h z k h k h z j k h k j p y : C j h h h k k j h k j h j h j p j h j h g p h h p h p p g p u u u g u g u u g u g u p g y g i u u y u h k g < ; = 6 y 9 8 6 6 t 6 2 * # X = ; y y y y ",
"e 3 8 < * % 8 i y y i y y u y u u y y p i u y u p i u y i u u u u u u u u p u g g g j h j h k h j k k j h h k h j p H ,.6.} z 2 = * 6 y 6 y y 6 u 8 8 # = u h h t u u h C u ; & j k S C k g g g k h k k k j h k z h h k k k z h h k k k k z k z h z h k h k z k j h k h k h k j j p i u u y y t = 6 p k k k k k k k z k k z h z k z h z z h z h k z k k k k k k z k z k z z z z c c c c z k z k z z c z l m ) %.X.Q i > * 2 9 k u u h g h g ; # 3 g Z z k z z j k h , # O # 4 9 y i u g j k k k k h k k k k k k k k c k c c c c k C k Z Z z z z k k k z k k k k k k k k k j h j i u 8 8 @ 6 h z h k k k k z k z z z C k z k z C k k c c k z k z z C k z k z k z k c k c c c k c k c c c c c c c i x H ` } U t O , 8 y g g g k h g y * 2 k k z c p h b k 3 ; 2 y } { ] P z p r k c c c c k c c c z C k k z k z C z z k k z k z k C k C k z z z k k z k z k z z h z k k z z k h z 6 + 9 h k h h h k h k z k k z j z k z k k k z z k z k z k k k k z h z k k k z k z h k z z k k k k k k z k z Z K U g & 2 u z k C k k k g y = & B k k k g g k Z k B 8 =   + = 6 6 < < 8 8 9 u u p u g j g j h h k h j z k j h j j k k k z j j k k h j k k k k h j k h k j k h k h k h p y ; k h j j k j h j k h h h h j h h h j h p p h p p j p j u u g u p g p i u u p u p u g i g y g d u y u i 8 d g g 6 6 * & < 8 9 y 6 6 q t X & # 2 t y y i ",
"t 8 6 < # * 8 y y i y u y y y u y y y u u u y i u y y u u u i p u i p u u u g i g g h j j h j j h h z h k j h k h k x j U ;.,.) j y @ & 8 h 6 y 8 < 2 * # y i y p p p y = O ; b F z k j g k k k k k h k k k k h g g k k k k j z h z h k k h k h z h z k j k h k h j h k k j h h p u u u i y t t # 6 p k k k k k k k k k k k z k k k z k k z k k k C k z z k z h k z z z k z k z k z k k k k z z c p p b c f z ~ o.#.{ H t & = 6 y u h u p u = + y j z k p k s p 8 , * * = 6 y i d g g h k k k k k k z h z h z z k c k c c k c c k k k k z k k c z k k k z k z k k h z z k k j h j u y 9 @ 8 j z z k z k C z z k k z k z k z z k z C p c z k z C z k z k k z C z c c c k c c c c c c c c c k c C z g y c Q ` ~ H O * 2 g k k p p k 8   = p z k i C u y 6 * * c } { L c f k b H S c k c c c k c k k z k z h C z k k C k z k z C z z k z k z h k z z k k k z k z k k k k z h k z k , O h g k j k k h k k k k k k z h z h z z h z h k k k h k z k k k z k k k k k k k k k h k k k z k k k k k k k z z K K 8 * 2 p j z g Z k k 6 & 6 k k k g h k g t , * O O 4 6 7 4 8 8 9 9 u u u p g j g g k j j k k k k k h z k k j h j h h k h k k j h h h j k k z j h j k k j j k k j y , z z j j h k h h k j j j h h j j h h j j p p j h p h p u p u u u u u p j u u g u p u u g g g y i y u u y d g g p y 3 * # % 6 8 t 6 2 6 # O # , t u y 8 ",
"t 6 6 4 # = 8 i y y y y u u y i u i y y y u u u u u i u i u u u y i p u g u u p g g j h h j h j g j j h k j h k h g g g f k ` ,.O.b i 3 & ; y 6 8 8 6 X = u u y u p 6 O & c H k j g y g g k k k j h k j h k j k k k k g g g z h k k z k j z k k k k j k k k z z k z h j h j k j h p u i y y i y * 3 p k k k k k z k z k k z h k k z k k k k z z k k z h k k k z k k k C z k k C z k z C l z z B c k k b H z l d l ! O.| ~ c ; O % 4 p u h p ; & d g k g k s p t O X * < u h i y g j k k k k k k z h k k j z k k k k c k c c k c Z k Z k z z c k h z k z k k h z k k k h j h h j g i 9 8 O 3 k z k k h z k k z h z k C k z k k k k k c k k z k k k z k z z k z k k c c z k c k c k c k c c c c k h k z k k F ~ X.T d O & , u h h g 9 * , u y k z y 8 * O j =.=.H j x k c c c c k c c k C c c c c z k z k z z k k k z z k z k k z k z k z C k z k k z C z k z k z k z k h z k k k 6 + h g k j k h k k z h z k z h k k z k k z k k z k k z k k k k k k z k k k z k k z k z z k z h h z k k k z k k z d z I b 3 * 6 z g j h g , + u g g k z k y 2 # O @ ; 6 8 6 6 6 8 9 y u h g h h h h j h h h j h j k h k h j h k j z k k h k j z h z k k z k k h h j z k h k h z j j h y ; C h j k h j h j h h k h j j h j g j h p h h h p j h p g u g u p g u g u u p u g u g u y g g i u u y u k d 8 y u j p p , * * ; 6 6 6 , X O & : t y 8 8 ",
"t 3 8 4 % = 8 y y u u i y u y p y y p i u y p y y u u i u u p u u u u g u u g u g u g u u p g h j h j h j h h j 9 h h z k g x m ] ;.{ K p & O 6 y y 8 O + u p i 3 O & h K h y z g g j k k k k g h k g k g k h k k j g z k k j k h k j j h j j k j h h k k j k h k j k k j j h k g u u i y y y 8 = 6 u k c k k k h z k z h z z k z h k z k k z h k k z k k h z k z k k h k k k z k k k k k k B z k b S k k l Z B p c F ( +.o./ l @ # , 3 p p = & 3 h C h p 8 = + % , 6 t g j k k g k k k k k k k k k k k k k p c c k k k c c c k h C k z k z k c k z h k h z k z h k k z h j h j g u y 8 & 8 k c z k z h z k z z k z k C z k z z z k C z k z k z k z k z h z k z k C z k z h k z k c k k C z k z k k Z F z l l l } ) F 8 @ O ; C u 6 & , C C p t ; O , ~ =.( c x c x F c c k k x z k z k k z k z k C z k z k C z z k z k k C z k z k k z k k k C k z k z k k z k k z k z k k z k 6 & u h h h z h k h z z k z B z z k k z z k k k k k k k k k k z k k k z h z z h k z k k k z h z k k z k z h j z g z z k C I z ; 2 < j F C ;   p j h j u 8 = & + = , 6 6 6 6 8 y y u y u p h p p j h j j h h k k h h k k j h z k h j h z k h k h h k j z j k j h h k j k k h k h j j k 7 = k p j h h k h k h h h j j h g h j h j h p h h g h p p u p u u g u u u u u u p u g u p g g y g u i y u g g i u i y y t g < * & # ; 6 6 X @ * 2 y y 9 6 ",
"t 3 8 , # * 8 i y y y y y y y i y u y p i u i u u i y u i u u u u i u u u g u p u p u p p u p h h j h j h j k k h z k 8 y b k i c H X.=.~ S i & * % 2 # = 6 2 * @ y C z k k j y g k k h h u g h k g k g h g j k h h j h h k z h j z h z z z h k k k k k z h k h z h h k h h j k h g y u i y y t * t p k k k k h k k k k k k k k k z k z k k k k z z h k k z k k k k k z z k z k k k k B Z k l k c c c Z k j k K D k p k H / o.] K g - O , y % X y h h 8 # & # $ 8 y u p g j k k k k h z B z z h k z z k k k c c c k c k k c c c z k z k z k k c k k z k z k k k z j k h z j j h i u 8 9 + 8 p k k k k z k C k C z k k z k z k C k z k z z k z k z k C k C z k k z k k z z z C k k k z k z k k z Z Z k k k k z k j K [ [ z , & & y 2   = u y , & ; I X.) S a k c c k k p c c S S k z k z z k z k z k k z k z z k k z h z k z k z C k z k z C z k C k z k C z k z k k k k z z h k : + u g k g z h k k k k k k z z k k z h h z z k k z k z z k k k z k z h z k k z k h z k k k k k j k h z k z k h z g g F Z i j G 3 * 2 g C 6 O 8 C j 2 = & O = $ 6 6 4 6 8 y y u y u h g h p k k h j k h j z h j z j k h k k j h k k h j k h k j k k h h h k j z j j h h j j j h g j p 8 ; k j j j h j j j h j j p g j h j h j h j p j p p h h j g u p u u p u g u j u u p u g u y g g g y u u u y g p y y y y t i y y , * # # = # X = , 8 8 < 4 ",
"y < 8 6 = = 8 y y y u y u i y u y y y u u u y u u i u u u u u u y i u u p j u u u i u u g i p p j h j h j h h h z d 8 Z Z 9 y S e l z P X.O.P c , * = X = ; * - z z d e y k j g h i g g y g k k g h k k j j k h j k g k h k g k j h h k j h j h h j h h j k j j j k h h k h h h h p y g y y t t + 6 p k k k k k k z k k z k k z k k k h z k k k k k k k z h z k z k k z k k k z k k k k B k k z k x j S F Z k Z k S z k p x N ) O.~ c ; = , X # y 8 6 # + & 6 p i p k k k k k k k k z h k k k z z h z k C c k C k k x k c k c k k C k z k z c c h z k z k k k k k k k k z h h j j i y 8 + 6 k c z k k k z k z k z k k z z k C k z z k k k z k z k z k z k z z k z k k z k z k z z z k z k z k k z k k Z k z Z k F j i S ` ' k & @ , = ; * O 2 j ` ` P c k c c c c c k k C C c p z k k k k C c k z k k z z k z C z k C z z k k c z k z z k z k z z h k z k z C z h z k z k k k k 4 & u u k g C k k k z h k z k k k k k k k k k k z h z h z z k k k k k k k k k k z k z k h z k z h k k h k k z k z k z d h K F j L u * & , ; # u y , * + + = 4 6 6 6 8 y u i u t u u p h k p k p j j h j h k k z k h k j k h z h h j k k z j h j k j k j k h h k h k h h h h k j g h p y ; h h j h j h j j j j h h j h j h j h g h g p h h p h g u g u g g u g i u p u g u u u p g g y i u u y u j u y y y p j k 2 y g y 6 = +   O + + ; , , = X ",
"t 3 8 , # * 8 i y y y y y y y u u y y i u y u i y u u y u u u i u u u u u u u u i u g u u p u u h j h j h j j j j j z h h h k l j x k d b { +...L < &     = 6 F g g g g g y u h g g g g k h g g k g j h k h h j h g k g k j k h k k k k h k z h k k z j h k h z h k k j j j k j p u i y i i y y = q p k k k k k z h k z k k z h k z k z h z z k k k z k k z k k h k k h z k k k k C k k z k k h c c C z k B k k x p f c c c k k P / X.Q p , . + , # O & 6 y u 9 p j j p h h h k h z k k z z z k k k k k k z k S k c c c c c c c k k z k z k k c z k k k C k z h z h z h j h g p g i 9 8 @ 6 k c h k k z k z k z k z C k z h z z k C k z z k k C C k z k z C k z C k z k z k C k k C z k z k C z C k k k z z B h k S S l M N ~ ~ 2 * O O 6 g I { E c x k c z c k k k z c c k k c k z C z k z k c k z C k k z k k k z k z k c k k k z k C z k z k z z z C k k z k z k k h z k z z 4 & u u k h k h k j k z k k k k k k k z k z k z k z k z h z B z z h z k z k k z k k k k z k k k z z z k k z j z k k g k h h p h i F K y 2 +   4 = O O * 6 8 6 4 8 7 y y y y p k g p k j k k j k h h h k k h j h k j z h k h j j z k k h h j k z z h k h k j z h h j k j j z h j j j p y ; z h g j h j h g h g j j h j h j h j j p p h p p j p j p u p u u p u p g u p u g u g i y i u i u y i u u i i p p p y e g y y 8 8 6 = # O   + + = #     ",
"t 8 7 4 & = 6 y y y y t i y y p y i y y p y y p i u u i i u u i u i u u y u u i u u u p j p j p i u u u u u p u u p p h p k h k i p h C g y c ' ) k X   O 2 h u y y t g g y t g u i y u p k h u j p k h h p h h k j h k k k g z k j h h k k k j j k k k h j j k g k g k k h k g g u 9 y d y 9 8 # 6 p k k k k k k k z k k z k k z z z C z k z z z h k z h k z k k k z k z h h z k z z k z C k z k k h z k k z k h z h h k k l z z j G ) Y =       X , 8 u k i p i k c k i k c c l z k c k c c k x k c k c p k k c p c k c k c c k z k k k c x c k k S p z h z z k k h z z j j j p y u 6 # 2 k k z k k k z z h C k z k k z k z k z k z k z C k z z k k z k C z k z k z z k k k z c c x c c c c k S Z C k z z z h j l Z z g g C J G , X   t ) J C z S b j p c m k c k k j k z k k k k z k c c k k z k c c k c k c c c c c c c c c k z C k c c c c k z k C z k z k z k k k k k z g , @ y h k g z h h z k k k k k z z h z k z k z h k k k k k k k z k k k k h z k j z z k z z k z k k k k k k k k z k z h k k z z g x i g k h o     X + , 8 6 6 6 t y t y y u j h y j h j h k j k j z h k h j z h j k h k k h k h k j h k h z j j h j h k j j h k k j h z j h h k k h g g 6 2 g g g g g g g u g u g h j j h j j h j u p u p u g u p g p h j p h j j i i y g i u u y y u u u i u y u u y y y u j j t d i 8 6 y 9 4 ,           = # # ",
"t 6 7 6 + # 8 u y y y y y u y y y y u y y y y y y u y u u u u p u u y y u y u u u u g u g h p h u u u u u u u u u p j p h p k h x k j y u k k y *   X # & & 6 * 8 y g t y k k u u u p h k h h u p p p h k p k j k h g k g k k g k h z j k h k h h k h h k z h k h g k g j g g g h y g 9 9 y 9 8 # 2 p k x k k k k z h k k h z k k k k h k z h k k z k k z k k k k z k k k z z k k z h z h k k k z k z k k z h k k h Z k k k k j j j p h 9 = + # 6 # = i y y c c b p i k F c k p k z k c x c k c k c k c c c x c c c c c c c c c z z z k c k k k k k k c k k k k k j k k h j g h j y u 6 # 6 j k k k k k z k z z k z C z k z k z k z k z k k z k k z k z z k k z k z k C k z z k k c c c c k c c z k k j k z k z z k g k Z Z k p k O   * & ; q h h j z F F c k c z z z z z z k k C z k z c k c c c c c k c c c c k c p c k c k c z c k z k c k c z k z k k z C k h z k z k k g z 2 O y h k g k k k k z h z k z h k k k k k k k k k z h z k z z h k z h z z k k z h z k k k k k k k k k k k k k h k h k k g k l z c j 8 , % X   8   # @ & 6 u u i y p u u u u h k h j h h k h h j j j k k h h k z k z z h z k k k z h k j z h k k j h h h k h j h h j h j j k j h h h h 6 % g h g g g u p u u p u j h h j p g h h g u g u p u g u u u p u u u u u y g g g y g i u u i y u u y u i p p i y y 3 t y i 6 y g 8 y 2 O 6 % , % # , $ = ",
"t t 6 4 # # 6 i i y i y y y y i y y y y i y y p y u u u i u u u y u i u u i u y u u p u p h h p u y i u i u u u g h g h p p j h x r g k C t & O f ` Z z _ E 1 1 * 3 h y y g h u u u p j h k p u h u p h p k k p g g k g j h h k k k h j k z j k z j z j k h j h j k g k h j k g g u 9 g y u y 8 # 6 p k k k c k z k z k k z k z k k k z k k k k k z k z z k k z z h z k k k z k k k k k z k k z k k z k z k z k k k Z k k h z h k j 3 # X = = % H H ; & q c p k i c C k p c S c k k k k k k c p c k c c k c k c c c c c c k c p k c k c k c k c k k k k k k z h h k h z h k h j u y u 4 # 6 k k z k C z z k k z k C k z z k z k C k z k k z z z z h C k C k z k z k k k C z k z c c c k k c c c k k z z k z z h u S S p t u t , O [ K h =.F O 3 i k C z k k C F z k k z z z k j z k C k c c c k k c k c c c k c c c c k c c c c k z k k c c c k k k C z z k z k k k k k k k k z 2 @ g h k g k j h k z z k z k k h z k z z k k k k k z k k k k k k k z k z k z B k z k k h z k z z g k k h k k g h j k k k k h g y 6 = O     = I 6.e O ; 6 6 t 6 p p j u u u u y j h j j j h k k h k h k k k j h j k j j k h k j k j k h j h k k h j k k j h k h j k h h j h k h h g k < , g k d u u g u i g u p h j h h j h j h u u u g u p i u p u u g u p u u g g y y u u u u y u u y u u u u i y y p h h u p 8 h 8 2 3 & > K L 8 * O   X = 6 ",
"t 8 8 6 # # 6 i t y y y y y y u y y p y u y p y u y y y i u u y u i u u y u u i u u i g p u u g i u u u g u j u h h j u p p u u g j z i & O i ~ e.u.k 3 w.k./ f , * * 3 y 9 8 u y i u p p p j p p h j p p p h p g k g k h k j g h j z k j h h k k h h j k k z h j h k g k h g g g y y y y y 8 8 * 6 u k k k k k k h k k k h z h k k k k z k z h z h k k k k z h k k k k k C h z h z k k z k z h z h k k k h k j k k k k k k h j 6 3 , & & = , X f U ;.) - * p p C x x c c k k c z k c k c c k c c p c p c k c p x c k c c c c c k k c k c k c k k k C k z k k z z j k k k h g h g u h 4 & 6 k k k k h z k k z k z k z k k z k C k z C k z k h z k z z z k z k z k z C z z k z k c k c c k c k c z z z z z k h z S u t C C 3 & & Q } , g u.N.+.3 @ 2 j C C k k S h k z h z C C z k z k z k c c c c c c c c k c c k c c c c k c k C k c k k c c c z k z k k z k z k z k z k k k B 1 @ y g z h z h z j k k k h z k z k k k h z k z k k z k z h z k k z k k h z z z k h z k z k k j j z z B z k h z z g g h Z k g 3 = # % + # & 2 I ;.u.{ & O 3 t p y t y i p k p k h j h k j h j h h k j z h j k k h k h z h j z h k h k j h k k h k h j j k h j j h h j k k h j h g u g 6 < 9 k h u p g u p u g u j h h j h j h j g i p u g u g u g u p u g u u u g i g g y i u y u u i u i y u y u y y y y y y y C 9 u = O c } } h # X @ O +     ",
"y 8 8 4 + = 6 y i y y y y y y i y y y u y y y i y y u y u i u u u i u u u i u u i u u u u j u u u u u u i g u g k p p p p p u u B u = O - P &.u.%.! - - W 9.h.9.Y p & * 6 i u g u u i u i u u h p j h p j p h k h j g k k g k g h h k k h h h j j j h k j h k k k h k g g g g g g g y y 9 u 8 8 + 6 u z k k k k k k h z h z k k z z k k k k z z z k z h k C k z k k k z h z k z z k k z z h z z k k k k h z k z k k k h C h y 6 @ O O * , , , X m e i { w.J * t y c F b c c c c c k k c k k x c k c k c k x c c k c c k c k c k c k c k c k k c k z z k k k k k k k k h k j h j j y u < + 6 k k z h k k z z k z k C z z k z C k z k C z k z k k C k z k z k z k k k k z c k k k k k k c k k c c h j h z j h k k u S C 2 O & h T _ k * z H ..x.w.~ 3 O > c F k k c k k j k z z z C k k z z z k c k c k c k c k c c c c c c k c k k z k z c k c k k z C k z z z k z k k h k k k k , @ i g k g k k k z k k z k k z k z h k z k z k z h k z k k z k z h k k z k k k z k z k z k z z z h h k j k k j k h p p h y 4 = & + o # # O & j n W 5.u.H O & t j i p p h p p C j h j h k h j k k h h k k j j k k h h j k j h z k j h z k h k h j h j h k j h k k j h h k j h j h g k 6 , g h g g u u u u p u g g g g g p g g u u p u p g u u u u p i u g u g u g i y g u u y u u u y u y u u i t j j y 6 y j p 6 ;   y ,.>.F e <   X % = #     ",
"e 8 8 4 + = t i t y y y y p y y y p y i u y u i u y y y y u u y y u u y y u u y u u y i u u p u i u u u u p u p p u u j j p u i 6 & & k ;.a.%.N m v 3 y k x { r.r.<.~ y * * 3 t u u u u u u u j u u u j p h p h g g h j g k g k j k j h z j k k h k h j h j j h h j g k z g g k g g 9 g y y 9 8 & 2 g h p k k k k k k k k k j k h k z h z h j k k k k z k k z h k z z h z k k k k k k h k k k j h k k k k k k h k k g g u 8 = + O X @ % 6 6 ; O 3 f F c H ;.,.c ; i k k p c c c k k c x k c c c x k c k k k c p S k c c c c c c c k k c c k k c k k h z k z k z z h z h h j j g p y u 6 # , k k k z k z k C z k z k h z z k z z k z z k z k C z z z k k k z z C k z z h p k c k k c c k c k k k z z k h z z C k p t = O 6 U ` S i c * e ~ c H ,.g.,.H > & t z C S C z z k k z z k z Z k k z c c c c c c c c c c k c k c c c c c z k C k c c c c z k z z h C k z k k k z z k k k 2 @ y g z g z g k h k z k k z h k k z k k k k k k z k z z k k k k z k z k k k z k h h k z g h k g z z k h k h k g h B u 6 = & + = # # # # + & C H c f ) p.9.c O ; 2 i z k y y j h g h h j j h h j j h j h j h h k k k z k k h j h j j h j h j j k h k h k h h j h j h j h j h j h y g < , u h d g u u j g u p u j g u g g g j g g u g u u u u u u u i u y u u u y g g g i u u y y u u i u y u u t t u u h z u 2 & 2 _ <.U 2 ; e h O O X # # + # ",
"y 8 8 4 + = 6 y y y i y y y u y y y u i y y y p y y u y u y y u y u i u y u u y y u u u i p u u u i u g u g u u u u j u u t 2 2 & e / 9.4.` j 8 z K ; , W p q c #.e.w.X.b e ; > t t i u u i u u j u u u h h g g k g j h j h h j j h h j j j j h h j h k h k j k k g k g h g g g y y y 9 y y 9 8 # 6 p k k k k k h k j z h z k z k z k k k k k k k k k k k k k k k k k k k k z k k k k k h k h j k h k h j k k k h h y 6 , = & X , : , < 4 8 = + h k j i k c ~ 4.} t & i E S k c k c c k k k p c k c c k S k k c c k c k c c c c k c c c k k k x k k z k k h z k k h k k z h k j j y u 6 # 2 k k k k k k k C k z k z k z k z k k z k h z k z k z k z k z z C k z k k C k c k k k c k k c k c k c z k z k z z p t ; O , U } S d k C S ; 3 Q m i k ! u.c.;.x * 3 u j k k z z z k Z z Z z z c c c c c c k c k c p c c c c k c k c c z k z k c k z c k k z k k k z k z k k k h z k k 2 @ g h k g z h h k k k k k k k k z z z k k k k k k k h h k k z k k k h k k k k k k k k k k k k z h k h k h z k h u t 6 ; & + = ; = # & # # = F C k k j k X.q.;.2 ; * t p C C C g j p z h k k j h h k j h k h j j j j h j k j h h k h j h k h k j j h h j h k k j h j h j h j h h y h 8 , u h h u g u u u g u g u g j u g g u g u p j u p i u u i u u i i u i g g g y g i u u i u i i u u i u i u y y i i 2 * ; ~ :.} i 1 p k p 2 O = % , $ + & ",
"8 6 8 4 # + q u y i t y y y p y y y y y y u y p y y u y y i y y u u u y u i u u i u y u i u u g u i u p u u p u p h u u t 1 * O ^ &.6.{ k y p A m L 6 # S S c p r R 3.g.u.] j 1 * 2 6 y u u u u u u p u g g j k h g h j h g g k k h j k h h h j k k h j j k h h g k g k k g h h h y y g 9 y y 8 & 2 i p x k k h z k k h k j k h k h k j z h k k h z k z k z h z z h z k k z h z j z h k z j z z k z j z z h k z h g 3 *     # = # : : : 4 8 , X h u g z k x k c } 0.} 0 & k H p c k k k c c k c c c p c k c c k c c c c c p c c k x c p k c c k C k k k k z k k j z k k j h j p p y u < * 2 h z k z z h z k z k z k C k z k z C k z k z C k z k z k z k z h z k k z k k k k k k k c c k c k c k z k h j j d 2 & * z U F j k k k c y , g H c S z n x ! d.g.` 0 & 8 y k k z k C k k k k k z k c k c p c c c c c c k c c c c c C k k z k z c c k k z C k z C z k z h z k z k k k k > @ 9 h k g k k k k z h z k k z k z h z B z k k z k k z z k z h k z k z k k k k k k h z h k k k g k j k j k g g g 6 & O + : : = = = $ = #   O C F z j j k k I O.i.T 2 & 6 j p y j g j h h j h j k j k h h j k k h h k h h h j k j k h k h j j h h k k j h j j h h j h j h j p j d h h < , i h h p u p u p u p u g g g g g g g g u u u u u g u u u y u u u y u y g y g y u u y u u y u u y u u u p u g u * & C <.O.b q y x y 6 2 8 @ # + # , # # ",
"6 6 8 , # & 8 y y t y i y y y y y t y y y i y y y i y y u y p y i u y i u y y u y y u u u y u u p u y u p u u p y y u 3 & & m 3.<.} Z g j h g g F F 3 2 k j g k g k k P 3.k.9./ 8 @   2 g y d g x y y i p p y p u g j g h h k j h j k j h h k j h k j h k j j h h k h j k k g g g y y y y 9 8 8 X < u g j k k k k h k k k k k k k k k j z h k k k k h z k k h k k k k k h z h k h k k z k z z k l h h k h h k h 4 #     # , , = = , 2 6 t 7 , + y g k k g k k k i b | 6.Q * 1 c C B C S z g j c b c k k k c c k k k c k c k c k k k k k k k k k z k z h j z h k k z z h z h h h g y 8 8 & t p k h k h z k k k k k z k z h z k z h k z k k C k k k z k k k z k k k k k k z z k k B k h z Z S l k j g k k 3 & * i ( I z h z z z p k k > y H c c k c C k c O.f.w.^ ; = 6 j Z k k Z k c k k c C C k k k c k k k k z z k z h z k z k z k k k k k z k k h z k z k k h z k j z h z k k % @ y g k j h k k h z k k z k z k k z k k z k k z h z k k k k k j z B h k k k k k k k p i k k c j j j z C p t 6 # # # = = = = = , % # # # O > h F k k k k k z h ] 3.4.H * & t j h h h y g k j i j k g g u p h h h k j h k k j h k j h j h k k j h j h g h j h g h j h j h j h j j i h 4 , u g j g g g u u j g g u u g u p i g g u u u u p u p g y g g d u i y u g u i y i u y y y i g u y u u y p p 2 & i +.,.P t y i y y y y 3 8 # O * = + = = ",
"t t 6 4 # # 3 y y y y y y y y y y i y i y u y u y y y u y y i y u u u u u u u u i u u u u i i u u y y z k u u p p t + O i ;.6. .G C g g k k h j z K < 3 k z g k k k j f k ` 5.f.,.U 3 & @ 8 h u p u y y p j u i u g g g j h j h j h h h k j h h j k h j k h k h k g k j h g h g g y i u y u 8 6 # 2 u j j k h h k k g k k k k k k k h z k k g z k k h k z h z j z h k k z j k k z k k k z h h j k h g g k h 8 > & & & # , , , , , 6 6 6 t t , & y g k h k k z k b z k I >.;.c 1 i u k k z Z b k x k C F c k k c c k k c c c k c k k k k z k z k k k k z z k z k z h k j j j k h g u 8 8 O 6 h z k k z k k z z k k k k k k k k k z k k k k k z k z h k z z h k z z k z B h z k k z h z h j z z k h C 6 & O q F ( K C j h k z c h k k * t G c c k p z c x x P ;.k.<.F & @ u Z B p k c b C k i i S k k z k k z C h k k k k k k k k h z k z h z h z k z z k h z k z k k k h z k k g % @ y y z u h k k z j k k h k k k z k h z k k k k z j z k k z z z h z k k k k k k k c z c k p k k k h p u 6 , = # = = = = = = = = = # = #   * k F h k k k k z g q x X.w.,.x & & y i 9 y g Z z i j g g k j p j p h j h j j h k h h j h k h j h j j h j p j h j h j h j h j h j h j u h 6 , u j j g g g j g g g g u p u p u u u u u p u u g u u u g g y g u u u u u u y u u u u u j k t 6 j p y k 2 & 2 Q <.) f f y e y y i t t y 8 % O = = = = = ",
"e 3 6 , & * 3 y y e y y y y y i y y y y y y u i u y y y y y y u u y i u i u u i u u u u u y u u u h p 6 2 y u y & O 3 ` <.=.Q F i i g g k k j h z F 3 > h k u k k k z z g j K ] e.t.$.v * # $ 4 9 h p u t i j u g g g g j h j h h j h j k h k j j h j k j k j j g k g h j p h j g y y u 9 y 8 8 X 4 u g j k k h h g k k k k k k z h k k k h z h h k z j k k h k k z j k k h k h z j k h k k h p h h z g 8 > * # O + = , , , , : , 6 2 6 8 8 , O y j k k k Z k k k d k k k ) ;.} 0 e g k k h h k j k z F c k i c c k k c k k c k k z k k h z h z k k k k h z k k j h k j j h h j i i 8 8 O 6 j h k h z k k k h z h z k z k k k z z k z h h z k z k z h k k k k k k k k k z h z z F j g z C g g Z u * @ 2 z J J C h h j k z z k z k B * i H z c c K j k b F c v P 3.u.%.i O , p C j j k c F S c x k z k k k k k k z k k k z k z h k k k k z k z k k z k k k k k z k k k k k k k k % @ g g c k k k k h z h k k k z k k k k z k k k k z z h z h z h h k k k k h k k k k C z k k h k h h p t ; # + = = % = = # , = , = = = # # O * k z k h z k k z h l z i z X.q.| e & * j F h 6 t Z g j k h k p p p h h k k j k j h h k k h k h k k h j h j h j h j h j g g h h h j j g h < % y j g g g g u g g g u u u g u u u p u g u u u u u u j y g g i y u u i y i u u u u u y 8 8 z k t p i & - H 6.:.p 3 g y y y i y y t y 8 6 # O = , = , # ",
"8 3 8 4 X % 2 y y t y i y y y t y i t y y y y y y u u y i u y y y u u u u y y u i u y i y y i i y y i u k y = O 0 m O.<.` p t p j h k k h h g j b b 2 2 z k p j k 9 u k k i i k ! @.t.t.} j ; & = 7 p p u p u u u u j g u j h j j h j h j j k h k h h h h h h k k g k g p h p h y u i y y y 8 8 # < u g g k k h k k k k k k k h j z h k k k j z z k k k k j z k k h z h k z j z k k h j j h k p h h g , * O @ * = , # , = , , 6 , 6 6 q 8 y , O y g k g h k k k g K z i c k F X.q.H * 2 k G Z k S z j k c c c c k c x k x k k c k k z k k k z k h z k z k k k k k z z h k h j h u y 8 8 O 6 p z k k z k k z k k z k k k z k z h k k k z z k k k k k z k k z h z z k k z k z k k j z z g C Z h = & = g U Y c p p j z z C k z k k k z * y K z c c j z c c c c k x v { i.u.( - & 3 C C k k i c c k k h z k z h z k h z k z k k k z k z k z k k k k k h z k k z k h z z h k z z h k % * 9 g c p h k k k j k k z z h k z k k h z k k k h k k k k k k k k k k k k k k k k j j p k p C p u 6 = = # # : = ; = , : , , # , = = # # O * k F h k k h z k k g F Z j j P O.6.P i & - h S h y g g g g k h h k k j j h h h j k j h j j j h j h j h j h j h j h j h p j h j j g j u g 2 % y j i u j g g g g g j p g u p j u u g u i u i i u i u g g y g u i y u y u u u i y y i h u 3 y c 0 - c O.=.H e i g 6 u y y t y y y t e 8 # + = = # , , ",
"e 8 6 4 # % 3 y y y i t y y y y y y t y y i y u y y y y u y u y y y i y y y y i u y y i u u u g h 8 g j 2 O * m X.;...F y k h u k j g g j g k g z b 2 2 k k g g u h j k k h k z g z ~ 4.d.5.^ a + & = y k k p i u u y u u u u j u h g p p h u h h h k h j j h h h h j h h j p u y y i y y u 8 8 # , y g k k k h h k g z k z h z z j z k k h z h k h z g k k h z k g g z k h k k j j h h p C p p p 3 & O @ = = * 4 ; : , , : 4 4 6 6 6 t y t , + d g k k k k k k K y h K c k k y H ,.4.H > 2 g Z c m c k c F F k k c k k k k c k k z z z k k z k z k z k h z k k k k k j k j g j i u 8 8 O 8 g j k h z h k z k k k k z k z k z k k k z k k k k k z h k k z k z h k Z k k k k k k x k c z j 2 # & 8 F J C i h C c k z z c k z z h k k % d K k C k u C F k j z F F S y i O.f.s.P *   2 j Z k p x C k z k z h z z k k k k k k h z k z k k h k k z k k z k k k k z z h k z k z g k j % X y i p p k k k k k k k k k k k z z k k k z z k k k h j z h k g h k j k j k k k k j j k C p u 8 ; = + = = 4 4 , , , : ; , , = , ; % % %   > k z h h z k k k k k i i b F x c ! <.O.H * O 2 k g k g p p p g h h h h k h k h h h h h h k h h k h h j h j h j h j p p h p h h p h j u g 6 , i g p u p g u g u p u g u p u g u p u i u u i u u i u y g g g p y y u u i u u y y i u B y y 3 @ e { ;.~ i 0 p 8 y B u y i t y y t y t 8 = O = = = , # ",
"6 6 8 , & # 6 y t y y y y y y y y y i y y y y y i y p u y y u i u y u y u y u y i u u u u u u i h i , @ O e ( ;...H f j c j u h g g g g g k h g z Z 2 > k k g k h k k k k k g y h h g S / 9.e.7.J r & & 2 t y p y i u u i u u u u u p j j p p h g h j j j p k h j j h j p p u u g i u y 9 y t 6 X 2 h g j k k h k k h j h B z j h k h k k z j k j z j z k k k k k k k h g k k j z h h z k p p t = #   O # ; 4 = , # , , 6 6 6 4 4 6 8 6 8 y = + y g g h h z k k g Z z d c k k H j d P ,.| j > e t k F c k k c c k c k c c c k c z B z h k k h z k k k k z k k h h k k h h j h g i y 8 8 O 6 j z k k k z z h k z k k h z h k k k h z h z k z z h k z k z k k k z k k k k z k k k S i t t 2 & : F G F h y p C S p z k k h h h j z k h * 8 G k c k F k k c F S k p h J J p m #.t.5.j - & 6 c C k k k k k k k k k k z k z k k z z k k k k z z k k k k k k k z k z B z k h k k z k h , O y p C p p k j z h z k k k z B k k k h k h k k k j z z h k k k k g z k h k g k k k C k p t ; # = & = , , $ = , , , ; 4 , , , % = * = * O # g z g g k h k z h h S C p y c c p b { <.X.j & * y h h p p p j j h j j j j j j j j j h j h j j j j j h j h j h j h h h p j p j j p j u g , % y g g u u p u u p u g p u u g i p u g u y u u y u u y g g g y y u p y u u y i j u p p 8 i * ; ` 4.) x > f y 3 k h 8 y y y y y y y y 3 8 # # = , , , , ",
"t 3 8 4 & # 3 y y y y i y y y y y y t y y y y u u y i y p y y y u y u y y i i y u u u u p u i t 6 = @ > L ,.+.b g g d 3 t j k k h k k g g k j u k b 2 ; h k g j k i e 3 y k z z k Z z d d H +.w.6.X.F q - * 2 7 y y i y u u u u p u u u p j j p h j h j h j h j h j j h u u g u g y y i y y 8 8 # , i k j k g k j k h z h k h k k k z j k k k k k h z h h k h k h k j k g z h z j h p p u t ; = O & # , # # = 6 , , = 6 4 6 6 4 6 8 6 t 7 t : + y g h j g k z h Z h S S k c C i j b k j ) <...i i p p c c k k c c c c x k k c k z k k k k z z k z k z h k k k k k k h k g h g g i u 8 8 O 2 p k k k k k k k k k z z k k z k z k z k z k k h z z k z k k z k k k k k k k k k k z 8 k y O & z J F h h C F z y p c k k k k z k k j k k * d F z c k c k k k p i z J C j p k k c ) 3.d.{ e & ; y h p k z k z k k k z h z h z k z h z h z k k h z h z k z k k k z k z k z h k k k h k % # 7 p c k k k z h l z k k B z z z k k z h z k h k k k k k h z h k h k k k k k h h j p y 6 ; = ; = = , , , = = , = , : : , , = , ; = , % O > g z g k k k k k k C k j C Z z k k i t c X.<.} e & 6 t y p p h j g h j j h h j h j h j g j h h j h h j h j p g h j h p h p h p j p j y h 4 % y g i u g g u u u g i g u g u g u g u u y u y i u u i i y i p p y y p u i y u h p y t * 1 I ,.{ k t y g 8 p c t 2 y s y y y y e y y y 9 # & = , , , , ",
"e 8 6 6 X * 6 y t y y t y y y y y y i y y i i y y y y y y y u y y i y y u y y y y y y i u y 6 2   % Z | O.K j x h g g h k k j i u j h g g g g k z z > 2 h k g j y g k z k g g g x d j z k 9 k G 7.e.9./ i * ; ; y u y u i u y u p u p p h p h h j h j h j h j h j h h j g p g u g y y y 9 u 8 6 @ 2 y h j k k h h k k j z k k k k k h z h k k k k k k k z k z j k j k h k g k g j u i u t = O O # % # , 6 6 : $ , , 4 , , 4 4 6 6 8 8 6 t u 6 & y g k j h k k k k k g k c k h F k z k k x c ] <.H q 1 p F c i c p c c k k c k c h k k z k z h k k k k z z z h k j k h j g g g g i y 9 8 + 6 j k k k k z k z h z h C k k z k h z k k k k k z k k z h k z h k k z k k Z k k k k k 9 # O y G I c p h Z k i p F S p h k k k z z z k k g * y F k c c i c c k k z k u b x k F F c k S / 6.u.Q * # 9 u z h k k z k z h k k z k k k k k z k k z k k z k z h k k k k k k k j k k z k z g % @ y p k p p k h z h g z B l k l h k h k k j k z z h k k k k j z g k k h k j h g g h 6 ; + + = ; 4 : , = = , 4 = , , , , , , , , % % , # O # h Z j g k j k k k k k j k k k h j k S k y F =.,.P & = 6 t h h j u j h h j h h j h j h j j p k h j j g h p j h j j h j p h p h p h j g g , = y j i u i p u g u u p i u u p u u u p u u u y u u y u y i i y p y p y u u u u h u 2 * l } #.K 8 i k j 8 g y 6 y C p q y y y y y t 3 y y # + = = , 4 , ",
"3 6 6 , O # 2 y 8 y y 8 y y 8 g y y y y y y y y u y y y i y y p 8 9 h k y 8 8 g 8 g y 3 3 3 * & j ) O.~ k i p k p p g j g j h h u u g h h p u p z z 2 ; C h u k j h h j g j h h g g g k k h k h x I ,.u.3.W w - % 4 9 h s u u p u u j g k k g p g g g g p g h j p u p j p i u y i y y y y 9 8 8 # < g h k k k j j z z g h h k z z j k k h k z h k k h k k k g g k h h g C z k p u y 7 = O   & 4 = = = = = , , , ; , , 6 4 6 6 6 3 3 6 8 y 8 4 + g g p h k k p k j k z k z k k k z h k z z k k z ;.+.b 1 q S K p j z k k j k C h z k z k z k k k h z j k h z z j k k k h j g g g i y 8 8 O 2 g z k k j z k z k k z k k z k k z k z C z k z k z k z k j k h j h h u h k C C p 8 # @ 3 Z L F k j k C z k z k k z k k h z k z h k h k g % 3 z b z k k k z z k k h z c k c c k c c c k b ..r.3.D * * 8 u k C k k k x k h k k z Z z j k k z k k k k k k k k k k k z k h z h k h k k g , @ 9 g j g k h k k k l B z k k k k k k k k h k j z z k g k k h g h k k h h g g h 8 = # = , ; = , = ; , , , , , : 4 ; 4 : 2 4 ; 2 , ; = % @ * g z z j k k h j k j h k k h k j h k h k k h z L | ;.b & & y h p p h g g y u g h p p h j p j g h h h p g h h p g j j p h j p h j g j u h 4 = u h i i u u p i u u u y g g i g g i g y u 9 y h y u 9 y g g g u u p p 9 d g j e & i { -.U j 6 y y i u g g u y i y y u 8 d 9 y 8 y 8 y 9 > # , , < 4 < ",
"3 2 8 , + # 2 y y 8 y y 9 y g 8 y y y y y y y y p y y p u y y y k g 9 8 9 h h y y 9 y i & & e Q [ ! z g p c k t p p i i i p u u u g p h p j u u k c ; = h h i j h h j h j p z h g k k g g k k k k p c ) 6.d.=.m * & & 2 u p y 6 u u i g g g g p g g g g h p p h u u u p u u i u u y y y y y 8 3 @ , 8 h g h g g h g j k k k h j h k h z k j k g k k k k k C k k y h z z j u p k 6 , # + + = # = = = = = , , = : : 6 , 4 < 6 6 6 6 3 8 6 9 y , & u i p k h k k h k k h z z k k k k k k h h k k k x I ,.X.y & q z S z k z C j h C k z k z k k h z k k k k k k h k k k g z k g g g i y 9 8 O 2 j k h z k h h z k k h z k k k z k k h k k z k z h z j z k z z k z C C u u h 9 = = 2 b S z z g g k S z h z h k z h z k k k h j k k k k y > 8 m b z k h k k k k k z k c c k c c c c c z c k H ;.r.X.i & * 8 j k c k k S S Z k g j h z k z h z h z z k k k z z z z h k z j z k z k k g , O u g j g C h k g k h z g k k k k k k k k k k k h k k z g k k Z k g h h k g y 4 % # = = , , = , , : , , = , , 6 , : 6 2 4 4 : 2 , , , * @ * g h h j h k j h z k k h j k k k k k k k k g g k F ! O.{ t   = u p u y h k k i u i p p u u u g h p u p u u p p u u u u u u u u u p u u h , = u g i p u u u u u u u g g y g y y g y u y u y y g g g y h g y y p s p h h t & - Q O.` h i t i h u y y y y y y u y i y y y y 8 y 8 y 8 9 # # , 4 , , , ",
"3 8 6 , & # 6 t 9 y 8 y 8 d y y y y y y y y i y y i y y u y y i 8 y g k g g y 8 8 8 *   * F ) } H l f t i h j i u g u u u u u u g u p j g u u u k b > ; k h i j j u h j g g h j k k g k g k h k j z x p v ` 6.f.X.m 1 & * 8 u u y y y y g g j g g g g g g j p h u u u u u p u u i y y y y 9 8 8 & 2 g h g k h k k k g h k g k z g k k k h k k k k h k g g k z j g g g k h p 8 6 * O   & = 6 , = = = , = , , : , 6 , 6 6 4 7 6 6 6 6 6 y y 8 6 & y u g h p k p C z k h z h k k z k h k z z k z k k j k ) <.` y 3 g g g k z z z p k k k k k k k z h z j z h k k z g k h g h h g g i y 9 8 X 2 g k j k k k k k z h k k k z z h z k z k k k k k k k k z z z k p h k s C p 2 @ * y z F z k k k k j C k k k k z h z k h k k k h z k h Z g % 8 C c z g z k k z z k k k k c c c k c k c x c c i k ( ;.6.U t & 0 k k k C g k k k k z z k k k k z z k k z z h z h h z z k k k k k k k k g , O y g j g z h k k k k g k k g k k k k k h k k k k k k k k k g k g u g k g < = # # * = , , , = 4 : 4 4 : : , , 4 ; 6 4 6 4 4 4 < , , , % @ % h C k j h h k j h k k k k k k j h k h g k k h g g i F { ;.( 2 & ; y j g 8 y k k i p h p u i u u u u u u u p g u u u j u u p u p u i u p , % u g i u u u u u u u u g g y g g g i u u y u u y u y h Z 8 6 g h u u p y > & F 4.=.z e t t t p p u t i g i y i y y y u 9 y d 8 8 y 8 y 9 > * , , 2 , 2 ",
"3 2 6 4 & + 6 y y 8 y 8 y 9 y 9 y y y y y y t y y y u y y y y u 9 d y 9 y 9 u 9 @ X @ k ~ { I k y i j k p i p h u u u u u u u u u u u p j u u u k k , = B g y j g g g j h j j h g g k g k g k g j p k k p x Q O.a.3./ j & O ; 9 y y y g y i u g u g g g p u u j u g u u u y u y y y y y t 8 8 6 # 2 g h j g j k g k k k k k k g k k g g z g g k k k g k g h h g z g g g p 8 #   O # # = = = # , , = , , : , , , , : 6 4 6 6 6 8 3 t 8 8 y 7 4 & u g g h k k h p h k k k z k z h k k k k z k h z g z b y p =.,.F * g F z p j k p z h z g z k k k k k k h z j k h k j k k j g p g i i 9 8 O 2 g z z k z h k k k z z k z h k k k k k k k z h z k z k k j h h k h k u q = & e S K k g g h k k Z z p z k z k k k k k z k k k k k k z z y # < c c z k h k k h h z z k c k k c c c k c c i c F k i F X.6.;.J & & q h j j z k h k S C g k z h j k k k h k k k k k j k k k k k k k h k g = + y g k u z h g h k k z k k k k k k k k k k k z g g h g k g g u g h u 8 , # & # = = , 4 4 4 = ; 4 ; 4 ; 6 6 4 6 6 6 6 6 2 6 2 < , , , % * @ 9 z j j k h j k h j h h k h h j z k g g k z k k k z t 3 K =.*.S & O 2 u h g y i i j p h j p p u u u g j p u u u p u g u u u u u g j y h 4 # u g y u u i u i u i u g y g g g y y i y u u i u u i y 8 u j j u u q 2 * x | :.z 3 y 8 j p y y y y y u y y y y i u y y y y 9 y y 8 d 9 8 % # , < < 4 6 ",
"3 3 8 , + # 6 t 8 y y y 8 y 8 d y y y y y y y y y y p t y y t i y 8 d y y 8 , X * 3 K [ U z t t k i y g g i y u u j u u u u u u u p u u u p u u c l 2 * h j y j g g g j h j h j g g g g g h k g C i y c K b g y ! #.9.<.Y q & O 2 3 y j j u y y u u g g u i u u u u u u u i y i i y t y y 8 8 8 & , y g g k g h g k k g g z g z h k j z g k h k k k g g h k g g k k g 8 = O + + # = 4 , = = = , : , , , , 6 , 6 6 6 6 6 6 7 6 7 t 8 3 y 9 y : + u u p k h C p k z j h k k z j k k k z h j z h k h z g k F g v :.=.g & 3 S b k C k z z k k z k k k k h k k z k z k k k h h g u u i y 9 8 O 6 j k h k z k h z k k k k h z k k z k z z h z z k k k h j k k C k p y * * 2 k F l j z z k k k k z z z h z z k k k h z k k h k k k k j z d # 8 F S x k k k z z k c k k c c c k k c c k c k k c K C k p c ..q.,.z O O y k Z Z k g g k g k k k z h k k k k h z k h z j k z k k k h k k k ,   8 h j p z g h g z k g z h k h k k k k k h k k k j h z h j h h h y , = + ; 2 , , 6 4 , , , , 4 4 4 4 4 6 4 6 6 6 6 t 7 6 6 7 3 2 , , , X * g k h j h k j j k h j h j k h h k z k g k g j g k d Z k y i J ` X.C &   2 z i y u p p g h p h u u u u u u u u p i u u u u u u u u g y h , = 9 u i y u i y u u y u y y i u i u y u u u i i y u i u k 8 3 g j t 3 e ) =.Q 2 q u y u i y y g p i y y y y y y y y y y 8 y 8 8 8 y y 8 y % # , 2 6 6 < ",
"3 6 6 , O # 6 y 8 8 8 8 d 3 y 8 y y i y t i i y y y y y y y y y 6 8 h 9 , # * , M ' T k 3 y g j g g u j u u i u i u u u i i i u u u u u g i y u k Z > = h p i j g u g u g g j h j g k k g k g k p h h y y g k k d m / ,.q.;.K 1 * & 2 i p y i g y i g y u h g u i u y u y u y u y y y y y 8 8 6 # 2 u g k j h k j k h k k h h j k k k h k k k j h g g k k k k g g 8 , #   + # = , , = = # , , , , , , : 2 : 6 , 4 6 6 6 6 6 9 6 y 8 t 9 y y 6 & i p p h k p h p h j z k h h z k k k k z z k z k z g k F k K z 3 K O.} i & e F D k z k z k k k k k j z k k h k h g h k k z j u u g y y 8 O 2 p k k k h j k k k z z k z k z k h z j k h k h k k k k k k k p y = ; * i C K k y g b k k k k k h h c k k k k z k z k z j z j z h z h z 8 * 8 S c c k k k k k k k k k k x k k k c c c c z z k p j c F c r b :.u.} p & & 2 j l k k k k k h k h z z h k k k h k k k z h h k k k k k h g , + u i k u z h k k k k z B l k k h g h g k k h g j h k k z k g 8 6 # # = = 4 4 , , , , , , , , 4 2 2 2 6 6 6 6 6 6 6 8 t 6 6 8 < < , 6 ; @ % h k j j h k h h h h j z h j j h j g h k k k h g h k g g k c p S Q } I 2 & & 3 u p u u u g j p u u u u i u u u i u y u u i u y u i u y u , = y u i u u u u y i u u g i y u p y u i i y u y g u u y 9 y g t * * F =.` p i k u y u y y y y u p p y y y y y y y y y y y y g 8 y 8 y y y = * 2 6 2 6 2 ",
"3 6 6 , O # 2 y 8 8 y y 9 y 8 y y y t y y y i t y y y y y t y y p u 2 @ O * k I U k y k z i y u 3 y k h g u i g u u y y u u i y i u u u u u i u k c - ; B j u p u i g g g g g g g k g g k h k g y B g u i k k h Z g i z +.6.&.{ j 2 * * 6 t y g g y g g y u u u u u y u u u y y y y y 8 8 8 8 8 # 2 y h k h h k h z g k j k k k z g k j h k h k k h h k j j i t < #     # , , % , = = = 2 : : , , , 6 , 4 6 4 4 6 4 6 6 9 9 9 8 y 8 y 8 y 9 6 & u u p h k h k k k k h k k k h z h z k z k k z h k F Z h h d d L k k ~ =.) y - y g h k z z z z k h z h k h z k k z g k j j g p u i y 9 8 O 2 p k h k j z k z h k h k k k k z h k h k k k z k z h k k p t : ; ; ; b F j y h I F t u g h z C z k h k k k z h k z k h k h k k z h k k y * 8 c c k p k h z h z k p c k k k c k c k k k j k F S k j k k F b i H #.,.~ 2 > > i k z k k j z k z j k z j z h z j k k z h z k h z k k h g : O u u k u h h g k g k g z k k k k k k j k k k k g k g j g d 3 = & + ; 4 2 : + , = = : , , 4 4 4 4 6 6 6 6 7 6 t 7 t 8 t t t 6 3 2 2 4 , X * g z h u j h j j j h k k j h j k j y g k C k C k k i z z k i y p j j ] =.L , * : t y i y i u u u u i u u y y u u y u i y u u i i u i y u , % u u i u i y u u y u i y u u i u u p y u i p p p p u i g h > O k =.| b e p y e c p t t j u y y t y y i y y y y y y y y 9 y y 9 8 y y 8 y * # 2 6 6 3 6 ",
"3 3 6 , @ @ 2 y y 3 8 8 y 8 y 8 y i y y y y y y y y y i y i y y 8 & O # g L I K g g d 3 t i u t i u y y y u g y u i u u u y u u u i y u u u u i c k , * h p i u i u g g g g g g g g j g g g j h C u p C k g g g u k z j a E #.a.<.U 2 @ = 2 t i g g g i u i g u i u u i u y i y i y t y y 8 8 2 # , g h j h j g k g z h k h k k h j h k h j k g k k j g d t 3 ,   . @ % % * ; ; = = , 4 , , 2 4 , : , 6 6 4 6 6 6 6 6 7 8 6 8 9 8 y 8 y y y 4 # i u p p k p C p h j z k k k k k k j k k k z k z z j j k z Z B d b k g b ) | K - d g g k k z z B k k z k k j k k h l k k h j p u i i 9 8 O 2 p k z k z h k k z k z k z k k k z k z k k k h k k k p u t ; & ; p G k x k c z p k C Z l h g j z k j z k z h z k k k k k z k k j k k h y * 6 S c z j k k k z k k c k k k k c k c c x b Z k h g z l k z p x b b v ! ,.:.z @ O 8 h k k z h k h k k h k k k k k k k h z k h z j k k k g , + y p j j c h k k k k k k k k h k g k k k h j k k g g g y , & + = = 4 = : 4 6 4 4 , ; 4 6 6 4 4 6 4 6 6 7 6 7 t t t t 7 t t t 8 < 6 < , & % g z h g g h j h k h j h j k k h h k k g g g j j j h j g g k z h j k e l _ ) h = + 6 t y y u u u i u y i u u i u u u y u u i u u u i y u , # 8 i i y u u i u u y u g y u u y u i y p u y i i u i u > O y | ,.L e e j t i p p t p p 8 i u u u u i y y y y y y y y y y d 8 8 d 8 8 9 u * # 2 3 6 6 6 ",
"6 8 6 4 & # < t 8 y y 8 8 y 8 y e t i y i y 3 3 y t y 8 u 9 4 : O @ e F L L k y y i y y y y u i u i y u y u y u y y y i i u u y u u i u u y u u h k = ; 9 h h h u u g u u g u g u p u g u g u p h j h h k j h k j k j h z z C S 3.9.#.N 1 & = , 9 8 8 u p u p p g g g i y y y y y 8 y 8 y y 7 t O , y g k k j h j j h j h j h j z j j g j k k j j p u y 4 + + . = = = = # = , , = , , , : , , 6 , , 4 < < 6 < 6 < 8 8 e t y t y d y y i u u , # j j g j j k h k k k k z k k z h k k k j k k k k h z k z z k h z k c c p k F ) O.t 3 e j z c z k z j g z z k g k h k j h h h u i u y y < @ 2 j z z h j k k k h z z j z k k z z z k g g k z h h g 8 % X * d F z j h z k z k k h z k z k k k k z k z h k k h z z h k k k k h j k k C y # < c k c h k k k k h k h z h z k z k k z k k h z k k k k z z k z k k Z z k ..%.o.j @ * 8 7 k h h h h j h Z k k g k k k k B g k k g k j h g , X y u k p k h h z z j h k k k k k k k g g k k h k h < ; # = , , , = , : 2 : 4 ; 4 4 2 4 6 6 6 6 6 6 t t 7 p u 8 8 8 y t 8 8 8 6 6 ; 6 2 @ = y h h j j j h z h k j j h k j h k j h k h k j h h h h k j k j h j g k g d F [ I d   * 8 t t u p y i y g g p i i i u u u u y u u i j y u , % y u i y y y u p i i u y y p j k p u y g u y y g h 8 @ 1 ~ =.U y y h u y y i y y u u y u y y y t y i y y y y y t i y i 8 y 9 y 8 y 8 3 8 = * 2 6 6 6 8 ",
"t 6 6 4 + # 3 y y 8 y y y 9 d y p t y t 3 y y g 3 y y y 8 : #   8 k L K k i y k y y i y y u y p y u u y u i p u u y u i u u y u y y u u u u y i h g = = h h h y u y g u p u p u g i p u p u g i j h j h h h j k h h h j h h z k x ! 3.9.O.k * + % 8 g t q u p y y y y y g g y y y y 8 8 7 t t 6 O , y k k h j h j h j h j h j p g j k b z j p u i u 7 6 + O + # = # = = , = , , , , , : , , , , 2 < 2 2 < 6 6 6 3 3 8 8 y t y y g 9 t i u 8 < X g g p z h j j k k h k h j z k k k k h z h k k k z k k k h k z k k c c c k k S H :.U t ; i S c i t z S g y z k i j z j g k p u y i y y 6 @ , j h k k k z h k z k h h z k k k j k g k z z h 8 8 8 X > d k k k k c k j k h k j k j k h k j j z h z k z k z z k k z j z h k z z j z C y % 2 c c k k k k k k z k k k z k k k z k k k k z k k z k z h k k k k k k k k j m { ,.) 3 & 2 y C h i h K Z y k k k k k k k k g k k g h z j g , X 9 g j j z j h j h j k h h j k j g g h k h j h < < < # = = $ , , , , ; : , 2 4 : ; 4 6 6 7 6 6 6 6 7 t t t t 8 y 9 8 y 8 8 8 t 6 6 6 2 # > u k j j h h j h j k h k h j h h j k h j h k h j j k j k h h j h k d j z y y z L U F 2   * g p y u u u g y y y i h y i i u u y y u g y u , = 9 i i y u i y y p u y u h h 6 2 y j h y y 8 y y > < F $.U k < e g u y p y y u y y i y y y y y y y y y y y y y y y y y y 8 d 8 8 8 8 y y = * 6 6 6 8 8 ",
"3 6 6 4 + # 6 t 8 8 d 9 8 y y 8 q y i t e 8 t t 9 u 8 , @ @ 2 y F F C j y y y g y u y u y y y u u u u u i u u y y y y p y u i u u i u y i u y u h h = ; h h g g u u u u u u u p u g u g u p u u h j h j k k j h k k j h h j j z i j F { 6.6.~ i * @ * t p u y y i y y i i u y y 8 y 8 y y 8 t 6 O , 8 g j h h g h k j j j j h h h h h h j g j j y , # O + = + = = = , = , , ; 4 , , , , 6 , : 4 < 4 6 6 6 6 6 8 8 t 8 8 e t y y y y y i i u 2 @ j h j h g k k k k z h k h h k z z h z j h z z j k k k k z k z k k k x c c k k k p Q } F 3 ; p F K g u C z g g Z h h h j p j p u i y 9 4 + , k p h k z h z k j z z j k h k j k h h h h h g 8 > X 3 y h z k k k k k k k z h k h k k z h z h z z h k k z k k k z j z j k k h z k h k y * < b k k k k k k k k k h k z k k z h z k z k z z k z k g z z k k z k k k k g z F F } =.Y * O = y F Z g j z k h k k k k k k h k h k h k h g :   y u h p k j z k h k k k z j k j j h z k g t < > @ * = , : # , , = , , , , 4 4 4 4 2 6 6 6 6 8 6 t t t y t y 8 y y 8 8 9 8 8 8 3 2 6 , * = y k h h j h z z h j k j j h j k j k j k h j j j z k h j j h k h h h g g k d y k Z U I z @   ; 8 y y i u g h h u 8 y y u y y y y u i y g , # y g i y y u y p y u u u 6 t j C h y 6 j j z 2 O g } | z d g k h t y C y y y y i y y y y y y y t y y y i y y y y i y y 8 y 8 y 8 8 8 y 8 = # 2 6 6 t 6 ",
"6 2 6 , O @ 2 y y 8 8 8 y 8 8 y t t y i y y y y 8 < % O & 3 b P S i 3 6 i g d 3 y i y y y u y i p y i u y u i p y u y p y u u y u u i u u y u u h k % = u u h g i u j u u j u u u u p u g u g u j h j h j h h j j h h j j h g j k z x d F o.3.<.P q + & 6 6 8 g u y y t 8 y i g y 8 8 y 9 8 6 6 O % g j j j h h h h h k h k k h z g y y i g u 6 % O   O = 6 : = = = = = , , : , , : 2 : , 6 6 4 6 6 6 6 6 6 8 8 e 8 y t t i y y y y y i u u , # h j h h k g k h h j z k z k k k k k z h z h j k k k z h k k j k x k k k k c c c c y z } ` x > e i j h k k Z k g k h j h h p p i i y y 6 & 2 p k g k j k k h k z z g k j k k k k h k g < * * % y M k h h k c c p z h k h z k z k j h k k k k k z k k h k k k k k z h k k h k k k z 8 * < z z k h k k h k k k k k k k h k k k h k k k k h k g z z k k k k k Z k k M z h 8 z ) } } k * O ; k j g k k j h k k k h k j z k g k k j g = X y u k p k j j h k k k h k h k h h h k y 6 2 % * % > 4 6 2 = = , , : , 6 , 4 2 6 6 6 6 7 t 6 8 8 8 t t y y y 8 8 8 y 8 y y 8 8 3 6 6 2 # * y k h j h j h j k h h h k k k h h h h j j h k h h j h j h j h j j k g y k z h t 8 j K ~ L y O + , u y y y y u u y u y y u y u y y i y u , # t g i i u y y y y y i i y i g i y p k j ; O 3 } | S i 3 e y d u u y t u y i i u y p y y y y y i y y y y t y y t y t y y 8 y 3 y y 8 3 y = * 6 6 6 8 8 ",
"q 6 6 6 + # 2 t 3 8 8 y 8 y y 8 y t 6 8 t y y y * @ @ , j F S k i y y i y i y y y y y y u y y u y y y u y y p y y y y p u y u u y u u y i u u i h h , > 9 h h 9 u y u p i u u g u p u p u g u p g j h h j h j h j j j h j h j h g g k k i i P ;.5.O.m * & & 3 t y y u y 8 9 y i y y 8 9 7 y 6 6 O % y g j g h h k h h h h k j h h h g h u 7 = &   O = = = = ; 4 : = = , = , , , : : , 6 4 6 4 < 6 6 6 t 8 8 8 8 8 y 8 y y y y y y y y i u u 2 % k g g g g h k k k k j j h k h k k j z k k h z k h k j k k k k j S c p k p k k k k F k y F } ) t > 3 k k k k k g k h j j h j u y i y 9 , & , k k k k j k k k k h g g k z k k k h B 9 > O * 8 B Z g j h k k z j z h z k k j z k z k k k h z k k k k k k j h k k z h h k k k h k k z 9 @ 3 z l k k h z h k h z g z z k k j z h h k g z z h k k k h k k k z k k k k l h B M x i z { *.T g & @ 3 p j k k h j j k k z h k k j k h j g ,   9 u j g k h k h k h j h k j h h k p t 2 = ; % > , , 6 , , , , , 4 : : 6 , 6 6 t 6 7 8 8 8 t 8 t 8 y y y 7 y y t i y y y t t 8 3 6 6 2 # * u k j j g j h h j h h j h j h k j h h h k k h h h j g j h j h j h g g g g i g g k i e k H U F 8 # # 2 y u y 8 y y y y y y u p y y g t g , # y i y y y y u y y p y i j u t y p u 2 & 2 T =.H y i y h j i 6 t u u 6 y y y t y y y y y y y y y y y y y y t e y y y e 8 y 8 y 3 8 8 y 8 = * 2 6 6 8 8 ",
"6 2 6 : & X 2 8 8 y 8 3 8 y 8 y y y 9 y 8 2 = # @ * y z S z i e t y u u y y y p y y i y u y y u y i y y y u y y y u y i u y i u u i i u u y y u h h * = u u u u u u u u g u u g g u g u p u g u g g g j h j h j u u h j h h h h z d y k z z x f ] =.,.{ k > @ & , 8 9 h h 8 9 8 8 8 t 8 8 y 8 6 O , y j j g g h j h j j j h h j h h h 8 , & + + # % = , = = , , = , = = , , : , 6 2 4 6 6 4 6 7 6 6 8 t 8 8 8 8 y 8 8 y u y u y 9 g i i u 9 2 # g j g k k g g k h h h z k k z k k k h k k z h k z k z h k k k k c p k k c k p i j j z b x p H X.K y 2 y k i g z k j g h h u u u i 8 y 6 @ , h h k h z h g z k k l z h z z h p u 2 * * , k Z z h g k C z k j h k k k k j h j k h z h z h k k k k h z h z z j k h z k k k z h k k l y % 3 Z l z h k j z k z j k h h k h z j k z k h k j z k k k k k z g k k k k k h z z h z H b e H ) } U 3 @ * e g j k k h h j h g k k h k k h g , X y u h g k k j h j j j h j h h g y 6 ; = + ; , % 4 = = = , : : , 6 4 6 , 6 4 6 6 6 t 8 y 7 7 y t 8 y y y y y y y y y y y t y t 3 6 6 2 # * y h j g g j h h j j j h p j h h j j h j h j h j j j h h j h j h j g k k g i u k k k j e 3 j I J s = * = 6 u h u y i y i i y y y p g y u % # 9 y i y y y y y u y y u t t k k t - 2 F } ~ g i y y h 6 y u j i y y k y y y i i t i t t y y y y y t i y t y y y t y y y 9 d 8 8 y 8 3 y = # 2 6 3 6 6 ",
"6 2 6 : + & 2 3 3 y d 8 8 t 8 y 6 y 9 8 , * & O e j z z y 8 8 y y y t t y p p y y u y u y y y u i y u y y i y u y u u i i u i p u u u u u u u g g g = % u u y u i u u u u u g i u p u g u u u p j u g g j h j h g g j h j h k j d z B g y k c i e m { <.=.H e 1 , * , 8 u u t < 8 y 8 8 t 8 8 2 O , d g j j g g g j g g g u j j y 8 , # O O # 4 , = # # ; 4 , ; , , : , , , : , , 6 6 6 6 6 6 6 8 6 8 8 y 8 9 8 y 8 y g y u y u d y y p u u < # g g h k g k k k h z k h k j k k h h z j k k k k j k k k k k k k p k k c z k k c F k p p z c k y U U Z 2 3 k k y k h p j h p u i i t y < O , j j k k g k h k g z h l z g u t 6 ,   , k Z k d h l F C p j h z k j h z k z z h k k k k k k k h z z k k k k k k k k j k k k k k z h C 9 @ < b k k k k k k k z h k k k k k z k k h z k k k h k j z k h z z h z z k k k h g j h k g z d j H { ) b 2 & 2 3 y j z k h j k z k g g k j g =   y p p p j g h k h k h j h k t 6 ; = = = ; : , , , , = , , 6 6 6 4 6 6 4 6 6 8 6 t 7 7 t 9 y 8 y 8 8 y y y y y y y y y y y y t 8 2 6 4 & * y h h p u h k j h h j h j h h j h h j p j j j j h h j g h j j h h h h g h h z i 8 j y g b k y j H G u #   * 6 h h y y y y y y y y g t h > * 8 i y y y y y y u y u y y p y = & u _ } h 2 d i i i 3 S p 8 t t y y t t i y y y y y i i y y y t y y y y y y y t y y y 8 y 8 y 8 8 8 d y = * 2 6 6 8 8 ",
"2 6 6 , # X 2 y 8 8 8 8 8 y 8 8 8 8 2 * @ @ 6 k F z i t y y y 8 i y i i y y y y y i y y y u u i y y p y y u y y y y y u u u y y i y u y i u u g h g ; * 9 u u y u y u u p u u p u i u p g u g i g g u g h j g j g g h j j h p j k e g k C i i k j j j b { 6.X.c 2 # # * 6 g y 8 y 8 8 y 8 t 6 6 O % 9 g g g g g g u u j g g g u 2 * O O + = : # # = ; , = = , , , , : ; 6 , 6 4 6 4 6 4 6 6 6 6 6 t t t t t y y 8 y y 9 i u u u y g y g u u 4 % g k g g k g k h j j k j z h h j z k k k h k k k k k z h k k k k k x k k x p k z k k c x p k c c g S ~ I i > < z h j j k h p u y u y 8 , O , j j g h k j k j k h k z h g t 2 & O k g h g k B k h j g k z z h z k k j k h k z k k h z j k k z k k j z h k z h k h z z h k z h j z z 9 @ < z z k k k k h z j k k k j z h h k k k k k k k k h z h k k k j z h B k k k l z z z k z h k l j k U } ~ j & * 3 u z k h g h g k g k z h g =   y y k p g i h j j k h k h j , = & = = ; : = = , : , 6 4 , , : 6 4 6 6 6 6 6 t t t t t u y y y 8 y y y y y y y y y y y d e y t t 6 6 4 & = y k j u j j h h j j h j h j j h j j g h h j h h j p g g g u g g g j u u g u u u k g g i y y j j p Z A F y = O , 8 y y y y y y y y i y y , # 8 y i y y y y y i y y i h q O 2 _ } F 6 g j y 8 t y u 8 u p u j j p t y y y y y y y y y y y y i y i y y 8 e t y e t y y 8 y 3 y y 8 9 8 = = 2 3 t 8 6 ",
"6 6 8 , O * % 8 e e t 8 t y 8 8 8 %     ; p c c y y e y y y y y y y y y y y t y y y t y y y t y y u p y y u y u y u y u y y y p y y y y u y u y h h # % i i u i u y u u u u i u g u u u p u g u p u g u u j p g p g p g u g u u j k k g g j k h h h h d k L { ,.! c 3 & & = 6 9 8 3 8 y t 3 2 2 X , y g j p p u k j i i y y 8 ,   + # * = , , # = = : = , = , , , , : , 6 6 , 6 4 < 6 6 8 5 8 8 t t y 8 y y e y y i y y u u u i u u u j j y 2 # g g j h k k h j j h z k j h z k h j j k k h h j h k h z j h z j h z k z h k h z h k k k k j k k Z k g F I L g @ 3 y k k j g u y u y y , O , j k h k k k k k x j g g y > @ * 8 C h j k k k k g z k k k k k k k k k k k k k h k k h k h j h z k z z h k h z z h k k k k z k j k j h t * 2 z j k k h z k h z z h z j k k z k k k j h k k k k k z g g h k k z j z k k h z j k k k k k k k g k z U [ T e O * g k g j j l h h g k h u # O 8 g p k p x k g d h u y ; & = = # , , , , # , , , , , , 4 4 2 6 6 t 8 8 8 6 8 y 8 d y y y y y i y y i y y u y y 9 y 8 y 8 8 8 t 3 6 , * = 8 j p h p h p j p h j h h j h j h p h p h p h p h h g p h h p h h j j g g g g g p u u u u u u u u 6 u C F z y & O 7 7 8 u u 9 y 8 j t y , * 8 y i y y y u i y y h y O & L | K y y i i y y y u y p y y y y y y y y t y y y y y y y t t y y y y e y y y y t y 8 y 9 8 3 8 y d 8 8 8 9 % * , 6 6 t t ",
"6 , , , O # , 8 y 8 3 y y y 2 =   X , 8 j C p i y t y y t y y y i y y y p t i y y y i y y y i y y y y y y i y y y i y i u y y y y u y u y y p y g y * = y y u i y y y y i y u u j u u u i u p u u g u p u u u u u u u u p u p g g g g g g h g k h k k g g l b H ,.{ I j * # # = i < , 2 8 y 6 ,   = 9 j j j p p t i g g 9 2 #   & & # = , = = , , = , = , , , , , , , , , 4 : 6 < 6 6 6 8 8 8 8 8 y 8 3 y y y y u y y u i u u y u u u j g y 6 # g g h j j k k h k h h k k k h j k z h k k k k z h k j k h k k h k k k j k k k k z z h k k z h k k g g g Z F F H 2 3 y g g u i p y y 8 4 + , u p g h h k k k z k g , O @ 2 g h h k k h g h g k g k k k k k h k k h k k k k z h k z k z z k j k h k k k k k j k k k k k h k h k h z y & 2 j k k k z j k k k k k k z h k h z h z h z k k h k h k k z k k k h k h k k k h z k k h z k k z k h k l Z L } L *   * j h g h z k k g g k % X 8 k p h i p g h g 9 6 , = = = # , , , , = , , , : , 4 4 < 4 6 6 6 6 3 6 t t 8 8 y 8 y y y y y y u y y u y y 8 y g y d 9 8 y 3 8 8 2 2 # = y p h p j p h p h j h j h h j h j j p j p g p j p p p h p p j p p g u g g g g g g u u p i p u u u p i y p C c y 3   * 8 y 8 6 t g t y u X   8 g t y j i q y h t & O S } ` k y 8 y y y g y y u y y y y y y y y y y i y y y i t y y i y t y y t y t t t y y 8 y 8 d 8 y 8 8 8 8 8 y 8 > # 2 6 8 8 t ",
"6 , 8 % @ @ , 8 < 3 t 9 7 , #   # , u k h j t t y y y y e y y y t y t i y y y y y y i y y y y y y y y i y u p y y y y p y y y u y y i y i y y y h h * = y 9 p u y u i u y u u y u u u u u u g u p u u u u i g g u g u u u g p u g g j j h j j g u g k k h g g g F ) :.} H ; & & * , 8 8 8 6 6 6   , y g i i u u g g 8 , = O O   = + = # = = , = = , , , , : , , , ; 6 , 6 4 6 6 < 4 6 6 8 8 8 8 y 8 8 y t y y y y y u y u u i u u p g g g g , % g j h h j k g k j h j k h k j k k h k h j h j h k h z k z h k h k k k k h k j k k j j k k h k k g g k k g j Z K I y & 2 g h u u y t y 4 O , k h z g d g z k y 2 @ & * 8 h k k h g z k k k j g z k k k k k k k h z k z h j h z k k k z h k k k k k k k h h z k h k h z k k z j k h y * 3 z j k k g z k k k k k z k k k k k k h k j z j z k k h z z j k k k k z j z h k k z h k k g k z k k h j h F b I [ F ; O * 8 h h y u z k t % O 8 u p k u u g y 8 , + & = = # = , , : , : , , , , , 6 4 6 4 6 6 8 8 8 8 8 y 8 y 8 8 y y y y u y i u u y y i y d y y y 8 y 8 8 8 6 6 4 & = 8 h p h p g h h p h j h j j h j h p h h u h j p h j p h j h p g j g g g u j g g g u u u u i u u u u i y y p k C C y #   @ 6 k g t y y u , # t i y y 2 2 p y * > < ~ L z 3 2 g g t y i y i y i y y y y y y y y t i y y i t y y y y y y y y y y y t 8 y 8 y y 8 d 8 8 8 y 3 8 y 8 y 8 % # 2 6 t 8 q ",
", 2 8 , O @ , 8 8 8 8 , #   @ # h g h y t 6 t y y t y t y y y y i y y y y y y y y y y y t i y y y y y y y i y y p y y y y p y i u y y u y y p y y h * * y u u u y y y y u u u y u u i u i u u i u g u g u p u u u p g i p u u g g g g g j h j h g g g j z h k k e g F ) O.{ b 1   & % , < 4 : 4 X % 8 y y u u y 9 8 % O   + # : , # , , , = : , = , = , , , , 4 : : 4 6 4 6 4 6 8 6 8 8 8 8 8 8 3 y y 8 i y y y u i u u y u u u u h g g g u 6 # g h j k h k h g j z h k k k h z k k k h j z k k k j j h j j k k k k h z z k z h k k z h k z k k j k h k k k g g l L F , * y k t i t 8 , O * h k l g k k g 6 % O # 2 k Z k g h h g g g z h k z h k k k k k k k k h k k k z j h z k j j k z h k h h z j z k j k z z h j h j h h k h 8 & 6 z h k k h k g k h k k g z h k j j k z k k h z h k k k z h z h k k k h z j k k k j z h k k h k k k k z k g d k L ~ G y * X < h h y i x j = + < y p h u u 8 , * # = : : # , = , : , , 2 , , 4 4 2 4 6 6 6 6 t 8 6 8 y 8 8 y 8 g g y y y i u y y u y y u y y 8 y 9 y y y 8 e t 6 6 ; = = y j h h p j p p j j h j h h j h j h p j j h p h p p h p h p j u j u g g j u g g g u i u u i u i u y i p y y y p h S k < * # = 6 u i 2 6 = @ , 3 y 6 j k 2 O * F | L g 2 y g i y y u y y y y i y i y y i t i y y y y i y y y y y i y t y y y e y y y 8 y 8 8 y 9 y y d 8 8 3 y 8 8 9 * * < 6 8 6 t ",
"% 4 8 , X O , 8 9 6 % O   # 8 h 8 d y 9 t t y y y t y y y y y y y y y y y y y i y y t i y i y y y y y y y y p y u y y y y y i y i y y y y y i u y h # = y y u y y y p i u y u u y u u y u u y u p u g i p u p u u i u g p u g u g g u j g h j h j h j u g g g g z i y h ~ { ../ y * O O = 6 4 , O * 2 i i u y 6 # O O + # # = # = = , = = = , : : , , , , 6 , , 6 , , , 6 6 6 6 6 6 8 8 8 y 7 y 8 8 9 y y y y y u y u i u g u g u u h g j u < % g j h g k k g k j h z k k k h k j j h k k j h h j z k k h j h z k j h h k h h j h h k j k k g h k k g g k z k g Z y j L z * & y i t g <   * y g e k k d * O # , k h k g g g k k k k k h k g k k k k k k k z h z k h z j k k k z h k h z h z k z j k h k k z k k k k j j k h j k h 6 * 3 k k k k g z j k z j k k k j z z h g k h j k k h z g k j j k h z g k k h k h g k k g g k k k g g h k h j k z g y j U T F < @ O t z g u h * # 8 u u u 8 6 = # @ * = 4 4 = = , = , ; : , , < , < 6 6 6 6 6 8 8 8 8 9 8 9 y y 9 y 8 y y u i u u i u y u u y y y y y 8 y 8 8 3 8 < 6 4 & = 8 p h p g p j p h p h p h p p h p u g u g u p u p u g p u g p u p g u u g u p u g u y u u y i y u u y t t i g i 6 i z K h * O & 4 g 8 8 % + < u g h ; O & S } I g , t j h i y y y y y y y y y y y y y y i t y y y t i y y y y y y t y y e y y y y 8 y y 8 y 8 y 8 8 8 y 8 8 y y 3 y # # 2 8 6 6 t ",
"O O % % X @ , < # & O @ 2 u h g y 8 y y u y u y y y e y t y y y y y y y y y y t y y y y t y y y y i t y y y y y i y u y y u y y y y i p u y y y y u * = 7 y y i u y y u i u u i u i u u i u u i u g u p i g u g g p u u u g u p g g g g g g h j p x g g g g h u j z z g y x Q X.} K 3 & O # = ,   = 8 y y 3 $ + X   O # , , : # = = # , = , , , ; : ; : , , : 6 , < 8 6 6 6 8 8 6 8 9 8 y t y y y y y y y i y g i u u u u u p u u u u g g y 6 # g h j g g k k g j k h h k h k j h z j k k h z j h h j h k k h j k h z j h j z k k k g z h k k k g k z k g h k z g h g i h S 8 & = , 6 < # , g h j 8 , * # , d h Z k g g k h z z g k j k k h k k h k k g h B z j k z k k j z h h z k j k k k k j z k z k k h z j h k h z k k h h z y * 2 k k k k k h k h g z z h h k g h k z j k k h j k g k h k z h k j k h k h k k z h k k z h k k k k k k k g z d g z k g C I U g * O , y p 8 * # y g 9 8 = # O # % , , = $ = = = , , 4 , 4 4 6 6 6 6 8 6 8 8 8 8 y 9 y u 9 y y 9 y y u y u u y u u y u u i u 8 9 y y d 9 8 y y 8 3 6 6 * = y p h p h h p h p h p j p p j p h u p p u g u g u u u g u u u u g u p u p u u p u u i i y u u u i u u y i i p u u i i i h z g ; O * 2 u $ X 9 8 * O * p Y U j 2 3 j g 8 2 6 u i i y y y y y y y y y t y y y y y y t y y e y t y t y y y y y t t y d 8 8 9 8 y 8 y 8 y 8 9 8 3 8 8 9 > * < 6 8 8 t ",
"O   O O O O % %   + , y h h t 3 g y 8 3 t y t y y t t y y y y y u y y t y y y y y i y i y i y y t y y y y y y y u y y y p y y p u y y y y y y u i u & = u u y i y y y u u y y u u y u i y u u y p u p u g u p u p u u j u u u g u u h u g g g g p p h j h h p g y i u g p p k p / ` ! c , O & # # , 8 8 , #     > % # % = , 2 , = = , , : ; , , , , 4 6 4 6 4 < 8 , < 6 4 8 < 8 y 8 y y 7 y y y d 9 9 y y y i u i u u i p u u u u u i g g u 6 % g h g k g k g h h k k k j h h z h k h z k k h j k k k k h j k k k k h j z j h k z j h k k j k h g g k z k g g y u j k g i y g g * @ = = X 8 g y 9 % O # < k k h y g l z z g g k k g k h g k h k z k h z h k h k k h z h k h k k z h k k h k k z h k h k k z h k h k j k j j k j j y & 3 k k k k k g g k k h h k g k k g k h g k k k z g h k g z g g k k j z g k g k h k g k h k g k k z k k z k k k h g g g k h z ~ L 6   & 6 9 @ # 8 < , = + # # % , , = = = = 4 , , : , 4 6 ; 3 8 6 6 8 8 8 8 y 9 u 8 y 9 u u u y y y u y i u y u u y y g g g g 8 y 9 y y y 8 t t 6 6 : * = y j p j p p j g p j p p j p j j p u g i p u p u u u u p u g p u g p i u u u g u g y u y i u u u u y u j g t t u k y y i g z h y 8 O   = + O # @ & t K ~ C 6 t j k j i t g i t 3 y y y y y y y y y y y y y y y y t y t y y y y y y t e y t y y y y 8 y 8 d d 8 y 8 8 8 e d 8 8 y y 9 * # 2 6 6 8 6 ",
"O     X O @ #   # 6 p u y t 8 i e e i t y u i t y i y y e t y y t i y i y y y y y y y t y t i y y y y t i y y y y y i p y y y y u y y p y p y y i y = * 7 y u i y u y i u i u u i u u y u u i u u g u g u u u g u u u u u g u u i i g g g j g g p h p u u u u h h g h p h u u p r b ` { P t @ O @ % 2 * O   + % @ # = = ; ; ; ; , , , : 2 : , , , , 4 , , 4 6 < , 8 8 5 8 8 6 8 8 8 t 7 t u y y y y y y u u i u u u g p g u u u h u u g u y 6 % g j g k h k j k j k h h j z j z k k h j h j z k k h h j z k k h h j z k k h j z g k h k k h k k z k g g h k k k k g u g j u y y i , %     , 8 *   # , h h z g g k k j h k k z g g k g z z j k h z j z j z k k k j k k k k z j k k k z h z j k h k k z j k h k k j z h k h h h h h t * 2 l j k k g k z g k k j k k k h z j k k k g g z h k j k h k k h k k h k j z g k j z g k j k h h g g g g k g z z k k k k k l d F U G 4 X + % * , > O & # $ , % # * , < , % ; : , , 6 , 6 4 6 6 6 8 8 8 9 8 8 y 8 y 9 u 9 u 8 u y u i u u u u u i u u i y g 8 g d y 9 8 d 8 6 8 6 6 6 & = 9 p h p h h p h h h p h p h h p h u u g u g u u j u p g u u u p u u g g u p u p u u u u u u y i u u u y u u y y t u u i y y d h k C X + & O   % Z ) z e 8 y y y t 6 t i y y y y t y y y y y y y y y t y t t y e y y y y y y t y e y y y y y t e y 8 y y 8 9 y 8 y y 8 8 8 y 8 3 8 8 % * , 6 8 8 t ",
"% #   .       6 u u 8 t 3 e t i 8 y 8 3 y 8 8 t y y y y y y y i 3 y 8 y 8 y 8 y y 8 y 8 g 8 y y y y y y i t y y y y i y u y p y p y y y u y i y y y * # 9 u u i y u i u u u i u y u y i u y y u y u y u i u u i u u u u u u u u g u u u j h h j p h p j j u h j j g g d g u p p h u i l ~ ) S * .       X % + = = = # = % , , , , , = , , , , 4 , < < , 6 6 6 6 t y 8 8 8 8 9 7 y y 8 y y y y i i u y y u i u u u u i u u u u u h i j g g h , % j u j h h h h h k k j h h h k k k j j h z k h k k h k h z j k j h h k k h z j h h j k g h h k g k h k j h j k j g j j p p p i y 8 < 8 # #     # , d k z g g k k j j h k z k k k k k z k k j k k j h k h z j k h k k z j h j h z h k k h z j h k k h z j h k k z j h k j h h k j h 8 * 2 k j k k g g k k k h z g k k h k j h z g k k j k k g g k j k k k h j j k j z z h h k j k k k k g k k k g k h k h h j h j k j g g F L g # X   & O = & + $ = = ; = = = , , , , , 2 6 6 6 q 6 8 8 8 8 y 8 y y y y y y y y p y y u i u y u u i u u i y u i y y y u y y y y t t 3 < 3 2 # = t p p i u h j p h u g j u g g g g u p u p u g u p u p u g i u u u i u u y u u i u i u y y u u u y y y u y y y u y p p i y u y y 8 u Z 9   X = J J 6 < 6 8 9 y 3 < 9 8 3 8 y g y y t y t y y y y y 8 y 8 y 8 y 8 y 8 y 9 d 9 d 8 y 8 y 8 y 8 8 y 8 y 8 d 8 y 8 y 8 8 8 3 y 3 y 8 3 8 # # 6 t 6 6 t ",
"  O X       + = 6 6 8 y t y t 8 y 8 8 y e y y y y e y t t y y y y 8 y 8 d 9 y y 8 y 8 g 8 g 8 g y y y y y y y i y i y u y y y y y y y i p y y u y u # = 8 u u i y y y y y u u y u u u u u u u u p i i u u y y u p u u u p i p u i p u g j p u h p u u u u u p u g j g k j h p p g i y y C Z y ;     .     + # % # = , , , % , = , = , 4 : , , 2 , , 6 6 , 6 6 8 8 6 8 8 y 8 y y y 8 y y y y y y y u y u u u y u u u u u j u u p p y j p g g , # u g h j h j j j j h h j j k j h z h k k j h k k k h k j k h k h z j k h k j h k h k g k k j g k h j j h h k h g k j i g p y t i 2 8 #     # # , y g y 9 g k h y k h h j g k g g k k h k h z h k z h k j k h k h h j h j k k h j k h k j k h k h k j k h k k j h k k h h k j h h g y # 2 C h g k k k k h j k g k k h k k z g k k h k k h g z k k h k h h k z h k h h j j k k h k g h k k h h k k j j k k h j z h j k g i g h 8 ,     +     % : X ; = = , , * = , , , 6 6 6 6 6 6 y 6 6 y 8 9 y 9 y y y y y u y y u y y p i u y u u y y u u i u u y u y y i y y y 8 8 3 2 2 * + 8 p u u u p g h p g g g g g g g g g u g u p u g u g u p u u u u u i u i u u y y u i p u u u i i u u y p y y y y y t t y t y y y y * 8 ,       * - 8 8 8 u 9 6 8 9 y d 8 y y y 9 8 y e y t y t y t y 8 y 9 y 9 d 8 y 8 y 8 y 8 y 8 d 8 y 8 y d 8 y 3 8 9 3 8 8 3 8 y y 8 8 8 8 8 y 8 * # 2 6 6 6 6 ",
"* O O , #     X # % 3 8 y y t t 8 8 3 y y y y i 8 y y y y y t y 8 y 8 y y 8 8 g y 8 8 y y y 9 8 y y y y y y y y y y y y y y i u y u y i y i u y y y # & 8 u i g u i u u y i u y u i i u y u u i i u u y u u u u u u u u u u i g u u u u u h p p u u u u u i u u g k g k g g i p y i g y 6 2 # O .   % +       + = = % = > % , , , , , , , 4 4 : < 4 4 6 6 6 6 6 8 8 8 7 8 y 9 9 8 y 8 9 y u y i y y i u y i u i u g u u u u u g u 8 h p g g , # g g h j z h h k h h k j j h h j j j h k h k j h z j k h k z j k k h k j h k k j j g k g k j k g h k k h j h k k g k g 6 6 p p t ; & ; ) 8 < 2 # 2 8 u g g g h u k h j h k k h g h h k k k j z g k j k h k k j j z k k k h j k k z j k h h k j j z h h k j h k k h j h j k h k k g 8 # 6 C h k k k g j z k h k g j k h g k j g k z g h g k j z k z j z j k h j h k h k k k j h k k k h k k k h k h k h k z j p p i g k g 8 , ; % O C J * * * # * O # = 6 4 , : 7 , < 6 6 t 6 8 6 8 8 8 8 8 y 9 9 y y y y p y y i y y y u u u i y u u u u y p u i y y p i y y t y 8 3 2 6 , # * 8 u u u p p j h u g g g g g u g j u u u g u p i u u u u g u u u u u u i u i u u i u y y y y u y y y y y y i y y t p i i 8 8 9 6 $ e O * t 6 e c O & 2 y , 4 8 9 7 8 8 8 y 8 y 3 3 e y y 8 e y y y 8 y 8 d 8 y 8 y 8 y 8 y 8 y 8 y 9 y 8 y 8 y y 8 8 y 8 y 8 y 8 y 3 8 y 8 y 8 8 8 8 # = ; 6 6 t q ",
"O e { | 8     . O @ * , 8 8 t 8 3 3 8 8 t y 3 t t y e t e y y y y 8 y 8 8 8 g 8 9 d 8 y 9 d y y i y y y y y y y i y i y i u y y y i y i y y y y y i @ # 9 8 i i y y y y u y u u y u u y u i y u u y u u y u i y i u i u i u i u u u u u u u p j p g p u u u u u g g g g g i i y i i y 3 ; #     # + = #       . # # = % , % , % , , 4 , 6 , 6 6 2 4 6 6 8 8 8 8 t 8 8 y 9 y y y y 8 y y y i y y y u u y u u u u u i p u g i p u h u h j g g , # g u j h j j h k k j k h k h j k h z k h k h j z h j k k j h h k k j z h j z h k h k g k h h g k j h j j h k j k y y u j C p ; O 0 b 6.u.6 , h     % 8 g k h h C h j h j h k k k k k k j h k h k k h k j h k h z j h h k z k k h h j k j k k h z j j k k z h j h k k z j j h j j k 8 @ 2 p u k k k z h g k g k z z g k k h k k h g k k z h k g h k h h j k k z h k k h j z h j k k h k k g k k k h k j k h h p u g y y 3 , # = 4   = *.<.K O O & , , = + = 4 6 # 2 6 6 t 6 t y t 8 8 8 y 9 y y u y y u y y y y u u y y i u y u u y i u y u u y u u y y y i y y t 8 8 2 6 2 = = 8 i u u i u u p j j u g u g g g u g i p u g u g u i u u i u u i u y u u y y u y u y y u y y y y u u i y y y y y y t e 8 y u 6 = # 1 1 { :.c i 3.+.e & & 6 u 8 : 4 3 3 3 8 8 8 8 8 t 8 e y t 8 e y d 8 y 8 y 8 y y y 8 y 8 y 8 y y y 8 y 9 d 8 8 y 8 8 8 y 8 3 3 y 8 y 8 3 y 8 3 8 8 # + 6 q 6 6 6 ",
"m { q.[ *   +   O O + * , , 6 y 3 8 8 8 y t e t y e e t y y t y d 8 y 8 d y y y 9 y 8 8 8 g y 9 y y y y y y y y y y i y y u y y y y y t y y y y y d @ @ y y y i y y y y y u y y u u y u p y p y u y u u y p y u u u i u u u i u u u i u u u p u g u u u u u u u h p y i i g u y g t * O   + # # = O = = # #         * % 6 < 4 % , , , , , 2 6 < 6 6 6 6 8 8 t t 8 8 y 8 y y 9 y 8 y 9 y y u y u y u i u i u u u g u u p i g u p h y j p j h , % g g h j j k h h j h h k j h j h k h h j k h h k k j h k j k k h j h k j h h h k h k g k j k h j j h h h k g g g h y g k 2 O ; F #.w.,.F 2   ; 6 # O O = y p h p k j k g j h k k k j k g z k g k h k k z h j h j z h k h j k h k j h z z h j j k h k h z j h z j j k h j h h h k h 8 * 2 k h g z g k k h z g g h k g g z z g k k g k k j g k k k k z j h j h z k j k k j h k j k g h j h g k g j k j j h p k p u h < % @ & # , p * * 3 c 6.;.k &   O , 8 4 = = 4 < , 8 6 8 8 7 t 8 7 y 8 y y 9 y y y i y y y i u y p y i u i y u u i u y u u y u y y y y y y y y 8 3 3 2 6 * = y u i y u u u u g u p u p u g u p u p u p i p u u u i u u y u y u y y y y y y u y i y u u u y y y i y y y y y u y y 8 2 3 , @ & , R 3.d.#.c 1 ( w.;.) q & & 6 9 u 8 8 3 8 8 8 8 y 3 8 e 8 8 8 y y 8 y 8 8 8 8 d 8 3 d 8 8 9 8 8 8 y y e y y 3 t t y y 8 8 3 8 8 8 8 8 8 y 3 8 8 8 8 # * , 6 6 q t ",
"5.) c y #   .   O     O X = , 6 8 8 t y y y y 3 t y y y y t y y 8 y 8 y 9 8 g 8 d 8 y y y 8 y y y y y y y y y y y y y y y t y y y y y y y y y y y 9 * # 8 9 i i y y y y i y y u y u p i i u y u i u y u u i u u i y u u u y y u y u u y u u i u u u u i u i u i u u y i g g u y , *     & # # = %   % , , , # #   O X O # , , , 2 , 6 4 6 6 6 6 6 8 8 8 8 t t 8 y t 8 8 y 9 g 9 y y y y y y u i u u u u u p u u p u g u u u g u h y j g g g , # g g j h h h j j j k j k h j k h j j k k j j h j h h j h h h j j k h h j j k h j g j h j h j g h g h j k g j g i k h > @ & p X.i.6.~ e t k O = 6 4 = O   + : y p j h g k k j g k h k h z g k h k k k j h z k k z j j k j h k j k k k j h k z h k j k j k h k h k h h z j k j h j h 8 @ 2 k g g j h k j k k k z j j z h j g k k h k k h k z k h j j h k k k k j h h h h j j k h h j k g k k h h k j u j h p s u u : +   & = ; 6 y # , z 0 i { 4.} 6 & O % 6 , : 8 6 6 6 8 6 8 t t y y 9 8 y 9 y 9 u u y y y p y u y u y p y u u y u u i u u y u y i i y i y y y t 8 3 2 6 2 * + t u u u u u u u i g u g u p u g u u u g u u u u i y u y u u i u i p u y u u y y u y y y y y y i i u y t y y y i y h 6 > * & * F | d.5.{ k y - k S X.4.;.b & & 2 2 8 8 y 8 8 3 3 8 8 8 8 8 y 8 3 8 8 8 8 y y 8 8 8 8 8 8 y d < y 3 8 t y t y t y y 3 8 3 y y 8 d 9 d 8 8 8 y 8 y 3 8 # # 2 6 6 6 t ",
"F t y Z 8     + X X   X + + # # 2 2 3 8 3 y y y e y y t e t y 8 y 8 y 8 d 9 8 g 8 y 8 y y 9 9 d y y y y y y y y y y i t i y y y y y t y i t y y y y O @ 9 9 d g y y y y u y y i u i y u u y i u u u y i y u u i u y u y y u u i u i i u i u u u u i u u u i u u u y y y y t 6 ;     X # = = = * =   % 4 6 6 , , % % #     O % 8 , < 4 6 4 8 6 8 8 6 8 8 t t 8 y 8 8 y y y 9 y g 8 g 9 y y u u y u i u g u g u j u p u p u u u u h y j u g g , % g g j j k j z j h h h h z h h j h h h h j k k j j j j k j h h k j j h k h h k k j h g h g g k g g j h g g g y y 8 > * e { q.4.~ y t h I 2 O u 4 4 4 : #     + t y i g k g g k h k g k g k g j h j h k k j h k h h k h z h k h z k h z h k h k h h h k k k j h h z j h k j h k j j 8 # 2 h h h k k h z h g g k k k h h k k k j z h k k h g k h k j z h k h k z h h j h k j h j k k g k g k j h j j g u u p y 2 =   + % : 6 6 6 6 O = u j z q j =.w.Q & O @ 2 4 = 6 , < 6 8 8 8 t 8 9 y y y u u u y y y i p y p y y y y u u u u u y p i u i y u u y u y y y y y t t 8 2 6 2 & + t i u u y i u u p u p u g i p u p j u g u u u u p u u y i u i u u y y y y y u y u y y y i y y t y y y t y i y t q # O @ 1 c  .9.f.X.c u y ; ; G C p x O.u.:.e & * 2 2 3 3 8 3 3 8 8 8 y 3 8 t 8 8 8 8 8 y y 3 8 3 8 8 8 y 8 y y 8 e y e 8 y e y 8 8 3 8 y y 8 8 8 y 8 y 3 9 8 3 8 8 * * , 6 t t 6 ",
", g k 9 , X O   X X X X O +   + > , 2 2 3 y y y 8 t e 8 8 y e y 8 y 8 y 9 8 y 8 y 8 y y 9 d y y t i y y y y y y y y y y t y y y y i y i y y y y y y * @ 8 y y g y y y y y u y y u y u u i u y p u y u u u i y u u u i u u y u u u y u u i u u u i u u y y u u y g y y y 8 4 & O o o + % = = ; ; %   # = = 6 ; 6 , 2 8 8 # O O # , 6 < < 8 4 8 8 6 8 8 8 y t y y y 8 y 8 y y y y g 8 y y y u i u i p u p u u u g g u g u g p g p p y j p g i , # g u j k h h h h k j k j j j h k j k j k h h j h z h h h j k h j h k j h k j j h h j g k g k g g g h j g g i y 8 @ - H 6.w...n r Z S y L 6 O , y 6 4 4 6 4 & O O 2 8 y g h k k k g k g k g k g k z h j h k k h j h k j k k k h j k h j j k k k h z j h k k k z j k h k k h j k h g 6 & 4 C j j g j k g k k k k h k k k k g h k g g z j k k g k k h h j k k h j k j k h j k h h h g k g k h j k h k g i u t 4 & O # = : , , 6 8 y % 4 h i p j j y m ,.6.P & O % < , 6 6 8 8 8 8 8 8 y y 9 9 y 9 u p y y p y p y u y u y i u y i u u y u y u u i u y y i y y y y y t 6 2 6 4 = = y u y i u u u u u u u u u g u g u u u u i p u u u u i u u y u u y p y u i y y y y y y y y y y i y y t y y y y ; 1 X > y L 3.j.&.R k y y h u & y C y y p H =.6.` 0 O & 2 < 8 3 8 3 y 3 8 8 8 8 y 8 y y 8 3 8 8 y y 8 y 8 8 8 y 3 8 8 y t y 8 y e y y y 8 8 8 3 y y 3 8 y 8 d 8 8 8 8 # # 2 6 6 6 t ",
"3 y k j *     . O + + + O # + O   O # 4 < 8 8 8 t 8 8 3 t t 6 y y y 8 d 8 y 8 8 y y 8 d y 8 g 8 i t y y y t y y t y 8 u 8 9 y y y y y y y y y y y y @ # 7 u i t y y y i y y p p y y y i y y y y y u u y y u y p y u u y u u i u y u y u u u p i y g y y e y p j 8 9 8 , X     + = = = = = 4 = , % O # , < < , 6 2 ; ; t C p ; O   , 9 6 6 y y 2 u 6 6 u 9 6 6 9 y y y y y y y y y g y u u u i u u i u u i u u u u u j u g i u g u 9 g u g u , # g g g g j h j h h h k h h j j k h k h k j j h k p h k k p p p p k h h h h h j k g d g h j k j i d 8 g k g 2 * & x ,.u.X.z g k k j k z z 3 @ 2 9 8 8 6 6 6 : ; :   O = y p g g i h g l k h h k k p j h h k j h z k h z j j h k j h j h z k k j j h k j z k k z h h k h h k k j h h 8 & 4 h h k k k h h j k h k h g g k g h l h j h h k g g h k g k j k j h h k j p p p h h k p j k h g h h k g d 7 9 9 6 # + & % = = , , 6 6 8 8 O , g g g g h p p i I 4.,.k & & % , 9 y 8 8 y 8 y 3 8 y h h 8 8 y y y y y y u y u y u p i u u i y y u y p y u i y y y u 8 y 8 3 8 8 8 2 ; + = 7 i u u i u i y u j u u u j u u p u y u u u i u u i u u i y u u y y p y y y y y y 8 u u p i y y t r r y y 6 = X   w N 3.s.4.( p i j u g p 9 * u z h u y y k ! | 6.F 3 O & 8 3 6 8 6 t t 2 8 g 9 , 3 8 8 3 8 8 8 8 y 3 3 3 8 y 3 y 8 y 8 y 8 3 8 8 8 y 8 3 8 8 3 8 8 3 3 3 8 d 8 3 8 + + ; 8 6 t 6 ",
"y y h j =         O O O X X + + # O * @ % , < 9 3 3 8 8 t y y y 8 8 8 9 8 d y 8 y 8 8 9 8 y 8 g y y y y y i y y y y u 8 y y y 9 y y y y y y y y y t @ # 8 t i p y p y y p y y y y i y u u i p y u i u u u u i y i u i u u y y u u i u u u i u y g y y y i p p y 8 , #     + % : = % = = , = , , ,   > 4 , 6 , < 6 6 6 6 6 u s S 6 +   4 9 2 , y 8 8 y 8 9 y 9 8 y y y y u y u u y y y u y u u y y u u y u u i p p u u u u u p u u u j i g h % # i i g g h j h j k j j k h k h h h j h h h k h j k h p h k h k p j h j j j j h h z h g d g 9 g z h h g < * & x { t.#.K x j h k g j g z Z 8 * 2 y y 8 8 8 6 6 4 ; , #   O 4 u g u g g d h j z k k j j j k h j j h k j k h z h h z k k h j h j h z k k h h h h j j h j j k j h j k h 8 & 4 C h j k j j k k j h j j h k g k g k k h k j g k k g g k h h h h k j j h C h p j h k k p y h h h g d j h u 4 &   O # 4 6 , , , < < 6 8 y # , y g g g h u p c r e ( q.X.3 # , < , 8 8 8 u 2 8 8 8 8 y y k y i p y i u p y i u u y i u u u i y u u y u y y u y y y y 9 8 y 8 8 6 2 6 & & t u y u u y u u i u u u u u u g u i u u y y u i u u y u u u i u u y y y p p y i u y 7 t i i p p i h 3 * 3 , & ; z o.8.t.{ k y p k j y h h 8 * j c 9 u y y p c P ! <.{ k @ O , y 6 2 , 3 y 8 % 6 h 3 8 8 8 y 3 8 3 8 3 8 8 3 8 y 3 8 8 3 y 8 y 8 y 3 y 8 y 8 y y 8 8 8 8 8 8 8 8 8 6 = # 2 6 6 6 t ",
"3 y k g *     . +   X + X + O # # @ O O O * , , < 8 8 8 t i y y 3 8 8 y y 8 8 y 8 y y y y 8 d 8 y y y y i y y y y y y y 9 y y 8 t i y i y y y y t y & # 7 y i i y y y u y y y y y u y u y y y u u y p i i u y p u u i u i u u i u u u y y y u y g 8 y i p y 6 2 # O O   # = , = = = = = = , , = ,   = 4 6 6 , 6 , 6 6 6 6 t p D J h * O & 8 9 8 < 8 y u 8 2 y k y y y i y y y y y y i i i u u i i u u i y u u u u g p u u g u p u y h u g g , # g g g g j h j h j h h h k j h h k j h j j k j h k p h h p h h k j u g g j g g g g d g k C h 9 u y p t @ 2 / 1.5.~ x e j F F k h k k k z 8 @ 2 u y 9 y t t 8 6 4 6 = #     = 6 u g h h g h j h j k h h k h k h j z h k h k j z h h j k k h z h k k j k j k k h k k j h h h j h h h 8 & , p p j k j h h h h k h k k j k g k g k g j k k g g k g k k k j j h j h k k k h j p k h h h g y g h B y 6 , &   O = 6 , , , , , , 6 6 8 y X 2 u g j g j h t i c c i k ) >.I 2 @ 2 2 6 8 = 8 y g i 8 8 8 8 y y y y y u y y y u i y u u i u u y u y p y u y y y u 8 8 d y 8 8 8 2 6 2 + + 6 u y u y u u u u u u u u u u u p y u u u u u y y y y u y y y u y y y y i u y y y t u i i y t 7 u : 5 2 @ & r  .e.u.O.M d j j p t j i g g 8 * j c u u y i y e i e P { ,.) y & O ; y 8 , 2 8 u 8 2 8 8 y 8 8 8 y 3 8 8 8 t 8 8 8 y y 8 y 8 3 y 8 y y 8 8 y 8 8 8 y 8 8 8 8 8 3 8 3 8 + & 2 6 6 t 6 ",
"e 3 g g ,     . O + # # # & # X # X O O O @ # * , 2 8 8 8 8 t 8 y 8 3 8 8 8 y y y 8 y 8 8 y 9 y y e y y y t y y y y 8 y d y 8 g y y y y y y y y y y # + 8 y t i y y y y u i y p y y y y y p y y i u y u y u p y y u u y y u y u u u y y y i u y g d y y y 6 = O   X # % , , = O = = = = , , 4 4 ,   = 4 < 6 2 8 6 6 6 t t t 6 2 k ~ ) g @ * 6 < u 8 6 6 u p y t y y y y u y i y y g y u u u y u u y u u u u u u p u g u u p g u u u j i g y > @ i g g g h j h j h j j h j j j h j h z j h h j k p h p j p j p h g g h g g g g g y z B g 8 9 u B 2 O & H 6.y.] l i j k k j g h z g j h z 3 @ 6 9 y 8 y y 7 y t 6 4 4 6 4 X O # = < y z B j p h k j j h j j k h k j j k k k h j k z k k h j k k k z h k h j k z h j h k j h j k k g 6 & , s p h k z h j k h j j h h h g k g k g k h h g k k g k g j h h k h k h j h j p p p h p p z d 8 g p y $     & , 6 , , , = , , < 6 6 6 8 9 X , u g i g h p c p e p x p z J | =.m & , y 6 9 8 8 6 < y g g y y y y y y y i y u y y p u y u u y y u i i p y y y y 9 u y y 8 8 8 8 8 , 4 & = t y u u i u y y u i u i u i u i i i p y y u i u u u y y y u i i y i i y y y y i p p y y y u y 7 6 # % & ; ! 9.a.#.H j 3 i z g y g j y h 9 8 * u z 9 9 i i i i i i 1 f ~ =.O.J q O   6 7 6 2 6 t 3 3 8 3 3 3 3 8 8 3 8 3 8 8 e 8 8 3 8 3 8 8 8 8 3 8 3 8 3 3 y 3 8 e 8 8 d 3 y 8 8 6 = + 4 6 6 7 q ",
"3 8 g g * O     + + X O X # & + + + X # # O @ O * % , < 6 8 y 8 8 8 y 8 8 y y 8 8 d 8 8 y 8 y y y y y t y e y t y 9 y y y y 8 d y y t y i y i y y 8 @ @ 7 y y i t i y y y y y y i u y y y p y y y y y u y i u u i y y u y y u y y i y i y u u i g g 8 8 ; + X   # # # > = = % , = = # , , , : , , O = 6 6 8 6 t y 8 6 2 t u t t d 3 b } ) 2   , = 9 g 8 t j j q y y y i y i u u u y y i y y u i i u y y u g u g i u g u u p i u u u g i g g , # i y g g j g j h j h j h h j h j k h k h h j h h h p j p g p j p j h j h g g j j g d 3 g g g 2 & & c #.6.} S y k j b b j g k k k k h j z 3 @ 3 y y y y t y y t t 6 4 < 6 6 $ +   # , 8 u g g g j h k h h h k h h h h j h k j h k j j k j h j j h j h h k k j j j j k j k k h h k h 8 & , h h k h j h h k h k j j j k k g k g g h k g k g k g h k k h j h k h h k h h p p p k h h u g j 6 = + O + = , 6 6 = = : 6 4 6 6 8 8 8 y y X 6 i g p h h u y z F B y i i p x P <.:.y O ; 8 y 8 3 2 6 y u u y y y y y i u y u y y y u y i p u u p y p y y u y h g y 9 y 8 y 8 8 6 2 , * ; 6 u u y u y u y i u u i u u u i u u y u u y u u i y y i y y y i u y y y y y y t y p t 8 t p 7 2 & & 0 v ;.u.6.~ j 8 j h y < y g d i y g u 8 * g c 8 8 y y y i y g f e e i Q =.X.S * O & 2 y 6 6 y 6 6 3 6 8 3 8 3 8 6 t 3 t 8 8 8 3 8 3 y 8 8 8 e y 3 8 8 8 3 y 8 8 8 8 8 8 8 y 3 t + + 2 t 6 6 6 ",
"8 e g g >     . O X & + # + X + # + # # @ @ @ @ O O * , 6 6 8 y 3 y 3 y 8 3 8 3 8 9 d 8 8 y 9 d t y y y y t y y y d 8 y 9 y 9 y y y i y y y t y 3 y @ # 8 8 y y y y y y y y y i y y u i y y u i u y y y y y y y y u y y u y y u y y y u u i y i y 8 , # O   + + % = = % # % % , = , , = , , 2 : 4 O = 6 6 8 6 t 8 8 8 y t t u p ; i t 8 L *.) 6 * # 2 i y 3 t k p y u y y u u y y y u u u u u u u u u u i i p u g u u p u p u g u 8 j i g u , # g g g g k g h j h j h j j h j h j h j j k j h j h p p h h h p h h j h j g g g h h 9 t j i , - y o.3.#.F y F G k h g g l S Z k h k g j Z 8 @ 6 u p t y y u y y y 9 8 6 4 < 4 : = # O + , u h u y j j j h j j j h j k k h h h j h h h h j k h k h h j h j h h h k j h h h j j h j g 6 + , C g g k j h j k j k h k k g g k k h k g g k g k g k j h j j h h j j j j h g p h k h k g y y 6 = + + # = 4 , = # , 4 6 6 6 6 8 8 8 t t u # < u g j g p u l y y k Z k j j f e t ~ q.} 6 & * , 8 g 8 2 2 8 t y y y y y y y y y y p y u i y y y u i y p i y y 9 9 y y 8 e 8 8 8 6 2 2 + + 8 u i i u u u u u y y u u u y y u i u u i u u y p y u u y y i y y y y y y y y i y t p u 6 = & & ; n @.a.9._ h 9 9 h g y y g g g 8 i y i y 6 & d k g y 8 y y 9 y g g j p q q c ` *.{ k &   * 8 8 2 3 3 3 3 3 8 3 8 8 8 8 8 8 6 y 8 8 8 8 3 3 8 8 8 3 8 8 8 8 8 3 8 8 8 y 8 8 8 9 8 6 & = 4 6 6 t t ",
"3 3 i d ,       + O X # + # # # # # + # # & # @ O O # @ = , 6 6 8 8 8 8 8 8 y 8 y 8 y y g y g 9 e y y e y y y y 9 y y 9 d 8 y y y y y y y y y y e 8 O @ 7 y t i t y t y y y y t u y p y y y y y y y u y y p i y u y y y y u y y y y i u y y t t , % O O O + # = + # = , , , = = : , , , , 4 4 2 6 + , 6 6 6 6 t 6 8 y u u t t t k 8 6 y g g I =.H 2 O ; p u 8 8 u i y y y u u y y i y u u y y u u y y u u u u p p g u g u u p u u 9 g p g h , % g g g g g k g h g j j h h j j h p j j h j h j h j h p j p h j g g g u g g g g g g h k 3 & & W 3.O.I k j h g h B Z k h j g d g k g g j C 3 @ 6 u u y y y u u y 7 y y u 6 : , 6 9 = & + O , 6 8 y h j h j h j p j j k k h k k j j k h k k j j h j h h k j k j j z h k k j h h k j g 8 & ; p u j j h j j h h h h j g g k g g k g k k g h h k j k k j h p g h j h j j p h j p p i y 6 , + O & , 6 , , , = 6 6 6 < : 6 6 8 t t t u u # 6 u h j g u u i z k 8 y C C j c c k i k X.;.J > * > 8 y y y y i t t i y y y y y u y u y u y p u y i u u y y u y d y g y 9 8 8 8 8 6 6 : = + 8 i u u y u i i u u i u y y u u y y u u i i u u y y y y y t i y y y y y y t y y y 6 y 7 , & * k ! 6.4.O.F i i h y g 8 y h h y 8 h g y u u 8 & i k g g g 8 y u y y y 6 6 k p t i S { ..Q e & & , , 2 3 < 8 3 8 8 3 t 8 6 8 8 8 y 8 8 y 8 8 8 8 8 8 8 8 3 8 8 e 8 t 8 8 8 8 8 8 8 8 t + + ; 6 t 6 6 ",
"8 8 y i %       + X + + # # + # + + # # = # # * # # # O & # ; % 3 8 3 8 3 8 8 y 8 y y 8 8 8 8 y t y y t 8 y e 8 y y y 9 y y y 9 y y y i t y y y y y @ @ 8 t i y y y y i i t y i y y y y i u u y y u i y y y u y u y u i y y y u y y y g y t 3 3 X X   X = = , , $ = = % = = , , = , , , , 2 4 : 4 & , 6 6 y 6 y y 9 6 6 t t p y 8 u p y t i j j } } H & O 3 j 8 y y y p u i u u y u y u i u u i i u u i u u g u u u u p u i u u u u h g g u , X y g g g g g g g g g p j g g u g j g h j h j h j u u u u u p u u u g i u g i i g 9 8 O @ b 6.5.^ z p y k C h h g u g C k g z k g k g g z 3 # 6 u p p y y p u u u j i 6 8 y y 8 ; 4 4 = +   & , i j h j h j h g h h h j j j h h k j h j h h k h k k j k h h h j h h j h j k j k h g 6 + : p u k j h j k h j k h j h k g k k g k g g k k j g h h j h j j h j h j h u p u p u u t 6   X + # # , 6 ; : , 6 , 4 4 6 6 8 6 t y t t u 7 # 6 u j j g u u p p h h u u p k p i i k i i F ;.*.z * @ 2 3 6 y y y y t i y y y y y y i y y u y y y y u y p y i g 9 9 y 8 d 8 y 8 8 6 2 2 & = 6 u y u u y u u y u u i u u i u u u y u u y u y u y y y y y y y y y y y y i y y y y =     6 Q 7.a.=.I y y i g i d g g u y u p p t i 8 i y 8 & g k 8 y 8 y u h 9 y h u y y y i i y r P { } Z %   + 2 2 2 8 2 2 8 8 6 6 y 8 8 6 6 8 8 3 8 8 e 8 8 e 3 8 y 8 8 8 t 6 8 y y 8 8 8 8 y t : + : t : t 6 ",
"8 3 p y = O     X O O @ @ @ @ @ @ @ @ # @ @ # @ @ % @ # # * @ % , 2 6 8 y 8 8 8 e e y y t i y y y 8 y 8 8 y d y y y y y t e y y y t y y y y y y e 8 @ @ 8 8 y i y y y i y y y y p y y y y y y y p y y y u p y y u u u g u y y y d y y y y < +   O + & # = = # = = = = = = , = 4 : 4 4 ; 6 4 6 4 7 + , 8 6 t 8 t t y y i y t t y y i y y i u y u e F { X.k & & p y u y 8 y p j i u i u u u u y p y p i u i u u y u u i u y p i u j y u u g g % @ y u u u j p g u h p p h p h h p j p g h g h j g u g j h g j g i y p p i y 8 8 6 & & p =.6.[ k g k k k h j z k k g g k h k j h h C g g z 6 + 6 u i u u u u u i u y y y y t y t t 6 , , : ; #   . , 8 h h i y p c g j h g g g j k p k k h h p p k k h h k k j h h p j h p j p h p h 8 + , p p k g j j h k h k h k k h k h j p p p k h h h h h h j j p p f k k g 9 g g g h 9 4 +   = = = = : , , , , , < 6 6 6 8 8 t 8 q t y y y y + 6 y y g g g h p h p g h p k p j h j h j h j h P o.{ j & ; t t 8 3 8 8 8 g 8 8 y y t y y i y y y i u y u y y y y y y y y e y t t 7 6 6 4 = + t y y y u i u y y u i y u i y u i y i u y u y y y i y i i g g y y e e i i 9 9 4 $ & & 1 m &.r.,.! p i u u y u u i y i u u y y y y y y 9 g , * y g e y y y y y y y y y y y y y i y y 3 g I } ` k &   # 4 2 6 t t 6 8 6 6 6 8 8 6 6 8 8 8 8 6 8 t 8 8 8 3 8 8 8 8 8 8 8 8 6 8 8 8 8 7 = & 6 7 6 t 6 ",
"3 8 p 7 = O     O X @ @ @ @ % @ @ @ @ % % @ @ % @ % # # @ @ @ % # * , 2 8 9 y y y y t e e y t y 8 y 8 y y 8 9 y y 8 y t y y t y y y y e y t t y 8 y O # 9 8 y y y y y y y y y y y y u y p y p y y y y u y y i y y g y y 9 y y g y y y , @     + & + # = = = = = = = = , , , , 4 2 : 2 : 4 6 6 4 6 O , 8 6 y y t y y y t y y i y y y u y y y y i p p k I X.*.k O ; 6 u h h u p j i y y p j h y y u u u y y u i u u y y u u y u y u y h i u g , * y i u u p h h u h h h p j p p j u g p u u p p u h g y y g h g u z j e i h u , O 3 ` 4.| F g j z j h k j h h j h g k k j h j k j h g g z 6 = 8 u y u y u u u p u i y i y y t y 7 8 8 6 6 , = = & + * 6 y k z j y h j k k h g g u h h p p k k h h j j h j h h k j h p p h p h p j j 8 X % k p h g h k h j j z k k p p p p h k h k j j k j k h j h j h h j g y h g y h g , % X # = = = , , , 6 4 , , , , 6 6 8 8 8 t e y t y y y y X 8 g y k g g h j j h p p j h h j p h j h j h j d k ~ =.) 2 & ; y y y y t < y g y t y y g g i y y u y y p y y p y y y y y y t e t 6 6 6 2 & = 6 y u y y p y u u u u u i u u u u u y y y p y y p p y y y 8 i g j j y t 3 8 , # & @ k ;.9.,.` b y i i i u u y y u y i y y p y y p t y 8 u 2 = 9 h y y y y y y t i y y y y t i y y g 8 d g Z H Q ` 9 # O % 6 2 2 8 2 6 y y 6 6 8 y 8 3 8 8 8 8 8 8 8 3 8 3 8 e 3 8 8 8 8 8 6 8 8 8 6 + & 4 6 6 6 t ",
"8 3 u y =       O @ @ X @ @ @ @ % # @ @ @ * % # @ @ @ @ % @ % @ & & # * , 6 y 8 y t y y y t t y y 8 d 9 8 y 9 d y y y y e y y y y t y y y y t y e y @ @ 8 8 i t y y y y i t i y y i y u y y y p i y u i y y u y y i y y y y y 9 9 , * X   + # # = = = = = = = = = = , = , , , , ; 4 2 : 2 6 6 6 6 O , y 8 8 8 e t y y t e y y y y y i u u y y u q i y 0 k ( } ) ; * ; y h g 6 2 8 u h g u i u y u y y u u u i u y u u i u u u u u y g u i u , @ i u u u h p p u p h p j h p h p p i u u u u u u j g g j g g y y 6 y j p , & 3 F ;.} H j i k z l h z h z k k h k k g g k h k j j C g j k t + 8 u y u i u p u u u g y u y y y 7 y 8 8 8 6 6 4 , = @ X O # 6 u p p g u g g k k h j k p p j p h h h j k k j k j h j p h h p p h h h j 6 X , p p k h h k k j j h h j k p h k k p p h h k h k j j h j u j j h u y u j g < * O + + = $ , , , , 6 6 , : < , 6 6 6 8 t 7 e 8 t y y y i y # 8 g i h j h h u u h p h h p h j h j h j h j h j k g j ) ;.( & & 2 t t y y y t y t y i u u y y i y i y y i u y y y y y y t t y 6 t 2 2 ; + = t y y u y y p p y y y u p y y y y i y u y y i y y y y u u y t y t g 8 3 , * * ; e { ,.3...J i i g y y y y y y y u y y y y y y u y t y 9 h , * y g y t y y y y y y y y y y y y y y 3 y y < e i H ( ' Z >   & , 6 , 6 6 6 6 6 8 6 6 6 8 6 8 8 8 8 t 3 3 8 8 3 8 t 8 t t 8 6 t 8 8 t 8 # + 6 ; t t 6 ",
"3 8 u y =   .   X X @ @ @ % % @ @ @ % @ @ % # # @ % @ * @ @ @ @ @ X & # # , , 6 3 8 t 3 y y y y 3 8 8 y y 8 y 3 t y e y y y t y y e y t y e y y y t @ @ 8 y t i i t t i y y t y u y i y y i y y u y y y y p y y y y y 9 y 9 8 8 % @     # = # & # , = , = , = = , = = 4 , , , 4 6 : 6 t 6 6 6 6 t + , t 8 y 8 y y y y y y y y y y y y u y y y u k h p t q i F [ O.F > & 2 u k p i u p i y u p u i u u i y u u y u y u u i u y i g y u u u u , # y u u p p j j p j p h p p h p j u u u u p u j u u g j h y y g g h h 2   & F } ;.` k e k b j g h h j j k k h j z g k h g j h k k p j g z 8 + 6 y i u u u i g g u g i u u p y u u 8 9 8 8 8 8 6 6 4 % # O + # 8 B u g p g g g j z p p k h p p p j h h j h h j k k j p p j g p j p j 8   , k k a p j j h h h j k z k h p k h p k h h j h j h g j h j i i u h g y 8 , @ O O * 6 4 , , , : 6 : 6 6 6 6 6 < 6 t t 7 t y t y i y y u y # 8 g y j h u p p u u j p h j p h j h j h j h g y k z y y S ` *.k > & 3 i 2 2 k e y y y y y y y y y y i y y y y y y y e y y t t 7 6 2 4 , ; + 6 y u i y i y y p y y y y y u y y y p t i y y u y 6 y y i g y t 3 4 < , * & 1 P ,.5.O.J x i p p p y u y u i u y y y i y i y i y y y y 8 y 2 # 8 g y y t y t i y y y y y y t i y y y y d y y i t y H ) ~ j #   # = y 6 ; , 6 y 6 2 8 6 8 6 6 8 8 t 6 t 3 8 8 8 e 8 6 8 8 8 8 8 8 6 6 + & , t : t 6 ",
"8 6 u u ; O     O @ @ @ # # # # @ % * # # # # @ * # # # # # # % * # @ & @ % % * < < e t y y t t 8 y 8 y 8 d 8 y y y y y y y y y y y t y t y y y 8 y O # 8 8 t i y y y y y y y y y y y y y y y y y y y y y y y i y y y h 9 6 # =     + + # + = 4 = = # = = , = , , , , , , , 4 6 6 6 6 : 6 6 6 8 8 O , 9 8 y 8 y t i t y y y y y y y y u u y i u p t t z k y 3 y P #.X.u & ; y y k i y y u h p t u y u u u y y p u i u y u i y u h y u i u u % # y u i u p h p u u u u p u g u p u u u u u u u u g i y t i y g h 8 @ & y ` +.` F y p c b h y g k k k j h k j h h k g h k j h h h j j j h 6 + t u u u u u j h u u g g g g g g u i g 8 8 8 8 6 6 6 : : 4 $ # + # = u h h h u y g h j p j p p h p p k j h h k j h h h p h p h p j p p 6 X , j j g h g h j h h h h h p j h h h h k h h j j h g g j g h h y u u 9 , # O & = ; = : : 6 , , 4 , 4 6 4 6 6 6 6 8 8 y t u y y y y y i u u # 8 h y p g u h u u i g u p g g j p g j h h j p Z 8 8 g k i c W =.L 2 @ > i y e y y y y y y y y y y i y y y y y t y y t y t t e t t : 2 , & + 6 y y y u y y y y i y p y p i y u y y y y y y y y y y 8 8 y y 9 y 4 O   2 K X.,.8.P v x i g g u 9 u y y y u y u y y y y y y i y y y 9 8 u , * 8 g 8 y y t y y y y y y y y y y y y g y 8 y i u y t e j H [ Y 8 &   # * 2 6 6 6 8 y 2 6 6 8 6 8 6 6 3 6 8 3 3 3 8 3 8 8 8 8 8 8 8 t 6 # & 4 6 6 6 6 ",
"8 6 u y =       X @ @ @ * # * # # @ @ # % # # > % # % * # * # # # # @ + @ @ # # % , 6 8 y t t t 8 8 8 3 8 8 y 8 e t y t y t y e e y y y y y e y y 8 @ O 8 9 i i y y i y i y y y y y y y y y y y y y y y y y y t y t 8 8 : = O     + = = , , ; = = = = = : = , = , , : , : 6 ; 4 6 6 6 t t 6 8 8 9 * , 9 8 y 8 y y y i y y y y p y u y y y y y u t i u i y y g l i e I ,.{ , O 3 t y p h u y i j u i y u u i p y y u u i u u u u y y u y y u , X y u u u j p h u g g i u u u g u y u u i u y u i g 8 3 i k y 2 & & 2 H :.| b y p c k i i g k k k j h k h h j k j h g h j h j h j p g g z 6 + 6 u u u p j p p j u h g g g g g g u g 9 y y y 8 8 8 8 < : < : # + O % : 9 u h g g j p h p h h p g h j h j h h j j h h j p h p h p h h 6   , h j j h h j h j j z j k p p h p h p p p k j h j j g g g p h p y 6 # O + + + : : 4 4 4 , 4 4 4 6 6 6 6 6 8 8 8 8 8 y t y y y y y y y i u % 8 y g p j u p u u u u u p h j h g h j h j h j 8 k z g i p p q i ) =.K * @ 2 3 8 e y t t t t i y y t y y y y y i t y i y y t t 6 6 2 6 2 # * 8 y y y i y p y p u y y y y y y y y y y y y y y y y y y y 8 6 = & * * p ) 6.6.` x f p y y y y p p y y i i y y p y i t y y y t y y y y 8 u 2 # 8 d y e e y e t y y t t y y i t y y 8 8 8 8 y i y p j 3 2 k T ) C 6 O @ * , 6 y 6 2 2 8 2 8 6 6 6 3 6 3 3 8 8 8 8 6 8 8 8 8 6 8 8 6 6 # # ; 6 6 6 t ",
"8 6 y y =       X O @ @ X # % # % # % * % # % # * # # * * % # * # # # # @ @ @ * * # % , 2 6 t t 8 8 y y 8 8 y y y y y y y t y t y y y e y y y 8 e y @ * 8 8 i t y y t u t y y i y y y y y y y y i t t i y y y i 8 3 2 # & + X O = # + + ; : : + # , , = , = , , , , 6 , 4 4 6 6 6 6 6 6 t 7 y 7 8 X , h 8 y y y y y y y y i y y y y y u u y y i g j g i y u i 8 k p e j ` ,.~ - 2 2 y h u t y h y u u y i u u u u p i u y u u y y y g i y u , # y u i u h h u u p u u g u p u p i u u y i u i u u y i i t , * * F X.X.K i b K j g i g z z g u g j k j h h h h h j h j h j h j h h g i j 6 + 6 u u u u p p h h p g g g g g g g p g g d y 9 y t t 9 8 , , 4 4 = # O O % , y g h j h j h p h j g g h j h j j h j j p j p g p h h j j 6 O , p p h g j h j h j g h h j p h p p j h p h j j h g g g i u y 6 , & + & = 6 $ $ : : t : ; 4 4 6 4 6 7 6 8 8 8 y 9 y t u y y y y i y u y y # 8 u y g u u u u u g p u p u p j h j h j h j h k j g g h u p j p 3 j ) { c ; * > 3 t y y y y y y y y y y y y y t y t y t t t t t 6 6 ; , & # 6 y y y y y i y y t y i y y y y y i y y y y y y y 8 8 y 8 4 * & + 0 Q 4.6.[ S y y g y g h h u y i t i y y y y y y y y y y y y y y 8 g 8 y , @ 8 g t y 8 e y y y y i y y y t e y y 3 y y g y 8 t t y u i 2 2 C U ( y 4 # & , 2 , , 6 6 6 6 6 6 6 8 6 3 3 6 8 6 3 8 8 8 8 8 y 6 8 8 6 # & , 4 6 6 t ",
"6 t u i =       @ O @ # # * # # # * # # * # * % # % # # # # # # % # * # % @ @ @ X @ # * ; 6 t y e 8 8 8 y 8 8 8 t y y e y y y y t y y y y t y y t 8 O # 8 9 y i t y y y i y y t y y y y y y y i y y y y y y y y 3 2 @ O   X # = = = ; : : = = ; , : = = , ; , , , 4 , : 6 6 6 4 6 t t t t t t t 8 # , y 8 y y y y y y y y y y u y u y y i y y g d y y y u u i i i i j g i c ) ;.p * & 2 k h u i u u i u u y u u u y u y u y i u i y u y y u ; X y i u u p j p u g u p u g u g u u y u u i u u i u i p ; @ & j _ +.P k x j y u h j k k i 9 k k j h h j k j j z h h j h j h j h j p g p C q + 6 y u u u j p h g j g g j g g g g g g y y u u i i y < 8 8 8 6 6 6 , % O O # 2 y j i p u u u p g u u j h j h h j h h h p h p j h p p j 6   , p p g g h j h j u j j h p p p k h p h p j g h j u g g j y 6 &   X # = $ $ 4 6 2 : : : 2 6 4 6 6 6 6 7 6 8 9 8 y 7 u y y y y t i i y y u % 8 u i g u u u i u u u u g g u h j h j h j h j x p g g h h u u y z j i S ` ( y & * 2 e 8 e t t y y y y y y y y y y e y t t q t 6 6 t : , & # 6 y y y y y y u y y y y y y y y y t y y y y i y y 9 y 6 # O * 8 C 7.7...H i g g u u h h 9 i t y p y y y y y y y y y i y t i y y y d 8 8 i , # 8 g y t y y t y 8 y t y t y y y y t i y y 8 8 y y y 8 6 8 i p t i z Y F y # O & , 8 6 2 2 6 3 6 6 6 3 6 6 3 3 3 8 3 8 t 6 8 8 8 8 6 6 # + , 4 2 6 2 ",
"t 6 u t = &   X O # @ * * # # & # # * % = = # # = = = # + = = = * # % * # # * # = # # & + # , 6 8 8 8 y y t e y 8 y 3 8 y 9 8 y 8 y 8 y 8 y 8 y y 9 X @ 8 y y d i y i y y y y t y y y y y i g d i y t y y y 6 6 .     X + # * = + = = = = = , , # = , , , , , , ; ; 6 2 6 6 6 3 6 8 8 6 8 8 t 9 8 @ 2 y 3 y 8 y y y y y y p y i i y y p y i u y u y u u i u i u u i y u i p h j o.] x * & i C u 8 i g i y u p u i u j u y y u u u y g i y h % # y p y y i u i y g g g i y y g g g y y j j y y p 9 , O & y ! X.{ j g h j h p j p g g h j h j h j h j h j h j h j u g u g u g u u h u h h y & 6 u i u u u u u u u p u u p p u p u y g u i y u y y 8 8 y 8 8 8 6 6 , , = +   + , 9 i g y g g g g g i p p p k k u u p h j p h j p h p 6   , p p j g j p h p h p j p h h p p j g j h g g g g h 9 9 7   O & = = , , , ; : , : 2 , 4 6 < 6 6 < 8 9 y y y y t y y y y y y y y y y u y y # 8 h y g g u g u p u p u g u p g u g u g u g u i u u u i g u g p h h p y u F ) I 8 @ > y y 2 2 6 i y 3 t p p t y 8 y y 8 8 8 y 6 6 3 < , & @ < y y y y y i t i p y y t y y y y i t y t t y t t , % @ & ; x ..9.=.I k y g g y y u y y y y y y y y y y y y y y y y y y t y t y y y y y 8 , @ y i y 8 y 8 y 8 g y y 8 y 8 y 8 y 9 8 y 8 y 8 y 8 y y 3 8 8 y 3 8 8 r S U L 8 O O @ : 6 4 , 6 6 2 6 6 t t t t t t t 6 6 t 6 8 6 8 3 6 = # 4 6 4 6 6 ",
"6 e u t = +   . O X # # # = = = > # = = # = = * = # = * = = * # * # * # # = & = # # * # # # = , , 2 8 t e y y y 8 3 y 8 8 d 8 y y 8 d 8 y 8 y 8 y 8 X # 8 y t 8 y y y y y y y i e y y i y 8 8 e i y i y 8 2 # +   O O # # = = = = = = = = = , = , , # , , , : 4 6 6 6 6 6 6 6 t t 8 6 y 8 y y 8 9 # 2 y 8 y y d y y y y t i y y y u y y y y u y i u u y u u p u u u u i u u p p l I { I e & ; p k i 8 i p y t 7 y u u p i y u u p 8 u y y y > # y y y p y u u y u i g g g i g g y k k y t u u 6 # & , K } ` z r j g h p p j p h g j j h j h g h j h j h j h g p u i p u p u p u j i j h y O 7 u u u u u u u g i u g u g u g u g y u y u u y u i y y 8 y 8 8 6 2 8 6 6 = = + + & 6 y g h d 9 g k p p p j p h g u u p g u u u u u j 6 X % p i j g p h p j p h p h p k k h j u g g k y 8 y u 8 =   & # # , : , , = , 2 2 : 4 6 6 4 < 8 8 8 8 y y y t y y y y y u y y u y y u i u y # 9 u d g g u u u u g u p u g u u u p u u p u p u u g u p u u u i u j p i u p C S ) H * O * y y 6 ; 6 i u 8 0 i y 8 8 y 8 3 8 3 6 6 2 2 , X @ 8 y y y y y y y y y y y y y i y y e 3 y u u y 6 ; , & O e ` ,.+./ Z y 3 y j g d g y y i u y u u y y y i y t i i y y y y i y y i y i 8 9 8 2 # y i 8 y 8 y 8 y 8 y 8 y 8 y 8 y 8 d y 8 y 9 y 8 d 8 8 8 y 8 8 y 8 d u y u S K z < O   X , 6 6 2 6 8 6 6 6 6 t 7 6 4 6 6 3 6 8 t t 6 6 X & 4 4 4 6 4 ",
"t 6 u t = O   X & & & # = # # = = % # * = # # = # * # = = # # = # # # # # # # # & # = # * & # X = , , 6 3 y t y y y 3 y 9 d y y 8 y 9 d 8 8 y y y 8   X 8 t i y y y y y y y y y t y g y y y y y y 9 t 2 > X     X @ # # = % # = = = = # = , # , , , : ; , 6 2 4 2 2 2 6 6 6 6 8 8 8 8 y 8 7 8 9 8 # < y 8 y y y y y y y y y y y y y y u y y y y y p u u i y u u u u u u u u u p y q z { } G 2 & 3 t k g y t p C y y u u u u u i u y g i y i = # y y y i p y p u g g g g g g i i j 6 6 i k i ,   & c { [ G j i u h h p h h p j h j j h j h j h j p g h j h j h j u g u p u g j u h i g h 8 O 8 u u y i u g p g p g u u u g u p u u u y u u u y y y 9 y y 9 8 8 6 < 6 4 6 6 = X   O * 6 u g g g g p i p p p h u u p u p u u g p u j 6   , p p i g h p h p g h h p i u j h u u u u g i u 6 , # O O = $ , , , : , , : , ; 4 6 6 6 6 < 8 8 8 8 y y 7 y y y y y y u y u y y u u i y y # 8 g g g h u u j u u g i u u p p u g p p i g u u p u u u g u p j p g h k p i y k k H U F , & * 8 8 6 2 y u t 4 3 y 8 8 8 t 3 8 6 6 2 , , @ @ , i t i y y y y y t y y y y i y t h d 2 2 5 : : & & 3 P 1.6.+.H e 8 3 y g j g y i y i y y i y y i y u t y y y y y i y y y y y y y i 8 h 8 2 O y i y 8 y 8 d 8 y 8 d 8 y 8 y 8 y 8 8 y 8 d 8 y 9 y 8 y 8 y 8 8 y < t 8 3 y z Z C u = #   # , 8 6 ; 6 6 2 t t 7 6 6 3 6 8 6 6 8 6 8 6 # + , 6 : 6 6 ",
"8 6 u t = O   X X @ # # # = = = = = = = = = = = = = # = # * = = * = * = = = = = # & # = # # # & O @ * , 2 < t y 8 8 8 8 y 8 8 8 y 8 y 8 d 9 y 8 y 8 + + 6 u t y t i t y y y y t g y t e 3 8 8 y 8 6 , &   O O + % * # % = = , = = = = = , : ; , , , : 4 , 4 4 4 6 6 6 6 8 6 8 8 8 8 8 8 8 8 y y 8 # < y 8 y 8 y y y y y y y p u y p y i i y p y y y y i u u y p u u u y u i u y 3 c k ; C X.} x O , y y u C p 6 y i y y y u y y u 8 g y y g % O y y y y y p i i g y u i g y t t y y u y - O * y ~ ) U j y j h h p p j p p h p p g h j h j h j h j h j h j h j h p u g u p u u u h i g h 8 O 6 u i u u u u u u u u p u g i p u g g u u i i y u u g 9 y 9 y 9 y 8 8 6 2 6 6 6 6 , O   + ; 8 g g g p p i u p p j p u u i g p u p u j 2 X % p p k p j h p j p h j g u u u u u u p u 8 8 6 *     # 2 , 6 , , 4 ; 6 : 2 4 6 6 6 6 6 8 8 8 3 8 8 y y y y y y p y y y u p y y y u u i y # 8 g g j g u u u u p u g u g u u g u u u g u p g u g u p u g u k h p h h h u u g 3 y F Y F y = X 8 u 6 : 6 y y 8 8 8 8 8 8 < 8 6 6 6 < , O O 8 y y t y y y y y i y t y y y y t < 8 9 2 ; O & - m { <.O.H e 0 p g g g g g 8 y g y i y i u y u y y t i y t i y y t y y t y y y y i y 9 8 , O y i 8 y 8 y 8 y 9 g y 9 9 d 8 y 8 y y 8 y 8 y 8 y 8 3 y 8 8 y 3 8 y 8 8 8 3 8 y c H Z < &   & , 6 6 6 6 2 4 4 6 t t 6 6 3 6 6 8 8 6 4 & & , 6 , 6 6 ",
"3 3 u t # +   . # # & # = = = = = # = = = = = = = = = = = = = = * = = = * = # = & # # * # = * # @ @ @ @ > , 2 3 8 8 y 8 8 3 8 8 3 8 y y y 8 y 8 t 8 X X 6 t y y e y t y t y y t g y 3 8 9 y 8 6 % >     O # # # * # = # = = = % = = = , = : , , , , , , 8 , < < 6 6 6 8 6 t 8 8 8 8 8 t y 7 8 8 9 # 2 y 8 g 9 d y y y y y y y y y y y y u y p y p y y u u u u u i i u u u u i u C i i p p e F X.[ 3 O > y y y j u u i y y y y i g t g e y u = X y y y i i p u y g u y y y i y y j h 3 @ O 3 L ) ) x e p c z p y j p j p p h g h g p j h h j h j p g h j h p j p u p u g p u u p g y g g 8 + 6 u u u u u p u p u u u u u p i g u u j u i u u i u g g y u p 7 y y i 7 t 6 6 6 6 2 4 # O   * ; y p i i u g g u u u u u u u u u u u p 2   = p p g y p u u u u u u u h u 8 u h p u 8 6 %     + ; 4 = , , , , : 2 6 4 6 6 6 6 7 7 t 7 3 8 y y t y y y y y y y y u u i i y y u u u i u # 8 h g g j u u g p u u g i u g p u u u g u u u u p u g u p u g u u i y i u u h g k y 2 t K J F 2 # O 8 8 8 6 9 8 t 8 8 8 6 6 6 6 6 2 , % @ @ 8 i y y y y y y y y y 8 8 t i y 8 7 9 5 # O * x / 5.X.P x q t p k j i y t y y u g y y t y y y y y y y y y i y y y y y y t y y y t y t y 8 4 O t d d 9 y 8 y 8 g 8 8 8 8 y 8 y 8 3 y t y t y y t y 8 y 8 3 8 8 3 y 8 8 8 8 t y i y z k h < *   # , 4 6 6 6 2 2 t t 6 6 6 6 6 3 6 8 6 & + , , 4 6 , ",
"6 6 u t = +   X & # # = = = = = = = = = = = = = = = = # = = = + # = + # # = & = = = # # # # = = # # @ @ O * % > 3 8 3 y y y 8 y y 8 8 8 8 3 8 8 t y   # t t y t y y y y y y y y t e t y u 8 , #         * % = = = * = % = = % % , = = , , 4 : , 2 , , 6 , < 6 6 6 6 6 8 8 y 9 8 8 8 8 8 8 y y 9 8 * < 9 8 y y y y y y y y i y u i y p u y y y y y y i y y y i i y u u y y u u y r i p p j k p y U | I > O t k y u u u y u y u u y y g t d y % # y y y y y y y y u y y y u u i y t * & 2 S ) U F i p p k p y u k p h h p p h p h h j h j j h j h h p p h p h p h g u p u g u g u j y j u 6 O t 7 i u u u i g u g j u i p u g u u u u u u u y y u y g g i i u u y 8 y y t 6 6 6 6 < < 4 = O O = 4 t i h g j u u u i u y u i u u i p < X = p g g g u u u u g u g u g y u u p 9 6 # O + O % 6 4 4 = , , , : : 6 6 6 6 6 6 t t 8 t y y t 8 y y y i i y i y i i u u u u u y i u u i y % 8 y y j h u u u u i g u p u u i g u j u u u g g i p u g u p u y u p u u y y u d 8 g k k y h F L g * * 4 < 6 4 8 6 8 8 8 3 6 3 2 6 2 , % O @ , t y t y y y y e 8 3 y y y t 8 y 4 +   & d U O.1.P m i y j z p e u t t y y g u i y y i y y y y y y y t i y y y y t y y y t y y y i y 9 8 , O e t 8 y 9 d 8 y 8 y y 3 8 8 3 y 8 y e y e 8 8 e 3 y 8 y 8 y y y 8 8 8 8 y 8 y y q q t k S z 9 , @ O & # : 6 6 4 4 : 2 6 6 6 6 6 6 6 4 # X = , 4 4 6 ",
"t 8 i 8 = O   X # # * = # = = = = , = = = = : , # = = = # = = = = = = * # = # = = # # # * = = # # # * # * @ # * > , 2 8 9 y y 8 y 8 8 8 8 y 8 y y 8 X O 8 y t e t y y y y y y t e 8 y 8 4 = & X     O & = ; = & ; = = = = = = , = , = = , , , 6 , , 6 , 8 8 < 6 6 8 8 8 8 8 y y 8 7 y 8 8 y 8 y 9 * < y 8 g 9 y y y y y y y i i u y y y y y i u y u y u y u y u y u y u p i u y p i t i i i y p 3 g I } K & O 2 6 y u u i y y y u 8 g i y y , @ y t y y u y y u y y y y y y 6 2 O * i L U F g g f h j t y p k p j p h h j p j p j h j h j h h h p j p j j p p g u g u g p u g g g u p i 6 O 6 u u i u p g u u u u p g u p u p u u u u g u u u u g i i u u y y y 8 t t 7 y t t 7 , , 8 6 # + O O % < 8 u u u i u u i u i i u u i i 6   = p p u g u p j u i u g g 9 g u y 8 : + +   # , 6 ; , = ; , , 4 6 6 6 6 6 t 6 t t t 7 y y t i y y y i y p y y i y i u p u u i u u u u i y % 8 u y u h u u u p u g u g u p u g u u g u u u u g u g u g u g y u p p u u y i y g j h y y y y l H L i & # 2 y 6 6 6 t 6 6 6 6 2 6 2 , , @ O 2 y y y y y t y y 8 y 8 8 t 3 , >   & 3 K O.%.` b 3 y y e 8 y y u y u u u i u y y y y y i y i y y y i t y y y t y y y y e y y t y e t y 8 < @ 3 i y 8 y 8 y 8 d y y 8 y 3 8 8 3 y y 8 e y t y y t 8 8 3 y 3 8 y 8 3 y y 8 6 t t i t t i h k k < # + + & = 4 6 4 4 2 6 6 6 6 6 6 6 6 O & = , , , 6 ",
"3 3 u 8 - +   X # * # = = = = = = = = = = = = = = = = = = = = = = # # = = = # = * # * # = = * @ # # # * # # * * * * 2 8 8 d 8 3 8 3 y y 8 3 8 8 y 8 X O t y t y t y t e y t e y i t t 2 X       % % = = = * = = ; ; = ; = = , , = : , , ; : 4 ; 2 4 , 6 , 8 < 6 t 8 8 t 8 8 8 8 t 8 8 y y 9 y 9 8 # 8 g y y y d y y y y y y y y y y y u i u y y y y y y y y y y y y y i y p u u i p y i i p p y y y h C ~ ) k & ; 6 y i y y y y y y g e y i % O y y y y u y i y i y y y y 2 * & t F U K j y g g j y u k k i y p p h p g p h p h h j h j h j h j h p h p h h h j u i p u g u u g g y i p t + 6 y u i u u g u p u g u g u u g u g u p u u u u u i y y y i i u u u j i y y y y t 2 y , = : 6 6 , + O * , 8 8 u u u u u u y u u y u u 2   ; p y j h g u u u h g g g y y t 2 = & & + 4 $ % = , : 4 2 , : , 6 6 6 7 7 t t 7 t y y u 7 y y y y y i i p y p y p u u i u u u u y u u u y % 8 u i p h u u g u p u p u g u p u p u u u i h u u p u p i u u p u y y y i u u g g g i i u g u i e k P F 8 # & 6 t 6 t 6 6 6 6 3 < , , > @ @ < t y t y y y e y 8 8 y 8 3 * @   1 l o.$.{ F i 6 h 9 g y y y i y y y y y y y y y y y y y y t y y y y y y y y p y y t t y e y y q i 8 y 8 , O e y 8 y 8 y 8 y y 9 3 8 y 8 y 8 8 8 y t y t y 8 e y 8 d 8 8 8 y 8 8 y y < 8 y y y t y t 6 6 y g z Z = & O + = 6 6 ; 6 3 6 2 3 t 6 6 < O + : , , 6 , ",
"t 2 t 6 * +   X # # = = ; , = , = % , % > , , > % = = = = = = = = = = # = = * = = = + = # = * = & # # # & # # & # # * > , 2 9 9 y 8 3 8 y t y 3 y y O & 6 7 y y 8 8 y 8 t 3 i i < , @ O   O # # # & = & = # = = # = = = # , # , , ; , , ; 2 ; 6 6 3 6 6 6 y 8 8 3 8 3 3 8 8 8 y y 8 8 8 y 8 y 8 8 & 6 y t y y t i y i y y p i y p y p y y u y y y y i y y y y i u y p y y p y u y p u y u y p i g g i d g S U [ , = * t j h p t i 8 y 8 u 9 = X < y g y y i u y 6 y B q O O 0 H Y J h u u p u y g u g u u j g g g p g g g g g g j g g g u g g g u u g u p u p u u p u p i g u p h i j g 6 + t y y y i y u u u i g g g g g g j u u u u p u g u p i y u u i y y i u y u y y y y y t t 8 6 6 4 4 2 #   . + 6 u g y d p j p u u u u g 8 X > g i g h 3 g g h g i i i u : +   O * , , , = : , 4 ; 6 4 2 6 2 6 6 6 t 8 y t y 8 y y y y y y y y y y u u u i y u u u u i u u i y u u u y & 8 u i i j i p i u y u u y u u g g y y g g i u g g g y g y g y u i y u y u u i y u u y u y u y u y t y C K h 2 O & 2 6 3 6 2 6 < 2 , , , O # 2 y 8 e 3 y i e e 8 8 8 , & & > t U | $.L d y u 7 y y y y i u y u t i y y y y i t 9 y y y 8 d y y y y y e y y t y y 8 y 8 y 8 y 9 u t y 6 4 & t t y t t y e y 8 e y y e y t y e 8 8 e 8 9 8 y 8 8 y 8 y 8 8 8 y d 8 8 y 8 8 8 d 8 y 3 8 8 y 8 d 9 z d #     & : 6 , , , , , 6 6 6 4 O @ % , , , > ",
"6 6 p 6 =     X # # = = = , $ = , > , > % , % % , , ; = = = , = = = = = = + = # # = = * # = # = # # = * * # # = & # # # % , 2 < 8 3 8 3 t 3 e t 8 8 O O 8 y y 8 8 8 3 8 g i 3 , # O     O @ # * + = # = = = = # = = = = , , , , % , , 2 6 2 6 2 6 8 6 8 6 6 6 8 8 3 8 y 3 8 3 3 8 3 y y 8 y 8 y 8 # 2 y y i y i t y t y y t u u y y t u y i y u p y y p p i y u u u y u u p i u u y u i y p y u y y y 3 y g l z [ F 2 & * y h p 3 3 u y 8 9 = # 8 3 8 8 y u y 6 u 6 + O * c Y F S h u i u j u u g g g j g g g g g g g g g i j g u g g u g g j u u g u p u g u g g u g u u u g u h p g i 6 O 6 i i y u u i u u p g g g u g u g g g i g u p u u u i u u i u y u y u y y y y y y y t 6 8 8 6 6 ; 4 < , &     @ 2 y j j j j u i u 9 u ,   % y i y 8 h g e y g k i e # & + # = , , # = , , 4 : 6 6 6 2 6 6 6 t 8 8 y t t 8 y 8 y 8 y y y y y i y y y u y i u u y y u i u u y u u y y # 8 u i p p y y u y u y i u u y g y g g y g i d y y g g g g g i y u u y u u y u u i u u i u u i y i i y p p C z u 6 @ # , 8 6 4 , , , , % O X 6 8 y y y t y q t 8 4 @ & & i I X.{ U k 3 8 k C y y p y p y y y y y y y y y y y y y d 9 y 9 y 9 y y t y y e y y y 8 y 8 y 8 y 8 d y 8 u 8 4 & t y y e y 3 y t y y y 3 y t y t t y 8 y 8 d 8 8 y 8 3 8 y 8 y 8 3 8 y 8 8 e y 8 8 8 8 8 3 8 3 y 8 y e z k i %     # 8 < , , < 6 6 6 < @ X # > , , % ",
"t 3 y 6 = &   . * # # = = = = , % , , , , , , > , = , = , = # , # = = = = = = # = # = = = = = = & = + = # = # = # # # * # * = = , 3 8 8 8 3 t y 3 3 O @ 8 y 8 8 y e 8 8 8 3 *         X # # * # # = = = = = = = = = = = , , , , , , , 2 2 6 2 6 6 6 6 t 6 y 8 8 8 < 3 8 y 3 8 8 8 y 3 8 y 8 d 9 8 & 3 y y y y y y y y y y y y y i y y i i y y y y y y i t t p y p y y i y y y y y y u u y p y y y d y y y y y y h Y U j * & ; 3 j y i 8 y 9 = + 2 y g i 8 8 8 y + & * y F J S k u y i y u h j u g j g g g g g g g g g g g u g g g g j u g g g g p j u u g u p i u p j u u p u p g g j g 6 + 8 y u i i u u u u i g g g j g g g g u p u g u p u u y u u y y u u i y u i y y y y y y 8 8 8 t 6 6 6 , 8 6 % O   & = 6 8 u g g u y i i <   % g y y y d y y y u t ; O   O & = , 4 , = , , , , 4 6 6 6 6 6 t 6 8 8 8 8 y t y y y y y y y y y i u y i y u u i u u u u u u u u y i u i y # 8 u i i k u u i y u u u i i u i u i u g g g g g g g i y g u y u u u u i u y u u y u u u u u u t u p y t y g C C u 6 = * = ; 6 , , > , , O O 8 y 8 8 8 t 7 6 6 * & O ; F ` X.{ H g e t g y y u y y y i p y y i y y y i y y i y y 8 9 d y y 8 y t y y y y t t y d 8 y 8 y 8 y 8 y t 7 8 2 + t y 8 t y y 8 y y t y t y 8 y t y e 3 8 y 8 y y 8 3 3 y 3 8 y 3 8 3 8 8 8 8 y 8 y 8 8 3 8 3 8 y 3 y 2 i h k u 4 & O   # < 8 6 ; 4 6 , O   # % , , % ",
"6 3 y 6 * +   X + * = = = = = , * , , > , , , % , , , , = , , , = = = = = = = = * # = + * # + = # # * # = + * # # # & # # @ # # @ , < g y 8 t 8 8 8 O & 6 8 3 3 y 8 y 2 = + +   X X @ # * = = # * # + = = = = = = : , = = , , , , 2 , 4 2 6 6 3 6 6 6 8 6 6 8 8 8 t 8 8 8 8 8 3 8 3 y 8 9 d 8 y 8 * 2 i t y y y y i y y y y y u u y u y u y y p y y p y i u y i y y y u y u i y y i y y y y y u y y g i g g y y y 2 p ) Y 3 & ; 8 < 8 y u 9 = & y 3 3 t u 9 , + & : h U H p 3 i y i u u p u p u g u g g g g g g g g g g g g g g g g g g u j g g u u u u u u u g u u u u g u g u g g g g 6 O 8 y y y u y u u g u g g g g g g g g g u p u g u u j u u i u u y u y y y y u i y y y y 8 y 8 t t 6 t , , 2 2 , = O   # = 4 8 u g g i i < X @ y g h y y g g y 2 #     = # , , , , , , , , 4 6 6 6 6 6 6 6 6 y 8 y 8 y y t y t y y y i y y y y y y u y u y u y y i u y i u u y u u u 8 # 8 u i p p 7 u u u i u u u y u g y i i g y g y y g g y g g i i p y i u y u u y i u y i u y u u u i y y y i i i y C C g , & & = , , = % ; O O , e 8 3 8 t 5 # O & > k ~ } ` F i 3 3 i z k 8 8 j u i y y y y u y y y y t y u t y y 8 y 8 8 y d 9 e y t y y y y e 8 y 9 d 8 y 8 y i t u 6 ; O t y e y t e y t t y 3 y e y e y 8 y y 8 8 8 3 8 8 y 8 8 8 y 8 8 y y 8 y y 8 8 3 y 8 y 8 y 8 8 8 8 8 e < , 8 h C y ;     * , : 4 , ; , O X > , , > > ",
"8 2 y 6 = O   X = # * = = = , , , , , , , , , , , , > % , , = # = = , # = = = = = = = = + = = = # = & # # = & # = , + = # # # & O * % , 8 y t 8 8 8 O @ 6 8 8 3 3 3 * #       + @ @ % @ = # # # = = # = = = , , , = , = , , 4 4 , , 8 , 2 6 6 t q 8 6 8 8 8 8 8 y 3 8 8 8 8 y y y y 3 8 9 8 y 8 3 * 2 y y y y y y y y y y y u i i y y y y y y t y y y y y y y y y y y y i u y p y y y i i y y y y y y y y y y y t h j 3 z ) I 2 @ * 8 y 8 9 # + > y g y ; # & * C F F h 3 g j j u g j p u u u u u j u u u g u u u u j u i u u p u p p u u j u g g u g u p u p u u p u p u u j u p y g g 8 O 6 i y y u y u u p g g u g u p u p u u p u p u g u u u g u u i u y u u u y y i u p y y y u t 7 t t t 8 2 , % 4 4 = # +   O = 6 y u g y <   # y i u y g g 2 * O X # : : 4 , # , # , 6 , < 4 6 6 6 8 8 8 8 8 8 9 y 8 y t u t y y y y y i y u y i u y u u u y u u u y u y u u u u g i y # t u i u j y u y u u i y y p i i u y y i u u u g i u y y u i y i u i u u y u u y y y u y u y y u y y i g u y 6 i g g j h u ; + * % * % = O + < 8 8 y 8 % # + O i I ` } P x t y j i y y i y y i y y y y y i y y y i y y y y y i y y 8 y 8 y 8 y y t y y y t y y y 8 y 8 y 8 y 8 y q y 8 , O 6 y y y e y e y 8 e y e y t t 3 t y 8 y 3 9 3 y y 8 d 8 8 8 y 3 8 8 8 8 8 3 8 8 8 d 8 8 y 8 3 8 8 t g 8 3 < t i p i 9 ,     & , 6 4 , O O % > # = O ",
"3 3 y 6 = &   . # = = = ; , , , , , , , , , , > , , , , , , , , = , = , = = = = # = = = = = = = # = = = # = = = = # # # * # # = * @ O O = 6 8 t 8 3 O O 8 t t 8 , # O   O + # . @ @ @ @ # * = = # = = = = , = : , , ; 4 6 , 6 , 6 , 6 < 6 3 6 t 8 6 6 8 8 8 8 8 3 8 3 y e 8 8 8 8 8 8 y d 8 8 y 8 * 2 y t y y y y y y y y i y y t y y i y y i y y y y y y y y i u i u i y y y u p u y y y u y u y i y y y y y y j y t g y y C T g 2 , * , 6 # O , 2 3 * O O 8 I G Z u y y g g g u u u u u u p j u u u u p u p i p u u u p u u u u u u g u u u g u u p u u g u g g u g u p u u u h i d y 6 O 6 y y u u i i u u u p u p u u u u g g u g u p u p u u u g u u u u u u i u y y y y y p y y y p y y t 8 6 8 , , = 4 4 = O     # , 6 8 y 6   # y i i 8 8 * O O O = : 4 = , , , , , , 6 4 4 6 < 8 8 8 8 8 8 y 8 y 9 y 9 y t y i t y u u y y y y y y u i y i u u i u u y u u i y u u i t = 8 u i j p y u u y u u u u u y u u u u u u y y i y i u u i u u u y y u u i i u u y y y y y i y y y y y y y y p g t 3 y k C y 2 # # O * # O O 2 8 8 % O O @ t J ) ~ I z p e y x h u y 6 y u g i y y y y y t y y y t y y y y y t 8 y y 8 y 8 y y y y t y 8 y y y 8 y 9 d 8 y 8 y e y y 6 , O t t 8 t y t y t t y 8 y t y y y e y 8 y 8 d 8 8 8 3 8 8 y 8 y 8 y 8 y y 8 y y 3 8 9 y 8 3 8 6 3 8 t 3 8 y i 6 3 t t g y 6 @ + O # = % O O # O O # X ",
"q 6 u 2 = O   X = = = = > % , , , , 2 , , < , < , , , , ; : , , : , , = = , # , = = = = = = = = = * # # = * = # + = = = = + # # # @ O O + = , 6 2 2 & & 6 6 2 * +       O # # + * O + O # * * # = = = = , = = , , , : 6 , 4 4 4 , 8 2 8 6 8 8 t 8 6 8 t 8 t 8 8 y 3 8 8 y 8 8 8 8 d 8 y 8 y y 8 8 * < y y i t i y y t i y y y y y y y t y y y y y y y y y y y t y y y y y t i y t y y y y y y y g y y y i y i t t 6 t t y t i i L k 9 = ; , & X 9 #   O 3 c F F g 3 y z z y 8 y u u u u p u g u g u p u u g u p u u u p u u u u g u g u u u g i p u g p g i p u g u u g u g g u p u g g 6 O 6 t y i u u u u u p i u g p u g p i u u u g u g j u u p u p u p i i u i u u y u y u y y p i p 7 t y 6 8 8 8 6 4 , , , = # O   # # = 8 6 O = y y t =     O X = 4 , = = , = , : 6 4 4 < < 6 6 8 8 8 8 7 y y 9 7 y 8 y y r i i p i y i i i u y u i u u u i u y y u u i i u y u y u u y # 8 u i i j i u u i u y y u u i u y y i y u i u u g u u y p u i y u u i y u u i y y u y y u y y y i y u y t y g y y t i y y p p 6 , @ @ @ O O , 4 % O O * j I { ~ Z 8 3 y p u y 7 u p u y 8 t t y y y y y y t y y y y y y i y i y 8 8 y 8 y y t t y y y e y y y y 8 y 8 y 8 t y y 6 9 6 , O 6 y e y t y 3 y y e y e e 8 e y t y 3 8 y 8 y 8 y 8 y y 8 3 8 8 8 8 3 8 8 8 y 8 y 8 y 3 t 6 8 3 6 t 8 8 < t i i t q < u B u , O   # # X X @ O * : 8 ",
"8 2 p 2 = O   X # = # = , , , , , , < , 2 , , , , , 2 , , : = , , = = = , , , # = = = = = = = = = # = = = # # = = + + = + = # + @ # # @ + O * + 2 3 O # 6 2 &       X X # + O # # # O # = = # # = = = = # , , , , 4 ; : 6 , 6 6 < , 6 6 8 6 t t 6 8 6 8 8 8 8 8 8 8 8 y 8 8 y y 8 8 8 3 y y 8 8 8 * 2 y t y u y y y y y y y p i y i y y y y y y y y y y y y y y t y y y y y y y y y y y i y y y y y t t i t y t y y i t t t 8 3 3 k J C , O   #     , h S c r e e g g 8 y g j y u i u u h j u i u p u g p u g u g u g i u i p u u p u p u p u p u g u u u p u g i u p u p u i p p y g y 6 O 6 y u y u y y u u u u g u u p u u g g i p u p u u u g u g u u u u i y u u y u y y y p y t p t y u t p 9 6 6 6 8 2 , , , 2 = X     X , #   + 6 q - O X @ $ = , = ; , ; : = , , 6 < < 6 6 6 6 6 8 8 8 8 8 8 8 y 8 y 9 y p t t i i i u y y y u u u y u u u i u u u y u u u u i u g y y & 8 u i j u y u y u u i u u y u i u u p y u u u u y u y u u y u u y u u u u y i p p y y y u i i u t y u u u y y y y i i y y t t k 9 > # O   O , @ X * y Q ` ! m i y y u u u u t p y y u i t y d y y y y y i y i y y y y y y t y 8 8 y t 8 8 y t y y y e y y y y 8 y 8 y y y t t y 8 y 6 ; O t y t 8 y e y y 8 y y t y t y t 8 y y 8 8 3 y 8 8 8 8 8 8 y 8 d 8 y 8 y y 8 3 8 y 3 8 t 3 8 3 8 8 t 9 y 8 t t t e y 8 6 8 8 u 8 =   #     @ O % u C "
};
