/* XPM */
static char *hd_wallpaper_3d_gray_texture_3d_geometric_background_triangles_3d_texture_creative_3d_background[] = {
/* columns rows colors chars-per-pixel */
"800 500 256 2 ",
"   c #040201",
".  c #0D0C0B",
"X  c #0B0704",
"o  c #130E0B",
"O  c #150B06",
"+  c #14110E",
"@  c #1B130D",
"#  c #1B1409",
"$  c #151412",
"%  c #1B1512",
"&  c #1D1915",
"*  c #1C1B1A",
"=  c #161719",
"-  c #0F1012",
";  c #23160D",
":  c #211613",
">  c #231A15",
",  c #2A1D15",
"<  c #231D1A",
"1  c #2A1E1A",
"2  c #251616",
"3  c #311D16",
"4  c #25211D",
"5  c #2C221C",
"6  c #2C2118",
"7  c #33241C",
"8  c #39271D",
"9  c #32311F",
"0  c #1B1D22",
"q  c #0F1B27",
"w  c #1D2327",
"e  c #1E2832",
"r  c #252423",
"t  c #2B2522",
"y  c #2C2925",
"u  c #2C2C2B",
"i  c #25282B",
"p  c #332621",
"a  c #332B24",
"s  c #3C2B23",
"d  c #332D2A",
"f  c #392C27",
"g  c #34312D",
"h  c #3C332C",
"j  c #3A3228",
"k  c #272D34",
"l  c #2C343C",
"z  c #2B3237",
"x  c #343433",
"c  c #3B3532",
"v  c #3D3935",
"b  c #33363B",
"n  c #35393C",
"m  c #3B3C3B",
"M  c #373837",
"N  c #30302F",
"B  c #211F1F",
"V  c #422D24",
"C  c #472E27",
"Z  c #43342C",
"A  c #483428",
"S  c #54372C",
"D  c #443B34",
"F  c #4A3D34",
"G  c #433D3A",
"H  c #443933",
"J  c #563C32",
"K  c #4A2E20",
"L  c #3E403E",
"P  c #44413D",
"I  c #4C433B",
"U  c #4C4137",
"Y  c #53453B",
"T  c #57473A",
"R  c #584733",
"E  c #64493A",
"W  c #2D3844",
"Q  c #333C44",
"!  c #3B3E42",
"~  c #343D49",
"^  c #343E51",
"/  c #3D4144",
"(  c #35414C",
")  c #3B444C",
"_  c #3A454A",
"`  c #3B4652",
"'  c #3D4A54",
"]  c #394958",
"[  c #384B57",
"{  c #3D5063",
"}  c #434443",
"|  c #4B4543",
" . c #42464B",
".. c #444A4D",
"X. c #4B4C4B",
"o. c #4B4946",
"O. c #524D4B",
"+. c #564B44",
"@. c #53514E",
"#. c #5C5349",
"$. c #434C54",
"%. c #4B4E52",
"&. c #434E5A",
"*. c #464B55",
"=. c #4C5254",
"-. c #45525C",
";. c #4B545C",
":. c #4A555A",
">. c #535453",
",. c #5B5956",
"<. c #52565A",
"1. c #545A5C",
"2. c #5B5C5B",
"3. c #595654",
"4. c #4F504F",
"5. c #63564B",
"6. c #645D57",
"7. c #665046",
"8. c #5E605E",
"9. c #63615E",
"0. c #6B6259",
"q. c #75665A",
"w. c #445463",
"e. c #4B5662",
"r. c #4D5964",
"t. c #4C5C6B",
"y. c #45586A",
"u. c #535C64",
"i. c #5A5E62",
"p. c #535E6A",
"a. c #555A65",
"s. c #495C72",
"d. c #5C6264",
"f. c #55626C",
"g. c #5B646B",
"h. c #5A6569",
"j. c #4D6276",
"k. c #536473",
"l. c #5B6672",
"z. c #5D6A74",
"x. c #5B6C7B",
"c. c #556879",
"v. c #556775",
"b. c #636463",
"n. c #6B6966",
"m. c #646A6C",
"M. c #6C6C6B",
"N. c #666666",
"B. c #726D69",
"V. c #6E706E",
"C. c #73716E",
"Z. c #7A736C",
"A. c #636C73",
"S. c #666D77",
"D. c #6C7274",
"F. c #64727C",
"G. c #6B747B",
"H. c #697478",
"J. c #737473",
"K. c #7B7A76",
"L. c #747A7C",
"P. c #7B7C7B",
"I. c #777675",
"U. c #716E72",
"Y. c #615F61",
"T. c #423F42",
"R. c #827D79",
"E. c #857668",
"W. c #836D5A",
"Q. c #7E807D",
"!. c #83827E",
"~. c #8A847D",
"^. c #938579",
"/. c #A48F7C",
"(. c #596D83",
"). c #5D7285",
"_. c #53708C",
"`. c #647483",
"'. c #6C7C8B",
"]. c #687886",
"[. c #737C83",
"{. c #777D86",
"}. c #687D92",
"|. c #687487",
" X c #817E83",
".X c #798388",
"XX c #6C8397",
"oX c #778897",
"OX c #748793",
"+X c #768CA3",
"@X c #7B93A8",
"#X c #7491AA",
"$X c #6E92AD",
"%X c #848583",
"&X c #8B8A85",
"*X c #8C8D8A",
"=X c #868887",
"-X c #928D88",
";X c #8E908D",
":X c #93928D",
">X c #9A948D",
",X c #868D94",
"<X c #8A9398",
"1X c #949592",
"2X c #9B9A95",
"3X c #9C9C9A",
"4X c #969897",
"5X c #928E93",
"6X c #A29D98",
"7X c #A3978B",
"8X c #9DA09D",
"9X c #A4A29D",
"0X c #AAA49C",
"qX c #B1A89E",
"wX c #8798A7",
"eX c #969CA3",
"rX c #869CB2",
"tX c #9AA4A8",
"yX c #96A8B7",
"uX c #8EA4B4",
"iX c #A4A4A3",
"pX c #ACAAA5",
"aX c #ACACAB",
"sX c #A6A9A8",
"dX c #B2ADA7",
"fX c #B6B3AC",
"gX c #A6ADB2",
"hX c #AAB4B6",
"jX c #B8B8B6",
"kX c #ABB0AE",
"lX c #A19EA1",
"zX c #C2BDB6",
"xX c #C1B8AE",
"cX c #C7C3BC",
"vX c #D1C9BE",
"bX c #9AB0C3",
"nX c #ABBAC7",
"mX c #B9C4C5",
"MX c #B2C6D6",
"NX c #B8D0E6",
"BX c #C9C8C5",
"VX c #D2CDC6",
"CX c #D7D3CC",
"ZX c #D9D8D5",
"AX c #CAD1D4",
"SX c #E2DDD6",
"DX c #E1D9CE",
"FX c #E7E3DC",
"GX c #F1E8DE",
"HX c #E9E8E5",
"JX c #F6F3EC",
"KX c #FEFFFE",
"LX c #F9F9F6",
"PX c #EFEFED",
"IX c #D7E0E7",
"UX c #BAC1BE",
/* pixels */
"( &._ ` / . = t 2 ; 8 8 8 8 3 C 8 7 8 7 8 8 3 3 8 8 8 8 8 3 8 8 3 K 3 6 q.4XoXXX].XXG.H.H.H.F.v.H.v.v.h.h.h.h.h.h.:.t.:.:.:.:.9 + & 6 # 6 ; ; 7 6 6 6 7 5 7 8 7 s 7 8 8 V , @.KXKXJXKXKXLXLXKXKXKXKXKXKXKXKXKXKXKXKXKXKXKXKXKXKXKXKXKXKXKXKXKXKXKXKXKXKXKXKXKXKXKXKXKXKXKXKXKXKXKXKXKXKXKXKXKXKXKXKXKXKXKXKXKXKXKXKXKXKXKXKXKXKXKXKXKXLXLXKXLXKXPXi i L r n N u 9 :.H.H.OXH.H.;XQ.OX;X;Xh.9 :._ _ _ _ L L L n z l z N x u 0 $ % % % @ @ : 2 > ; > > > 1 > , < 6 6 6 6 7 7 7 7 7 9 p a f a t t t r r 4 B * * < & & & % % & > > ; , , , , 3 3 6 6 8 8 p 8 a a j d a d j a g s d d j d d j s g g f g s d j j j c h j j h c Z c f h A V s s f z b b *.-.{ y.{ y.s.y.y.s._.s.j.}.+XoXg.% d Z 7 V A Z.5.0.5.0.6.0.6.6.0.8.5.0.0.0.8.5.0.0.0.5.0.0.5.0.5.0.5.0.5.5.0.8.0.5.8.5.0.5.0.5.8.5.8.5.8.R R R o.L L L 9 L R L c c c Z x f f N p p t t t 1 4 4 < & & * < < 4 r B t t y f u u f f c c f p p p p p p p p p p p p p f p p f p f p C f 2 *.hXLXPXMXAXNXAXMXBXAXBXnXMXMXmXmXUXmXnXjXAXnXlXgXZXIX8X>.r t 9 6 6 * n z.z.f.a.i.LXKXFXJXJXJXLXLXLXLXLXLXJXLXLXKXKXKXKXLXLXKXLXKXKXKXKXLXLXLXLXFX/.W.E U #.>.8.p.t.s.{ w.&.' $...' ' { ] ] ^ ^ ^ ^ ^ ^ ^ Q W W Q l l l l z z e e e e k i & * * * & & & : & & & & & & = < * % * * * $ * < < & % % @ @ % % 2 % 2 % 2 % 2 2 1 % b <.~ W b = % t > > X.L.m.:.h.8.1.=.4.>.4....._ L _ L v n L & $ + * & & & & 4 4 4 r 9 t y y a a g f g h h c h h c c j c c c c j Z c v v h D D c c D c j j c c h c d f d d N p p p p i t t t y 4 4 t & # r / _ ] ] ] [ ' ..o.o.R U o.R o.I I U U P U U U P U L P U P L U D U L D P v D v D v v j v v j D D j D D j j c Z c v x N z x b l b l W Q Q Q Q ~ Q ~  .^ ) ` ) ` ] ` ] &.{ &.-.-.e.w.",
"-.&._ ( *.i 0 o > , 8 7 8 8 3 8 8 8 8 8 8 8 8 8 8 8 8 8 8 8 3 8 3 8 8 ; 9 J.<X.XOX.X.XF.F.H.].F.v.H.H.h.v.h.h.r.h.:.r.:.:.r.:.L . & 6 # ; , , 6 6 6 6 6 7 7 7 8 8 8 8 7 j , > E.LXKXLXLXKXKXLXKXKXKXKXKXKXKXKXKXKXKXKXKXKXKXKXKXKXKXKXKXKXKXKXKXKXKXKXKXKXKXKXKXKXKXKXKXKXKXKXKXKXKXKXKXKXKXKXKXKXKXKXKXKXKXKXKXKXKXKXKXKXKXKXKXKXKXLXKXKXLXKXKXd.0 N n N n 9 z 9 8.H.Q.H.Q.Q.OXOXQ.;X<Xh.L :.[ ..L L _ L _ n n n b z x N i % . 2 o @ % % 2 2 > > > > 1 , 1 1 1 6 6 6 6 7 7 7 7 7 s f p d d r t 4 r 4 B B * * & & & % & & > , > > 6 , , , 6 6 7 7 7 p 8 a a a s g a a g a g d a d j j d g g a j c g j d j a a s j a s f f f h f a f h n / ) *.-.&.y.{ s.s.{ y.s.j.s.s.{ _.$XXX}.[.k t Z a 9 I B.0.5.0.6.0.5.5.0.5.0.0.5.0.5.0.5.0.5.5.0.5.0.8.5.5.0.0.0.8.0.5.0.5.8.5.0.5.8.5.8.5.0.8.0.8.R L #.o.R R L R o.L 9 H H c c x f d d N u p i t 4 r < < & & < < < < 4 1 t t y f u f u x h c f p 1 1 p p p p p p p f p p f p f p f p f 1 f p 2 h U.mXLXIXmXMXIXAXnXnXIXAXmXmXmXBXnXzXMXeXMXIXAX4X2.u + y 5 9 7 ; r $.h.e.f.A.i.BXKXPXJXLXLXJXJXJXLXLXLXLXLXKXLXLXKXKXKXLXLXKXKXKXJXvXxXE.0.S 3 K K S S R U R #.:.t.s.s.y.{ -.{ &.&.&.&.] ] ] &.` ^ ^ ^ Q Q Q W l Q l l l l l l l k e e i w w B * * & $ & & & & & & & & & = & & & % % & & % % @ @ % % : % : % 2 2 2 2 < 2 2 u T. .^ W N < 1 4 ; r 8.Q.u.8.1.2.1.>.:.=.4.X._ } L L n M L & $ $ $ 4 & & 4 4 r r 4 r 9 d y a d 9 d h g c h c j h j c h j c Z c h c c Z h v D v D D j c D c j h d h d N d f N p u p t t p t 4 5 4 < * r l ( ` [ ] ` ' ..o.o.I L } R } U I I U U U P U P U U P D P P U L D L D v v D v D D v D D v v j v v v j v v v c h x x x l z b l b b W W ~ Q ~ ~ ~ ~ ^ ^  .) $.] *.*.*.&.&.&.&.w.w.e.e.",
"$.( ' _ *.! i $ < 1 p 7 7 s 3 8 8 3 3 8 3 8 8 3 8 8 8 8 8 8 8 8 V , 8 8 # d I.<X.X.XXX.XH.F.H.H.H.H.v.v.v.h.h.r.h.:.h.r.:.:.:...# # 6 # ; , 6 , 6 6 6 4 7 7 7 7 8 8 K 3 A f O ; fXLXKXPXKXKXPXKXKXKXKXKXKXKXKXKXKXKXKXKXKXKXKXKXKXKXKXKXKXKXKXKXKXKXKXKXKXKXKXKXKXKXKXKXKXKXKXKXKXKXKXKXKXKXKXKXKXKXKXKXKXKXKXKXKXKXKXKXKXKXKXKXKXKXPXKXKXKXKXjX. i v M z N i w :.H.;XH.Q.OXQ.Q.OX;X;XtXH.L _ :..._ L L L _ _ z L l z z b x * . % % % % % % ; 2 > > > 2 , , , 1 6 6 6 6 6 7 9 8 7 f 5 t N a 1 t 4 4 4 4 4 * * < & $ % % ; > > > > , , 6 6 6 6 6 7 7 9 p a a a g a g a a a g a g d f a a d a 9 a g a g f d a j f j s 9 i s a h x b Q ( ` { { y.y.y.y.s.{ s.s.s.s.s.j.s.y._.#XXXXX,X*.r f s a @.0.6.6.5.0.5.0.5.0.0.5.5.0.#.5.0.0.5.0.0.#.5.0.5.0.8.#.0.8.0.8.5.8.8.5.5.8.5.5.8.5.5.0.5.0.8.R L :.R L R R R L U 9 c H c h h f d f y u t i r 4 r < < & % * < 4 < r r r y y u d p f f x f p p p p p p p p p p p p p p p p p f f p f p C C 2 O o 4.4XPXHXAXmXMXIXAXnXMXmXmXMXMXnXnXMXIXAXgXU.v % & 9 p t 9 9 & n u.h.f.l.S.*.{.KXKXJXHXLXLXLXKXLXJXPXPXJXKXKXKXKXKXLXJXGXvX/.q.R 3 ; 3 K K K S E R R K S S S Y O.:.r.s.j.s.w.y.{ *.&.] ] *.] ] ^ ^ ^ ~ ( ~ Q / W W W l W l l l e e e z k i i 0 0 0 = & & & % % % $ @ 2 2 2 % % % % % + % @ o @ @ $ ; @ @ 2 % & 2 2 < : > & N *. .W ~ z * * * # u 3.D.1.1.1.1.:.4...4...L _ L L n M n = # + $ * & & * 4 4 4 r r y y y a a f g c h g h g h g h h c h c c j c c h v v h c j D Z c c c g x h h d d p d p p p t p p r 1 1 5 6 * * k Q ] ` ` ` )  .P I U U U U I P U U U P L U U L P U L U U v v v D v v D v v D v D v v v c c c j v v j 9 g x g x x N z N l z l l l W W ~ ! ^ ^ ^ ^ ^ ) $.$.` $.] *.] *.&.-.w.-.-.y.e.e.t.",
"].l &.' *. .k = : 2 p 3 3 s 8 7 8 8 8 8 V 3 8 V 8 3 8 3 8 8 3 8 V 3 8 A 7 # c P.OXOXF.).'.H.v.H.H.v.v.h.h.h.h.r.r.:.:.:.:.:.:.:.9 # # 9 > ; , > , , 6 6 1 5 7 7 6 9 V 6 s H 8 > f BXKXKXPXKXKXLXKXKXKXKXKXKXKXKXKXKXKXKXKXKXKXKXKXKXKXKXKXKXKXKXKXKXKXKXKXKXKXKXKXKXKXKXKXKXKXKXKXKXKXKXKXKXKXKXKXKXKXKXKXKXKXKXKXKXKXKXKXKXKXKXLXKXKXKXPXKXPXn i x L x N x i = h.Q.Q.H.H.;XOXQ.;XOX;X<XQ.:._ :.:._ 4._ _ L _ L n n b z b M u * O @ @ % 2 % % % > & > 2 > < 6 > , 6 7 6 7 7 7 7 f p 7 5 1 d r B r 4 4 4 * 4 & & & & % % & > > ; 6 ; , , 6 6 6 6 6 7 5 p t a d p a y a a a a a a a d 9 a a a d a t 9 a j j s s 9 a a N z x M n ! ` ] &.w.y.{ { { y.y.s.s.s.s.s.j.s._.j._.$X$XXXXX+X[.y 3 s 9 5.6.5.6.6.5.5.5.6.5.5.8.5.5.5.8.5.5.5.5.8.5.5.8.5.5.5.0.#.5.#.5.#.0.5.5.5.#.8.5.5.5.#.5.#.#.8.#.R 9 :.R L L L L R L c H c c x f d d u u t t r r B < * * & > < * < 4 t t t y u d f u f p p 1 p 1 p p p p p 2 p p p p p p p p p p f p p p f c c 1 @ 2 Y.UXLXIXmXBXNXAXAXAXAXmXnXMXIXZXnXU.f 2 ; 5 a j y y p 4 9 ..v.f.z.z.k.r.p.LXKXLXKXLXLXJXPXKXKXKXKXKXKXKXGXVXqX>XK K 3 3 3 K S S K S E E R S K S R S S K S J F Y =.w.t.w.y.y.{ &.{ &.] *.*.*.^ *.` ( ( ( Q ( W W W W W l l l W l k k z e e e e e * * * * = $ % $ $ % $ 2 $ % @ o o o @ @ o @ % % 2 2 % 2 2 2 2 2 : 2 % 0 ! *.~ ~ Q k 0 > * + g n.d.1.>.>.=.=...} o._ L L Q n M x $ $ $ & & & 4 4 4 4 4 9 t y y d a a g h c j j g h j j g h g h h j c j c h h v h j c v c g j j a d f d d d d p u p i p t r p 1 0 7 & $ k _ ` [ ` )  .} U U U Y U I P P U L U L U U U D U U v D D v D D v D v v D v v j v j v v 9 c c c c 9 j g v 9 N x g N l k l l W W W W Q ~ ~ ^ ^ ! ( ) ` $.^ $.] *.*.&.&.w.&.w.-.e.y.e.y.a.s.",
"mX( ( _ ^ *. .N % % p 8 3 8 7 7 3 8 p 8 3 8 p 3 p 8 V 3 3 8 3 K 3 V 3 3 8 , ; Z Q.OXQ.j.].OXF.z.H.v.H.v.v.h.t.h.r.:.:.h.:.$.:.:.n + # 4 4 # > , , 1 , 7 6 7 1 7 8 6 9 7 6 V V j X #.SXKXKXJXLXKXKXKXKXKXKXKXKXKXKXKXKXKXKXKXKXKXKXKXKXKXKXKXKXKXKXKXKXKXKXKXKXKXKXKXKXKXKXKXKXKXKXKXKXKXKXKXKXKXKXKXKXKXKXKXKXKXKXKXKXKXKXKXKXKXLXKXKXLXKXKX=X  _ x n 9 z z r L H.Q.H.Q.OXQ.OXOXOX;XOX8XOXh._ :.:......._ _ L L Q / n l b b b u o o o 2 2 2 : 2 : : 2 > > , 1 6 6 6 6 6 7 7 9 7 7 7 Z Z < < f B * 4 4 4 * 4 & & & $ % % # & & ; ; > , , 6 , 6 6 7 7 7 t p a p y p y 9 a 9 t 9 t y a a a p y a p 9 a 9 9 9 p t 4 q e W W ^ ^ { { { { { w.{ { { { s.s.s.s.s.s.s.j.s._.s.}.rX$X_.XX}.,XG 1 8 V 6.5.5.5.5.5.5.5.,.5.5.5.5.5.5.5.#.8.#.5.5.5.5.8.5.8.#.5.0.8.#.#.5.#.8.#.#.8.#.,.,.#.#.8.#.R 8.8.R 9 L R R P U L U L c H c c c f d d p u i y t 1 r 1 < & & < B < 4 4 B t t u y d f p d p 1 1 t t 1 1 p p p 1 p p p p p p p p p p p p p 1 2 f C C p 2 X H 5XIXPXAXMXNXAXmXnXmXIXIXjX!.p 3 2 7 s f p 4 y d 6 * L h.h.f.p.l.k.F.-.hXKXPXHXPXKXKXKXKXLXLXSXvX/.q.A 3 ; O K K K R R R R R S R K K K K K R A R R K S S S S R R R @.:.t.y.t.w.*.&.{ *.] ] { ` ` ( ` ( ( ( W W W W W W l l l k l e k l e e k 0 0 r B * * = * $ 2 - % % @ @ O @ + @ o @ % : % ; % 2 : % % 2 2 3 : % % u ) ` Q W $.b 0 & $ 4 c b.8.1.:.4.=.} ..} L _ L n n n z + + $ & & & 4 4 < 4 1 t t y y u a g g h c f d f f d g g j g g j h h h g h h h c v c c c j j h d d f d d p u p t p t t 1 1 1 r 1 B 0 w / ..[ _ _ | P U U U U U P L U U L D U P D D D D U D D D v v v v v j D v j c c c g v j g v g x c g g g z u N u k z l l l l W l W Q ~ ~ ~ T.) ( ) ` ` ` ^ *.] &.&.&.w.&.&.w.e.e.e.t.t.a.t.s.",
"IXu.' [ ^ ^ *. .% @ p s 3 8 3 7 3 7 8 3 8 3 3 V 3 3 3 p 8 3 3 3 6 7 7 3 8 V 7 # v L.oXQ.F.F.H.z.H.H.h.v.h.h.h.r.h.:.r.:.:.:.....o.= . 4 4 # : 6 , , , , 1 7 6 7 9 3 8 V 7 3 8 V 7 O B.LXKXLXKXKXKXKXKXKXKXKXKXKXKXKXKXKXKXKXKXKXKXKXKXKXKXKXKXKXKXKXKXKXKXKXKXKXKXKXKXKXKXKXKXKXKXKXKXKXKXKXKXKXKXKXKXKXKXKXKXKXKXKXKXKXKXKXKXKXKXKXLXKXKXgXB N L M z z L r $ Q.Q.Q.H.OXQ.Q.;X;X;X;X;X8X8Xh._ :.$.$....._ _ _ _ m n n n z b b b = @ O 2 2 % @ : : : > , , > 1 > , 6 , 6 6 6 7 7 ; a @.#.u < i B 9 4 4 4 * * & & & & # & > > > > ; 6 > 6 6 6 6 6 5 5 t p t t t t 9 t t a p y 4 9 y p a 9 a t a 9 s a p 5 5 y N z W W ^ [ { ^ { { { { { w.{ y.y.y.{ { s.s.s.s.s._.(._.s.}.rX@X$XXX}.@Xg.i 1 H 5.#.5.#.,.,.,.5.5.5.#.8.#.8.#.#.5.#.R 8.5.8.8.R 5.#.#.#.#.#.#.0.#.5.#.#.#.#.#.#.#.#.#.#.8.R #.0.#.9 9 v L o.L U R 9 H H c h c x f f u t t t r t B 1 * & & * < B < 4 t t i p p u u d p t 1 1 1 p p p 1 1 p p p p p p 2 p p p p p p p f f f 2 2 1 p C C @ @ <.jXPXHXBXMXmXIXIXAX=XL O 2 3 f f a y y d 9 9 * t :.v.t.f.f.F.p.`.[ .XKXKXKXKXKXLXDX6X0.S 8 3 ; ; 3 S E E R R R K S S K A S S R R R R S R R S A R S S S S K K S R o.:.:.t.t.e.w.*.{ *.*.] ` ] ` ` ( ^ ^ ( ( W Q W l W l l l l l e l e k e e i e e w w 0 * - 2 $ $ O o o @ o @ % o @ % % % % % % % 2 2 : 2 2 2 > 2 * m &.~ ) W ( l * % # # >.1.,.4.4.4.X..._ o.L L n n M u . $ & = & & & 4 r 4 r r t y y a a a a j h N f p f d f g g f j j f j g h h h h h v j j j y t j d u f p d p t t p t t t t t 1 1 0 = z _ _ _ } L U U U U D U D P L D U L U D D D v v v v j v D j v j v v v j v v v j g j j 9 x 9 g g 9 g g N z N z z z k l l W l Q W ~ Q ^ ~ ~ ^ ^ ) ) _ ` ` *.` ] &.&.&.&.w.w.w.w.y.e.y.y.t.s.p.s.",
"MX.X.Xz.w.~ ~ ! u @ 1 8 7 7 7 7 8 3 3 8 3 3 8 3 p 3 3 8 8 3 3 8 8 6 , s 8 8 8 3 # I Q.OXF.v.H.F.v.H.h.h.v.h.r.h.r.h.:.:.:.:.' ..=.9 - $ > & > > , , , 6 1 6 3 6 6 6 8 9 8 8 8 9 F # 1 -XKXKXLXKXKXKXKXKXKXKXKXKXKXKXKXKXKXKXKXKXKXKXKXKXKXKXKXKXKXKXKXKXKXKXKXKXKXKXKXKXKXKXKXKXKXKXKXKXKXKXKXKXKXKXKXKXKXKXKXKXKXKXKXKXKXKXKXKXKXKXKXKXSX%.o o.9 n z 9 z * n Q.Q.H.H.Q.OXQ.OX;X;X<X<X<XtXH._ :.:.$......._ L _ / ( / n n b b m t 2 o @ 2 : % : > : : > > , > 6 , 6 6 6 3 7 7 7 : F 5.5.T.d t t * w 4 * B * & & & $ & # & > > > & 4 > > > 6 6 6 5 7 t 5 t t t y t t t t p t r 9 p y t t t t p t t y t k z W ( ( [ [ [ [ { { { { w.{ w.{ { { s.y.j.s.s.j.j.j.j._.(.j.;.b.Q..X+X$XXXXXXX) % F 6.5.#.,.5.5.#.5.#.#.#.#.5.5.#.#.#.#.5.5.8.R #.5.#.5.#.#.#.#.#.8.#.#.#.#.#.#.#.#.#.#.#.8.#.#.#.8.R 9 9 9 L R o.P L 9 c c c c f N d d p u t t t 1 r r < & & * < < 4 4 t t t y u d f u t 1 1 1 p t p 1 p 1 1 p p 1 p p p p p p p p p p p f f C C p 3 3 f f 2 - p  XAXPXIXIXZX8Xo.# # 9 H f f y a a p 5 9 4 B L h.h.r.v.A.A.l.F.m.G.FXGX6XE.7.8 ; ; 3 8 K K S R E J S K A A S R R A S A S S R S K K K R S S R A K R R K K R R K F U R L &.*.e.e.*.{ *.] { ` ' ] [ ^ [ ( ^ ~ ( W W W W W W l W l l e k e k k e e e w w w 0 0 = - o . o - @ @ % @ @ % @ % @ : 2 % % 2 : 2 2 2 1 1 = u  ...` W W _ z = $ # 9 _ ,.1.=.X.....L _ L n n n z u . = & & & 4 4 * < 4 4 t t y y d a g d f d f p d d a 9 d a g f d g g g f g g 9 c g a d P c a t t d f u p p t t t r 1 t 1 1 r 1 0 k / $...M P U L P P D P D D D D v D U 9 D v v v D D v v j v h c v v v v g v j g j g g d 9 g h g u N z u z z z z z l l l W W W W Q ~ ^ ! ^ ) ) ) ` ` ` $.' ] &.&.{ -.w.w.w.e.e.t.t.t.p.p.s.k.k.k.",
",X,X<XoX+XF.r.) n % > 7 7 7 6 7 3 8 8 3 p 3 p 3 3 8 3 8 3 3 8 3 3 7 7 3 3 3 8 8 6 # _ .X].H.].F.H.v.v.v.h.h.h.r.:.h.:.:.:.:.:...=.9 = + & 6 6 ; , , , , , 6 6 7 3 9 8 3 3 3 8 8 3 U O t cXKXKXKXKXKXKXKXKXKXKXKXKXKXKXKXKXKXKXKXKXKXKXKXKXKXKXKXKXKXKXKXKXKXKXKXKXKXKXKXKXKXKXKXKXKXKXKXKXKXKXKXKXKXKXKXKXKXKXKXKXKXKXKXKXKXKXKXKXHXKXKX X= m z M L i n 9 w H.Q.H.Q.OXQ.OX;X<X<X;X<X<X<XkXH._ :.:.:.:......._ _ / ( / / / l b b c t @ o $ % @ 2 > : > > > > 1 > , , 6 6 7 6 7 7 8 +.#.O.5.| t t 4 4 4 B & & * & & & $ # > # ; & > > > 6 > 6 , 6 5 5 5 7 t t t t t 7 9 t t t 4 9 t p t t t 9 t t i k z ( ( [ [ [ { ^ { { ^ { { { w.w.{ y.s.s.s.s.{ _.s.s._.j._.j.F.g.+.U D 4.Q.XX$X}.wX=.+ | 6.3.#.#.#.5.#.#.#.,.#.#.#.#.#.#.#.#.8.R R 8.#.#.#.#.8.#.#.#.#.#.#.#.#.#.#.#.#.#.#.#.#.R #.#.R #.8.R 4 9 9 9 U U P U H Z c c c f d f u y y t r B B 1 < & & < * 4 * 4 t t y u p u p u 1 t t p 1 1 1 1 1 p p 1 p p p 1 p p 3 p p p p p p 2 2 f p f f f p 3 f f @ 2 a.jXPXkXo.o o a c d p i i f y t 5 a 9 % 9 =.h.h.h.h.f.a.S.z.{.;.@., ; ; 8 K S S S R J J S S A S S S S S S S K S S R S S S S R R S A A A S A S S S R R R K A R A K A *.*.e.e.a.e.w.*.{ &.] [ [ ] [ [ [ ( ( ^ ^ ~ ~ Q W W l l l e z k e W e e e e e w w 0 0 2 - - o - + + @ % @ % @ % % % % % : : : 2 2 : < 1 & < z *.W ` ~ W ! N & & X n 1.1.......} _ L L n M L l 9 . & & & & & & 4 1 r r t t y y y d a d p t a d d a g d f g s g d g f j g j j g j j a U #.+.c 9 9 y p y t p t t t t p t 1 r 1 2 1 =._ L L P U D L v G v G v D v D L 9 v v j D D 9 9 v v j v j h c 9 j g 9 g j g g g g g g g g g 9 N u u u z u z z W W W W W l Q Q ! ^ ! ^ ) ) ) ) ` $.' ] &.-.&.w.;.-.w.e.e.y.e.t.t.t.s.s.f.k.k.k.",
"+XoXoXoXOXOXOX].h.:.9 $ # 9 8 3 3 3 6 3 8 8 7 , V 3 3 3 7 8 3 3 3 3 7 7 3 6 3 3 8 ; 2 O.%XH.h.G.H.h.v.h.h.h.r.:.r.:.:.:.:.:.[ $. .%.i X 2 1 ; ; 2 , > , , , 6 6 7 6 7 6 8 8 8 8 8 3 S O f FXKXPXKXLXKXKXKXKXLXKXKXKXKXKXLXKXKXKXKXLXKXKXKXKXLXKXKXKXKXKXKXKXKXKXKXKXKXKXKXKXKXKXKXKXKXKXKXKXKXKXKXKXKXKXKXKXKXKXKXKXKXLXKXKXLXKXKXPXLXUX* r ..z n N u M 0 _ ;XQ.Q.Q.Q.Q.;XOX<X;X;X<X<X8XtXtX_ :.:.:.:.&.$.$. . .)  .! ) ! Q n b x x * . @ & # : % ; > > > 6 < > ; 9 6 > 6 9 6 > U +.@.R +.+.R D & 4 & 4 * * & & $ & $ % # ; # ; ; ; ; , > 6 4 4 4 4 4 5 4 5 5 t 9 * r 9 9 B 9 4 4 4 e e e e W e Q ^ ^ ^ ^ { ^ ^ { ^ { { { { { s.s.{ s.{ s.s.s.s._.{ { _.s.j._._.>.#.T +.R R R U N.U.,X,XW u q.| #.#.,.#.@.@.#.,.@.@.@.#.@.#.#.@.#.:.#.#.#.#.#.#.#.R 8.R #.:.#.R #.R #.@.#.@.@.@.@.R #.#.@.#.#.#.4 9 9 4 g o.U H v Z c j d f d N y y t t 4 r < < & & * < 4 4 4 r y t y d f p r 2 1 < 1 6 1 5 5 1 1 2 p 2 t p 1 1 t t p p 1 t p t p p p p p p p p t f p p p p 2 2 h 6 6 j j j j a a a a g y t t p 7 : / f.v.f.r.h.f.v.v.[.C.R 8 S R R S R A R A K S S R A A A R A R A S R A S K A A R R K R K S A S S S S K R A R A S R K K R K R K K A R o.:.w.r.-.{ &.&.*.&.*.] ` ^ ) ~ ( ^ ^ ~ W b Q b b k z l l W e e l e e e i w 0 0 0 = - . o @ @ 2 2 - @ 2 % % % 2 % % 2 2 > > : 1 1 % B T._ _ Q _ l ( W q $ X x 1.o.4.:...L L L L z M M $ + % & & * < * < 4 r t t t t a d p p p p u p p d d d d u f u f a g g a g d j d j 1 D 3.5.#.#.#.@.c 9 6 < * 4 y y 1 r t * = i b  .D P D U D v U D j v D v j D j v v v v 9 c h c g c g h h j g j g g g g g d 9 d 9 9 g g y u u z k k z e e l l l W l W W Q ! ~ ! ^ ^ ) ^  .) ` *.] *.*.{ &.&.w.w.-.e.e.e.s.a.s.a.s.p.s.s.k.l.k.k.c.",
"oXoXoXOXOXOXH.OXOXH.8.8.9 X ; , 8 8 8 6 ; ; 3 8 3 3 8 3 3 3 3 8 7 3 6 6 6 6 8 3 3 3 , t >..X.Xl.v.H.H.h.h.h.h.h.h.:.:.h.:.:...$...*.u o % 1 ; , ; , > , 6 6 6 6 6 7 7 7 9 7 8 8 V 7 s j O #.JXKXLXKXKXLXKXKXKXLXKXKXKXKXKXKXKXKXKXKXKXKXKXKXKXKXKXKXKXKXKXKXKXKXKXKXKXLXKXKXKXKXKXKXKXKXKXKXKXKXKXKXKXKXKXKXKXKXKXLXKXKXKXKXKXKXPXLXHX8.* L L 9 M x M i i 8.Q.H.Q.OXOXOX;X;X;X<X<X<X8XtX8XkX..:.:.:.:.=.$.$.$.$.) )  .! ! ! n n z M i + + ; @ ; ; > : > < > < , > 6 6 , 9 6 6 t +.@.+.+.+.o.o.P 9 9 4 # * * * & & $ + % & ; ; ; , ; , > 6 < 6 6 t 4 t 4 5 4 6 6 4 & 4 & 4 4 4 B t e e e W W W ^ ( ^ ( ^ ^ ^ { ^ { { { { { { { { { s.{ s.s.j.s.j.s._._.s._._._.{ #.#.E +.T R Y U G  .g.|.,.G 3.6.#.#.#.#.#.,.@.R @.R @.#.@.R R 4.R R #.R R :.R #.R 8.R :.#.R R 8.:.R @.R #.R R #.#.#.o.@.R @.R o.9 9 9 4 p H v P c c c c c h d p u t r r r r 4 < & & & < < 4 r 4 r t d y t r 1 < 1 1 1 4 5 4 1 6 1 p p p 1 1 p 1 p 1 1 1 p p p 1 1 p p p p p p p p p f p f p p 3 j 5 t j g 9 9 a a a y y 9 t y t < g 1.g.r.f.f.z.v.v.G.D.+.A A A K K R A A S K R S S A F S S A S A K S A A S R R S A K R K R S R R A K R R K A S S S R A R K S S R R A A D U o.R ;.-.e.{ { ] &.^ ` ` ` ` ` ( ~ ~ ~ Q Q Q W W W l l e l l e k e e e i i w B 0 = = o O @ @ @ @ @ $ @ % % % % 2 = 2 < 2 : 1 1 2 < z =._ ( Q W Q n k i $ $ n 1...L .._ L L n x M M & + $ % & & * 4 4 4 4 4 r t u u u i u u p p u u p p d p f u f u d a a d a 9 j j 9 f I #.#.+.+.+.Y +.I v h g 9 < & 2 2 % B t z ! T.L D v D v D v v D v v D D j v v 9 D v v c g g h 9 v g g g g g g 9 d d d g d 9 d i y i u u i k i e l l l l W l W Q Q W ~ ~ ~ ^ ) ) ^ ) ) ` ] ] *.] &.&.&.-.w.w.e.e.y.a.a.s.a.s.a.p.l.k.l.k.c.c.x.",
"oXoXOX.XOXH.].].].H.9 8XxXZ.U # O O ; 8 V V 7 , 3 f p 8 3 3 3 3 3 7 6 7 6 6 3 8 3 p , o r d.{.S.H.h.h.h.h.h.r.h.:.h.r.:.:...:.$...*.b $ @ 2 ; ; , ; , , , , , 6 6 7 5 7 7 8 8 8 8 K 7 A 3 X E.KXLXKXLXKXKXLXKXLXKXKXKXKXKXKXKXKXKXKXKXKXKXKXKXKXKXKXKXKXKXKXKXKXKXKXKXLXKXKXKXKXKXKXKXKXKXKXKXKXKXKXKXKXKXKXKXKXKXLXKXKXPXKXKXKXLXKX;X$ z L z _ N M n 0 _ .XQ.Q.Q.Q.Q.OXOX;X;X;X8X<XtXtXtXhXh.:.:.r.:.&.*.$.$.$...) ) / ! ~ n n b n x r + @ > @ ; ; & > > > , < > 6 > 6 , > 9 Z +.+.R o.U I U I U j 9 & & & * = & % + # % # ; ; ; , > > * 6 4 4 < 4 1 < < 4 4 4 & 9 4 r 4 w 9 w z l W W ^ ^ ^ [ ^ ^ ^ [ ^ { ^ ] { ^ { { { s.{ { s.s.s.s.s.s.j.j._.s.s._.).x.y.[ #.R +.T Y R R R F Z H O.@.O.| H #.#.R #.o.R @.#.#.@.R 4.@.@.R @.#.#.#.:.:.R :.R #.R #.R R :.R :.R @.4.R 4.R @.4.R o.@.R @.R R @.U 9 4 4 4 9 j G H c h h x f d d p y t t 4 r 4 * % & < * 1 4 4 r t t u t 1 B 2 1 r 1 6 < 1 1 1 4 2 t 2 p t p 1 p t 1 t p t p p t p p p p p p p p p p p p d f f p a a h j p a d d a y 9 4 t t t r % ..m.u.e.h.v.z.v.S.D.3.9 K S S A A K R K S A A A A S S K R S R K R K R S S K K S A S S A R K A S S A R S R S S K R A S S R K R S S R K K K R A +.X.*.e.e.w.w.{ ' $.` ` ` ] ` ~ ~ ~ Q Q W W W W W l l l l e k k i e e i r w 0 0 o o @ @ @ @ 2 @ : % % 2 % 2 2 2 < 2 2 > 1 2 & * _ _ _ Q ( W W W N i . = ..4.L .._ L n n x M L $ - $ % & < * 4 < r r t t t y t p p p t t p p u u u p f u p f d d a d a a a d j t U +.#.+.+.+.+.Y +.Y Y U F j 9 4 B 2 2 1 M } G c D v v v v v j U j D v 9 v j g c 9 v 9 9 j j g j g 9 9 9 9 g u 9 a 9 9 d y y u k i i e k k e k e z z l l W W n W Q ~ Q ! ~ ^ ^ ^ ` ^ ` *.*.&.&.&.&.w.w.-.;.e.y.e.s.a.s.a.a.s.k.s.k.k.c.c.x.l.(.S.",
",XoXOX.X].OX].].OXL.+ 9 dXdX>X>X5.F ; X O > 7 s 3 3 3 2 3 3 3 3 3 3 6 6 6 3 3 3 3 3 6 1 & y a. Xh.H.h.v.v.h.r.h.h.:.r.:.:.:.$.$.' =.! B + @ : > : > , > , , 6 6 6 7 6 7 7 7 7 8 8 V 8 8 F ; > 9XKXKXPXKXKXLXKXKXKXKXKXLXKXKXKXLXKXKXKXLXKXKXKXKXKXKXKXKXKXKXKXKXKXKXKXKXKXKXLXKXKXKXKXKXKXKXKXKXKXKXKXKXKXKXKXKXLXKXKXKXKXKXKXKXKXmXL 4 } M 9 L x M 9 w h.;XH.Q.OXQ.;X;X;X;XOX<X8X8X<XtXtXUXH.[ 1.:.r.:.;.%.*.*.` .. . ./ ~ ! ! n b m x % o % ; & : : > > < > , , > 6 9 6 ; 9 Y @.R U L U U U U U L M 9 * $ $ & $ $ $ % # % # % > & > > 4 & < 6 < < < < < > < < 4 4 4 e 9 e z W W W W W ^ [ [ ^ ^ [ ^ [ ^ { { { { { { { { { s.s.s.s.s.j.{ _.j.j.s._._._.x.h.4.o.E T R T T Y R T T J H H H 0.5XO.L L R #.#.#.R o.R @.R #.R o.4.o.R 4.R :.R #.R :.R :.R :.R R :.R @.4.R @.R 4.@.R R @.@.R o.@.#.o.+.t 6 9 4 6 y d v H c d f d d d u y t 5 r 4 4 < & = * > < 4 4 4 t t t 1 1 2 < r < 1 < 1 1 4 1 1 p 2 p 2 1 1 1 t 1 p 1 1 3 t 1 p 1 p p p p p p p p p p p p f p p p s c j y a 9 a d 9 t 5 y y 6 B k ;.l.;.u.z.h.f.z.D.3.V K S A A S A A A R K A A S A A S A A A K R S K A A S R A A R A S S A R R A A S A A K R A A S A S A K R S S K S K S S K S S F J X.*.*.-.&.w.[ ] ` ( ( ( ] ^ ) ~ ~ ~ ! ~ W W W l W l l k k k k k k e e w w = = - o - - $ @ @ @ @ % 2 @ 2 % 2 2 ; > , 1 2 % y _ [ ( ( _ z z n z e - w ..:.L L L n n z n L $ $ @ & & & < * 4 4 4 4 t r t t u t t t p p i p p d t p u p u p d y u 9 a a y 9 j +.+.#.Y I I I U U U D F U U D D x t i z v G H c v j D c 9 v D 9 v 9 v g j j j c 9 g j j d g 9 g d 9 d g y d 9 y y y t y y u i u k u k k l k l l W l l l W W ( W ~ Q ^ ! ^  .` ` $.*.] *.*.{ &.&.w.-.w.e.y.y.a.t.s.s.a.s.k.l.l.s.c.k.x.c.x.(.(.(.",
"+XoXOXQ.OX].].H.h.OX* = Q.8X2X2XqX>XB.I 7 @ O O ; 1 7 8 3 , , 7 3 3 6 3 6 3 3 3 , , 6 a t O y N.H.H.H.h.h.h.r.:.:.h.:.:.:.:.$.$...=._ u % @ : : > ; : > , 6 , , 6 6 7 7 7 7 7 7 V 3 8 V j Z @ , FXKXKXLXLXKXKXKXKXKXKXKXKXKXKXKXKXLXKXKXKXKXLXKXKXLXKXKXKXKXKXKXKXKXKXKXKXKXKXKXKXKXKXKXKXKXKXKXKXKXKXKXKXKXKXKXKXKXLXKXKXKXPXLXKX1.< } _ L 9 z z z 9 L Q.Q.L.Q.Q.OX;XOX;X<X<X8X<X8X8XtXtXUXOX:.1.r.r.:.=.:.*.%.$.......) ! ! ! / l / L r o @ > % ; : > > 2 < , 6 ; > 6 6 9 9 #.U o.U U U D D D D P U c 9 & $ + $ $ + $ % # ; # & # & > & < > > < 4 * & > * * * q e e e W W W ^ W W ^ W ^ ^ ^ [ [ [ ^ { [ { { { { { { s.{ s.{ s.s._.{ _.s.j._.s.j._._.x.t.@.R R T T +.T Y Y Y R H T R +.5 O.kXeXV.#.P L R @.#.R @.R #.o.#.o.R o.4.:.R R R L R R R :.R R :.:.R R o.o.R o.o.R R o.o.o.R o.o.R o.o.@.d < 9 9 4 4 6 a c c c d a f d y y t t t 4 < < & & * * 4 < r r y t 1 < 1 < < < 1 1 < < 1 < 1 1 2 1 1 1 1 t 1 1 1 1 1 t p 1 p 1 p 1 p p p p p p p p 3 1 1 p p p 9 s h p a d 9 t p a t t y 5 4 0 &.f.u.u.p.f.p.l.A.,.Z 8 S S K A A A A K K A S A K A R A A A S A A K S A K R A K S S A S R K A K S R R K A S R K S R R K A A R A S K S R S S S S K A A S F | O.%.w.w.[ { ] ] ] ] ` ) ) ^ ~ Q ~ ~ W l W W l l l z k k e k e e e e r 0 = - - $ 2 @ @ @ @ @ @ % 2 2 2 2 ; : ; > 1 2 * L =.( ( _ W Q l l l w . z =.L L n _ n 9 _ _ * + + & & * > < < r 5 t r t t t t t 1 p t t t p i t p p u a t a d a y a g a 6 d U +.O.I I I I U U v D A D D D D U v x M v v c j h c c h g j c c g 9 g v 9 g d d j j 9 9 a a d 9 y y 9 9 y N y 9 y r i i y i i k e l e l k l e W l W l Q W Q ~ ~ ~ ( ( ` ` ^ ` *.] ` ] $.*.{ &.;.w.-.w.w.e.t.t.p.p.a.s.p.k.k.j.c.c.c.c.x.(.(.(.(.`.",
"oXoXOX.XQ.].].].OXQ.= . 9 ;XqX&X:X2X9X9X-X0.H > > ; @ > 1 7 3 , 6 3 6 , 3 6 6 3 , 8 , , 7 1 2 d H.H.v.h.r.h.h.:.:.r.:.:.:.:.:...' ' ..n = + : : ; ; , > ; , , , , 6 6 6 7 t 7 8 6 j 6 8 s 8 j # +.FXKXLXKXKXLXKXKXLXKXLXKXLXKXKXKXKXKXKXKXKXKXKXKXKXKXKXLXKXKXKXKXKXKXKXKXKXKXKXKXKXKXKXKXKXKXKXKXKXKXKXKXKXKXKXKXKXLXKXKXHXKXKX;Xr i ..9 n _ 9 9 9 9 h.;XH.L.;X;XOX;X;X<X<XtX<XtXtXtXtXkXhXtX:.u.u.<.r.<.:.;.;.$.$...$. .) ) ! _ l n / z * @ % & & : : > , , > 6 > 6 6 4 9 U @.U U v U U D D D D j D v c y & . & $ + # @ & % # & & & & & & & * $ $ & 0 r r i i W e W W W ^ W W ( W W [ [ ^ ^ ^ [ [ { ^ { { { { { { { s.s.s.s.{ _.{ s.s.j.j.s._._.x.x.h.=.+.R 5.T T T I Y Y I Y F R A T f > I.hX<X;XV.:.L L U #.#.o.o.R o.R #.o.R R 4._ :.R :.R R R _ :.R R R :.R o.o.R R o.o.R o.R o.R R o.o.R #.D 6 6 5 < 6 6 6 p h H h a p y u t t r 4 r < < % * > > < r r 4 t r 2 * < < < > 2 < 2 2 1 > , < 2 1 1 1 1 1 t 1 1 1 1 1 p 1 r 1 1 p p 1 p 1 1 p p p p p p p p p p j a a 9 j a p a y t t a 4 4 g p.f.r.u.f.p.z.D.,.Z 9 S S K S S A S R S R K K R R K K A S A S A A R K R K A A R K A S A A A K S K K A A A A A A K K S A A S K S R K A K R K A S S A A A C A J F | *.;.-.w.{ { ] ` ] ` ) ) ( ! ~ ~ W Q Q W l b z l k k e k k e e e i 2 = = $ o @ @ @ ; 2 % % % % 2 2 > > ; , 1 1 * i ' _ z ( W ( Q l l z w - e ..L L 9 L z _ _ = $ $ & & * < < 4 4 r 4 5 r r 4 r t r t t p 1 t p p t t t t a d t 9 p a a y 5 h O.o.I I I Y I U U P D D D j g 9 g g M L v g N 9 v g j h h g j g g v 9 g g g g d 9 9 g a 9 9 a y 9 y u y y y y i y i w i i e e k e l l e l l W l W l W Q ~ ~ ~ ! ~ ( _ ` ` *.` ] *.&.&.{ &.w.;.w.w.e.y.y.t.t.t.s.s.s.l.s.l.l.c.c.l.x.x.x.(.(.|.(.|.",
"oXoX.XOXXXOXH.H.H.H.9 + # ,.fX8X:X*X&X-X2X2X-X~.U a ; O ; 3 6 , , , , 3 , 3 , , , 7 , ; 3 3 ; @ n h.H.h.h.h.r.h.h.h.:.:.:.:.[ [ ' _ =.} * o : ; : : : , > , , , 6 , 6 6 5 t 5 7 6 A 7 7 V 8 C Z   U.JXKXKXKXLXKXLXLXKXKXKXKXKXKXKXLXKXKXKXKXLXKXKXKXKXKXLXKXKXKXKXKXKXKXKXKXKXKXKXKXKXKXKXKXKXKXKXKXKXKXKXKXKXKXLXLXKXKXKXKXKXLXN N v m z n _ z W w o.Q..XL.OX;XOX;X<X<X<X<XtX8X8XtXtXkXtXhXhXh.u.u.r.<.;.<.;.;.%.*.$..... .) ) ( ( n ! m d % # @ ; > % : > > > > 6 , , 6 D R I U U D U U v H D j j j h c c t B $ $ $ $ $ % # % & & & & & & * = & * w w e l z W W W W W W W W W W [ ^ [ ^ ^ [ ^ [ [ [ { { { { { s.{ s.{ s.s.s._.s.s._.s.j._.j._._.v.u.#.#.R E R T +.Y Y Y Y Y Y +.A V U F 1 } sX<XwX8X;XV.@.L D U L R o.o.o.o.o.L R R R 4.R 4.R L R o.R L R L R o.R R R L R o.o.L R R o.o.U o.R +.I t & 5 4 4 5 & 4 p g c d f y y y t r 4 4 < * & & * < < 4 4 t B 1 < 2 < > < > 2 < < < , < < 2 1 1 2 1 1 1 1 1 t 1 1 t 2 1 1 1 2 p 1 p p p p p p p p p p p p p 7 a a t j a 9 a a 9 6 y y & t 4.1.p.e.f.p.v.H.b.U s V R A K S K K R K A A A R A K A R K A A A A A K K S A S K S R A A R K R A A A A K K R A K R A S R A K R A K S S R K A A A K S A S A A K K K S F | X.*.;.-.{ ] { ] ] ` ( ) ) ^ ~ ! Q Q W W W W l l k l l e e k e e w 0 - @ @ @ @ @ @ 2 @ 2 @ : : : < ; > , 1 < - =.z._ _ W W W W z l z = = n L L 9 n M _ } & + % % & < * < < t 4 r r 4 t 4 4 t t 1 t t r p t t p p t p y y y y a a a 9 j P +.Y U U U U D D D v U v v x M x n M M x x g g x g g g f g g 9 9 g N 9 9 9 d a d a 9 9 y y p y i y y y y i i y i i w e e k e l e k e W l l l l W W Q ~ ~ ~ ~ ( ) ` ` ` ` ` { *.&.*.{ &.-.w.w.e.e.e.y.t.t.p.t.s.k.k.s.c.l.x.(.l.(.l.(.x.).).).).|.|.",
"oXoXOX.X].].H.].H..X* 9 . 4 >XfX2X2X4X-X&X&X:X>X0X-Xq.H # O # 6 , 6 3 , 3 , , 3 ; ; , 7 3 2 7 7 $ [ z.h.h.h.h.:.r.:.r.:.:.:.:...$.Q =...r o 2 % : > 2 > 2 > 3 1 , 6 6 6 5 7 7 9 j ; V V 6 V f p p O 6XLXJXKXKXLXLXKXKXKXKXKXKXLXKXKXKXKXKXKXKXKXKXKXKXKXKXKXKXKXKXKXKXKXKXKXKXKXKXKXKXKXKXKXKXKXKXKXKXKXKXKXKXKXKXKXKXKXLXKXPXN.. o.M n _ 9 n 9 z 9 h.;XH..X;XQ.;X;XOX<X<X8X<XtX8X8XtXhXhXhXmXh.u.u.u.r.u.;.e.;.%.*.%... .) / ! ! _ ! n } v < o % & : ; > 2 > , , , > ; 9 I #.v U U j D D h h Z D j v j 9 x g x $ $ $ $ + % % % & & & & * & & * i i k e e l e l W e W W W W W [ W W [ W [ ^ [ [ { { { { { { { { { s.s.s.s.s.s.s._.s._.s.j._._._.).v.3.R R 7.#.R Y T R T R Y U I I h T F 8 p y 1X8X<XOX<X2X&XV.o.L R L R R R R o.4.R 4.L R L R @.9 :.R L R :.R L L R L L o.o.R L R o.R L R P U P U @.j 6 5 6 t t 4 6 < 4 u h N f a t t r r r 4 < & & < < < 4 4 4 & < < < % & > 1 < 2 > < < < 1 2 2 1 t 2 2 1 t 2 1 1 1 1 r p 1 p p p 3 1 1 p 1 p 1 2 2 p p p p 3 6 9 a a a a t d a t 4 t p & f 9.;.g.u.f.f.v.m.n 8 S A V F F K S A K A A A K K A A A K A A K R K A K R K A A A K K A K K S K A R A S S R K K S K A A K K S K A A A A A K S A S A A R K A S S K S K K C C G  .*.e.{ ] &.] ] ` ` ( ^ ~ ^ ! ! Q Q W W W l l l e l e e k k i 0 2 @ @ @ @ @ @ @ 2 % 2 , # % 6 ; ; 3 2 4 X h.eXz.[ ( z l ( W e z z w + L L L n n ....B + $ & & * < < < 5 r 5 r 4 4 r 4 1 1 r r p 1 1 r t p t t t t t p 4 y y 4 a D +.I I P D D D v A D j j x 9 N n n L L M x M v v z u N d d d d d d y d d g x u 9 y y d y y y y t y t i r i r r r w i i i e k k k W l l W W n ~ W Q ( Q ~ ~ ( ) _ ` ` ` ` ' ` &.&.&.&.*.w.e.w.e.y.y.t.t.t.t.s.p.k.k.k.l.l.c.x.l.x.(.x.(.|.(.).|.|.|.|.",
"OXOXOXOXOXOX].].].[.r + t @ h zX9X:X9X>X:X2X&X-X~.&X-X>X%X9.g O # # , 6 6 , , ; , , 3 , , , , , , ; m V.A.f.r.f.t.:.:.:.=.:.:._ $.$._ _ M - & $ > ; ; > # > 6 6 6 > 6 6 6 5 6 7 7 7 p a 8 a 8 f C # 8 zXKXKXHXKXKXKXKXKXLXKXKXPXKXKXKXKXKXKXKXKXKXKXKXKXKXKXKXKXKXKXKXKXKXKXKXKXKXKXKXKXKXKXKXKXKXKXKXKXKXKXKXKXKXLXKXLXKXKX8X+ _ m m x x n n x 9 :.H.;XOXQ.;X;XOX;X<X<X<XtX<XtXtXkXtXhXtXhXmXOXa.f.a.1.r.f.u.e.;.;.*.*.%. . . .( ) ) Q ! ! z B o : : @ @ > 6 : # 6 , > h T P U G G D D v H v v g x g g d a p y 5 < + . o & 4 + + + $ 0 w w e e e W e e W e W W W W W W ^ W ^ [ ^ [ ^ ^ [ [ { [ { { { { { { { { { s.s.s.s.s.j.j.s.s._._._._._.`.>.#.7.7.+.#.T T T T T T U R U R U F F F V 6 8 +.gXwXoX5X5X X5X,Xm.<.m v Y +.Y F R L R L L L R _ o.U o.o.U o.U U P U U U U U P U U P U U U L U U P I G 4 < r & r 4 4 < r t y g g a y t 1 t r < & % & > < r 4 < : & & 2 > > < < * > < < > < < < < < 1 2 1 1 B B < 0 1 1 1 1 1 1 1 2 p p 2 p 1 p 1 t 1 p 3 t p 5 p r p d p p a p p p 4 y 4 $ u =.p.u.h.y.u.H.h.U V A A A Z A A A A A A K R A A A R K K A K A R K K A A A S K A K S A K A A A A A K K A A K A A R A S A S A S A A A A A K A A K K A S A A A A A A K S S R K K K R j X.&.w.w.{ [ ] ` ( ^ ( ^ ~ ~ ~ Q Q W W b l l l z l e l e e e 0 * # # @ @ @ @ % % & ; * > > > ; > 6 + } <XH.Q.v.h.z z z W Q l k w 0 n ! /  . .! 0 - & & & * < 4 4 4 4 4 4 4 4 r < 4 4 5 4 r t 4 5 t 4 t 5 t t 5 t t p 4 t H o.Y Z U U D D D j j g x l x n n z M v 9 L x x g x x g 9 N N u N y u i u u y t y y t 9 t 7 t t t r B i r r e e e k e k k k e z l l W l W b W W ~ ! ~ ~ ^ ^ ^ ) ) ` ` &.*.*.] &.&.e.&.w.*.y.w.a.a.s.a.s.s.p.s.k.l.s.l.c.c.c.(.(.(.x.(.x.|.|.(.(.'.}.'.}.",
"OXOXOXL.].].].].H.[.u % t % & B.jX0X>X3X3X-X>X:X:X-X&X&X-X-X!.K.j 6 # X # ; 7 7 3 , ; , 6 7 6 , , ; 4 o.V.h.:.f.h.r.r.:.$.$.-.' _ _ L _ n * $ # # ; # > # > # 6 6 6 6 6 6 7 7 7 7 7 8 7 8 8 s 8 8 V ; f 9XKXKXLXLXKXKXKXLXHXKXKXKXKXKXKXKXKXKXKXKXKXKXKXKXKXKXKXKXKXKXKXKXKXKXKXKXKXKXKXKXKXKXKXKXKXKXKXKXKXKXKXLXKXLXPXKXZX=.y / / n M n n b N 9 h.OXQ.OXQ.OX;X;X;X<X8X8X8XtX8XtXkXtXhXhXhXmX<X*.u.l.l.d.u.:.*.;.:.:.*.$.$.$. ./ ) ) ! ! ) n d $ % & : : > > > , > > 9 P I U D D D H v c j j d g g d 9 y y y t y r > + . - & + = * 0 w e e e e e e e W W W e W W W W W ^ ^ ^ W ^ ^ [ [ [ [ [ [ { { { { s.s.{ { s.s.s.s.j.j.j.j._.s.{ _._._.v.h.@.7.R #.#.R +.T +.T I T U U U U A U R A V 7 8 a 4XeX,X,X,XoX,X,X<X%XN. .g 9 D +.9 R R :.#.R @.9 P U U U U U U U L U L U L U U P P U P L U U U L P P P 5 < 6 4 6 < < < B r t y a d y t r 4 r < < % * * 4 4 < 1 % 2 % % 2 2 * > > 2 > > < > < < 1 2 2 < B 2 1 2 1 2 1 B 1 1 1 r 5 p 2 2 p 2 p 1 1 1 p 1 t 1 t t p t d f p a 5 y t y t 9 & * n a.u.p.r.h.A.8.P D A A A A A j A A K A A K K A A A K A A A A A K A A K A A A A A A A K R A K A A A A R A A R A A K K A A A A A A A A S K K R A R A A A A A S S K A A A A A K K S R A U R P ..$.w.{ { { [ ( ^ ( ~ ! ) Q Q W W W W l l l k e l k e e w + o @ @ 2 : % $ : % : : : > , > > o L <X).Q.].v.t.:.( e e e z W 0 k ! >.! } =.= - % & < & < 4 < * < < < < 4 4 4 4 4 4 4 5 4 5 r 5 t 4 t 4 t t t t 4 4 a H P U U D D D v v v v M n l l n M n v x 9 x v x x g g z N N N i N y y u y y u t t t t 5 t r t r r r r t w i i e e k k e k z z l l l l W W Q Q Q ~ ~ T.^ ) / ^ ` $.$.] $.&.*.{ { &.w.e.e.e.e.e.s.s.a.s.a.k.p.l.s.c.c.x.l.(.l.x.(.(.|.|.(.(.|.|.}.'.|.}.oX",
"OXOX.XOX].].].].F..Xu - r 1 O < pXjX2X2X0X:X>X2X2X:X&X~.~.~.&X&X:X!.6.U , # O O 3 3 3 , ; ; , 7 ; 1 # & ..H.h.:.r.r.r.1.:.' $.:..._ _ _ / z # # # > & ; > # 6 & & 6 6 > 6 5 6 7 7 7 7 8 a a 8 s 7 R f X O 6.BXKXKXKXPXLXKXKXKXLXKXKXKXKXKXKXKXKXKXKXKXKXKXKXKXKXKXKXKXKXKXKXKXKXKXKXKXKXKXKXKXKXKXKXKXKXKXKXKXKXLXKXHXKXKXL.B } m n n M n M k i _ Q.;XH.;X;XOXOX;X;X<X<X8X8XtXtXtXhXhXhXhXhXmXuXu.p.l.f.u.u.u.1.;.;.;.%.%.*.*.*.) ) ) Q m T.! m B % % > > % & > 6 # , v U D Z D v D c c j g g a a f y a y p t t t r r * - % 0 0 w w e e e e e e e W e W e W W W W W W W W ^ [ ^ ^ [ ^ [ { [ { [ { { { s.{ s.{ _.s.s.s.j.j.j.(.s._.s._._.).F.8.5.#.7.E E E +.E T T I T U U U U U A U U Z 8 s 8 ; U.sXeXoX5X,X X+X{.,X%X.XM.>.T.f 4.R L 9 R 9 R L U U L U P L U U U P P U U U U L U D U L L L U U U v I g & 4 4 4 < < < < > < 4 5 d d t r < 4 < 4 & * < < < > & & % 2 % 2 & > 2 > 2 < 2 * > < > < < 2 1 2 1 1 1 < 1 1 1 1 1 B 1 B 2 1 1 i 1 1 p 1 t 1 1 t p 7 t 7 t p u y p t y t 5 9 5 & u =.d.;.p.r.A.m.P j 9 K A A A A A A A A A A A A K K A A A A A A A K A A A A A A A A K A K A A A A K R K K A A A A K A A A A A A K A A A A A K A K A A A A A A K R A K S K R K A A A K K K K S U |  .$.&.{ { ] ] ` ( ~ ^ ~ ~ ~ ~ W W l W l l W l k k e w 0 * + @ % : : o : > : % > > > > 6 + x ;XH.].H.F.Q.v.r._ l k e k k 0 z 3. .} =.* + $ & * & < < * < 4 < < 4 4 < 4 < 4 4 4 4 4 4 r 4 4 4 4 t t 5 r 4 4 p G U D D F j D g v x M M n n l n n M M v M L n x n M N z g N y g u i u i y t y t t r 4 5 4 r B r r r i w i i i e k k k k l l l l l l W W W Q Q ~ T.^ T.^ ^  .` ` *.] &.&.&.&.{ w.&.e.y.e.y.s.a.s.a.s.a.s.l.k.l.k.l.l.(.x.x.x.(.|.x.|.(.).|.}.|.|.|._.|.XXwX",
";XOXOX.X].OX].].F.[.N o < d % O ,.jXfX>X9X0X2X2X>X:X>X:X-X~.~.!.Q.&X:X~.B.Y p @ O # ; , 3 6 ; ; , , & o * =.H.1.:.:.:.:.:.:.$...=._ ..L _ n + & > # > > # > # 6 6 ; 6 6 6 5 5 6 6 7 7 7 8 8 s 8 s 7 p d @   d 5XPXKXKXJXKXKXKXKXKXKXKXKXKXKXKXKXKXKXKXKXKXKXKXKXKXKXKXKXKXKXKXKXKXKXKXKXKXKXKXKXKXKXKXKXKXKXKXKXKXHXKXKXaXN i } n L L b M b u i h.;XOXQ.Q.;X;X;X;X<X<X8XtXtXtXtXuXhXhXhXhXhXmXmXz.h.g.d.f.u.u.;.;.<.;.;.;.*.%.*.......) ~ ) ) ! z 2 @ : , ; & 6 , # t I U v v h h h h c c g g g a a a y t r t 1 4 y u i * = i k e e e e e e z l e W W e W W W W W W ^ ^ [ ^ ^ [ [ [ [ [ [ { { { { { { { s.s.s.s.s.s.s.j.s._.s.(._._._._.x.h.5.R 7.+.#.T E T T T Y Y Y R Y U F D U A F V 7 s A , T.4XlX,X,XwX{.,X{.{..X,X,X.XY.*.9 L L R L :.9 R v U U U L U v L P P U L L L U L v P P D U D D v L U U v > & 6 < < 4 > * > * & < t y t t r < 4 4 % < < < * % $ 2 2 % 2 % : & * : & & > > 2 < < < 2 < < 2 < 2 < 2 0 1 2 0 1 1 1 B 1 1 1 1 1 1 i 1 1 t 3 5 1 t 1 t 1 p d p t p 9 t 5 y B B L u.d.e.r.h.m.O.j V A K K K A A j A K A A K A K R K 9 A K A A A A A A A K K A A A A A A A A A K A K K 9 A A K A A A A A A A A A A K A A A A A A A A A A A A A K K 9 A A K K K A A A A A K K K K A H D T.*.] &.w.] [ ^ ^ ^ ^ ~ ^ Q W W W W l l W l l l k l i 0 $ o % ; 2 % ; & > > : : > 6 = u ,X].H.v.F.h.z.F.z.r.[ z i z i B b } X...& + & & & & & * < * < * < * < * 4 4 < < 4 < 1 5 4 5 4 4 4 4 4 r 5 4 y c G F H j P j j g M z x l l n n x n M L x M M 9 g 9 9 x N 9 N N u u y y y i t i r r r r 4 4 0 0 0 0 i w i w e e e k e l l k l l l W Q Q Q ( ! ~ ^ ^ ^  .` *.] *.*.] &.&.&.-.w.&.e.e.y.e.t.p.a.s.a.p.s.k.l.s.k.k.c.(.l.(.(.x.(.|.x.|.).|.|.}.}.|.}.oXXXXXXX+X",
"OXOXOXOXXXH.].`.A.Q.k + < a r 2 # !.BXpX2XpX3X2X2X2X2X:X:X-X*X-XQ.K.Q.!.-X&XZ.n.H 5 O X # , 7 , 6 ; : 1 # 4 4.V.u.1.:.:.:.:.$.' _ _ _ / _ / & # # & & # # > > > > , > , 6 6 7 , 1 7 7 7 7 p 8 s Z 1 @ 2 d 1 .   } fXKXKXLXHXKXKXKXKXKXKXKXKXKXKXKXKXKXKXKXKXKXKXKXKXKXKXKXKXKXKXKXKXKXKXKXKXKXKXKXKXKXKXKXKXKXKXKXPXKXHX} B ..} n m n M M N u l OXQ.OX;X;XOX;XOX<X<X8XtX8X8XtXtXuXhXhXhXUXhXmXMXm.u.u.u.A.A.f.1.e.<.<.;.;.%.&.*...*.$.^ ) ! ) ! ! t + % < > ; 6 # 6 c U D c G j h g j g g a y y y p y y t t i i u x b N = - q q e e e e e e W e W e W W W W ^ W ^ ^ ^ ^ ^ ^ [ [ { { { { { { { { s.{ s.s.s.s.s.s._.s.s._.j._.j.j.s._._.).f.@.E 7.E #.#.E T T +.T Y R U U U U F F R j A A 6 9 A V :  XsX5X<XwX,X,X,X,X{.|. X'. X{.8.4.L 9 9 o.L 9 U D D L D P v P U L v U U U L v D D v D v D U D D v U v 6 & 4 * 4 < < & & & < & 2 t t y t r < * * > > * % + % % % : % : % % = 2 2 & & > 2 > > > < 2 2 * < 2 < 1 2 2 1 < 1 1 1 1 1 1 0 1 1 1 1 t 1 1 1 r t t 1 t 6 a a y 7 t 9 5 t 6 * N =.a.u.r.h.m.=.j K A A K K K A 9 A A K K A A A A A 9 K A 9 A A A 9 A A A A 9 A A A A K A A A A K A A A A K A A A A K A A K K A A A A K A K A A A A A A K A A A A A K K A A K A A A A A A R A 9 A K K K A D |  .*.&.] ] ] ^ ` ) ~ Q ~ Q ~ W l l l l l l l W k w 0 $ $ : : ; & % : : > ; > < & 0 .X.XA.z.H.h.h.h.v.h.t.:._ i b r $ r X.1.& + $ * & & * > * * & < < & 4 < < > < < < 4 < 4 < 4 4 4 4 4 4 4 r 4 g D D U v j h g M z z z l W l x n L M M M v v x g g x z z u u N u y u y y y y i t r r r w 0 0 0 w w w e e e e k k k l k l W l W b W Q Q Q ( Q ^ ~ ^ ^ ^ ` ` ] ] ] *.&.&.&.-.w.e.e.w.e.e.s.s.a.s.s.s.l.s.l.c.c.(.l.(.c.|.(.(.(.(.|.).|._.}.}.}.}.|.}.}.|.}.+XrX",
"OXOXOXQ.).Q.].`.F..XN & 2 t t t X v dXBX6X0X0X1X6X6X2X>X-X-X&X-X2X-XQ.K.Q.Q.~.&X!.n.+.a ; O O O # , 3 1 & + 4 1.h.h.:.$.$.:.$..._ _ .._ / L B . $ # & & & > & , > > , 1 6 1 6 6 7 6 7 7 7 8 8 p f p 1 O $ t t &   < I.SXKXKXKXLXKXKXKXKXKXKXKXKXKXKXKXKXKXKXKXKXKXKXKXKXKXKXKXKXKXKXKXKXKXKXKXKXKXKXKXKXKXKXKXKXPXKXKX%X* n X.v n m M n b y M 1.;XQ.Q.;XOX;X8X;X<X8X<X8XtXtXtXtXhXhXhXhXhXmXmXMXeX.Xh.:.;.f.d.l.i.e.a.e.;.;.;.%.$. .$.$.) ) ~ !  .z < % & : > : # 9 U v j h v j h c g g d y y y r y y y N N c x b z x k q . . - q w e l W W e W W W W W W W ^ W ^ ^ ^ ^ [ [ [ [ { { { { { { s.{ { s._.{ s.{ s.s.s._._.s.(.j._._._._.F.v.@.+.R 5.+.E +.+.T T Y T U U Y U D R A U U j D A 8 7 8 8 @ 5.4XeX,XwX,X,X,X.X{.,X}.{.{.{.Q.H.h.L L 9 L R v D v D D v v v 9 D v D 9 L U v v D v D D v v v v v D P a & & < < < < < < & & & 2 < 1 r t < < % * % * % % % % % % : % : : 2 2 % % & & 2 > * : * & 2 > 2 > 2 < 2 2 1 2 1 2 < 2 B 2 1 1 1 1 1 1 2 1 1 1 1 1 3 1 r 4 t a y t t 9 5 t * 4 _ 1.1.r.f.m.>.j 9 A A K K K A K A 9 K j A A 9 K K K A A A K A K K K A K A A K K A K 9 A j 9 A K A A 9 A K 9 A A K A A A A A A 9 A j K A A 9 A A A A A R 9 A 9 A A j A A A j A A A K A K A A A A A A K A K V A c H } ) ] { ] ` ` ) _ ( ( ~ ^ W W W l W W l l l k k 0 2 @ o % ; : & : > > ; % & $ L..XF.F.z.F.v.r.r.h.f.u.:. .M y i $ r o.B . % > & & & & & > * & * < * & * < * < < < < 4 < < 4 > 4 4 1 4 4 4 c U v 9 v h g M x n l l W W n n M M M M v g v x x x g x 9 N N N u u u i i y r i r r r r w w r i w e e k e k k k k k l l W W W W W Q Q W _ ( (  .`  .` *.` *.*.*.*.{ &.-.w.w.e.y.e.s.y.s.a.s.s.s.a.s.k.l.l.c.l.c.(.S.(.(.(.|.(.(.|.|.}.}.}.}.}.+X}.|.c.}.rXXXXX",
"OXOXOXH.).XX)..XH..Xu & < r 1 t 4 # n.cXdX9XdX9X9X6X6X3X6X>X:X>XQ.!.;X;X!.Q.J.K.R.~.-X!.9.H < O ; 3 , @ ; ; & y =.u.r.-.$.:.$.$.$.$._ _ Q n M % + # # & & & & ; > > , , , 1 1 3 3 7 5 7 7 7 8 7 7 @ 1 t t 2 2 h f     I fXKXKXLXKXKXKXKXKXKXKXKXKXKXKXKXKXKXKXKXKXKXKXKXKXKXKXKXKXKXKXKXKXKXKXKXKXKXKXKXKXKXKXKXLXKXkXb u } / L m n x n b u } .XOX;X;X;X;X;X<X8X8X8X8XtXtXtXkXhXhXhXhXhXUXmXmXmXAXUXeXQ.m.;.r.u.a.1.a.e.r.:.:.:.%.%.$.$.$.) ^ ! ! ! g & @ > > ; 6 j P h h h c g 9 9 N 9 y y y y x 9 N x c b b M b N z i = - - $ - = q e e e W W W W W W W [ ( ^ [ ^ ^ [ [ [ [ [ { { { { { s.s.{ { _.{ _.s._._.s.s.s.s._.(._.(._._._.y.#.#.R E #.E #.T +.T T T Y R R R A U A D A A A A V 7 8 8 8 3 V R.tX,X,X,X,X5X,X{.{.oX X X{.H.Q.Q.Q.V.L 9 9 D v v v v v v m L v v v 9 L 9 L v v D v v v v v j L c D j < & < & > & * & & & & % 2 & r r 1 < * > % % % % % 2 % % % % % % 2 % 2 2 % 2 > % > * > 2 2 2 * 2 * 2 < 2 * 2 < < < 2 1 2 1 2 1 1 1 1 1 1 1 1 t 1 1 1 1 , 5 y p t r 6 4 5 & N <.u.;.r.d.@.D s 8 K A 9 A K K A K K K K j K K K A A K K K A A K 9 A A 9 K 9 A A 9 A K K K K A K K K K A K 9 A A 9 9 K A 9 A 9 A K K A A K A K K A A 9 K 9 K A 9 j K A K j A j 9 A A 9 K K A A K A A A S A V V V A Z P }  ...$.' ` [ ( ( _ ^ ~ W W b W W l e l l k N i 2 $ % @ & : : > > > ; 4 X V.XXF.F.F.H.h.h.h.u.h.:.=.u./ N M B . i y o + = & & & % & & & & & & * & < & > & < < < < < 4 < < 4 < 4 < 4 h c v c g g N z l l z W W n n n n M v v v g v x h x x g N z 9 k N u u u 9 i w i i t i r r r i w e e e i e k k k k z W l W b b Q Q Q ~ ~ ( ( _ _ ^ ^ ^ *.*.*.&.&.{ &.-.w.w.y.y.e.y.e.a.s.s.p.s.l.l.s.l.l.(.c.c.(.(.c.(.|.|.|._.|.|.}.}.}.}._.}.|.t.(.@XbXIXPXuXXX",
"OXOXOXOXQ.XX].F.F..Xi + < 1 < t g X a 9XcX9XaXpXiX0X6X6X2X2X1X:X2X:X~.~.~.~.=X!.K.J.C.Q.&X~.C.0.C O X ; > 4 & X x :.h.:.:.:.$..._ _ ( _ l / 2.v o # # # & # & : ; , , , , 1 6 6 6 6 7 7 7 7 8 a t % 1 2 & 1 * < 2 f a   X M.SXKXKXKXKXKXKXKXKXKXKXKXKXKXKXKXKXKXKXKXKXKXKXKXKXKXKXKXKXKXKXKXKXKXKXKXKXKXKXKXKXKXKXKX2.B X.} v x n n x m b i =.8XQ.OX;XOX<X;X<XtX8X<XtXtXtXkXtXhXhXhXmXmXhXmXmXhXgXmXMXmXtXG.1.;.a.a.a.a.u.:.:.:.&.%...$.$.` ) ..! ..m 4 # : > % 9 j D j v h a d d y t y 9 g c v M n n n M b ! Q ! x z N 0 - $ = $ - q q e e W W W W W [ W W W ^ ^ [ [ ^ [ [ [ { { { { { { { { s.{ { s.{ s.s.s.s._._.s._._.(._._._.j.[ +.R 7.5.R E T T T +.T I I U U U U U U D D D U j 9 7 8 K 8 C O Y.gXwX,XeX,X X,X,X<X{.{.|.{.OXH.H.Q.H.V.h.:.9 v 9 v g v v v v v v L P U 9 L v v h v v v c c g D g D v < & < & & & < < & & & % o $ 2 1 r < * * % % % $ % % % % @ : % % % $ 2 % : & % 2 & : : & % 2 : 2 2 2 2 < 2 < 2 < 2 < < 2 2 1 2 1 1 2 1 1 1 1 1 1 1 1 1 , t y y t t 5 5 6 * ! i.e.;.p.d.j 8 A A 9 V S j j 9 K K K K j A 9 A A 9 9 A A 9 K 9 A 9 K K 9 A K A K j K j j K A 9 9 A A 9 9 A K A A K A A K A K A K A A A 9 j A A 9 A K A K K K A A K A j A K 9 A K A K A A A K 9 A A 9 A 9 A K Z K K K K V f | *.*.] [ ( [ [ ^ ^ ~ W W b b W l W l l b N e 2 % ; % & : ; ; : 6 r   z.Q.z.z.z.v.v.h.v.u.r.:.=...8.x 4 y 4 y y o % & & & % & % & & & & < & * & > * < & < & < < > < < < < < 4 < G c g j z 9 y z l l W W Q Q L L v x M v v v g x x x z N 9 9 k 9 u N u u y i 9 r r r r i i w w i k k k k k k l l l l l l b l Q Q Q Q ~ ~ ) _ _ ` *.*.*.^ { &.&.&.-.-.w.e.e.e.e.t.s.a.s.p.k.s.k.k.c.l.c.c.l.c.(.S.(.|.(.(._.|.|.|.|.}.}.}.}.|.(.(.yXIXLXKXKXLXyX}.",
"OXOXH.OX].].].H.F.Q.l + B 4 < 5 2 c X | BXzXlXdXpX0X0XiX6X6X2X2X>X:X-X-X-X&X~.~.~.!.Q.Q.Q.Z.Z.Z.~.B.I 4 X X # > @ u >.i.' ..:._ ..} L / %.>.,.3.} % X % % @ > ; ; : > > ; 6 6 6 3 7 3 6 8 8 5 6 2 2 > < < < < 1 B 1 < t t   O pXKXKXLXLXKXKXKXLXKXKXKXKXKXKXLXKXKXKXKXKXKXKXKXKXKXKXKXKXKXKXKXKXKXPXLXKXLXKXKXHXLXV.y } / L L M M x M n q L ;X%X;X;X;X<X<X<XtX<X8X8XtXtXtXkXhXhXhXhXhXmXmXmXUXmXhXUXhXhXUXmXsXQ.:.:.:.:.1.r.:.1.1.*.%.*. ...%./ ! Q / m * + > > H H c d a t a u x c c c m c b T.n L m m ! m ! ! ! z k z w . - $ $ = $ $ $ w w e ( ( ( W W ^ ^ [ ^ ^ [ [ { { [ { { { { { { s.s.{ _.{ s._.s.s._._.(.j._.j._._._.'.#.7.7.#.5.R #.+.T +.+.T Y Y Y Y U R F F D F D A Z F h 7 3 8 s 8 V 3 a 5XgX{.tX,X,X,X,XoX X{.oX XH.H.H.H.G.D.U.U.3.o.c N x v c c 9 9 v v H v c g c c h c c c g c g v g v v 9 & $ & & & & & % & % o 0 $ - * * B 2 > O # % + & & + @ @ $ $ 2 @ 2 @ % % 2 % 2 % % 2 : * : 2 * * : > > < 2 > < > < < 1 2 < 1 < < r < 1 < r 1 1 r 1 1 6 4 5 9 9 < 6 9 4 u :.h.:.d.2.c 9 V V j 9 K 9 V Z K V A 9 K K j K 9 Z V 9 A V A A K A K A A K j V A 9 Z V j K j j K K j 9 A A V A A K A A A A 9 A K j K A V A V K K 9 K K j K K A K A K 9 A K A A A 9 A K A 9 A j A A K j K K A K 9 K A A A K A 9 A A D L ..[ [ [ ^ ` ( Q / / W W W W l l l l l 0 2 2 @ 2 2 > 2 & $ $ :.OXh.].h.h.h.h.h.r.:.r.:.:._ =...& $ n @.v B X $ $ # r $ * # * 4 & + $ 4 4 & & * B B & * > & < 6 2 2 1 f g j d N k l W l W W Q Q L L n L v v v v x v v x g x x g N N N y y y y i t r 9 w < 0 i i e e k e k k e l l l l l W b Q Q Q ~ Q ^ ^ ^ ) ) ^ ` ` ` ] ] ] &.*.w.&.w.w.e.e.t.a.s.a.p.s.l.k.l.c.k.k.j.s.c.(.(.(.(.(.x.}.|.(.(.|.}.|.}.XX}.j.j.z.wXAXKXLXLXKXKXPXLXIX_.",
".XOXOX.X].H.].].A.G.Q + 4 t 2 t 1 u 2 2  XVXxX0XpXpX0XiX9X9X2X2X2X2X>X-X-X-X&X&X~.!.!.Q.K.Z.Q.Z.B.C.K.I.9.G #   X o ! a.1.' ..=./ ..>.1.,.>.X.X.3.H @ X : : # < : > > > > 6 > 6 6 3 3 3 7 7 6 , > > < > > < < < < 1 & % a p   X T.sXKXKXKXSXLXKXPXKXKXLXKXKXKXKXKXKXKXKXKXKXKXKXKXKXKXKXKXKXKXKXKXKXKXKXKXKXPXKXmX=.u / L L L v M n L i 9 8.OX.XOX;X;X<X<X<X8XtXtXtXtXtXuXhXhXhXhXhXhXmXmXmXhXhXhXhXhXsXsXhXhXhXhX=X8...:.h.h.:.;.*.*.*.*.*.) ) *.) / n y + @ a d f N h d c c v c M ! ! T.! T.T.n L T.! ! T.~ T.Q z z l w . - $ $ $ = $ = * w w i z W [ ] ` ^ ^ { { [ [ { { { [ { { { y.{ { s.s.{ _.s.{ _.s._.s._._._._._._.(.m.#.7.7.5.7.7.T E T T T Y Y I U R U F F F U A Z D Z F f p p p 8 8 8 V 1 U.gX<X,X<X5X,X,X XoXoX{.{.Q.Q.H.Q.U.G.S.U.U.S.,.} y r 9 v D v L 9 9 a c H j c h h j M c v 9 v c x v 9 * & & & & & & % $ & 2 2 % = $ $ & X o $ o % & o X * = @ 2 @ 2 $ 2 $ % % % % % % 2 % % : & > : > > > & < * 2 > < < < 1 B < < < < 1 1 < 1 < 1 1 r 1 r 4 6 t t t t 4 * * ..r.:.f.1.P g j V V V K V V V V K j V A V j K V A V K K V j K 9 A 9 K K 9 j K j V K K j K j K A A j A K j K Z 9 K 9 A 9 K A A j K A 9 A Z K Z 9 A 9 A A K 9 A 9 A A 9 A K A 9 K K A K A 9 K K 9 A 9 K K A A 9 K K 9 K K V A K K K j A D L L L ` ` ` ( ( ( W W W W W W W l l W k r : O @ 2 : 2 9 4 + _ ;XH.H.H.z.v.r.r.h.r.:.[ :...=._ b =.b.,.8.P 4 + # + . # # * & + & t 4 + & * * < & & & & & & * & $ 2 N } d x x l l W W W l W Q L L n v v L v n M M x x x g x N g N u y N y i i 9 r y r r w i w i e k k k k k k z l l l W W b W ~ Q ~ ! ^ ) ) ) ) ` $.$.$.&.*.&.-.w.-.w.e.e.e.e.e.s.a.s.p.k.p.s.j.k.c.l.c.S.(.c.c.l.(.|.|.s.(.}.+X+X|.|.|.y.F.wXNXLXKXKXKXLXLXPXLXLXKXKXOX",
"OXOX.XOXH.OXH.H.A..Xm - 4 4 4 5 t t d O f dXSXlXdXpXpXpXpX0X6X6X2X2X2X:X:X>X-X-X^.~.~.~.Q.Q.Q.Q.I.Z.J.K.Q.V.6.@.t X . N =.=._ n 4.>.1.,.>.>.,.2.@.9.P o X & > % ; > : > ; > > 6 6 3 6 7 7 6 , > > > < 2 < > > < 1 1 t > % 1 t B   d -XSXKXKXKXLXKXLXLXKXKXKXKXLXKXKXKXKXKXKXKXKXKXKXKXKXKXKXKXKXLXKXKXKXKXKXKXKX1.M M L v L L n M L L & L ;X;X=XOX;X;X<X<X8XwX8XtXtXtXtXhXhXhXhXhXmXmXmXmXhXmXhXkXkXhXkXtXkXhXhXhXhXtX;Xh.[ ..:.e.<.;.;.&.*.$.;.~ ) /  .L 4 @ c f N c H m G T.} m T.T.T.T.) T.T.L / } } T. .T. ./ l z l w - $ = = = & = = & * * = * l W ( ] [ [ ^ [ [ { { s.{ { y.{ y.y.{ _.s.s._.s._._.s.s.s._._._._._._.`.d.>.5.5.7.E R #.#.T T T Y T I U U Y U U U F D F Z D Z Z C 3 3 V 8 f s C 2 H lXgX[.wX5X,X5X X X{.oX XH.L.Q.H.I.H.D.A.m.m.D.M.,.o.g r 9 N 9 U j g d c j g j h 9 j d g g v g 9 g g 6 = & % & & & & $ % 2 - % 2 . - N B   % % o % + o & @ @ @ @ @ 2 @ @ % 2 2 % 2 $ 2 % : & : & : % & 2 > > > > < < > > < < < 2 2 1 < < 2 r < 1 B 1 1 r 4 5 5 4 9 5 5 $ k u.f.:.1.o.9 8 9 K 9 K V V 9 K A 9 V V V V V j V A A 9 V V V j K A 9 A V V K 9 K A V V K V V j 9 K j K A V 9 K A A 9 K A A K 9 V j K 9 9 V A V 9 K K A A 9 9 A j V K A 9 A K V A K 9 K A K j K 9 A K K 9 K K A A j A A V A 9 K 9 A K K 9 A K A m / _ ' [ ( ( ( ^ ~ W b W l W W b k r 2 @ : : 2 # 4 $ n OXh.h.v.h.z.h.h.h.:.:.1.:.$...Q k / h.9.8.1.>.4 . * o   X   X X X   X o o # # + + # B 9 4 4 * & 0 t d N u k k z W W W W W L / L L v v M M v v M v x g x x g g N g u N y y u y i y w r i r e e i k k e l z k l z b W W W ! W Q ~ ~ ^ ^ ) ` ` ` ` *.] *.*.&.&.w.-.e.y.e.e.e.t.s.a.a.s.s.p.l.s.l.c.l.c.x.x.s.(.|.|.}.|.(.|.+X+X}.(.j.k.|.}.MXAXPXKXKXKXLXLXLXLXLXKXKXLXKXhX",
"OXOX.XH.OX].].).F.[./ $ < 5 < 5 t 1 t 1 O 0.SXjXfXfXfXdXaXpX0X9X0X6X2X2X2X1X:X-X-X&X~.~.!.!.!.Q.K.I.V.M.n.Z.Z.Q.R.,.N B n 4.1.2.8.8.8.2.,.3.>.@.@.,.9.P # o > % & ; > > > , ; , 6 6 3 6 5 > : % > & 2 * & < < 2 B @ > t < 2 1 d B o X T.jXKXKXKXKXLXKXKXKXKXKXKXKXKXKXKXKXKXKXKXKXKXKXKXKXKXKXKXKXKXLXKXPXLXKXeX9 x } L L m n M M / u w h.4X.X.X;X<X<X<X<X8XtX8XtXtXtXhXhXhXhXhXhXhXmXmXmXmXhXhXhXhXhXjXhXkXsXtXtXhXhXhX8XQ.h.' $.;.<.e.a.;.' $...) ..=.} u r G G T.! T.o. . .o.}  . .T. . . . .} .. .o. . . . .W n z l i - - = $ = & * * * & 4 & * 4 e z ~ [ -.{ { { { { { { { y.y.s.s.s.s.s.s.{ _.{ _._._.s._._._._._._.l.5.7.5.#.5.#.R E T R T T Y Y T U R U U F F D D Z Z Z Z Z C 3 3 p 8 s 8 V p 2 P.hX=X<X,X,X,XoX,X{. X XOXL.Q.H.G.G.D.D.m.m.i.m.D.N.<.T.z 9 9 9 c v j d 9 j g 9 j d j g g j g 9 9 g 9 & & $ % & $ % % % $ $ - $ . 0 ..3.$ X o % o + & + o 2 - 2 @ $ - 2 % % % $ 2 % % : % : % : : * 2 & % 2 & > & 2 < 2 2 2 < < < < < 1 1 < < < 1 < 1 1 5 4 5 5 6 4 B B $.:.f.h.o.j 8 8 K V V 8 9 V 8 V V V 9 K 9 K V V V 9 V K 9 V K 9 9 K K 9 K K 9 A 9 V V V 9 K V V V V K j V V A V K 9 A K 9 9 K K A V V A K V 9 K K K A 9 V V K V K A K 9 K A j Z 9 9 A K K 9 K A K K A 9 A K 9 V j K 9 A Z Z j K K K K K K K K K V v v / _ ] ' [ ^ ~ Q Q W W W l b W b u 2 % @ 2 # 6 $ 9 ;XH.v.].v.h.h.h.:.:.:.h.1._ L z = 0 _ m.>.4.n.L $ o.J.Q.n.@.v v c d t t & & $ + . X         X $ r b H k l l W Q W W W W Q ( L v n v D v v n M M x g x x g x g N u g i N u y i i i r w i i i k e k k l k l l W W W W ~ W ~ ~ ~ ^ ^ T. .^ ` ` $.&.] *.{ { w.-.w.w.e.y.e.t.s.a.s.s.k.s.l.j.c.c.l.c.x.x.(.(.|.|.|.(._.|.}.}.c.c.j.k.oXbXNXPXKXKXKXKXLXPXKXKXKXLXKXKXPXKXKXIX",
"OXOXH.OXH.OXH.).A..X/ + 2 r 2 1 1 1 1 N 2 1 -XSXjXjXfXdXdXaX0X0X9X9X8X6X2X2X1X:X:X:X&X&X~.~.~.Q.Q.Z.Z.Q.Z.B.n.0.6.I.I.a. .o.Y.R.n.8.2.,.,.,.2.Y.6.o.,.n.| % o % % ; > > ; > ; , , 6 6 6 6 > > % & 2 : > 2 > < * < < 2 < 1 r 2 @ p p %   > n.CXKXKXLXLXKXKXKXKXKXKXKXKXKXKXKXKXKXKXKXKXKXKXKXKXKXKXLXKXKXLXKXAXn n } } L L M M M n m * L .X<XOX;X<X<X<X8XtXwXtXtXkXtXtXhXhXhXhXmXhXmXmXmXmXhXhXmXhXhXkXkXhXkXkXtXkXtX8XtXhXkXwXQ.i.i.&.) ..:.:.$.1...} m u u / X.T.X.X.| | *.*.T. ... . . . . .|  ... .X.*. . .! W / z l k - - = = & & * * * * * 9 w w * w i l Q { { y.{ { [ y.s.s.s.s.s.s._.s.j.s.s.s._._.s._._._._.}.).b.5.7.E R 5.E 5.#.R T #.Y Y Y Y Y R U U F F F U D Z Z Z Z Z f 1 7 8 8 8 s 8 C 2 O.lXeX,X5X,X,X,X,XoXoX{..X.X].Q.`.H.H.H.G.S.m.g.i.i.m.A.=.L g y y 9 x h g g d d f g g 9 g g N 9 g g g * & + & % % $ $ $ o 2 - - < i %.N.T.@   $ % o + % @ - 2 - 2 $ @ @ $ @ % % % : % % % % % 2 % % 2 & : & 2 * > : : * 2 2 > > < < > < < > < < 1 < < B 1 1 1 a 1 * 4 z u.:.1.>.d 7 A K V V V 9 K K V 8 K V V V V V 9 K V K V j V V V V V V V V 9 K V V K 9 V K V V V K 9 V V 9 j K 9 V V V V V K 9 K V V K 9 V K V j K A 9 V V V 9 V V 9 K V V A 9 V V K 9 V A 9 K 9 K 9 A K K 9 V K V K V V K s j V V A V K K K K K K V V j Z j P } ..` ] ( ( ^ ~ W W W W Q b k r % : > 7 O * Q.H.t.v.H.v.:.h.h.8.:...n w w i 0 q u ..m.4.=.,.B X N X.R.:X2X&X~.&X-X&X!.~.~.~.Q.0.8.#.@.3.X.c r t N N b b W Q Q Q Q ) L L L G v v v v v M M x x x g x g u g N u N i 9 u i i i i i e e e k k k l l l l l l W W Q Q ~ ~ ^ ^ ^  .^ ^ *.^ &.` ] &.&.{ &.w.w.w.e.y.e.t.t.t.a.s.k.k.k.k.l.l.c.c.x.x.(.(.(.(.(._.|.}.}.|.(.(.k.'.tXAXPXKXKXKXLXLXLXLXKXKXKXKXLXKXKXKXKXKXLXKX",
"OXOXOXOX].H.).H.x..X/ $ < t 1 t t r p t d o u ZXzXzXfXfXfXfXaXaXpX0X9X9X6X6X2X>X>X:X:X-X&X~.&X~.Q.Q.Q.Q.Z.V.Z.Z.q.U.P.M...i < r n.n.C.n.9.,.3.3.9.,.@.,.b.o.* X % ; : : & > > > , 6 6 6 > & % & % : & * & 2 & 2 2 1 * > 2 & 1 d 2 t d 2     | 1XJXKXKXKXKXKXPXKXKXKXKXKXKXKXKXKXKXKXKXKXKXKXKXKXKXKXKXPXKXKXm.0 L ..L L L n n L L N r m.2XQ.;X;X;X<X<X8XtX8XtXkXtXhXkXhXhXhXhXhXmXmXmXmXmXhXhXhXhXhXkXkXkXkXkXhXtXkXtX8X8XtXsXhXeX.Xg.%.X.:.>.X.P g y & $ k $.=. .X.*.*.*.|  .*.%.X.X.X.O.*.*.*.*.O.%.%.*.*. .~ W W z W k - $ 0 & $ & * * * * w w 4 r w r 4 i i e ^ w.t.s.y.{ y.s.s.s.j.s.s._.{ _._._.s._._._._._.).F.h.,.5.E 7.5.R E R R +.T T R Y R U U U U U F F D A D Z D Z Z Z 7 7 7 8 7 8 8 p C 7 7 P.kX,XwX,X,XwX,X X,X X.X.XQ.].H.Q.J.H.M.S.D.S.m.g.i.g.8.8.X.L x k p y d d d d f a a g y 9 y y u 9 g 4 & % % $ % % % % o % . 0 z b  .1.<. .< X o % o o @ @ O @ o @ $ @ @ @ % @ % % % % @ % % % % > % % & % % : : * : 2 2 * : > * > < > < < < < > < 1 < 2 * 1 a 4 % i ..:.u.X.j 7 s A 8 8 9 K K V 9 V V 9 K 9 V V 8 K V V 8 K 9 9 K 8 K 8 9 K 9 V 9 9 V V 8 V 9 9 V 8 9 K V V K V K V V V K 9 K j K 9 V V V V V V 9 K V 9 K 9 V V K V V V j V j V K V 9 K A K 9 K 9 V V K K 9 K V V 9 V 9 K V 9 V V V V V V V j j V 9 A A V K V K Z j v ! ) ] ` ^ ^ ~ Q ~ Q b b Q l r % > ; # 4 H.L.v.h.h.h.h.h.:.:.n z * i n _ l = q 0 :.8.1.n...X   - + | I.&XR.K.Z.B.Q.~.~.!.!.~.:X:XfX8XU.v = o $ $ 0 0 w k i e z / L L m n v v v v M v x c x x x g g N N N u y i u i i i u i e u e k l k l l l W W W l Q ! Q ~ ~ ~  .^  .` *.*.] *.&.&.&.&.&.-.-.;.y.e.y.y.t.t.p.s.p.k.p.k.k.k.(.l.c.(.(.(.(.|.|.(.|.}._.|.(.(.l.|.NXHXKXKXKXKXJXHXKXKXKXKXKXKXKXPXKXKXLXKXKXLXKXLX",
"OXOXOXH.OX].H.).S..X .$ 2 t 1 t 5 5 y < h < o R.CXcXzXjXjXfXfXdXpXpXiX0X0X6X6X6X2X2X>X:X-X-X~.;X~.!.Q.Q.Q.Q.Q.V.-Xa.! ! b b i $ o 4 I 9.C.B.n.0.3.n.9.O.9.n.} 4 # @ ; : > > ; > ; , , , & & & % & : % > % : 2 > 1 $ o B t > & @ < ; 2 f d 2 X X 2.ZXKXKXPXKXKXKXKXKXKXKXKXKXKXKXKXKXKXKXKXKXKXKXLXKXKXKXKXsXr M } o.M L L M L M M r L Q.;XQ.<X<X<X<X8X<X8XtXtXtXhXtXhXhXhXhXhXhXmXmXmXmXhXhXhXmXhXhXhXhXhXtXtXtXkXtXtX8XtXtX8X<XsX<XeX1Xn.P j 6 ; ; ; # r b ' ) %.*.%.O.%.O.O.%.O.*.*.O.O.%.O.%.>.%.%.%.=.$.! Q W ( l W k = - = * = * * * * 4 = * 4 w 9 9 9 w w e e ( [ y.j.s.y.s.s.j.{ _._.s._._.s._._._._._._.).F.n.5.5.R 5.7.R 5.R 5.T E R Y Y Y U R R U U U F F F D A Z Z c Z j 7 6 8 8 7 s 8 s V V ; 4.aX<XwX5X5X+XoX,X,X X.X.XQ.Q.Q.F.A.D.I.S.N.Y.d.l.N.Y.h.8.8.1.4.L x u u d d u u d y u a y 9 N y 9 d t % $ % % @ $ $ + . . - u b b  .<.%.N. .@ X : % O @ o - @ @ @ o @ @ @ @ - % % % % % % : % % % : % % 2 % & % > 2 & & & 2 * 2 > > * 2 > > > < < 2 < > 2 r t < < n i.>.4.c 7 8 V s V V K 8 8 8 K 9 V 8 8 8 K 9 V K 9 V 9 8 V 8 V 8 V V 9 8 K 9 8 V V K 8 8 V K 8 8 K K 8 V 9 V 8 8 V 9 V V 8 K 9 V K K 9 V 9 9 V V 8 K K 9 K j V V 9 V V V V j V V V 9 9 K V V V V V 9 K 9 j K V 9 V V V K K 9 K 9 K V V V 8 K j K V A K 8 K K 8 V V c H m ! ~ ` ) ` ^ Q W W Q Q z r % % & 6 h.Q.H.OXv.v.h.:.Q z 9 z _ u.V.A.u.Q q q i :.:.:...9 - - X X < X.R.-X%XR.Q.Q.Z.q.Q.~.;X~.,.P 4 X X $ * $ - o $ = $ $ t m L G v v v m M M M M v x x g x g N N N y y d y u i i e i k k e e l l l W W l l Q Q Q ~ ~ ~ ^ ^ / ` ` ` ` *.*.*.] w.w.{ -.e.e.e.y.e.y.t.a.t.s.f.j.k.k.k.c.(.(.(.(.x.(.(.|.|.|.(.|.}.c.s.k.}.gXHXLXKXKXKXKXKXKXKXKXKXKXKXLXPXLXKXKXKXKXLXPXLXKXFX! ",
"OXOXH.OXH.H.).H.S..X .- 2 B 2 t < t r p t t p o ZXVXzXfXjXjXfXfXdXdXpXpX0X9X6X6X2X2X2X>X:X:X:X~.^.~.Q.J.Q.Q.Q.Q.%.Q b ^ ~ ) ) N . X . & g @.N.B.b.2.Y.2.>.,.b.>.# # ; > ; < > > , , , & # @ @ & & % 2 % > * > % & 1 1 1 @ % d 1 > 1 < 2 2 2 < d   % =XKXKXLXLXKXKXKXKXKXKXKXKXKXKXKXKXKXKXKXKXKXKXKXHXKXHXL i >.L L L L L M L z L = h.1X.X;X<X1X8X<X8XtXtXtXtXtXkXhXhXhXhXhXmXmXmXmXmXhXhXmXhXhXhXhXkXtXkXkXkXkX8XtXtXtX8X8X4XeX8X<XsX8X@.# ; 6 ; 8 , < M ) ( _ %.%.<.%.>.%.%.>.%.>.%.*.%.%.%.>.<.>.<.>.;.*.) W W ~ W W l - - * = = q & * * * 9 4 r r r w r 9 i e e e e W { j.v.s.s.s._.{ _._.s._._._._._._._._.}.H.5.7.5.5.5.R 5.5.R R T T Y R Y Y R U U U F U F F D D A D j Z Z s 7 7 8 8 3 8 7 V 7 C 3 c 3XtX,X5XwX,X,X X XoX.X.XQ.].`.Q.H.H.S.m.M.S.S.N.g.a.8.1.1.8.8.>. .v u y t y y y y p d 4 y g y y u 9 % + % $ $ @ @ $ @ o B ! x z ;.<.<.%.3.o.%   o : o @ @ @ - @ 2 - @ @ % @ o % @ @ @ ; % $ ; : % % : % : : % & & 2 & 2 & 2 & > < 2 * 2 < < < < < 1 > B 1 B = i ) d.8.c 6 8 A 8 7 V 9 8 K V 9 V 8 V K V 9 V 8 V 8 V 8 K 8 V V 9 K V 8 K 8 K V K V 8 V 9 K V 9 V V V 9 V V V 9 V K V 9 K V 9 V V V 8 V 8 V K V 8 V V A 9 K j V V s V V V 9 V V V s V K K 9 K 8 V 9 K K 9 K V 9 V K V 8 V 9 8 K 9 K 9 K 9 K K K 9 9 8 9 V V 9 Z V V V 8 8 j c m ~ ( ( ~ ^ ^ ^ W W Q ! u > 4   = 9 [ h.h.h._ _ _ r.H.Q.Q.J.m.D.H.u.l e - k h.8.X.n - . + $ X   > 3.&X2X~.~.Q.~.:X>XQ.+.4 & + + $ 2 & $ 2 < < * % & g o.L v v v v n M M x M M g x g N g u N N u N i y i i i i i k k l l e l l l l W W W Q ~ ~ / ^ ) `  .` ` *.*.] ] &.&.&.-.-.e.w.y.y.e.t.t.t.s.s.f.k.k.k.k.k.c.c.l.l.(.(.S.|.|.|.(.|.(.{ |.yXIXLXLXLXLXKXKXPXLXKXKXKXKXLXLXKXKXKXKXKXLXKXKXKXKXLXCXL   ",
"OXOXH.OX).H.H.H.v.OX..$ 9 * & 9 4 4 t 5 t 5 6 4 G FXVXfXcXdXzXjXfXfXdXdXpXpXiXiX9X8X2X2X2X:X-X-X-XR.R.&X:X=Xm.) ) ) _ ) Q ( ! Q y & o @ O X ; U q.n.C.n.2.,.8.b.2.>   1 6 # ; 6 2 1 2 % $ % 2 = & % & 2 % & 2 & 2 & 2 * 2 < < 2 < < < 1 2 1 1 B f $   G VXLXKXPXJXKXKXKXLXKXKXLXKXKXKXKXKXKXKXKXKXPXKXKXm.r =.L _ L L L x M n M 9 _ ;X<X;X<X<X<X<X<X8XtXtXtXtXhXhXbXhXhXhXmXmXmXmXUXUXhXUXhXkXhXhXhXkXkXkXtXkXtX8XhX<XtXkXtXtX8XeX8XkX@.O 6 ; 7 6 & & i ! ) ` ` $.;.<.>.%.*.>.>.<.>.<.<.<.<.>.3.@.>.a.a.;.) ~ ) Q Q Q W z = - 0 = * * * B B 0 4 r w i t r i i u i N z u w u ( :.c.j.j.j.j._.c.j.s._._._._._._.XX,.5.5.E 5.5.5.R 5.5.R R T T +.Y Y I R U U D U D F D D Z D j A j j f 6 7 3 p 8 f f 3 C V 7 p O.jX,X<XeXoX,X,X{.,X=XoX.X{.[.I.I.G.S.U.U.A.A.N.N.g.f.d.i.u.<.<.<.;...! i r 4 r y u 4 i d u 9 i t t 4 + + # - $ $ -   e ~ W z n ,.a.O.%.O.%.X.*   . # . O + # + + & + + + + % + % & % % : % $ % $ % 2 2 % % % : % % 2 2 : 2 : : % ; % % < 1 < < 4 5 a : r * * ! ,.2.d s 8 9 8 s s s V 8 V 8 s V 8 s 9 V V V V 9 s 9 V V s s V s s V s 9 V V s V s s s K 8 V 8 8 8 V V K 9 V s s s 8 V 8 8 V 8 V 9 K 8 V 8 8 V V K 9 8 V 8 K V 8 V 8 8 V K V K 8 8 V s V s V s V V s V s V s V s 9 V V V 9 K 8 V V V V 9 K V V K V V K V 9 K 9 V V K V V V 9 V 9 K j _ ] ] ~ ^ ^ ~ W W z = .     . - <.i.G.{.=X{.F.m.m.m.m.m.H.m.=.z z q i u.d.n i . $ o o % .   = ,.-X0X0X1X!.@.r 4 9 * + + $ $ = & * & + B % % M T.T.H G m c c c b c x c x d g d f g g N u i u e e k e k k l l l W l l n W W Q Q ! ~ ~ ( ( ` ` ` ` ] ] *.*.{ &.w.&.-.w.e.e.e.t.t.p.y.p.j.k.f.s.k.c.c.x.x.x.k.c.c.`.`.|.|.(.j.j.|.}.IXLXKXKXKXKXLXKXKXKXKXKXKXKXKXKXLXKXKXLXKXLXLXKXLXPXKXKXsX9 + L ",
"H.OXOXH.H.OXOXv.H.H.:.$ * 9 4 & 6 t t 9 p p 5 5 > 2XSXvXjXcXzXfXfXfXkXdXkXdXpX9X2X9X9X6X2X2X2X-X5X>X6X&XM.<.) ) ) ` ` ) ( ( ! Q n i & $ + + # # + 5 | 0.I.V.8.,.3.,.f X @ , ; ; 2 2 @ O O % = % & : : % & 2 2 & & & & 2 2 & > * 1 2 < 2 < < 1 1 2 t % X t n.VXKXKXPXLXLXKXHXPXKXKXKXKXKXKXKXKXKXLXKXKXaXL m } } o.L L L x L L N 9 h.<X<XOX<X<X<XtX8XtXtXtXtXhXtXhXhXmXhXnXmXmXmXmXUXhXUXhXhXUXhXhXhXkXkXkXtXtXkXkX<XtXtX<X<X<X8X<XUXd.* , 9 9 6 6 < B z ~ ` ` $.&.e.a.<.3.3.>.>.<.<.<.<.<.<.<.<.>.1.1.<.&._ ( ) ~ ) W Q W = - = * * * * & 0 4 0 r r r r t i y u N x x g 9 y z b [ s.j._.j.j._._.s._._._.$X_._._.#.7.R 5.7.E R 5.R 5.5.R T R Y Y I R U U U U U D F D D Z j Z v Z j 9 7 6 7 p 8 8 8 p V 8 s p c lXeX,X<XwX,X,X{.,X.X.X.X{.{.{.|.G.G.S.S.U.m.A.g.i.d.d.i.i.a.<.;.>.>.%.| M u 4 4 B y y 9 4 4 4 t 9 4 + o & $ + . . e W l l Q  .a.<.<.<.|  .@...B X . $ & + o - . X + # % + + % % % % % % ; % 2 % 2 o @ % % % & 2 & > < > 2 < < 2 > 1 < 2 2 : ; % > X : u * u 1.1.v f 9 V s s 8 V s V 8 V 8 s 9 8 s 8 8 8 8 8 s V 8 8 s V 8 s 8 8 V 8 V 8 V 8 s V 9 8 K 8 V V V V 9 8 8 K 8 V 8 8 V K V V K V 8 V 8 V 8 K s V 8 8 V V 8 V V s s V V V 9 V 8 9 V V V V s V V V V V V s V V V V V V V 9 K V V K 9 9 K V K 9 V V 9 9 V V V V V V V V V 9 V V V 8 V V j j m m ( ! ^ ~ W Q n i N z z  ...X.;.a.N.M.U.I.L.A.A.m.h.z.m.u.=.l z w l _ ..n . & + o o % $ o o % @.I.3.d B 9 g r $ . $ & $ - & = * $ B = % G G c T.M c c M c c b c b x x g g g i N u u i u i i k e l l k l l l W W W Q ~ ^ ~ ^ ^ ^ ) ^ ` ` ' ] &.*.&.{ w.&.w.-.e.w.e.e.t.a.t.s.l.s.p.a.j.c.l.c.x.c.f.c.`.'.'.'.c.j.y.).wXMXPXKXLXKXKXLXLXKXKXKXKXKXKXKXKXKXKXKXKXKXLXLXKXKXKXLXPXKXKX X9 9 9 L ",
"OXOXH.OX].H.).H.v.OX:.$ 4 4 4 4 5 5 5 9 p p p t @ f vXGXfXcXcXjXjXjXfXfXfXkXpXpXfX0X>X6X0X6X>X2XlX3X=XN.%.) ) $.' ` _ ( / ( ~ Q m b r % % & % X O X . & j X.0.J.I.C.@.> X : p % 3 2 : : 2 2 $ $ $ % % 2 % 2 % & & 2 2 & & 2 > > < < < < 1 < 1 1 2 t y :   X | >XKXKXKXJXKXKXKXLXKXKXKXKXKXKXKXKXPXKXIX=.u 4.L X.L L L M L L M z _ OX<X;X8X;X<X<X<X8XtXtXkXtXhXhXhXhXhXmXmXmXmXmXmXUXUXhXhXkXUXkXhXkXkXhXkXkXtXkXtX8XtX<XtXtX<X8XfX%X< , p ; V , ; * y n ^ ) ` *.*.;.;.a.2.a.<.<.<.<.<.<.a.3.a.2.,.i.u.:.$.` ` ( ( Q Q Q l 0 - * * * * 0 0 B 4 w 4 r r i i i y i i N N N z g d i e W [ x._._._.j._._._._.).|.A.O.5.5.5.7.E 5.R R 5.R R #.Y Y Y Y R I U U U D D D D A D Z D Z j j j 9 6 6 p 7 p 8 p f 8 7 C p p U.gX<X5XwX,X,X,X,X,X{.{.{.{.[.I.|.G.U.S.S.m.m.g.N.d.d.i.1.1.<.:.<.>.<.>...L x u t 4 4 r 4 9 4 4 4 t $ # = + . + = l Q ! n N z %.N.O.<.<. .4.@.L r   X # . o # $ o + $ % $ + @ + + % % & + O O o + 1 2 2 2 2 : : % $ @ $ % % 2 & % % 2 % % : 2 5 4 f 1 % $ m i.G 1 a s s 8 8 V 8 V 8 9 8 V 8 s V 8 K 8 8 K V s 8 V s s 8 V V s s s s V 8 s V V 8 s s 8 K 8 8 8 V K V 8 8 8 8 V 8 V 8 8 V 8 V 8 8 K 8 K s 8 8 9 K 8 8 V 8 8 s 8 s 8 K 9 9 V V V 8 V 9 V V V 9 V V s V 9 V V 8 V V V V V 9 8 K 8 K 8 V K V V V V V K 9 V 9 K 9 V V 9 V 9 K 8 9 K 9 K 7 9 c H m ! ! ~ ( ( ( $.<.a.g.g.<.<.X.*.;.1.m.A.V.J.A.m.h.h.h.d.n W k i b _ / u   . + o % * + X   + 9 y 4 t g 4 $ + . $ & = $ & $ & % B $ * G T.T.c m c T.c b x c b x x N g N d u u u k i k k k e l z z W l l W Q Q Q ~ ^ T.^ `  .) ` ` ' ] [ &.w.{ &.&.-.w.w.e.y.t.t.t.t.p.s.k.y.k.x.(.x.c.c.x.p.x.'.}.|.(.s.y.k.'.gXIXKXKXKXKXKXKXKXLXKXKXKXKXKXKXKXKXKXKXKXKXKXLXKXKXKXKXKXPXKXPXR.< & v L g ",
"OXOXOXH.].H.H.).H.H.:.9 4 6 & 4 5 5 t y p y p y f   R.FXVXzXcXcXzXzXjXjXfXfXfXdXdXqXqX0X6X6X9XaX5X[.e.*.*.e.;.&.' ' ` ` _ ( / ~ b Q z r + + % & 4 > # X X + t P ,.0.R.B.5   # > : O o o % - % % % 2 % % % % 2 % 2 % & 2 2 * * 2 & 2 < 2 < 2 < 2 5 2 2 t d : . O ,.ZXKXKXPXKXLXKXKXKXKXLXKXKXKXKXKXKX&Xu } ..L } L L M L L L 9 k h.;X<X<X<X;X<XtXtXtXtXtXtXhXhXhXhXhXhXmXmXmXmXmXmXmXhXUXhXUXkXhXkXhXkXkXtXkXtXtXtXtXkX8XtXtX<X8X9X5 # s 6 ; 7 ; # B x _ ) ` ` *.*.*.%.a.a.Y.a.Y.Y.Y.a.Y.Y.a.Y.Y.2.d.u.:.' ' ` ) ) ~ W Q W 0 - * 0 = * * * B 0 4 w r r r i y i u y y y u g M M g x N z W { c._.}._._._._.|.N.5.5.7.7.#.E 5.R E 5.R #.R R Y R Y R U U U R F U D A D A v Z j j j j s 8 6 6 3 7 p 8 7 8 8 8 H f 1 | sXlX<XwX,X<X,X,X,XoX.X{.{.[.[.[.G.G.S.U.A.A.N.g.d.h.d.d.1.<.>.<.%.*.X.X.%.../ v * 4 4 t r r 6 9 4 < + + X . * k l b n N 2 - G Y.<.>.<.>._ o...o.4 o X o + o O # o + # o o o o + o o @ # % % 2 2 o o o $ $ % 2 & 2 2 2 < > 1 4 6 < < 1 > > % # & O   X a Y.>.4 5 s 9 8 s 8 8 s s 8 V s 8 8 8 s 8 9 8 8 8 8 8 s 8 9 8 V 8 8 s 8 s 8 s s 8 8 8 s 8 8 s 8 s 8 V 8 8 8 9 K 8 V 8 s 8 8 V s 8 8 V 9 s s s s V V 8 8 V V 8 V 8 V s V 8 V 8 K 8 V 8 s V V 8 8 V s 8 9 V V 8 8 s 9 V V 8 8 8 K 8 V 8 9 8 8 9 8 V 8 8 V 9 K 8 V 8 K 8 8 K 8 K V 9 8 K V 8 8 K 8 s h H } $._ ( ' ;.a.p.g.<.2.a.%... .$.%.%.u.h.A.A.V.m.m.g.:._ e z n z z m - $ & % o O o & # & r g N 9 t * . + # $ = $ $ = * & = 2 % 1 T.G m m H M c c c c x x x f N g N u u u u k z k k z l l l b W W W Q Q ~ Q ) T.^ ` ^  .] ] *.&.&.&.-.*.{ w.e.y.e.y.t.t.t.t.t.k.j.k.k.k.c.c.k.s.k.x.].}.'.c.w.{ j.OXuXIXLXKXKXKXLXJXJXKXKXKXLXKXKXKXKXKXKXKXKXKXKXKXKXKXLXKXKXLXPXKXKXJX9.. g o.L 9 9 ",
"H.OXOXH.H.].).H.z..X=.. 4 6 < 4 6 4 t t p p p 9 h @ 6 9XHXVXcXvXcXUXUXxXxXfXfXdX0XfXdX9X0XjXlX Xu.;.-.-.e.e.-.&.-.' ` ) _ ) ! ~ ~ ~ Q x 0 X X 4 O @ 6 < % O X X > j o.B.B.c O @ > % @ @ o . + & % % % % % % 2 % % 2 & * & & 2 2 > * > > 2 < < < 2 2 % 2 5 t 2 <   x >XJXKXKXJXKXKXLXLXKXKXKXKXKXLXjXL x >.L / } L L L L L z 9 9 Q.8XOX<X8X<XtX<XtXtX8XtXyXhXhXhXhXhXmXmXmXmXmXmXhXhXUXhXhXhXhXhXhXkXtXhXtXtXkXtX8XtXtXkX8X;XkXkXU ; 7 , 7 j @ 1 $ i Q ) ) ` ^ { &.;.;.a.g.Y.a.N.Y.Y.a.Y.a.Y.Y.Y.h.d.1.$.[ [ [ _ ( ( Q Q Q w - * * * 0 * B B 4 B r r r i y i y y g g N N N z x M m m x u u Q :.v._.}.XX.XU.3.7.7.5.5.R 5.E #.7.+.#.R R +.R R U U U U U U F F A D Z Z Z Z j j j j f t 7 6 7 7 p 8 7 p V 8 V f p t =XsXeX{.5XwX,X,X,X,X{.{.{.{.[.|.G.G.I.G.U.A.N.A.b.b.h.d.1.1.<.<.>.%...%.*.%. . .M g r B & * 4 4 9 B $ . . * e n x w & & & $ 4 v N.>.X.X...X.4.X.P t . X # # . # . O + + @ + % + $ & & & # $ & & < < > % % @ @ # o O X X .               . X X   @ d G x v d : Z 8 8 s 8 8 8 a 8 8 8 8 8 s 8 8 8 8 8 8 8 8 8 8 8 8 8 s 8 s 8 8 s 8 s 8 s 8 s 8 s s 8 s s 8 8 8 K 8 V V 8 8 s 8 V s 8 8 s 8 8 V 8 V 8 V s 8 8 8 K 8 8 8 V 8 8 V V V 8 V 9 s s s 8 s V V 8 8 V V V s 8 V s V 8 V s 8 K K 8 9 K 9 K K 8 K 9 K V 8 V K 8 9 8 9 8 V 8 V 8 V 8 K 8 K 8 K 8 8 6 8 j P ..( Q $.e.f.g.i.3.<.<.<.<.%.X... ...$.:.d.h.m.m.h.V...k i n l i N y = . + % o + & X g v p y 9 B o $ + $ $ $ $ $ & $ = & * % i T.G G c M M c c c c c x x N N N k N e z e z l l l l l W b W Q Q ~ ~ ~ ~ ^ ) ) ^ ^ *.` ] *.*.&.w.&.w.&.w.y.e.e.y.t.y.t.p.s.k.j.k.k.j.l.k.k.(.`.].x.c.s.s.j.`.wXMXPXKXKXKXKXLXLXLXKXKXLXKXKXKXKXKXKXLXKXKXKXKXKXKXKXKXKXKXKXLXLXKXLXLXP r 9 L g 9 v v ",
"OXOXH.OXOXH.H.H.z.L.>.. 4 & 4 6 4 6 6 4 5 p 5 p 1 G   +.SXSXBXBXcXcXzXUXzXzXxXfXfXfXaXjXjXeXU.*.;.r.a.p.r.-.&.&.$.$.$.` ) ) ) ! ! W Q ! N $ . & # o X # % > & & + X X > +.3.c # X o % % & & % & @ % @ % % % % % & 2 % 2 2 2 * % : * & * > > 2 < : t t r 2 > 2 4 t X   O.BXKXKXKXKXKXKXKXKXKXKXLXLXX.i X.} } } P L L L M L z n :.8X<X;X<X<X<X8XtXtXtXtXtXhXhXhXhXhXhXnXmXmXmXmXmXmXUXhXUXUXhXhXkXhXkXkXhXtXkXtX8XtXtX8XtX;XtXkXh.X 7 a , 3 3 2 1 4 x ~ ) ( ` &.] -.y.;.e.g.g.a.Y.Y.l.Y.Y.Y.Y.l.N.h.h.r.&.:.-.[ _ ) ( Q Q Q w - * = * * w 0 B w 4 r i i t i y u i t u x z z z z b N M v L v v M z r.x.H.n.#.#.7.7.E 5.#.#.#.T T +.R R +.I U R U R U R A U D A D j H Z v j j j f f a 7 , 6 7 7 8 7 8 p V s 3 C s 2 3.lXtX,XwX,X,X,X,XoX,X.X,X{.{.[.[.G.G.U.S.U.A.N.m.g.d.d.i.1.1.<.>.;.=.%.....$...../ M N r B & = 0 * - X = i u y 6 % # & , , + # 3.6.3.X.X.....} X.c * X X + + . + & + + o o o o X X   X . . . $           X . X . + & 5 9 L P o.n.Z.~.2X0XUXUXBXBXHXfXc # a s a 8 8 p a 8 a 8 8 8 s 8 8 8 8 8 s 8 8 8 8 8 8 8 8 s 8 8 8 8 8 8 s 8 8 8 8 8 8 8 8 8 8 8 8 8 8 8 8 8 8 8 8 8 8 8 8 8 V 8 s V 8 V 8 8 8 8 8 8 8 8 8 8 V 8 8 V 8 8 8 8 V 8 s s s 8 V 8 8 8 V V 8 8 8 8 V s 8 V 8 8 s 8 9 8 8 8 8 8 K 9 8 8 K 9 8 K 8 8 8 V K K K 8 V 8 K 8 K V 9 9 8 K 8 K 8 V 9 n } ! l $.u.1.b.Y.i.<.a.a.,.<.<.%.*.....} _ ..=.i.d.m.h.:.i w ( ( i = o X o + & & o & d 4 * g 9 + . $ $ # $ $ + $ & * * 2 % 2 N | v G M G c M c x x f x d x N N N k k e l e l l W l W W W Q ~ ~ ! ! ! ^ ) ^ ^ *.` *.&.&.] &.&.-.-.-.e.e.e.y.t.p.t.t.s.s.s.k.k.c.l.l.k.(.`.`.x.k.f.s.x.,XMXPXKXKXKXKXKXJXJXKXKXKXLXPXKXKXKXKXKXKXLXKXKXKXKXKXKXKXKXKXKXKXLXLXKXKXcX@.X c P g 9 M v g ",
"OXOXH.H.H.H.).).z.L.>.. 4 < 4 5 6 4 5 5 t t p t 1 G % % &XFXDXcXvXBXUXcXcXxXzXxXfXjXjXkX%X;.&.g.l.k.p.r.e.;.;.;.*.$.$.$.` ) ! ^ Q Q l b n N B + < % # o @ : % % & # @ O   & h > o O X X # & * $ @ @ @ @ % % % % % % & 2 & & 2 & * & > > > > > 2 t 1 2 2 2 1 1 > t y 2 X u -XFXKXKXKXKXKXKXKXLXLX;Xk n @.n } ..L L L n L L 9 L Q.8XOX<X<X<XtXtXtXtXkXhXtXhXhXhXhXmXhXmXmXmXmXmXhXhXhXhXUXhXhXhXhXhXkXtXkXkXtXtXkX8XtX8X8X8XkXH.9 > 7 1 s , O 4 & b Q ( ( ` ] &.*.{ e.&.e.S.|.m.Y.l.l.N.l.N.Y.N.N.m.u.:.-.[ -.[ [ ( ( ~ ( ~ i $ = * * * B B B B w i t r i i i u y i u 9 z x N x M L M g x v v L M z ..5.5.7.7.5.5.7.E R #.R #.7.T #.#.R R R U U U U F F A D D D A Z c j Z j j 9 f a 7 , , 7 7 7 p 8 8 s 8 3 V V t f 5XtX<X<XwX,X,X,XoX,X.X{..X[.[.[.[.[.U.S.S.M.A.l.N.g.d.i.u.1.1.=.=.<.%.......$.../ / / n N B = = * # $ 4 r B = % # 6 ; # , # % t >.b.4...X.o.o.X.X.M * X   . .                 $ & = 9 9 9 9 L O.@.9.M.K.&X5X2XfXfXjXUXUXBXBXVXcXBXBXVXvXBXvXUXBXCX&X& O Z C 3 8 8 8 8 8 8 8 8 8 8 8 8 8 8 8 8 8 8 8 8 8 8 8 8 8 8 8 8 8 8 8 8 8 8 s 8 8 8 8 8 8 s V 8 8 8 8 8 8 8 8 s s 8 8 V 8 V 8 8 8 s 8 s 8 s 8 8 8 V 8 8 s 8 V 8 V 8 8 8 s 8 s s 8 8 8 s 8 s 9 8 8 V 8 V V 8 8 8 8 V V 8 8 8 K 8 8 8 8 8 8 V 8 8 8 8 8 8 K 8 K 8 8 8 V 8 8 8 K 9 8 8 8 K 8 8 8 8 8 8 j G / n ;.a.a.g.i.i.Y.2.6.a.<.<.%.<.=.%.} / / / ..$.$.8.m._ e / ) ! 0 * = % O o # X t y y g 4 . X 4 $ $ & $ $ & = % $ % * = % c T.G c m v n c x x c x x N N N k k u z z z l W l W W Q Q Q Q ~ ^ ^ ^ ` ) ^ ` *.*.] &.&.&.&.-.w.w.y.w.y.y.t.a.s.p.p.k.j.k.k.k.c.l.x.c.`.`.l.;.y.v.oXuXPXLXKXKXKXLXJXLXKXKXKXKXLXLXKXKXKXKXLXLXKXKXLXKXKXKXKXKXKXKXKXKXKXKXKXKXLXfX4.X P v 9 9 / } x g ",
"H.OXOXH.H.H.).H.z.[.=.. < < 4 5 5 5 t t 5 t t t h > F o j ZXPXcXvXvXvXcXcXcXzXUXBXBX3Xm.&.p.x.f.u.a.a.a.e.;.;.;.&.=.*.$. .^ ^ ! ! ^ Q z b m y o + @ % % % O @ @ # < $ # & % . o I.3.r     . + # $ @ @ % % % % % 2 % % % & 2 * 2 & & & & * > 2 < 2 @ < 1 1 < 1 < t % 1 d X   T.BXLXLXKXKXKXLXLXPX& X.X.4.o.L X.M L L n n n i :.kX;X;XtX;X8XtX<XtXtXtXtXhXhXhXhXhXnXmXmXmXmXmXmXmXUXUXhXhXUXhXkXkXtXhXhXtXtXkXtXtXtXtX8X<XhXOX9 9 t 8 , ; 1 t & * n _ ` ` ` ] &.{ ;.t.w.a.{.,X{.U.S.N.Y.l.U.S.N.U.h.h.-.w.w.[ [ :.` ( Q ( ~ t = = * * B * B w 4 4 r r i t i u u i N 9 u g g g v x N M n L L v L L v U E E q.7.7.7.#.E 7.E T E +.T R R R R P U U R A U F U A D j D Z Z Z j j s f f 9 6 6 6 7 7 7 3 3 f 3 p V 8 p C : I.tXeX<X,XwX,X,X,X,X.X X{.{.[.[.I.[.G.S.U.A.m.A.A.d.g.i.2.1.1.1.=.=.=.;.=...) / _ L / L L g y & * & & < + + & > # , # # 6 > > X v 1.>.:.=._ ..P P o.v B . + r v L P @.1.b.n.C.Q.~..X;X<X8X8X0XsXiXiX9X0XiX9X9X8X8X8X8X8XiXiXiXpXsXaXfXkXkXUXUXBX9X9.9 6 5 3 V 8 8 8 a p 8 8 8 8 8 8 8 8 8 8 8 8 8 8 8 8 8 8 8 8 8 8 8 8 8 8 8 8 8 8 8 8 8 8 8 8 8 8 8 8 8 8 8 s 8 8 8 8 8 8 8 8 8 s 8 s 8 8 8 s 8 s 8 s 8 8 8 8 8 8 s 8 8 8 8 V s s 8 s 8 s 8 8 8 8 V 8 s 8 8 8 8 V 8 8 8 9 8 8 V 8 8 8 K 8 8 8 8 8 8 K K 9 8 9 8 8 V 8 8 8 8 8 8 8 8 K 8 8 8 K 8 K 8 8 8 j P } Q e.f.a.l.g.g.2.a.a.<.<.<.<.%.4.$.=.*.../ ! / L n 1.:.Q / ! / ! r + + o + # o 4 t d 4 & . + . . . # $ = * = $ $ = 2 = % c  .v G m c c c c c x x f x N N k k k z z l l l W W W Q Q ~ ~ ^ ! ) ` ` ` *.*.*.&.&.&.w.&.{ w.e.e.e.a.y.a.t.s.p.k.k.k.k.k.c.l.c.l.x.x.k.w.-.|.bXIXLXLXKXKXKXLXKXKXKXKXLXLXKXKXKXKXKXLXKXKXKXKXKXKXKXKXKXKXKXKXKXKXKXKXKXLXKXKXdX4 . @.v 9 M P 9 y v g ",
"OXOX].Q.].`.F.F.z.A.u.. r < < 1 6 4 4 5 t t t y d p 5 c X #.LXDXVXDXVXBXzXcXZXCX8XG.r.l.x.l.l.S.f.p.a.p.e.r.;.;.&.:.*.$.$.) ) ) ! ~ Q Q W l l l - o % @ : @ % @ % % ; & @ + + . . n.2XQ.D #     . $ 2 % + o % @ > % % @ % 2 2 % % % & < 2 & 2 & 2 < < < < < < B t 2 2 < t 2 o X 6.JXKXKXFXKXKXo...o...P } P / P / P N ..e 9 wX<X;X<X<X8XtXtXtXtXkXtXhXhXhXhXhXmXhXmXmXAXmXmXmXmXhXmXhXhXhXhXhXkXhXtXkXkXkXkXsXsXkXtX;XUX8X9 $ 9 > 9 , ; , # & k Q ! ^ ` ] &.{ w.w.t.{ l.oXoX+X,XoX|.x.S.U.U.M.U.:.y.y.w.w.-.[ [ [ ( [ ( ( z - * 0 * * B B w B w i r r i i y u u u z N N x g x v M v x M L L L v h T 0.5.5.#.5.5.7.7.R #.E T T E Y R R U R U R A U U U D 9 D j D h h j j j j s d 6 6 6 , 1 6 t 3 8 8 p p p V 8 V 3 f 5XhX,XeXeX,X<X<X,X=X.X.X{.{.{.{.L.G.I.S.S.A.N.g.g.g.Y.Y.a.a.:.:.:.:.$.....) )  ... .! Q Q ! n 9 $ X # < > > # # ; , > > ; > & @ G b.>.......o._ o.L @.V.n.Q.K.Q.Q.Q.Q.Q.!.!.Q.K.Q.!.!.!.!.&X~.;X;X;X;X1X2X8X8X8X9X9XpXkXpXkXfXkXfXUXfXUXUXCXZXV.V.v 9 6 9 8 8 8 9 8 8 8 8 8 7 7 9 7 9 8 3 8 8 8 8 8 3 8 8 9 8 8 9 6 9 6 3 9 7 8 9 3 8 3 8 8 8 8 8 8 8 8 8 8 8 8 8 8 8 8 8 8 8 8 8 8 8 8 8 3 8 8 8 8 8 8 8 8 8 8 8 8 8 8 8 8 8 8 8 8 8 9 8 8 8 V 8 8 8 8 8 8 8 8 8 8 8 8 8 8 8 8 V 8 8 8 8 8 8 V 8 8 V 8 s 8 8 8 V 8 V 8 8 8 3 8 8 9 s 8 8 8 8 s 8 8 V 8 8 j v ) p.y.r.A.g.N.Y.a.i.i.a.a.a.X.<.%.%.%.%. . . .L L n n  .$./ l n _ 0 . 0 + X 4 y d 9 * . . # $ $ % $ + + & & * & * * . r P m n c x v M c c x g N u N k z k k l l W W W W ~ ~ ^ ! ^ ~ ) ` ` ` ' ' ' &.] w.[ &.w.*.e.e.e.{ e.a.a.{ s.s.(.v.j.j.c.k.(.(.(.x.k.e.;.c.wXIXKXKXKXKXKXKXKXKXKXKXKXKXKXKXKXKXKXKXKXKXKXKXKXKXKXKXKXKXKXLXKXKXKXKXLXKXKXHXLXLXQ.# 4 P 9 x L 9 M v 9 v g ",
"L.OX].].H.`.F.F.z.A.u.. 4 B < < 6 t 5 t t 7 p p t p a v > a 6XLXDXVXzXCXFXCXjX,XS.l.l.F.S.v.p.l.l.p.p.t.r.r.e.;.:.&.&.*.$.$.` ) ^ ! ~ Q Q W l l t $ . @ : @ o : # % % @ $ # + +   + 2.2X;XV.5.P o X   . * < % * . % < < 2 % + @ 2 < 2 2 2 2 & & < 2 2 < 2 < 2 1 B < 2 1 1 t 2 :   v &XJXKXKX3Xz ..o...} } / L L L m m M 9 :.8X<X<X<XtX<XtXtXtXtXuXhXhXhXhXhXmXhXmXmXmXmXmXmXmXhXmXhXhXUXhXhXhXkXkXhXkXtXtX8XtXtX8X8XhX8Xo.9 9 & 6 6 , , , ; B n ~ ^ ` ] *.*.{ w.w.w.-.x.oXoXoXoXwX X X{.S.U.A.Y.h.r.y.w.{ -.:.[ [ ( [ W ( l - = * * 0 * B B 4 r r r i t i u u u N 9 N N x M g x g M M M L L L L U +.0.5.R #.5.E R 5.R E 7.T T R R U U R U U U U F D D U D A D j h j h j j f s a 6 6 , 6 7 1 7 7 7 8 p f f 8 8 V 8 1 R.gXwX,X,X,X,XoXoX{..X{.{.{.G.|.G.G.G.G.S.U.U.A.A.A.g.g.Y.g.h.8.8.1.1.:.<.;.%... .) T.n b l w n L d $ X O # ; & > # # # > 5 ; o 4 4.,.=...4...o./ n o.n.n.V.n.N.n.V.B.V.C.J.Q.Q.Q.!.!.&X&X;X;X;X;X1X2X1X2X8X8X9X9XsXsXpXkXkXkXUXkXcXcXfXZXCXX.n ~.U . 9 8 6 6 8 6 8 7 7 7 8 7 8 7 8 8 8 9 3 6 9 8 6 9 8 9 3 6 8 8 8 8 8 8 8 8 9 7 8 8 9 3 9 8 8 8 8 8 3 8 8 8 8 8 8 8 8 8 8 8 8 8 8 8 9 8 8 8 8 8 8 8 8 8 8 9 8 8 8 9 8 8 9 9 8 9 8 8 8 7 8 8 8 8 8 8 8 8 8 8 8 8 8 8 8 8 8 8 8 8 8 8 8 8 8 8 8 8 8 8 8 8 8 9 8 8 9 V 8 8 8 8 s 8 8 7 8 s K V s a 7 7 7 7 a } ` w.x.F.x.l.Y.Y.a.i.i.<.,.a.<.<.<.%.%...*. ...} ../ m ! / &.m._ L N * . . & 4 r 5 & + + # # . & $ % $ $ % $ $ & * % - r L n v v M v M x x g x N z z N z l l l l W W ~ ~ ^ ~ ~ ^ ) ! ` ` ` ] ` ] &.] { &.&.w.w.y.e.e.y.a.s.s.s.|.k.s.a.t.j.c.x.|.(.t.{ e.|.wXnXLXLXKXKXKXKXLXKXKXKXKXKXKXKXKXKXKXKXKXKXKXKXKXKXKXKXKXKXKXKXKXKXKXKXLXLXKXKXKXPXJXCXV.9 4 x L v 9 9 L 9 M M 9 g ",
"OX].].].].`.F.z.z.H.1.. B < 1 1 4 4 6 6 5 t t 5 5 y j a h # j GXCXDXZXFXZXyX{.a.l.`.|.x.l.l.l.l.f.f.p.p.u.r.r.;.;.-.&.*.$.` ' ) ! ! ~ Q Q W b z b B o o % o % % % % % % $ + + + &   o X.-X8X~.!.B.| r o     o 2 < $ o O o < 2 2 < * 2 % & & & 2 & > < * 2 < < < 1 2 2 2 1 1 t t >   o b.HXHX<.u ..o.o.} } L / P L L } i L &X<X;X<X<X8X8XtXtXtXtXhXhXhXhXhXmXmXmXmXmXmXMXmXmXUXhXhXUXhXUXhXhXkXhXtXhXkXtXtXsXsXtX<XkXUX1.+ > 9 6 5 6 , 6 & < N n ! ( ^ ] ] { w.w.e.w.y.|.+XoXXXoXoXwXwXoXoX{.|.g.r.t.y.y.w.-.[ [ [ [ [ ( ( z $ 0 * * B B B B B r r r r i y u u k u N N N x x x v x v M M L L M v +.5.5.5.5.7.5.E E 7.5.R T T R R U Y R U U U U U F U D A D j j j j j j j 9 f f s 6 6 1 3 , 7 7 7 8 3 p 8 p V 8 V s 2 | 3XgX,X5X<X,X,X,X,X,X,X,X,X,X,X,XoX{. X{.{.[.I.U.M.N.g.Y.a.:.>.4._ L b N u r < * = = = - - X M 1.1.o.g & X O # # ; > & % % > % + 9 3.,.4...X.} _ v X.b.n.b.V.V.C.J.C.J.Q.Q.Q.!.Q.&X&X&X&X;X;X:X1X2X2X2X8X8X9X8XpXdXkXdXfXfXdXcXUXUXkXCXSXQ.. . Z.8.# 8 6 9 7 8 8 6 8 7 8 7 6 8 7 7 8 6 6 8 9 8 8 6 6 8 8 8 8 6 3 8 8 3 6 8 7 7 7 8 6 8 8 7 8 8 8 8 8 8 8 8 3 8 8 8 8 8 8 8 7 8 7 7 8 6 8 8 8 8 8 8 8 8 8 8 8 8 8 9 9 8 7 8 7 8 8 7 7 8 9 8 8 8 8 8 8 8 8 8 8 8 8 8 8 8 8 8 s 8 8 8 8 8 8 8 8 8 9 8 8 8 s 8 8 8 9 8 8 7 7 9 8 8 V V V 8 3 3 3 8 9 j Z j 8 9 u p.A.S.p.g.{.g.m.g.i.g.2.<.a.<.<.%.%.%.%.%. . ..._ / / n z _ V.h.4...L - X * i 4 t & .   # $ + + - $ $ & & & $ $ * * + i P v v c M M M M x x N z z z z l W W W W W W Q ~ ~ ~ ^ ^ ^ ^ ` ` ' ' ] &.[ &.&.w.w.w.e.l.a.t.t.s.k.p.k.{ a.k.(.).(.c.v.^ -.z.oXyXIXKXKXLXKXLXLXLXKXKXKXKXKXKXKXKXKXKXKXKXKXKXKXKXKXKXKXKXKXKXKXKXKXKXKXKXPXLXKXKXPXKXKXZXm.# & v L 9 x L x n v 9 M 9 n ",
".XOX'.].].H.F.F.z.V.1.. r 1 < 1 6 4 4 5 9 4 t 9 p 9 a < G 6 X K.LXKXZXgX,XS.|.'.'.'.|.c.l.x.S.g.l.f.p.p.r.r.r.;.;.;.&.$.$.$..._  .) ) ~ n W b b b z r - X 2 2 o % # # @ + + - . + *   . #.~.;X!.>X>X%XY.G B X   X + 2 < % + o o % % % % % & * 2 2 * 2 > * < 2 < 2 < < 2 2 < B 5 d a >   i 2.c O.X.} } } } } L L M P n r 8.tX<X;X8X<XtXtXtXtXtXtXhXhXhXhXhXhXhXmXmXmXmXmXmXmXmXhXmXhXhXhXhXhXhXkXhXkXkXtXkXsXtXeXtXhXK.9 # 9 # 9 5 ; 6 6 # 4 n / ~ ` ^ *.*.&.*.{ r.-.j.{.oXoXoXwX{.wXoXwXwXwX{.a.r.t.r.w.y.-.-.-._ [ ( ( [ W $ * 0 0 B 0 B r w r i r y i u u N u z N N x x x M x M M v v v L v L 5.5.5.7.E 5.#.#.#.#.R #.T T T Y R U U R U D U A A D D j D D j A j j f f j a 9 9 6 > , 6 , 6 6 7 8 p p 8 8 V 8 8 C 7 f &XjXsXgXiXgXeXeXeX5X,X{.{.m.b.i.8.<.%.*.X.x d N u r B 2 2 . + . . + + $ + + + o $ $ = = $ 0 / 4.4.@.3.o.v & # # o # 4 ; % % 6 # + g >.1.4.X.X.} v @.V.8.n.V.C.J.Z.Q.K.Q.Q.Q.Q.&XQ.&X&X;X;X:X2X2X2X2X8X9X9XpXpXpXkXkXkXfXjXjXzXUXkXvXHXQ.- 4 . v 5., 7 6 8 7 3 9 8 7 7 7 7 8 8 7 6 8 6 8 8 3 6 8 8 8 3 9 6 8 8 8 9 6 8 8 8 7 7 9 3 8 6 8 7 9 6 8 3 3 8 9 3 8 3 9 6 8 6 6 8 8 7 8 7 8 8 6 3 6 8 6 8 9 3 8 3 7 8 7 7 8 7 8 7 8 7 8 9 8 7 7 8 8 8 7 8 8 8 8 8 8 6 8 8 8 8 8 8 8 8 8 9 8 8 8 8 8 8 8 8 8 8 8 8 9 8 7 8 9 8 8 8 8 8 3 8 3 3 8 V V V K 3 8 ; ; 6 u 4.%.! p H N.U.N.g.Y.Y.i.a.3.<.<.<.<.%.%.%.%.%..._ / ../ k i n L.b.8.8.L & = N t i r = .   . $ $ $ $ $ $ = = * = * + * g m M n M x M x x z N z l z l l l Q Q Q W ( Q ( !  .^ ^ ` ` *.^ ] ' &.&.-.w.w.-.w.e.e.y.&.w.s.p.k.p.s.s.(.(.(.c.s.{ y.t.,XtXAXLXKXKXKXLXLXPXKXKXKXKXLXLXKXKXKXKXKXKXKXKXKXKXKXKXKXKXKXKXKXKXKXKXKXKXKXKXKXPXKXKXLXKXKXFXn 9 9 L U v x 9 v 9 9 v 9 x n 9 ",
"].OXH.].).F.x.z.m.S.a.. r < 1 1 6 5 4 5 t t 9 t p y a 5 j c 6 > ZXAXeXH.S.`.].].`.F.x.F.|.`.l.k.l.f.f.p.p.r.u.e.;.-.;.&.*.$.' ' ) ) ) ~ Q b b b N b b 2 o o + @ @ @ @ @ # o + + - $ $ . # @.-X-XI.~.5X-X5X~.6.d + O X X : < < 2 % % % % % % 2 2 2 & & 2 2 < > < 2 2 < < 2 2 2 2 o t x @ . 1 T.>.o.} } } } / / L M } i M =X8XOX1X<X8XtXtXtXtXtXkXhXhXhXhXmXmXmXmXmXmXmXmXmXmXUXhXhXUXhXhXhXhXhXkXhXtXtXkXtXeX8X8XjX*Xa O 9 9 ; 8 , , 6 ; $ N / ~ ( ( ` ' &.{ e.e.y.[ x.oXwXoXoXoX,X+XoX+XwXrX+Xw.t.t.t.t.w.w.[ -.[ [ [ _ ' n = = * B * w B 4 w r i r i y u z u u N N N N x x M M v M v L L v L P 0.7.5.5.#.7.#.E R #.R #.R R R U U U U U U U A U D U A D 9 A 9 v j j 9 f a a a 8 > 6 , 6 6 7 5 7 p 3 7 8 8 V 8 K C f 2 O.K.M.m.1.o.P P n z u r B y i r 4 r 4 < * 4 4 4 4 > < * * 9 r 4 9 9 & & & & < * * * * = 0 r =.>.X.X.X.,.@.O.v 6 . X o 2 1 # , 6 + $ L ,.>.4.4./ L ,.C.n.n.V.V.C.J.K.K.Q.Q.Q.&X&X;X&X;X:X:X2X2X2X2X8X9X9X9XpXpXdXkXdXfXjXjXUXfXfXBXHX2X. . 4 & + h 6 , 9 3 8 6 8 8 7 6 7 7 6 7 9 3 3 9 8 6 8 6 6 8 6 8 6 8 6 8 6 8 8 6 9 6 8 3 8 6 8 8 8 6 9 8 3 9 9 8 3 8 8 8 6 9 9 8 8 8 7 7 8 6 8 6 8 9 8 8 6 8 8 6 8 9 9 7 8 p 7 7 7 8 7 7 p 7 7 8 9 7 8 7 3 8 7 7 8 7 8 8 3 8 8 8 8 8 8 8 7 8 3 8 8 8 8 8 7 8 8 8 7 8 3 8 8 8 8 8 8 8 8 8 s V 8 K V s 3 3 ; ; , 8 S #.R.d o 2 2 2 C !.N.N.i.Y.N.g.a.2.a.<.<.%.%.%.%.*.%.....$...n w 0 =.d.m.b.N.T.$ c u N x c u $ . . - $ & $ - + - $ $ * $ * M m v v x c M x z z N z l l l W Q Q ~ Q Q ~ ! ^ ` ` ` ` *.] *.{ *.&.&.&.w.w.w.e.e.t.y.t.j.k.a.s.s.k.k.(.(.l.&.] y.|.uXMXLXLXLXLXKXLXLXPXKXKXKXKXKXLXKXKXKXKXKXKXKXKXKXKXKXKXKXKXKXKXKXKXKXKXKXKXKXKXKXKXKXKXLXJXLXKXcXM # 9 L L 9 L L v 9 9 M 9 n 9 M x ",
"OXH.OXH..XF.F.F.m.S.a.. B < 0 1 4 4 4 9 t 5 t t y t a j t j v X %. X{.|.'.OX'.S.F.F.F.`.`.l.l.c.l.k.k.p.f.u.u.e.e.e.;.;.$.$.$.' ) ) ) ~ ! Q b W l l b u 0 . . % o @ + @ + - + - * + # $   o 3.9X*XR.I.R.-X2X>X>XC.X.2 X X X o % 2 % % 2 % 2 % % & 2 & & * 2 2 & 2 2 1 B B 1 1 B 1 2 < d t d %.O.} } } } } L L L M L r 8.8X<X<X8X8XtXtXtXkXkXhXhXhXhXhXmXmXmXmXmXAXmXmXmXhXmXmXhXUXhXhXhXhXtXhXtXkXtXkXyX8XeXgXkX9XU O 9 9 , 8 , ; 6 > & B l _ ~ ` ` ` $.*.&.y.y.t.w.`.oXoXoXoX+X+XwXwXwXwXwXwXs.f.t.t.t.y.w.w.-.[ $.[ _ ' Q = = B B B B w r r r r r y i u u u u N N x x x M M n n M L L v g U @.0.7.5.E 5.E #.E #.R +.R T T Y Y R U F F U A U D A j D j A j j j f f j a a 9 p 9 , > , 6 3 6 7 6 p 8 p 8 3 f 8 V 8 h 1 d h d y & u d d 9 f g g g y p a y y a a d t y r y y y y u B 4 * w = 4 4 * $ & # $ - - $ * w 1.8.>.3.X.@.o.3.>.4.v t % o O % # : > # 4 } ,.X.X.} / ,.V.V.Q.Z.C.Q.Q.Q.Q.!.!.!.!.&X&X;X;X:X:X2X2X8X8X9X9XpXsXpXdXkXkXkXfXfXUXUXjXBXHXpX*   r $ * # 6 D ; 6 8 6 7 6 6 6 7 6 7 6 6 3 8 3 3 6 6 6 8 8 6 8 6 8 6 8 6 8 6 6 8 3 8 3 9 3 3 6 6 6 8 6 8 8 3 3 3 9 3 6 8 3 8 6 3 3 6 7 7 8 6 8 8 8 6 8 6 3 8 6 8 3 3 7 7 7 7 7 7 9 7 8 7 7 8 7 7 7 8 6 8 8 8 7 8 7 8 8 3 8 8 3 8 3 6 8 8 8 3 8 8 8 8 8 8 3 8 8 7 8 7 8 3 8 8 8 8 8 8 8 8 8 8 3 , ; ; O , D 5.R.>X0XzXiXz . t p 2 1 Y.I.U.A.a.i.Y.Y.i.2.a.<.<.<.=.%.%.%.=...} _ n u k 0 >.b.8.U. .. u T.x b T./ x B - . . $ $ $ $ $ $ = 0 - 0 v m c v x M x x x z l l W W W Q ~ Q ~ ~ ) ^ ` ` ` ` ] ` ` { ] &.{ { w.w.e.w.e.t.t.t.s.p.s.y.s.k.x.l.c.x.^ *.`.wXMXPXLXLXLXPXLXLXPXLXLXLXKXLXPXLXKXKXKXKXKXKXKXKXKXKXKXKXKXKXKXKXKXKXKXKXKXKXKXKXKXKXKXKXLXKXLXLXKXiXM X L x x 9 z 9 9 v n v 9 n 9 9 9 M ",
"OXH.H.].].F.x.S.l.S.a.. r 2 2 1 4 5 5 5 7 t t y a 5 9 x t a c p r [.wXoXOX|.].OX{.].].H.S.x.(.`.l.l.f.f.f.r.u.e.e.;.;.&.*.-.$.$.` ` ) ! ! b Q b Q k k b u = o + % o + o o + + - . $ + & *   + @.2X2X5X~.R.R.R.>X6XlX-X0.d O X X o @ % 2 % & % % & % % 2 2 & * 2 2 < 2 1 1 1 1 1 t 5 2 B - . H 3.X.o.} } } L L L L N m &X8X;XeX4XtXtXtXtXtXhXhXhXhXmXmXhXmXmXmXmXAXmXmXhXmXmXhXmXhXhXhXhXkXhXhXhXkXtXkXtXtXsXhX9X@.; ; V , , 7 ; ; , # < N / ( ^ ` ` ` $.*.e.y.e.s.w.].+XoX+X,X+XoXwX+XwXwXwXrX(.f.t.t.r.r.r.-.-.$.[ [ ( $.Q = = 0 * B B r w r r r i i y k i u N u z N b b M M n v M v v v v o.5.7.7.E 7.R 5.E 5.R #.R +.I Y Y U U F U A U F D D D Z D j j Z j j 9 f s a p 9 p 7 ; , , 6 7 6 6 7 3 p 7 7 s V 8 3 8 A Z Z H H G m v g h g g c j g g c j g f a a y y y y i r r r 4 9 = 4 * * * * * * & B * 0 B w i M h.>.=.2.>.,.>.X.3.9.9.@.v < @ ; O # > & # 9 #.@.%. .P 8.Q.n.Z.J.J.I.K.Q.Q.!.%X&X&X&X;X:X:X2X2X2X8X8X8XiXiXsXpXkXpXkXfXUXfXUXUXUXBXSXkX9   r 4 * $ > > E.8 # 8 7 6 6 7 7 7 7 6 8 6 8 6 3 3 3 8 6 6 8 8 6 6 6 8 8 6 6 6 3 6 3 9 9 3 3 9 6 8 6 8 3 6 9 3 3 9 3 9 9 3 6 6 6 9 6 6 7 7 6 8 6 6 8 3 6 6 9 9 8 6 3 9 7 7 p 7 7 7 7 7 7 9 7 7 7 7 6 8 8 8 7 7 3 8 7 3 6 8 8 3 8 7 8 8 7 7 8 8 8 6 8 8 6 8 8 7 7 8 3 8 8 8 8 8 8 8 3 3 8 3 # # ; 8 F #.!.:X0XkXfXsX8XlXG.) r y 3 2 2 t U.|.G.i.i.i.Y.a.2.a.1.<.<.>.=.=.o.%..._ _ n l z 0 l >.i.N.}   $ M n n v m L M N & $ - + $ & % = $ 0 - r P v c G x x x x l l l l b W Q ~ Q ( ( ~ ) ) ^ ` ] ] ] &.*.*.&.e.e.e.e.e.e.e.y.a.t.p.t.p.l.k.(.|.l.{ { e.eXbXIXLXLXLXLXIXPXPXLXLXLXLXLXLXKXKXLXKXKXKXKXLXKXKXKXKXKXKXKXKXKXKXKXKXKXKXKXKXKXKXKXKXKXKXKXKXLXKXLXLX4X9 . I L 9 9 v L 9 x 9 9 x L 9 g v x 9 ",
"OXOX].].`.F.F.A.z.H.a.. r 0 1 1 4 5 5 5 7 t p p a t y 5 g d 5 n 0 D.OX{.oX}.].'.].].|.S.S.S.S.l.z.l.f.f.f.p.u.u.e.e.;.;.$.-.$.' ` ) ) ! ! ! m Q Q b k z z r 2 X % o o o o o - $ - $ B $ o * &   n.&X6X>X-X5X5XR.R.%X>X0XpX~.O.1 X X . @ * 2 2 % % 2 2 & & 2 & & B * 2 * 2 2 2 2 2 t 2 2 r 2 t >.} } ..| L L L L } r >.tX4X<XtX4X8XtXtXkXtXtXkXhXhXmXhXnXmXmXMXmXAXmXmXmXhXhXUXhXhXhXhXhXhXkXtXkXkXkXtXtXtXhXpXQ.O ; A , 3 s # 7 6 > # 4 n ( W ( ` ` ` $.*.e.e.y.t.w.}.,XoXoX@X,X@XwXoXwXwXwXuXx.j.v.t.t.y.w.:.-.-.[ [ ( [ ( = = B * B B B 4 i r i 9 i i y u N N N N N x b M M M L M M L v M o.0.7.7.#.E 7.R #.R E R +.R T T U R F F U R A F D A D A A Z j j j 9 f a a 9 p p p 9 ; > , 6 1 7 6 7 8 7 3 V 8 8 8 V 8 8 C h H c g H v v v g c g g g d g d a u y t 9 y i t r r 4 * 4 * & * 4 * * * * * = = = 0 r w r N N.b.8.9.>.,.#.2.@.X.>.2.Y.,.| ; : O # 4 # $ v >.>. .} 9.Q.V.Z.Q.Q.K.Q.!.%X=X%X&X&X;X;X:X2X2X8X2X8X8X8XiXpXpXpXkXkXjXfXfXfXUXzXjXSXCXL   i 4 % i + 4 X 7Xq.; , 6 6 7 6 6 6 7 6 3 3 6 6 6 9 6 6 8 3 6 6 8 3 8 6 6 6 3 8 3 9 3 6 3 3 8 6 6 6 6 3 9 6 3 3 9 3 9 3 6 8 6 8 3 9 8 8 3 7 7 6 6 9 6 8 8 6 3 6 3 9 9 3 8 7 7 7 7 7 7 7 7 7 7 7 7 7 8 8 3 3 8 3 8 8 3 8 8 8 3 7 7 7 3 7 8 7 8 3 8 8 3 3 8 3 7 8 3 8 3 8 3 8 8 8 8 3 3 ; # ; j E B.^.0XfX0X9X3X4X4X4XtXhXm.<.t 2 3 3 f o O.A.U.N.i.A.g.i.i.2.1.<.<.:.=.=.X.....4...( k z b = Q b.N.v   X $ x ..! x n } / L i $ X - = * $ $ w + r P n x v M x x z z b Q W ~ Q ~ ~ ) Q ( ~ ) ` $.^ ] *.&.{ w.&.&.{ *.e.e.y.y.t.y.t.s.p.k.k.c.p.e.] ] l.gXIXLXLXLXLXLXPXLXLXLXLXLXLXLXLXLXLXKXKXKXKXKXKXKXKXKXKXKXKXKXKXKXKXKXKXKXKXKXKXKXKXKXKXKXKXKXKXLXKXLXLXLXQ.X & o.g M 9 n M 9 v L 9 M n 9 M g n 9 x ",
".XH.H.).H.H.).v.A.m.h.- B * < 1 < 4 1 r t t t p a t a a a a f f 1 ..5X,X}.+X|.'.'.].].|.`.F.S.x.x.l.l.k.f.p.p.p.u.r.:.;.&.&.-.$.` ` ) ) ) Q Q Q l n b l l k w = . . o . + + . - $ $ $ $ $ = = =   @.2X3X%X>X2X&X-X&X>X&X~.6X0XpXZ.O.%   X o 2 B % $ % & < < % + % > > % % % > < 1 1 % < t 2 1 T.@.L L 4.L _ L L 9 9 ;XtXOXtX<XtXtXtXtXtXyXhXhXhXhXmXmXmXmXmXMXmXmXUXmXmXUXhXhXhXUXhXhXhXkXtXkXhXhXwXkXtX8XUXQ.+ 7 8 p p 1 1 > , > + * x / Q ~ ^ ` ] ] &.{ w.t.t.w.t.OX@XoXoX,XwXoXwXwXrXwXwXuX|.s.p.j.k.y.r.w.-.[ r.[ ' ' ' 0 = B B B w r r r r y i i u u z u u N N x x b x n n n ! T.v j I 5.5.5.7.5.R E #.#.T T R +.I Y Y R U R U U A A D D A D 9 D j j j j j j a a a p a a , > > , , 6 3 5 1 7 p 7 7 8 f s 8 V 8 9 j D v g v g v g g g g g g u d d u u y t y t i r r 4 4 4 4 4 4 * < B & B & * = = 0 e e k q  .N.Y.Y.6.,.Y.Y.3.3.,.,.3.>.3.3.8.R 9 $ $ # $ $ | X.o...N.J.I.K.Q.Q.Q.Q.Q.~.&X&X;X;X1X2X1X8X8X2X3X8X8X9XiXaXaXkXqXkXfXkXjXUXUXUXDXZXL   r * 9 = & & # . 8.0X#.X 6 9 > 9 6 , 9 6 7 5 5 3 3 7 6 3 6 3 7 3 6 7 3 6 6 6 6 8 3 6 3 3 6 6 8 3 6 6 6 3 6 8 6 6 8 6 8 6 7 3 7 6 6 8 6 6 6 7 8 6 6 8 7 7 6 8 7 7 7 7 7 7 7 7 7 7 7 7 7 8 6 7 6 8 7 8 6 7 8 8 7 7 7 7 8 8 6 7 7 8 8 8 7 7 6 8 8 9 7 7 6 7 6 7 3 8 8 9 8 7 s 7 ; O O , Z +.R.5X0XfXpX4X1X5X2X:XlX9X6XiX9XaX*.u...0 < 8 ; V @ 6.R.M.N.A.i.a.i.i.i.2.<.<.>.<.X.%.%.%...) l l e n = W b.9 4 . X 1 i ! *.m T.T.} } G u $ . + * < : @ 5 t g P u ! Q W Q ~ ) ` ` ^ ^ ^ ] [ [ w.w.w.{ w.w.w.w.w.y.s.j.s.j.j.j.v.j.c.(.c.(.(.(.(.).f.x.OXgXNXLXKXLXLXLXLXLXPXPXLXLXPXLXLXPXLXLXLXLXKXKXLXKXKXKXKXKXKXKXKXKXKXKXKXKXKXKXKXKXKXKXKXKXKXKXLXLXLXKXLXPXLXJXn.  u o.x v g g v 9 x 9 n 9 M x 9 M 9 M z 9 ",
"OX].OXH.].H.H.H.A.z.h.- 4 * < 1 1 4 t 1 1 p 5 t t a p a a a a d t G ,X,X}.oX'.}.].'.].G.|.`.`.F.x.x.l.k.l.p.p.p.r.r.r.:.;.:.*.*.$.$.` ) ) Q ( ! Q W l l l z k w $ . . o + . + + - $ + $ $ $ = $ + X o.9XdX&X&X2X-X-X>X>X-X-X~.-XdXpX1Xn.f .     * 1 * % o % < d r > + @ > 2 : % 2 < & 2 1 2 1 c @.L L ..L 9 _ _ 9 :.8X8X<X8XtXtXtXtXtXhXhXhXhXhXhXnXmXnXmXmXMXmXmXmXmXhXmXUXhXUXhXhXhXhXhXkXhXtXtXkX8X8XUX;X9 & 7 7 3 1 6 > , , & & i z ~ ~ ~ ( ` ] &.w.w.w.t.e.r.v.oX,XoX+X+X@X+XwXwXwXwXrXuX}.s.k.f.k.t.y.w.{ { -.[ -.[ ..0 * B B B B r r i r i y u u u u z N N N x x x M M n n m m v D +.5.5.7.7.7.#.#.E R T #.+.T T Y Y U U D A F U D D D j A D j j j j j 9 a a a a t p p > > , , , 1 , 7 5 3 3 7 p 8 8 8 8 V V 8 j D v M v M g v g g g g g d u a u y u y y i w t t 4 4 4 4 * * * * B * & = = $ 0 w w k e 0 ;.N.N.N.Y.2.n.Y.,.6.,.3.,.,.3.3.#.8.1.L 9 & . . $ ,.>.T.U.~.D.R.Q.Q.Q.Q.Q.~.&X&X;X;X;X;X1X2X2X2XiXsXaXaXaXdXfXkXUXkXkXvXUXkXxXCXFXb.X $ r $ * & * & & . #.8Xq.U # 6 9 , 6 7 , 7 6 3 7 7 5 6 7 7 7 7 1 7 7 6 7 7 8 3 6 3 9 3 3 9 9 6 6 8 6 9 7 8 6 8 8 6 8 6 6 8 6 8 7 7 6 8 8 6 7 7 3 8 7 6 7 6 7 7 6 6 6 7 6 7 5 7 7 6 7 6 6 7 7 6 8 6 3 6 6 7 7 8 6 7 3 7 7 8 8 7 7 7 7 7 7 7 8 6 6 ; ; 6 8 8 8 s a 8 7 , ; @ X ; j #.Z.-X9X0X1X>X4X4X3X5X3XiX8X3XiX0X9XsXsX8X$.u.&.i 4 5 , 3 @ d Y.P.N.g.S.d.i.i.i.i.a.<.<.<.%.<.%.%.*.) l l W k e k L } 8.# X O o y v T. .m }  .o.} l e = = = i r * o - N b = r z n z z z n M Q b m m n b x ! m ! ! ! T.! } L / / / / / / / / / } ) ..} .. .$..XAXLXKXLXLXIXIXIXLXKXLXLXLXLXPXLXLXLXLXLXLXLXKXKXKXKXKXKXKXKXKXKXKXKXKXKXKXKXKXKXKXKXKXKXKXKXKXHXLXKXKXHXKXKXLX4.  v n 9 g L 9 v x v 9 v x n 9 M x 9 z 9 9 g ",
"OXH.H.H.H.).v.H.A.m.h.- B * 6 < 4 4 1 t 5 t t a p y y p a a s f d i G.wX}.oX'.{.'.].[.|.|.`.F.x.S.l.l.l.l.f.p.p.r.r.r.;.;.-.&.*.$.` $.) ) ( Q ! Q l l l b z k z B . X $ + . $ . + + $ $ $ $ = $ *   X 4.6XdX:X>X6X:X5X-X>X2X-X>X-X>X0XdXdX~.O.5     O > r < + . X @ 1 r < > > r 2 < 2 : < 2 : t 4.o._ L L _ _ 9 _ OXtX;X8XtX<XtXtXtXuXkXhXhXhXmXmXmXmXmXmXAXmXmXmXUXmXhXhXUXhXUXhXhXhXkXhXtXkXkXkXkX8XkXkXo.. 9 7 7 7 7 1 , > > + B N n Q ~ ^ ` ` ] &.w.;.y.t.t.w.`.wX@XoX@X<XwXwXwXwXwXwXrXuX+Xs.k.k.s.t.t.w.:.-.-.[ -.' $.w * B B w 4 w r r r i y i u u u u N N x x x b c n n v ! M c U #.7.#.E 5.R 7.R 7.T #.T T T Y R U U R R A F A D A j D D j A D j f 9 j a a a a 7 9 5 , > , , 1 1 7 1 7 7 3 7 7 7 p 8 8 9 8 9 j D v v g g g g g g 9 g g d d u u y i y r 4 9 w 4 t 4 4 4 * 4 4 * B * * $ - * w w w k e e i.U.N.b.N.0.n.Y.Y.Y.6.6.6.8.,.6.,.8.0.8.1.U 9 B   y  .3.U.P.I.K.~.~.Q.*X~.;X&X;X1X2X2X8X8X8X8XsX9XiX9XpXsXdXkXkXkXkXjXUXjXUXCXFXQ.X . 9 & * * & & & * X U >X~.Z.7 # 6 6 , 7 ; 7 3 5 3 6 3 6 7 1 1 3 7 1 , 7 3 3 8 6 6 6 6 6 6 3 3 8 3 6 3 6 6 6 6 6 8 6 6 6 3 6 3 8 6 6 3 6 6 6 7 6 7 6 7 6 7 7 6 7 7 7 7 7 6 7 6 7 7 6 7 7 6 7 7 8 6 7 6 7 7 7 7 3 6 3 7 6 7 7 9 7 7 6 3 7 6 7 3 6 8 K s 8 7 6 s 3 ; @ # 2 f F R.~.:X2X9X3X1X>X6X4X1X4X5X6XlXiXiXpX8XaX9XsXjX=X*.;.p.m & 6 7 , 7 O G P.U.m.S.m.g.g.g.i.1.u.1.1.%.<.%.%.%.$.W k Q e l w w >.Q.v X O ; a t t u B r i i k e e e e w k w q 0 / n.P.L i . X < a 5 @ < 1 1 3 5 5 6 6 1 6 6 1 5 5 5 7 7 7 7 t p t 9 p t a 7 a a a a f ; 7 j #.Q.jXLXKXLXLXLXIXIXIXKXKXLXPXLXPXLXLXKXKXKXKXKXKXKXKXKXKXKXKXKXKXKXKXKXKXKXKXKXKXKXKXKXKXLXKXKXLXPXKXKXBXg = 9 } g g v N v v 9 9 x n 9 v M 9 n 9 9 9 z g ",
"H.OXOXH.H.H.H.v.z.z.h.= * * 4 > 1 r r 5 t t 5 t p y p a a a s f f 2 <.<X,X'.oX}.'.{.|.|.S.|.F.x.x.S.x.l.l.k.f.p.r.r.u.r.-.;.&.&.$.$.$.` _ ) ( ( ! Q l l z z z z i . X $ + + $ + $ - $ $ $ $ & = & 4 .   | 0XjX:X6X6X7X>X>X2X2X>XlX5X~.&X>XlXpXpXB.| +     o < y < % % % % : > < & < 2 2 1 2 % $ L 4._ 9 L L _ W :.tXtXOXtX8XtXtXtXtXhXhXhXhXhXhXmXmXmXmXAXAXmXmXUXmXUXUXUXhXhXhXkXhXhXkXkXhXtXtXkX<XhXUX#.# 9 9 7 7 1 1 1 > , : % i b n W ^ ( ` *.] &.-.w.e.t.s.y.].wXoXoX@X,X@X+XwXwXwXwXrXyXwXp.k.k.j.t.t.y.w.w.w.[ [ ' $.w = B B w 4 r r i i y i y u u u N N N N x x c b M n n m x v #.5.#.7.5.R #.E #.R T R R T T Y Y U U F U U D U D A D A 9 D 9 j j d a 9 9 p p a t 7 5 > > > > , , 1 1 1 7 t 7 7 7 8 8 8 8 s 9 9 D D x v v v g v g g N y d u a y u u t u 9 w 9 4 4 4 4 B < * * 4 * = * = = 0 k e e k e i D.U.n.N.n.N.M.Y.Y.n.b.b.8.9.9.9.8.,.,.5.b.n.8.X.g $ < ,.P.R.K.K.Q.Q.Q.~.;X;X;X;XQ.&X&X;X;X1X1X8X9XiXiXsXkXkXfXfXkXfXUXfXUXHXCX-XX   N 4 o t & & $ $ * . L &X~.~.6.# ; 7 6 6 , 7 1 3 1 7 1 3 3 , 3 6 6 3 , , 6 6 3 6 3 6 6 6 3 6 3 3 6 6 8 7 3 6 3 3 6 6 6 6 7 6 6 6 3 6 6 8 6 3 7 6 7 6 6 7 6 6 3 6 6 6 7 6 7 3 3 6 7 6 3 6 7 6 6 6 6 7 6 6 7 6 6 6 6 6 6 7 7 7 7 7 3 6 , 6 6 , , 3 3 8 6 6 ; ; X @ f | 0.R.2XiX2X4X2X4X5X5X-X5X4X4X4X6XlXiXlX3X9XsX8XkX9XsXjXH.&.-.g.*.* & 7 , a : 2 >. XU.g.S.g.f.i.a.u.1.<.<.a.<.;.<.;.*.~ l W k W w w 4.b.B.O O : a < = i 0 e w 0 w e e W W W e q z 1.L.=X%X!.n.Y > X X # 7 > > 2 2 > * 6 6 6 4 t 7 5 7 t p 5 7 t p p p 8 a a a s a f f f f U V , # O r +.n.mXIXLXKXLXLXLXIXPXPXLXLXLXKXLXLXKXKXKXKXKXKXKXKXKXKXKXKXKXKXKXKXKXKXKXKXKXKXKXKXKXKXKXHXKXKXaXd + v L g g v g 9 g g M x 9 9 M 9 9 x 9 g M g 9 g ",
"OXOX].].).H.H.v.z.h.m.= * * 1 < 1 4 4 5 t t p t p p y a a f f f c 2 ! ,XwX}.oX{.{.'.'.|.|.|.|.`.F.x.z.z.l.l.p.p.p.u.r.r.e.-.;.&.$.$.$.' ) _ ( Q ! Q Q l l l z k N $ X $ + - + + - $ + $ $ $ $ $ $ $ 4 #   | 9XfX:X5X6X6X-X>X6X7X>X6XlX0X6X>X2X6XBXdX%X5.a o     % > 1 2 2 % % % % 2 2 & 1 B 2 % 9 :.L L _ L 9 9 ;XkX<X<XtXtXtXkXhXhXhXhXhXhXhXmXmXmXmXAXAXAXmXmXUXhXUXmXUXhXkXUXhXhXkXhXkXkXtXkXsXsXfXK.# # A 6 7 6 1 6 1 , > > * k ~ Q Q ( ` ] ] &.-.-.e.y.t.s.t.oXwXoXoX@XwXoXwXwXwXwXwXrXyXrXj.v.v.v.j.t.t.r.w.w.&.-.` &.i = B w B r r 9 r y 9 i i k u N N N x x z x c M m n m G c G 5.5.E 7.7.#.R R +.R T +.T Y Y R R U U F D A A A D D 9 D Z j j j f f 9 a a 8 a p 5 5 6 : > , > , , 1 1 7 3 7 7 7 8 8 8 8 V s 8 j D v g g g g v g g g g d d u u p p i y t 4 4 w 4 9 * 9 * & 4 B B & = * 0 w e k e e k e k P.U.C.M.C.V.V.n.9.n.b.n.b.b.9.0.8.0.8.8.,.8.8.0.8.o.< L R.&XI.~.!.&X&X&X;X;X1X2XfXfXfXjXUXUXxXUXBXcXBXBXBXVXBXBXDXFXSXCXZXHX9X4 . 4 4 # & * o 4 & $ & . D ~.Q.Z.!.Y # & 6 , 6 6 7 3 1 3 7 , 3 7 6 1 3 6 6 3 6 3 3 6 3 6 6 3 3 3 3 6 6 6 6 6 3 6 6 6 3 3 6 6 6 3 6 3 6 3 6 6 3 6 6 6 6 3 6 3 3 3 3 8 6 6 3 6 3 7 7 6 3 6 6 6 3 6 6 6 6 6 3 3 7 6 6 7 6 7 5 3 6 7 , 6 6 7 8 9 9 8 a 7 ; # # ; 5 a B.K.&X2X3X>X5X*X*X5X5X5X1X4X1X4X6XlX3X6X9XlX0XiXiXpXlXhXsXjXjXf.p.&.p.e.i % 5 6 1 8 @ r N. XN.S.A.m.m.m.h.d.d.8.1.2.<.<.<.%. .b z z W w i ..4.K.o.B = i e i e e k l l e l l e W ~ e W A.*X*XK.M.K.~.~.V.F 1 o O 6 4 t t 5 4 4 4 y t y y y p u a f a a d d p g f j f g g h c h h a f F F D s , ; # D K.fXFXKXKXKXLXLXPXLXLXKXKXKXKXKXKXKXKXKXKXKXKXKXKXKXKXKXKXKXKXKXKXKXKXKXKXKXKXPXLXKXKX5Xg * $.N 9 M x 9 9 n 9 M M 9 x x 9 x 9 x 9 z N N 9 g ",
"H.H.].H.H.).H.v.z.h.m.= * > 4 < 1 4 5 t 5 t p 5 t p p p a a a a f p u U.wX{.,X}.}.{.'.'.|.|.S.S.F.S.x.z.l.l.l.f.p.u.r.r.e.;.;.&.$.&.$.' ' _ / ) Q Q ! Q b z k u N B . . - + + $ - + $ $ $ $ $ # $ $ & B %   G 9XfX0X>X6X0XlXlX6X0X6X>X>X2X6X6X2X&X2XfXzXpX~.+.5 X X X @ > < 1 2 % 2 > > 2 1 2 % 9 _ o.L [ 9 9 :.tXtX;XtXtX8XtXtXtXhXhXhXhXhXmXnXmXmXMXmXMXmXmXmXmXmXmXhXhXUXhXhXhXkXhXkXkXkXkXkX8XBX!.6 6 9 6 9 6 6 , , > > ; : r b ! ~ ~ ) ] ` *.&.-.w.e.t.t.f.f.oXwXoX,XwXwXwXwXwXrXrXrXrXyXyXv.v.v.v.t.t.t.r.r.w.[ :.' ;.e = B B r r w w r i i i N u z N N N N N x x b n b m ! M H | 5.5.#.E R 7.R 7.T R T T T Y Y U U F F F D U U j A j U 9 j j j j 9 a a 8 9 t 5 a 5 5 6 ; > > , , 1 , 1 6 3 t 3 3 7 7 8 8 8 8 8 f D v g v g v j g g 9 g y u d u d u t i p 9 w 9 * * * * & * * * * = = w w i e e e l l w Q .XV.B.C.B.V.b.n.V.n.n.0.b.n.n.b.8.n.V.8.,.,.8.8.8.n.,.o.Y.!.2X9X9X8X8X2X2X2X1X:X%X%X~.~.~.Q.~.Q.K.K.I.Z.I.Z.I.Z.8.#.3.@.o.U *   4 r # $ 4 & & & & $ & X v ~.Q.B.!.Q.t O 6 , 6 , , 1 , 6 1 3 1 , 1 3 3 1 6 6 6 6 3 6 6 3 6 6 , 6 6 6 3 3 3 6 3 6 3 6 6 , 3 3 6 6 6 6 3 6 6 3 6 3 3 6 6 6 3 6 6 6 6 6 6 3 6 3 6 6 6 3 6 3 6 3 3 6 3 6 3 3 6 6 3 6 6 6 7 6 7 7 6 3 7 3 3 6 , ; , ; X @ a P 0.Z.:X9X:X:X-X-X*X-X:X2X5X1X3XlX3X9XlXlX9XlXlXiX0XiXaXpXdXaXaXfXdXjXhXe.k.y.y.p./ & 1 8 2 8 2 : T.N.Y.Y.b.b.8.8.2.2.:.2.>.>.X...O.X.! Q Q u z w r 1.4.8. .w 0 e e e e k e e l e e l W W l k A.4X;X!.P.~.Z.C.Z.~.&XC.P & . # + < t t 6 * < < 4 4 4 t 4 t 5 p t p a a f a a a p p p f f d c f d a s h Z U j 6 ; @ s b.9XVXLXLXKXKXKXPXLXKXKXKXKXKXKXKXKXKXKXKXKXKXKXKXKXKXKXKXKXKXKXKXKXKXJXKXKXLX%X< & m 9 9 n v 9 g L 9 v 9 x M 9 M 9 9 g g x 9 g 9 N z ",
"OXH.].H.H.).H.v.m.h.A.= * % 6 * 1 r r 4 5 t t p t p a a a f f f f Z 2 a.wX{.+X}.oX'.'.'.].|.|.G.`.x.x.z.l.l.l.f.p.u.u.r.e.;.;.;.&.&.*.' ) ) ) ) Q ~ ! W b z z z N i . . - $ . $ $ - $ $ $ $ & & $ r . + a o   | pXzX0X6XdX0X6X2X6X0X0X0X6X2X6X0XqX0X>X2X0XfXfXfXY.H X   X < 2 @ 2 2 > 2 2 2 2 < & L L L _ 9 L OXtX<X8XtXtXtXtXkXhXhXhXhXhXmXmXmXmXAXAXAXMXmXmXmXmXhXUXUXUXhXhXhXhXhXkXkXtXtXhXtXsX1Xc O 8 8 , 6 6 6 , , 2 ; ; : n Q Q ~ ^ ] ` ` *.-.;.e.e.y.s.s.(.wXwXoXwX,XwXwXwXwXrXrXeXrXyXbXv.v.v.v.j.t.t.t.w.w.-.-.' ;.k = 4 w 4 w r i i i u u u u N u N N N x x M c n v v G c G @.5.7.7.7.R 7.#.R T T Y U R U R U U U F S D A U U D D 9 A j j s d a a 9 p p p p p 5 5 4 @ ; > , > , 1 1 6 3 5 p 3 7 8 8 8 8 s 8 j D c g c v j x g g 9 N g p u u t u t t t * 9 9 4 w 4 & 4 * 4 * = = * w i k e e e l k e ;.=XC.C.K.Z.C.n.V.V.C.V.V.V.V.V.n.V.n.8.n.n.n.b.8.b.b.J.,.4 * N r t r 6 & & # @ # X X X X X X X X X   X         X . . O O . X 6 h # & & & & & B $ & $ 4   9 Q.Q.Z.B.~.6.9 & , , ; 3 , , , , , 1 , , , , 1 , , , , 6 , 6 , , , , , 6 , 3 6 3 , 6 6 3 6 6 , 6 6 6 3 3 6 6 6 6 , , , 6 6 3 6 3 6 6 6 6 6 6 3 6 6 6 3 6 6 3 6 6 6 6 6 6 6 3 6 3 6 6 6 6 7 7 6 6 6 , , 6 6 ; ; ; , 3 t B.C.%X:X2X1X*X&X*X-X*X*X-X-X5X1X4X2X4X>X4X2X3X9X6XlXiXaXaXpXsXsXaXaXjXfXkXUXtX-.k.s.w.f.=.y < 6 3 p 2 7 T.3.3.O.o.o.o.I I P P P T.| G G T.G c c m n u B t 8.o.y - = i k k k e W l W W l W W W ^ W l [.3XP.Z.!.~.-X~.C.C.I.R.!.!.g 5 & # $ > 4 4 6 4 6 4 t t t 5 1 1 5 t 5 5 7 t a p p f p d f a d h h H D j 9 s U F D j 7 , : > 1.5XCXKXKXKXKXKXKXKXKXKXKXKXKXKXKXKXKXKXKXKXKXKXKXKXKXKXKXKXKXKXPXKXHXn.* 4 g c L L 9 4 L v 9 9 9 n x 9 9 M n x g g g x 9 N N 9 ",
"OX].H.).H.H.H.v.l.g.A.* = * 6 > 1 4 5 4 t 5 t p p t p t a f a a p F : *.wX,XoXoX}.{.{.].].].|.|.F.F.F.z.z.l.f.k.p.p.p.u.u.;.;.;.&.*.*.$.$.) ) _ ~ ! ! Q W l b z z N $   $ - . = $ + $ $ # $ $ $ & + $ & + < &   v fXzX6X0X0X6XqXlX0XlX0X0X0X6X7X6X6X9X0X2X6X6X9XzXzX0XN.1   X @ < > 2 < & % 2 > + L L L L 9 :.tX8X8XtXtXtXtXhXhXhXhXhXhXhXmXhXmXmXmXmXAXmXmXmXmXUXUXhXUXhXhXUXhXhXkXkXhXhXkXtXkXUX} O V 8 , K 6 3 , , , , 2 : % ! Q W ~ ( ` ` ] &.&.w.;.y.s.t.s.|.wX+XXXwXwX+XwXwXeXrXeXuXrXrXbXv.v.v.f.j.f.j.t.t.r.[ -.' ;.e = w 4 4 w r y r y y i u u u N N N x x x M c n n n G c } 5.5.E 7.R 5.R 5.R T T R R Y Y U U F F F F A U j A j A D j j j j 9 s 9 p p a 9 t 5 5 5 6 ; > > ; 3 , 1 3 1 5 7 3 p 8 7 8 8 8 s 8 9 D v g g g x g g g N g u u d u u t t t i w 9 * 4 4 * 4 * 4 * * * = * w i e e l e l k e d.:XK.!.!.Q.Q.B.Q.Z.Q.Z.Q.Z.C.Q.J.V.V.K.V.V.V.V.V.Q.n.b.Z.V.h X X O X O O # # # # 2 , < 1 > 4 5 6 5 7 3 p p p a a 9 9 6 6 9 s < # 4 # < & & * % * $ = B   9 Q.Q.C.q.B.~.#.# ; 6 6 , 1 , 3 , 3 , 3 , , 3 , , , , , 6 6 , , , 6 3 6 6 3 , , 6 6 6 3 , 3 , 3 6 , , 3 3 6 3 6 , 3 3 6 3 3 6 3 6 3 , 3 6 3 6 6 3 6 , 6 3 6 6 6 3 3 6 3 3 3 6 6 3 6 3 3 6 6 6 6 6 , , > O # , j +.Z.^.7X-X&X&X&X%X=X&X&X*X;X-X:X4X4X4X1X6X2X6X9X9X9XiXiXsXpXiXiXpXgXkXaXfXaXjXhXfXmX;X' t.c.w.r.u.x : > 7 3 ; s 6.0.+.#.+.+.+.+.o.+.I o.G T.G H H G M G x } i * g 2.y X + * i 0 k W e e e k e W W W W W W l [.lX%X&X>XK.E.!.!.!.R.I.K.R.:Xn.G & o $ > 5 4 4 4 4 4 4 4 t t t p y p p t f p a d d a a a d f 8 a d f p h v a j Z H D Z Z Z B % % c K.VXLXKXLXKXLXKXKXKXKXKXKXKXKXKXKXKXKXKXKXKXKXKXKXKXKXKXKXHX1.  9 P N v 9 9 n M 9 9 v n 9 x v 9 z 9 x 9 9 z 9 9 z 9 u 9 ",
"].OXH.H.H.v.H.v.h.h.H.9 $ 4 & 4 < 4 1 6 6 t t 9 4 p p a d p a f d f h r G.tX|.oXXX}.{.{.'.|.|.|.`.F.F.x.S.l.l.l.k.l.p.a.r.r.e.e.;.-.&.*.*.` $.` ~ ~ Q Q Q Q l l z n w . - - X = + $ $ $ $ $ $ & = = $ & = = * *   v pXBXiX9XfXpX0XlXdXpXlXdXqXlX0X0X0X0XlX0X0XlX6X6XdXxXxX5XY .   X # & 6 < @ o + 9 o.4.N v Q.kX<X<XtXkXkXtXhXtXhXhXhXUXmXmXmXmXAXAXAXAXmXmXmXmXUXhXUXUXhXhXhXhXtXmXeXhXnXeXaXBXU 9 6 8 9 6 , 6 6 , ; , % $ i W l W ~ ) ` ` ] &.w.[ r.w.t.k.r.t.oXoXwX,XwX+XwXwXwXwXrXrXuXrXbXbX].j.x.x.f.c.t.t.y.t.w.-.:.&._ = 0 4 w 4 r i i i u u u k u N N N g x x x x n m v 9 U #.5.#.E +.+.R #.+.+.R R Y Y Y Y F F F F F H D D D Z Z j h j f j j a a a a t 9 t t t 7 6 > @ > > < 2 2 1 1 1 1 7 5 7 p 7 8 7 8 8 p f c c x M x d g g d u y d y p u t t t t t 9 w B 4 4 B B 4 & B B = q e l e l k W W q k m.4XQ.Q.~.Q.Q.Q.Q.Q.Q.Q.J.Q.V.Q.V.V.B.V.V.V.V.V.b.b.9.n.m.8.Q.n . x $ & & & > > ; # 2 : > > > > > > < > < , > 4 , 4 , , , 6 6 6 & > & & & = & & & # % % & & O C.Q.B.C.N.I.R.G O 6 6 , , 6 6 6 > > , , 6 > 6 6 > 6 6 6 6 > , > 6 6 , , , 6 ; 6 6 6 6 6 , , , , , , 6 , , 6 , 6 , 6 ; 3 6 6 , , , 3 , 3 7 6 , , 3 3 6 6 , , > , 6 6 7 6 6 , , 6 6 6 6 7 3 : # X O 1 d 6.B.~.5X4X5X=X!.%X%X&X*X*X-X5X:X5X:X5X2X4X4X3X2X3X3X6X9X9XiX9X0XsXiXpXdXdXaXdXjXsXcXfXkXBXBXoX&.c.j.s.t.h.} 4 & p 2 1 O.5.O.O.| I Y o.I o.U P D | m v L L M g 9 9 r r 4 L x X & % $ * 0 i l W W W W W W W W W ~ k &.eX3X&X&X-X~.~.~.~.Q.!.Q.R.K.C.R.%XC.| % X o 4 4 < < 4 4 t y 6 4 y t t t t 9 y y 9 a a a d a d f j a j s g j h h h h h c j Z D F F f O O Z n.BXFXKXKXKXKXLXLXKXKXKXKXKXKXKXLXKXLXKXKXKXIXLXLXFXG . c v 9 M n 9 9 n 9 z 9 x 9 M 9 9 n x 9 N N g 9 N 9 N 9 N 9 ",
"].].H.H.H.H.v.H.h.v.h.* $ 4 > 6 4 < 4 4 5 5 6 t y y t a a a f f f d f B g.tXOXoXoX{.oX}.{.|.|.|.`.`.F.F.x.l.l.l.l.p.p.p.u.u.e.;.;.-.&.*.$.$.) ) ) T.Q ! b l b l z l i - - - . & - + $ $ $ & $ $ $ = & = & * & * 4 X c 6XVXdX6XjXdXqXfXdXpXdX0XdXpX0XpX0XqX0X0X0XpX0X9XpXfXfXfXfX,.v #     + 5 g 9 $ x m & :.tXtXtXtXtXtXtXtXhXhXhXmXhXnXmXmXMXmXmXAXAXAXmXmXmXmXmXmXUXhXUXhXhXhXhXtXhXhXeXjXUXM.6 6 , 7 9 6 , 6 , , , ; & = i b W Q Q ( ` ' ] [ -.{ r.y.s.f.y.j.,X@XwX@XwXwXwXwXrXrXrXuXrXrXrXbXXXv.).c.s.v.v.j.y.t.w.w.&.&._ = w w 4 i r i y y i u u N g N N N g v n x n n m v M U #.5.#.7.7.+.R R +.R +.Y Y Y Y F Y F Y F F F Z Z Z h j j j j j s g s a a p 9 t t 7 t 4 6 > ; > > 2 2 1 1 1 1 7 1 3 7 7 p 8 8 8 s s f Z c g c g x g g d d d d u u y y y t t r w B 4 4 B B & 4 < * = w e e l l e ( k q n H.&X;X.X!.Q.Q.Q.Q.Q.V.Q.J.Q.V.Q.V.V.Q.V.V.V.V.V.n.V.V.m.b.n.8.Q.n . 9 * # # > , % & 6 > : : > > > > , , < > < < 6 < , , 6 , 6 6 6 6 > & < & & = & $ * % % & & O C.Q.B.Z.B.B.U.n.f O 6 , > , ; > 6 > , , , 6 > , , > , 6 > 6 , 6 , , , , , > 6 6 > ; > 6 ; , , , , , , , , , , 6 , , 6 , , 6 3 , 6 , , 3 , , , , , , , 6 , , , 1 , , , ; , 6 7 7 6 > #   @ 7 H #.q.R.&X&X%X&X%XP.R. X X&X&X&X*X-X5X5X:X1X1X1X2X2X2X6XlX6X9X9XlX9X0XpXsXaXpXfXkXaXdXkXfXzXsXaXCXAX&X<.f.s.j.w.&.1.=.x * % t c #.@.+.@.Y O.X.o.o.P v v L c g 9 g 6 y 9 6 o.g 3.#.r . $ $ @ @ @ & & 0 r i e W W W ^ ^ ( ` l ;.eX1X-X-X&X:X;X~.=X~.!.~.!.Q.P.K.R.!.%XC.T.1 . + & 4 t t 4 & 5 5 5 5 6 t t y t p p a y a a 9 a f a d a j f j j h j h h h c Z j j H U Y H p p X d B.dXSXKXKXKXKXKXPXPXPXKXKXKXLXKXKXPXKXKXKXVXu o y D M 9 9 9 M x g x M 9 9 x 9 z M 9 9 g 9 N 9 N N N u 9 9 z ",
"].OX].H.H.v.v.H.h.h.H.w $ 4 # 6 < 6 , 4 5 t 5 t t p t a a a a a p f c 5 o.,X<XoXoX}.{.}.'.}.{.|.|.|.`.S.S.x.l.l.l.p.l.a.u.r.e.e.e.-.-.*.*.*.` ` ) ) ! ~ ~ b b l z n z = . - . $ + $ $ $ $ $ & & $ = = & = & * * y o   v lXCXjX6XdXdXpX0XqXfXpXdXdXdXdXdXpXdXdXpXdXdXdX0X9X0XfXfXcXfX-X6.4 X     . # g / L ;XhX;XtX8XtXtXhXhXhXhXmXhXmXmXmXmXmXAXAXAXMXmXUXmXmXUXUXhXUXhXhXhXUXkXmXtXhXgX8XBX;X4 , 3 8 a 6 6 , 6 > , > # & 0 k Q Q Q ( ) ` ` [ &.w.w.t.y.s.j.t.l.wX@X@XwXwXwXeXrXwXrXuXuXuXrXuXbX$Xc.x.x.k.v.t.k.t.t.-.-.&.&._ = 4 B r r r y i y u u k u N N N z x x x x m m m v U +.7.7.E #.T 7.#.#.R R R Y Y Y F R U F F F H H j D Z Z j j j g d j a a 9 t t p 7 t t 5 5 < : % > < 2 1 < 1 1 1 1 1 3 5 p 3 3 8 8 8 f a c c h g x d g g d u u y p u y t t t r t 4 9 4 B 4 4 4 & 0 = = w k e e l W z w l Q.8X1XQ.~.Q..X!.Q.Q.Q.Q.Z.Q.J.J.Q.V.V.Q.Z.V.V.V.n.V.n.m.m.b.b.8.Q.9 X 4 m y # o # < > & > : < : & > > < > > 6 > < > > < , > , 6 6 6 > > & < & & & & & # % % & & O 0.Q.B.J.C.B.n.R.0.# & , , ; % ; 6 6 6 , , , , > , 6 6 > 6 < , > , , > , 6 ; > 6 ; 6 6 6 6 6 ; , 6 6 6 , , , , , , 6 , , , , ; , , , , 6 , 6 , , , 6 3 , ; ; , , , 3 1 6 , # O X # 5 d #.0.U.R.%X&X&X-X%X%X!. X%X=X*X5X*X*X;X:X5X1X1X1X2X4X2X3X3X9X9XlX9XiXiX0XsXaXaXpXdXfXdXaXfXjXjXjXdXBXCXcX!.x r %.p.l.v.e.r.u._ = % H O.5.O.| O.| U P v v 9 c 9 9 v U @.#.8.n.Q.Z.V.Q.B.o.r $ * $ - @ # o # o # : * 0 w k k W ^ ` W U.kX-X>X6X>X:X;X;X~.~.~.~.~.!.&XK.Z.U.R.-XR.B.v t & + > t r < t 5 t 5 9 t 6 4 t 9 y t a y a a a p a a a a f g j j f h h c h h F h a Z H H Z H Z p : # p 5.-XxXLXKXKXKXKXKXHXSXKXKXKXKXKXKX8X4 & g L g 9 x 9 L n 9 v 9 9 M 9 g z 9 9 z 9 z 9 9 z 9 9 N 9 u u u ",
"OX].H.].H.H.H.v.h.h.h.w $ 4 & 4 4 < 4 6 5 5 t 5 p t p a d a f a a f c t d [.rX'.oX,X{.oX{.}.|.|.|.S.|.(.x.x.S.l.l.l.k.p.a.u.a.r.e.;.&.&.&.*.$.` ) ^ ~ ! Q ~ b b l z n w . . $ . - + # $ $ $ # & $ & & $ & & & & $ t %   c 0XCXjXfXfXxXfXdXfXdXpXdXdXdXdXdXdXdXdX0XpXdXfXdXqX9X0XqXfXcXVXjX~.U O . . $ 9 h.<XtXtXtXtXtXtXkXhXhXhXhXmXmXmXmXmXmXAXAXAXmXmXmXmXmXUXUXmXhXUXhXhXhXhXkXmXtX8XBX2Xd ; 8 f s 7 > 6 6 6 ; , , & * i l Q W Q ( ( ` ] &.-.w.w.t.e.f.t.s.`.wXwXwX,XwXwXrXwXuXrXuXuXuXrXbXbXrXc.c.c.v.v.t.s.t.t.y.w.-.;.[ = w r r 4 i i i u u u u u N N N N x x x M m m m v I +.#.#.#.E E 7.R R +.+.Y Y U R R U U F F H H A D A j Z Z j j s s 9 a a a t 9 7 t t 5 5 6 4 & @ > : 2 1 2 2 1 1 3 1 3 3 3 p p 8 7 8 p f c c x x x g g d g d d u u y y y t t r r 4 4 B B * & & B * 0 w k k k e W l q ! [.<X;XQ.Q.Q.!.Q.Q.Q.V.Q.Q.Q.Q.V.Q.B.Q.V.V.V.V.V.V.V.m.V.n.n.m.n.b.V.u X = x G v $ X & < @ % > : : > : > ; > > < > 6 > > < > 6 , , 6 , 6 6 & # & & $ $ & & & # & & X ,.Q.B.M.n.B.N.B.R.I + > > 6 6 > > 6 > > , > > , < > > > ; , > 6 > , > ; 6 6 6 6 > 6 > 6 ; 6 6 , ; , ; , , , , , , 6 6 6 , , , , , , , , , , 6 , , > ; ; 3 7 8 7 ; ; O X # , h | 9.Z.~.R.&X&X&X%XP.I.Z.!.!.=X=X-X5X*X5X-X:X:X5X4X>X2X4X2X3X3X3XlXiX0XlX0XiXpXaXaXdXdXkXkXkXjXfXjXjXjXfXjXZXjXn.d y x m / ;.f.p.y.f...0 4 | @.O.H f h h 9 c D o.3.0.V.Q.&X%X~.~.~.Q.Q.Z.Q.~.L . r y w . $ = $ $ + # ; # @ : ; 2 < 0 t r 0 L.BXlX>X2X2X:X1X;X:X;X;X&X&X&X!.&X%XR.I.I.R. X&XB.P & X . < p > > < 6 6 4 6 4 5 5 t t p a a t 7 a a a s j a a f a g j f j h h h h Z c h h H U +.Y D f 7 3 , , #.E.fXHXKXKXKXKXLXHXLXKXJX*X9 . g L M 9 v L g g 9 M 9 x x 9 x g 9 M 9 9 N 9 z z 9 9 z 9 u u 9 9 ",
"H.).H.].H.H.H.h.H.h.h.9 $ * 6 & > 6 < 6 6 4 t t t 9 p y a a f f f f Z a r d.eXoXoXoXoX{.}.'.|.}.G.].G.F.F.x.S.x.l.l.l.a.p.a.r.r.e.;.;.;.*.&.*.`  .^ ^ T.~ Q b b n z n u - . $ . + - $ $ $ $ $ $ $ = $ = = & = * $ < 4 +   t 5XPXxXdXfXzXfXdXxXfXfXfXfXfXdXfXfXdXfXdXdXdXdXfXfXzXfXpX0XqXjXcXzXfX9.9   & &XhX;X8X8XtXhXhXhXuXhXmXmXmXmXmXmXAXAXmXAXAXmXmXmXmXmXUXUXhXhXhXhXhXhXhXtXmXtXjXfXo.X 8 8 8 7 ; , 6 6 6 ; 6 > & * N / W ~ ~ ) ` ` ] [ w.w.w.y.y.f.t.t.XXwXwX+XwXwXwXrXuXuXuXuXuXuXuXyXbXuXv.j.x.x.x.t.v.t.t.y.r.&.:.*.0 B r r r r i y i u u k N N N N x x x M n M v v c #.#.E T #.E T +.T Y T Y Y Y U R F R F F F D D Z j A j j j j s j a a a 9 t t 7 5 9 4 6 4 6 > : @ : > : > 1 2 1 1 3 1 2 p p p 3 8 8 8 8 a c c g g g g g g d u d a u t u t t t 1 r 4 4 4 * * * 2 0 = e k k W W k k 0 ...X8XQ.Q.;XQ.Q.Q.Q.Q.L.Q.Q.V.V.Q.V.V.Q.V.V.V.V.V.V.n.V.n.m.n.8.m.b.b.Q.4 X - . v @.M # $ & & & ; : ; > & > > > > > > > > > 6 6 > , , 6 6 6 & # & & & & $ & & & $ & & . Y Q.V.n.V.n.n.9.B.C.c ; # > 6 > > 6 > , > , , , > > , > > > 6 , > , , , > > , > > 6 6 6 ; 6 ; , 6 ; 6 , , , , 6 6 ; ; ; 6 6 ; , , , , ; ; > 6 6 6 1 7 8 6 ; # O @ : 7 O.6.B.R.~.R.%XR.I.K.P.L.R.!.=X*X*X*X=X&X&X;X*X*X5X5X5X2X4X4X3X3X3X6X9XlXlXiXsXsXaXsXaXaXaXdXfXfXfXjXUXzXjXjXjXcXFXsX>.t f | o.v N b $.u.d.h.:.n + j H I #.6.n.Z.:X>X>X>X2X2X8X2X-X~.~.~.Q.Z.Q.Q.Q.L + = * u / . . o % & % % % % : : : : > : , 2 o T.6XfX9X-X1X6X2X;X;X:X-X-X-X&X!.%X&X&X~.R.I.R.R. XR.n.P < o O 5 5 6 4 4 6 5 t 5 t 5 t t t 9 a p p p a a a a a a 9 s j f j j j h h h Z H h h h 8 f F +.+.T A s ; 6 s U 0.9XFXLXKXKXKXFXQ.& ; o.9 g 9 g g 9 9 x x 9 9 M g 9 g g x g 9 x 9 9 N 9 N 9 u 9 u 9 9 y ",
"OX].).H.).H.v.H.h.h.H.w + 9 & 6 < 4 4 4 t t 5 5 p 7 p a a a d d f j s j t X.wX,XoXoXoX}.XX{.{.}.].].|.`.|.z.S.x.l.l.l.f.p.a.u.u.e.e.*.;.;.*.*.*.*. .) ^ ! ~ Q ~ l n n z * . + + $ + + $ $ $ $ & $ = & & & * & * % & & r <   f 6XZXzXpXfXfXfXzXzXfXfXxXfXfXxXfXfXxXjXfXfXdXdXfXfXpXfXzXfXpXqXfXzXZXUX1XQ.;XmXhXtXtXkXhXkXhXmXmXhXhXmXmXmXmXmXAXAXAXmXmXmXmXhXmXhXUXUXmXhXhXhXkXhXhXtXUXUX5.O 7 V 7 7 6 , , 6 6 ; ; ; & * i n W Q Q ~ _ ` ` &.&.-.w.w.t.t.v.t.k.oXwXwXwXwXwXwXwXrXeXuXrXuXuXuXuXyXbX).x.).c.x.s.v.j.t.t.t.&.r.&.= w 4 r i i y y u u u u N N N N x M x v x M x c D #.#.#.7.T T #.T Y R Y Y U Y U U U F F D A D A D D j D j j f 9 9 s 9 a t 9 5 t 5 4 5 4 4 < < : @ : > > > 1 2 1 1 1 3 3 3 3 p 3 p p 8 p f j c x x g d d g d u y u y u t t t r 1 r * 4 & 4 4 > 0 0 i k k k W l e e ..=X4XQ.Q.~.~.~.Q.Q.Q.Q.P.P.Q.V.Q.V.Q.V.V.V.V.Q.V.V.V.m.m.n.n.n.8.n.b.b.m.4 . -   & } @.P r + o % % & ; % : % > > > & < > > > > > , > , 6 # & 6 & & = $ & = $ # $ + $ & . Z !.B.n.Z.b.V.n.8.Z.0.1 @ @ , > ; > ; > > > > > , ; > > , > ; > > > > ; , > > ; & & ; ; > ; 6 ; # 6 ; ; , , ; ; 6 6 > 6 6 ; 6 ; , , ; , , ; > ; ; ; # X O ; 5 H 3.B.R.R.R. XR.K.I.K.R.=X=X%X!.!.%X X*X=X=X=X*X-X1X4X4X:X4X4X2X2X6X9X3X3X9XiXlXsXpXpXpXaXdXfXkXfXfXfXjXfXjXjXfXfXUXAXFX4X%.1 d +.T.g c m x n ..=.$.' / -X9X2X6X0X0XdXfX2X6X2X2X:X-X~.~.~.~.~.R.Q.!.^.^.o.* 4 M B x :.= O X O # % % % + % % % > 2 2 1 t 1 X F :XcXqX6X3X2X2X>X>X1X:X-X-X-X%X!.&X&XR.R.-XU.R.~.-X=XB.G < # % & 4 4 4 6 6 5 5 5 t 5 t 5 t t 9 t a a a a a a a a a f g f s h h f f f f Z Z T F s 5 7 V F +.+.R j 6 > p P 5.2XFXSXM.# & v g v L v x 9 9 x x 9 n x 9 9 z 9 z z 9 z 9 9 z u 9 u u 9 u i 9 i 9 ",
"H.).].H.H.H.v.h.v.h.h.w + 4 4 & < < 6 6 5 t t 9 p p t a a d a a s Z 8 A p x {.<XoX+X}.oX}.}.{.{.].].].F.F.x.S.z.l.l.l.l.p.p.a.u.a.e.e.*.-.*.*.*. .` ` T.^ T.Q Q n l z n w . . + - + $ $ $ = $ $ $ * $ & = & * * % < * * y < o > fXZXvXfXzXcXzXjXzXzXzXjXjXxXzXxXdXdXjXzXzXfXfXfXzXfXdXfXfXjXfXpX6XAXZXm.B 4.;XUXmXUXhXuXtXhXmXhXmXmXmXMXmXAXAXAXmXmXmXmXmXmXmXUXmXhXUXhXhXhXhXhXkXsXUXQ.> , S 3 7 3 7 3 6 6 , # > # # 4 N n W W ~ ( _ ` ' &.&.w.w.y.p.p.v.t.v.wX+XwX,XwXwXrXrXuXuXuXrXuXyXbXbXbXbX}.x.x.v.x.v.v.f.t.y.t.:.:.:.q r w r r t i u i u u N N N N x N v x M m M c D R #.#.R E T 7.+.Y Y Y U Y U U U U F F F A A D A Z j D j j f f 9 f a p p 7 9 t 5 6 5 5 < 6 > : ; @ : : > > 2 1 1 1 1 3 p 3 3 p 8 3 7 8 8 a c c g g N g g d u p u u y t t i t r r r 4 4 * < B * 0 0 k l k W k e k $.=X1X%XQ.=X~.Q.Q.Q.Q.Q.Q.P.J.Q.Q.V.V.Q.Q.Q.B.V.V.V.V.n.n.n.m.m.b.n.b.8.n.n.w . + + . B } >.L r = % % ; % ; & ; : % & > ; > > > > 6 > , ; 6 6 4 & & & & # $ & & & % # % & X j !.q.V.V.b.n.n.6.9.Z.+.1 # > > : > > , > > > > < > > > > > , , > > > > > > > > > > > # 6 ; > 6 > > > ; 6 ; 6 6 # 6 # ; > > ; ; 6 ; , , > ; # # # ; ; G O.M.!.&X!.R.I.U.I.I.P.R. X X X X~. X!.%X=X%X*X*X5X5X5X4X5X5X:X2X2X2X3X9X9XlX9XiXiXiXpXpXpXaXaXfXhXfXfXjXjXjXjXjXjXjXfXcXCXUX9Xu r c  .} x d m P x N N z i k M dXVXxXdXfXlX2X7X2X2X>X>X-X-X~.^.^.-X^.~.!.;XQ.8.# 9 N = * L z 4 $ # O O + % % + * > > * : : 2 2 d X O F 6XfXfX3X8X6X8X>X2X2X:X5X&X*X-X:X-X XR.R.>XR.B.B.R.&XR.J.t 6 @ # < 6 4 < 4 6 6 4 5 t 9 5 7 t p y 9 a a a a a a a a a f g 6 f H H Z h j c a Z F Y Y D Z s s D Y T Y h a 6 X D +.& + L } 9 9 9 g n n u z 9 x 9 M g x 9 z 9 9 9 9 N N 9 u u 9 i 9 i u 9 i e ",
"OXH.H.H.H.v.v.v.h.h.H.9 . 4 4 & 6 * 6 4 6 4 5 t t p p y a a f f a j 1 H a r [.wX,X+XoXoXoX{.{.'.[.|.G.].`.S.x.S.l.l.l.l.f.p.p.a.r.<.e.e.-.&.*.*.` *.T.^ ! ~ ! ! l n z Q 9 . . $ $ + $ $ # & $ $ $ * = = & * = * r & > > $ < 2   O fXFXzXzXzXzXcXzXzXzXzXzXzXjXzXzXzXzXxXzXzXzXfXzXfXjXxXzXxXjXfXUXfX8X4.# - + 9 H.tXmXmXmXhXhXmXmXmXmXmXAXNXAXAXmXmXmXmXmXmXhXUXhXUXhXhXhXhXhXhXsXmX2X4 O R 3 3 3 3 6 , , , > , 6 # $ r b W W W ~ ( _ ` ' &.w.w.e.r.t.j.c.j.c.uXwXwXwXrXrXwXrXeXrXuXuXyXbXbXbXMXuX).).x.c.).j.v.j.t.t.u.-.u.:.0 w r r r i i u u i N N N N N N b x x v m M c U #.7.#.7.R T 7.T Y Y R R R U R U U U F D F D Z Z D j A j j j j s a p 9 t 9 5 6 t 5 t 6 < < > : % @ : : > > 2 2 2 1 3 1 3 3 3 p 3 8 7 8 8 9 h c g x g N d d d u p p u y t t t t r 1 * 4 4 < * B 0 0 l e e W l e -.1X1XQ.!.;XQ.Q.Q.!.~.Q.Q.Q.I.P.J.Q.V.Q.B.V.V.V.V.V.n.V.V.n.n.n.n.n.8.n.8.b.n.* . + = . - u } o.} } ; % % ; & ; & : > ; > > > > > > > ; , , 6 6 & 9 & # & & $ = $ # & + + * X 9 !.B.C.9.V.0.9.n.@.6.K.c @ > > & 6 ; > > > > > > , > > > > > > > > > > > , > > > , > 6 # 6 6 ; # > ; 6 ; > ; ; 6 # 6 > > > ; 6 ; > > O # # 6 Z #.B.R.R.{.K.J.M.U.U.L.R.K.P.P. X X!.%X X~.&X&X-X5X-X5X-X>X4X>X:X:X2X3X2X3X3X3X3XiXiXiXiXiXpXpXaXaXfXaXfXfXfXjXjXjXjXjXUXcXUXcXZXCXK.$ v T. .G v G G v g L m g y 0 N 8.!.pXqX9XdX0X0X0X0X6X2X7X>X2X6X2X-X7X-X&X/.>X,.. 9 i y $ i L i i i * + + $ & % @ O # @ : ; ; , 2 @ c 1   +.6XzX9X9X8X2X2X>X2X2X2X:X1X:X&X&X-X5X&XR.&X-XR.R.I.R.%X>XB.v % # & 4 4 6 4 6 5 4 5 4 7 t 7 5 p 7 p a a y a a a f a a a c h f f f Z h s c Z h j f h H F U D Z Z Z U T T T s 9 P L 9 y } g L 9 9 n 9 9 x 9 M 9 z 9 x 9 x g g z 9 9 u N 9 u 9 u 9 9 i 9 9 ",
"].].H.).H.H.z.z.h.u.D.i - * > 1 < 6 4 6 6 5 4 4 t t t t p d a a a f h p f u T.gX,XoX+XXX}.oXoX}.'.'.|.|.|.`.`.x.x.A.l.l.l.l.p.a.a.t.r.e.;.-.*.&.*.*.` ` ^  .Q Q Q b W W b w   0 - - o % $ $ $ = $ $ & % $ & & = & & * < < & 4 * X 4 0XPXcXfXCXxXvXcXzXvXvXxXxXvXzXcXzXzXzXzXzXzXzXxXxXzXzXzXxXBXzXVXU.*.*.p p 2 # > +.:XBXZXAXnXmXUXhXAXmXIXAXmXAXmXmXmXUXUXUXUXmXsXUXUXhXhXkXkXmX8X9 6 V 7 7 8 6 6 6 , , , : > > = 0 k Q Q W Q ^ ) ] ] *.{ e.w.t.a.t.l.f.t.}.uX+XwXrXuXrXwXwXrXrXbXnXMXnX<XY.G # d Y.|.x.c.x.k.t.t.s.y.w.y.f.q * r i r i u i u u u N N N x x b N z v m c v Y 5.7.E 7.R R R #.T Y Y U R U U U F F F D D D Z v Z j j j j j s a a a a t 9 5 5 r 5 4 4 4 > < & @ % : & ; < > > > , , 6 6 6 7 6 7 7 7 p 7 f h g d g g d d y u a u t y t t t r 4 4 r 1 4 4 & = w i z W e W l q u.tX;XQ.;XQ.&XQ.Q.Q.Q.Q.Q.Q.V.V.Q.Q.Z.V.K.K.V.V.V.V.V.n.V.8.V.V.8.V.8.b.b.2.C.2.. . $ + $ . . x X.} m } r - o $ 6 6 # : : % ; > 2 2 2 > > > , 1 > 2 < > & $ & $ $ = & + $ % & # & K.B.n.n.0.b.0.n.8.8.0.0.v $ & 9 & & ; & ; ; > > > > # 6 ; & : > : > ; : : > > 2 1 1 , > ; # > > & > > > > ; ; > , 6 > ; # # # # $ & m X.9.I.!.Q.C.V.U.C.C.J.J.K.I.K.R.P.R. X%X%X%X%X=X&X*X*X*X5X-X:X5X1X4X2X2X3X3X3X9X8X8X9X9X0XiXpXaXaXaXdXkXdXfXfXaXzXjXfXzXmXzXzXBXjXBXFXfX3.t c G m v v v m m M ! d f c > z p.p.:.fXcXqXqXqXqX0XqX6X6X6X7X6X6X>X6X>X&X3X2X,.r i i r i 0 B i z N u r = . + % $ o % % % > * > < < < 6 < 4 X y 0XCX2XpX0X2X0X0X>X6X2X>X>X:X-X-X-X-X&X&X&XR.~.R.R.R.K.%X&XC.U % X @ 4 4 4 > > r a t 4 p p a t 7 5 t t 9 p y a a 9 d f f 9 f j j h h f h h h h Z c c Z H D A U D F F A U U D j j 9 x x 9 g g z 9 x 9 9 g g N N 9 u 9 N g u N N u 9 u 9 i 9 i 9 y y y ",
"].].].H.z.z.H.h.f.f.A.i - > > > < < < 4 6 t t 6 p 5 9 y y 9 y a a f f p c f m 5XwXoXoXoXoXXX{.{.{.'.'.].|.`.F.F.l.x.x.l.p.p.l.p.a.a.a.e.e.-.-.*.*.*.`  . .^ ! ~ Q Q b b Q i . - - - + + $ % $ $ $ % $ & & & & & & & & * * * * & 6   6 2XHXvXfXCXcXcXcXzXzXvXzXxXcXcXcXzXcXcXcXzXcXzXzXzXcXzXxXzXZXlXa.a.*.3 3 p 8 ; # @ y 8.sXHXZXIXAXIXmXAXMXmXmXmXmXmXUXUXUXUXhXmXhXhXhXhXtXUXUXo.# 9 f 7 2 7 6 6 6 , ; > > > % 0 i l l W ~ ~ !  .^ *.*.&.{ e.e.t.e.l.j.k.XXwXuXwX<X@XwXuXbXbXMXhX.Xu.G y < @ 7 d b <.'.|.s.k.f.k.k.t.y.w.f.w 0 r r r r y i u u z u N z x x b ! ! n c v F +.5.7.+.R 7.#.R T T Y Y Y U U F F F F D H H Z h Z j Z j j j a a a a a p 9 t t t 5 r 4 4 4 < : @ # % & ; : : ; > , > , 6 6 > 1 5 3 7 7 p p a c h d g u d u d u y y t t y t t t r t 1 > < 4 * B e k l k _ e e m.;X;X.X&XQ.;X&XQ.Q.Q.Q.Q.Q.Q.Q.Q.Q.V.Q.Q.K.V.K.V.V.V.V.V.V.V.V.n.V.8.n.8.n.1.D.@.. . $ . $ + . & m X.P } M i < + O % : % ; ; ; ; > < < > > > ; > > < < & & $ $ = & & $ # * % & # $ K.M.n.n.b.n.0.0.8.8.,.V.4.9 + # 4 # > ; ; > ; , ; 6 ; > > & > : > > ; : ; > : : @ % > ; > 6 6 ; ; ; ; > > 6 > & & # O O # < h +.6.B.C.C.J.C.V.M.V.D.C.J.J.I.K.P.P.P.%XR.!.!.%X%X&X&X*X*X-X-X:X5X2X5X2X4X4X2X3X6X6XlX9X8XpX0XsXpXaXsXaXdXkXfXfXfXjXjXVXaXfXBXjXfXBXcXdXSXFX9XO.y c o.L G v v v m M n c h c t r } l.u.=.pXjXdXfXqXqX0XqX0XqX0X0X6X7X7X>X>X0X3X9.y < g i r r r w k b k k w * - o o $ % % % : % : > * 2 6 > 4 p 6 O D 6XvX0X0XdX6X2X9X2X2X2X2X2X2X-X:X:X-X&X&X&X&X&XR.R.K.K.R.~.%XB.| 4 @ + 2 t a p 4 2 5 5 r 5 t t y a y p p 9 y a a d d d j j g f j j g j h j h h j Z Z Z Z Z Z D H F F F D D D h g 9 9 x 9 z g x 9 z x x 9 9 9 N N 9 u 9 u 9 y u u u u u u 9 i y i y ",
"].H.H.F.H.v.z.z.h.f.m.i + > > > < 6 < 6 4 4 5 9 t 7 t y p d a d d a f d c f N |.eX}.oX+XoX'.{.}.'.'.|.].|.|.F.S.S.S.A.l.l.l.l.p.p.a.t.e.;.;.;.*.*.*.` `  .^ ^ ! Q Q Q l Q b - . + - + + $ $ % = $ & $ $ & & & = & & & 4 4 < < < 4 &   4 6XJXSXjXvXBXVXvXzXVXDXvXvXcXcXvXvXcXcXcXzXVXVXzXcXzXzXzXZXU.^ a.<.N 2 V 8 K s 8 ; ; 9 U &XkXAXPXIXZXmXmXAXmXmXUXUXUXUXhXhXmXhXhXUXkXUXUX9.# 6 9 7 8 > , 7 6 , ; , ; : & $ w z b W Q Q ~ ` ` ` *.&.{ e.e.y.a.k.c.k.c.oXrX+X@XrXyXnXbXeX,X=.L 6 # ; p H F j c p z 2.|.F.j.j.j.j.f.r.e.f.e 0 r i i y i y u u u u N N c x x b m c x v o.7.5.T +.E T T T T T R Y U R U F F F A F H H v Z Z j j j j j a a a a 9 p t 4 t 7 6 6 < 4 < > : % % # ; & > & , > , , 1 , , 6 6 7 3 7 8 7 p a j g d g d d d u y u y y t y t r r 4 4 4 4 & & 0 e l l l z e l h.5X2X&XQ.Q.;XQ.Q.&XQ.Q.Q.Q.K.Q.K.Q.V.Q.V.V.V.V.V.V.V.V.V.n.V.V.8.8.V.V.8.b.m.2.V.4.. . + $ + $ + X w | %.} } P M & o o & ; % ; % : : 2 2 > > > > > 1 < > & & + % $ = $ & $ # $ > # @ C.B.n.n.n.9.8.8.8.8.,.0.n.R & + # # ; ; ; ; ; > > > ; > ; > : > > : > : > > 1 > > , , ; # # # # > 6 & # # # + + # # v I ,.0.C.J.J.K.C.C.V.D.M.C.J.K.I.I.P.P.P.P.R. X%X%X%X%X%X&X-X*X-X5X5X>X5X1X4X4X3X4X3X6XlXiXlX0XiXiX0XsXaXpXaXdXdXkXkXfXjXjXjXjXjXcXBXjXzXBXcXzXSXCX2XG 4 v | m m m v G v m v M x c a r b i.l.e.h.tXkXkXxXfXfXqXdXqX0X0XqX0X0X0X2XpX0Xn.i < z x u w r w i N l k N k i 0 - . o * % % % ; % 2 > > > 4 5 % 4 , X v dXcXfX9XpXpX0X9X9X6X2X6X>X2X>X1X:X:X-X&X&X&X^.~.&X~.R.K.!.-XR.n.h < O + > < < 4 t 5 5 p y a t 6 t t t a a y p a a s a a f s j j j j f h h h c h c Z Z D Z F A H F D D D D D 9 g x 9 x 9 9 g N 9 9 N z N N N z N u 9 u u 9 u 9 u y u u y y y 9 y ",
"OX].].H.z.H.z.z.h.u.A.k - < < , > 4 4 6 5 t 5 t t t p p y a p d f a f f Z f p <.tX<XOXwX+X'.oX'.OX'.[.].].|.|.S.S.(.x.k.l.l.p.l.p.p.a.e.e.e.;.-.&.*.` `  .)  .^ ~ Q b l b b B . + + - $ $ $ $ $ = $ & $ & = & & & & & & & < < < + N 9   4 qXJXCXvXvXCXDXvXcXVXVXvXVXVXvXvXVXvXvXcXVXcXVXcXzXVXZXgX*.e.s.a.T.2 p , 3 8 V A s 7 ; # v Q.sXBXIXmXmXmXmXmXmXmXmXhXUXUXgXkXUXkXhXmXQ.# 6 A 9 7 s 6 5 6 6 , > , ; % % * i n Q l Q ( ( ( ` ] *.*.e.e.e.s.k.k.j.t.c.wXrXbXbXbXeX.X2.v 6 , 6 9 j c Z f a f j Z a d <.].).j.s.t.f.f.;.s.e 0 i r r i y i N N u N N x N x x N b m v G Y #.5.7.E T E T T T Y R F R U F F F F U D Z Z Z Z j j j j j 9 a 8 a 9 t 9 t 9 5 5 4 4 4 < < > & % % ; % ; & ; > > > > , , , , 6 3 5 7 7 p 7 f c g N g d d u a y y y t t y r t 4 r 4 r 6 B * i z l l W e k A.8X<X.X&X&XQ.Q.&XQ.Q.Q.Q.Q.Q.Q.Q.Q.V.Q.V.Q.V.K.Z.V.V.V.8.V.V.8.V.8.V.8.8.n.8.8.2.V.o.  - + & . - & + X u %. .} }  .m t % o % ; > > ; % : > ; > ; > > > > < & & $ $ $ $ $ $ $ # % < + + N.C.b.9.n.9.0.0.8.8.8.#.8.0.L # # 4 & ; & ; ; ; > # & > ; & : : & > > < ; % @ % % ; # # , , 6 ; # # . # # & 9 L #.,.C.C.C.V.n.n.n.n.N.n.V.U.J.J.J.I.K.P.P.R. XR. X~.%X%X&X*X-X*X*X5X>X5X1X1X2X2X3X2X6X3X9X9XlXiXiXlXpXpXaXpXdXkXfXkXfXfXjXfXjXjXjXzXjXBXzXBXVXzXcXHXZX Xp r | 4.G c v G m v v m M c N u t i %.A.p.e.OXsXtXqXfXfXxXxXdXxXqX0XqXqX9X0XfX0XN.r r c b N u r w i i b n z z k N i = . . $ @ % @ % 2 2 & 2 > > a % & d & X P 0XcX0X0XdX0XqX0X9X9X6X6X2X2X2X>X>X>X5X-X-X&X&XR.%X&XR.K.K.!.~.&Xn.v ; . O 4 c > < < 4 4 5 t 9 t 7 9 t p a a y a a a a a g f g f f g f j h h h h Z Z Z Z Z Z A D A D U U D v 9 9 n 9 x N 9 N 9 N 9 9 N 9 9 9 u u N z 9 u u y y u 9 i 9 y y r i ",
"H.H.H.).H.z.v.v.h.u.A.u + * < > < < < 6 6 4 t 5 7 t t 9 y a y d d p f h c f t b eXwX{.wX+X}.,X'.'.}.'.'.|.|.|.|.(.S.S.l.l.l.l.p.p.p.a.t.e.e.;.;.&.*.$.$.$.` ^ ! ~ ~ b b b Q i . - + + $ $ $ = $ $ # $ & $ $ & & & & & & & 4 & 4 t & r 9   $ -XLXDXBXvXCXCXVXvXVXVXVXVXVXVXVXVXVXVXVXvXVXvXzXCXZXH.[ j.t.y.a.1 3 j s 8 6 3 7 s D 9 # # 6 0.CXCXmXmXUXmXmXhXUXhXmXjXhXUXsXgXBX=Xt , Z 3 3 8 6 1 p , ; , , 2 % % $ i z b W W Q ) ( ] ] ] &.*.e.t.a.s.p.s.k.x.oXyXyX,XQ.u.n 5 ; ; , 9 Z j c c c d d H p f H a y =.F.x.v.j.t.k.e.f.k 0 i i r u u i N u N N N N x N x c ! m G U #.5.T 7.+.+.T +.Y Y Y R U U U U D D D D Z D j Z j j j j f s a 9 p p 7 5 9 5 5 6 4 < < < < > > @ @ @ & % ; ; > , ; > > > , , , 6 7 7 1 7 8 7 a c g a g u d u u y i t y r t t r 4 4 4 < 0 B i N z k e e z Q.<X<X;X~.Q.&XQ.Q.&XQ.Q.Q.Q.Q.V.K.Q.V.Q.V.K.V.Q.V.V.K.V.V.8.V.V.8.V.0.n.8.8.8.b.b.8.Q.L   $ # $ + - & $ X $ m X...T. .o.! t % # % % & : : ; > ; ; > ; > , > & & = & $ $ $ & $ $ $ + > $ # 6.C.n.0.0.8.0.8.8.0.8.#.#.9.,.9 # # ; % ; ; & ; > ; # > ; & ; & : ; @ % @ % % : > < > > ; # O O # # g D o.,.0.V.C.J.b.b.b.b.b.n.V.J.J.J.J.I.I.K.P.R.P.R.R.!. X%X%X&X=X=X*X*X-X5X-X5X>X1X4X1X2X3X3X8XlXlXlX0XiXpXsXpXaXpXkXdXkXfXfXfXjXjXjXjXzXUXzXUXcXzXVXcXfXVXSXBX3.x d | O.x d O.m v v v v v c x x B i ~ g.l.&.m.kXkXtXtXsXkXfXfXxXfXdXxXfXqX0XqXjXZ.u t m z r N N r w i k b Q l z k k k r = o o + % @ % % : 2 2 > % > f : % f < X U 9XcXdX0XdXdXpX0X0X9X6X6X6X6X6X>X1X:X>X-X-X-X&X&X~.;X~.K.K.!.~.&X&XB.P 6 # X 7 4 6 4 < 6 4 d t t t t t y t a 9 a p a a a a a d a g a j h j h j j Z c Z Z Z Z D A D D U F c j g x 9 x N 9 N N 9 9 N 9 N 9 u 9 9 u 9 y y u y k i u i y y y r 9 ",
"].].H.H.z.H.z.h.h.p.A.i + * > > < 6 6 4 5 t t 5 9 4 p t p a a 9 d a j f f f d i ,XeX,X}.,X+X+X'.OX{.'.{.'.|.].G.`.S.S.x.l.l.l.l.a.f.p.a.e.e.;.;.&.*.$.`  .`  .) ! ~ Q b b b l $ + - + + $ $ $ = $ $ & $ & & * & & & & 4 & & 4 4 r B + r g   & 2XJXHXVXBXDXDXCXCXCXCXCXCXVXVXVXVXVXVXVXCXVXVXSXzX$.r.x.y.y.a.u 2 6 6 7 s V s 9 8 A U K # h cXFXjXmXmXmXhXmXhXmXhXhXUXhXsXAXpXh ; 8 Z , 7 7 ; 8 , , ; ; , > @ % $ k l l l W ~ ) ) ] ] { &.{ e.t.s.t.s.j.|.`.[..XY.d < # # , f D U Z j d f d f c h d j f V j t i ..F.x.v.t.t.w.f.Q 0 r y r i y u u N N N z N N x x b x d c Y #.#.7.E E T T Y Y Y I F R F F F U A D A Z D Z j j j j f f a a a p 9 t 9 t 5 5 4 6 < 4 * < > % @ % @ ; % ; & : ; > > , , , , 6 , 1 6 3 7 7 5 a h j u g d d p u u t y t t r 4 r r 1 < 4 * B k W l e k W Q.8X<XQ.&X;XQ.&X;XQ.Q.Q.Q.Q.K.Q.Q.Q.K.Q.V.Q.V.Q.V.V.V.V.V.V.V.V.8.V.8.V.n.8.V.8.8.8.8.b.M   $ - . $ + . $ - . = %.4.o.T./ } v c & + # # ; : ; ; & ; > # ; & < : & & # $ $ = $ $ # + + > % O @.J.8.n.9.9.9.8.8.,.8.8.>.@.0.@.9 . % ; % & # > # & ; & % ; & ; & ; : : > : ; ; @ % . . . # 4 v >.9.n.n.V.V.V.0.8.8.8.b.V.C.J.J.V.J.C.L.I.K.P.{. X%XR.%X!.%X%X&X%X*X-X*X-X:X5X-X5X1X1X4X3X3X3X3X9X8XiXiXiXiXsXsXaXaXdXpXfXkXjXfXjXfXjXjXzXzXjXcXUXcXjXCXAXzXCXJXaXT.t c | T.v v G G P v M m M c x d u B b ;.A.r.&.{.hXkXtXtXtXsXkXkXxXxXxXdXqXfXxXxXM.x r m c u u i i w r z z b Q n l k k z k i $ . + @ % % % % : % > 1 @ t 5 @ a 4 & X Z 6XDXjX0XdXpXpXsXpX0XiX9X9X6X6X2X6X5X>X5X5X2X-X!.~.&X!.!.&XB.R.%X&X!.n.m @ # & < 5 5 t 6 6 5 5 5 4 t p t t 7 t p 9 9 a a a a a f s s g g j j j j V h Z Z c j D D D D D D H g 9 z 9 9 N N 9 N N 9 N u 9 9 k N u u u 9 u y 9 y 9 y y y 9 y i ",
"].].H.).z.z.z.v.h.u.A.i - * < > < 6 < 4 6 4 5 5 t t t p a a y d g a s f f Z c t g.eXwX+X+X{.,X}.oX}.'.'.|.[.|.|.`.`.(.S.l.l.l.l.k.l.p.p.a.a.;.;.-.*.*.$.$.` ` ^ ! ~ Q ! z b ! r $ - + + $ $ $ $ = = $ & $ & = & & & & & 4 & 4 & + g & + g d o + dXPXLXCXCXZXCXCXCXCXDXCXDXCXCXDXDXVXVXZXVXSXSX X-.f.j.y.t.e. .2 9 6 6 6 7 s a 8 6 9 R 9 4 pXFXmXmXmXmXmXmXhXhXhXhXhXkXmXfX,.@ V 3 8 s 9 , , 7 ; , , ; 6 2 o % w z z l W ~ ~ ~ ` ` *.*.-.w.e.t.s.s.j.(.S.$.v y O , 7 9 Z Z Z a 1 d f f d j a s a 6 H f 7 s j t t ..f.z.j.j.w.l.Q 0 r y i i u i N N N N N x x x x N x v | +.#.#.T T T +.T Y U U Y U U S U D A D A D Z v j j j j j 9 f a 9 7 9 5 5 5 5 6 6 6 4 < > < < > % % @ & @ & % ; & & > > ; > , , , 6 7 , 7 7 7 5 f c g y g a u u p y t y t t t r 4 < 4 < 0 w k W W k z -.A.8X;XQ.<X&X;X.X=X&XQ.&XQ.Q.Q.K.Q.Q.V.V.Q.Q.V.Q.V.V.K.V.V.V.V.n.V.V.8.V.8.8.n.V.8.8.8.,.V.x   $ + . $ $ . + % - . N X.<.T.G } } } g r & # @ ; 2 ; ; & > , > > & < & & $ $ - $ $ + $ + # : & X o.J.8.9.9.9.0.8.6.,.,.,.,.@.#.,.L & % % & ; > & # ; # & & & % % ; # > > @ @ o # O @ 9 v o.8.9.n.n.n.8.8.8.8.,.8.n.V.K.V.n.n.n.M.I.Q.I.K.P.!.P.P.R.I.%X%X=X=X*X*X*X*X-X-X:X5X5X4X2X4X3X3X3X9X9XiXiX0XiXsXpXpXaXaXaXdXfXkXfXjXfXjXjXjXUXjXUXcXcXUXcXBXBXBXBXZXHX6XG > | o.G d v O.} d v v v M c x d d t i ;.f.p.t.a.eXkXsXtXsXtXyXtXsXjXjXzXxXdXcXxX~.d y M m y N b w i w i z b b ! Q l z z z N N 0 % % o @ @ % : 2 % ; 1 ; @ 5 p < > d : X P dXVXdXfXfXdXaXpXpX0X9X0X9X9X6X6X6X2X5X7X;X;X;X:X:X-X!.!.2X!.C.Z.!.:X~.R.t ; # # & 5 6 4 5 5 5 9 t 5 t 9 p p a a p a a a a j a j g j g s j j h j j j j j Z Z v D Z Z D D 9 g 9 x 9 u 9 N u 9 z 9 N 9 k 9 i 9 u 9 u i y i i i y y i r i y ",
"].H.).H.F.m.z.z.h.u.A.u # & > 6 < < < 6 5 4 5 5 9 t t p y a a p d a f s p C H i T.eXtX}.wX{.+XoX{.oX{.'.|.[.|.|.S.(.S.S.S.l.l.l.l.a.a.p.e.e.;.e.;.-.$.$.$.$. . .~ ^ ! ) b b } i - + + + $ $ = $ $ # & $ & $ * & & & * & & 4 4 & 4 % 4 y $ * 4 % X pXLXSXCXSXDXSXDXZXDXDXZXDXCXDXDXDXZXSXVXSXVXO.h.x.y.j.t.;.3.1 , 7 s 8 7 8 s 8 A 6 K 9 . !.AXmXmXUXmXhXmXmXhXmXnXgXjXBXb.% f 8 V , 9 , 6 9 ; 3 6 , ; > ; o * u z l W ~ ! W Q ` ` ] &.-.w.e.t.s.s.c.x.e.i & j s 9 h j d p t d g 9 9 9 f 9 s s f f p a h 9 8 j s 4 $.x.c.j.y.z.) * i i i y i y N N N N N N N x z N T.,.Y.5.+.R T T +.T T I Y U U U U F F F D D A Z Z j Z Z j j j 9 f p 9 p t 7 p 9 6 4 4 4 6 < < < & > % @ # % % ; # % & > ; > > , , > , , 6 7 , 1 p 7 a j j y g u N a u y y t y r r 4 4 4 < < B l l W W e ( G.kX;X&X&X~.~.=X;X;XQ.Q.Q.Q.Q.Q.Q.Q.Q.Q.Q.V.V.K.V.V.V.V.V.V.V.0.V.V.8.V.8.V.n.8.8.8.8.1.8.V.x   = - & . + $ - = = . X Q <.X. . .L L X.v 6 % @ ; @ @ # & ; # ; > & : & # $ $ $ $ + $ + o o % : X I K.n.8.9.9.8.,.,.,.,.4.3.,.@.,.,.g # # & # & # & & & # # ; % # & % O O O # 4 c +.3.9.b.n.8.,.,.2.9.8.b.V.n.V.V.V.V.n.C.K.I.K.I.K.J.K.K.K.P.P.R.%X*X=X&X*X&X-X*X-X5X5X1X:X1X4X2X2X2X3X9X3X3XiXiXiXiXpXpXsXaXaXfXfXkXfXjXfXjXjXjXcXjXzXcXUXcXUXBXBXcXBXBXFXSX=Xu t >.G v G | } c c G G m m M x x y y 2 z m.l.e.r.|.hXsX8XtXhXgXgXgXaXpXfXzXzXzXvX-X& g L x d z z N i i w u l b W Q ( W W z z z z i * + % @ % % % % 2 2 @ t > & 6 ; a > a 6   c fXSXdXfXfXfXdXdXpXpXsX0X0XlX6XlX6X2X7X:X2X1X*X-X1X-X~.!.%X&X&XR.Z.I.~.>Xn.c % # > 4 t 5 5 5 5 5 t 7 t t 5 5 5 p 8 9 p a a a a a s s g j f j j j Z j c j j Z Z h Z D U g 9 z 9 N 9 z 9 N N 9 u u y 9 9 u g u i 9 i 9 9 y 9 y y y 9 r 9 ",
"].H.H.H.v.H.v.h.h.r.h.z + 4 & & & > 6 < 4 6 4 9 p t p t a a p f a s f f j f h h t  XyXoXwXoX,XoXoXoXoX{.}.'.'.|.F.|.F.F.x.l.l.l.l.f.f.f.u.r.u.e.e.-.;.&.*.$.` ` / _ / ( Q n b l $ . $ + $ + . * $ $ & $ $ & & & & & & * & 4 & 4 * < < < < r 5 4 o % *XLXPXZXGXCXGXDXDXSXDXDXDXDXFXVXGXCXSXPXoX{ v.f.j.r.t.r.%.T.2 t f 3 8 8 8 8 a f V A 9 9 FXUXhXmXhXmXmXhXmXhXhXhXAX~., 6 A 7 7 7 7 6 6 6 , , ; , > # $ = w l l W Q ~ ~ ( ` ` *.] ` -.t.t.y.s.].p.T.u t 9 9 a d 9 a d d d d 9 a a g g a g a j a a d f f f p 8 a p m g.A.t.t.&.0 w i r i N N u N b b N i i T.>.B.U.U.Z.5.T #.T E T T R Y R F U U F F F A D D Z Z Z c h h j g f a s a p a t t t 9 5 4 4 5 4 4 & < > % @ @ & # O @ : : : : : : : > > , , 3 1 7 3 7 3 t p f d N N g u y y t y i t w 9 9 = * = w z k ~ l w } .X8X;X~.;X~..X*X~..X~.Q.Q.&XQ.Q.Q.Q.Q.V.Q.Z.V.Q.V.V.Q.V.V.V.V.V.n.V.0.V.8.V.V.8.8.8.8.8.8.,.V.# . . + + + $ + $ % o % - $ ! 1. .!  . .!  .T.x 2 o o % ; # # ; , # & < 4 & # $ $ $ $ + + + # & & . y K.0.8.8.8.8.,.,.,.,.,.@.@.@.4.@.#.9 + + 9 # # ; ; , ; # O O O . # r 9 o.3.9.b.b.9.,.2.2.9.b.9.b.b.m.n.n.n.V.D.D.C.J.Z.J.I.I.K.P.P.R. X X%X%X&X%X X*X*X*X;X-X:X5X1X4X1X1X3X3X3X3X3X8X8X9X0XiXpXsXpXaXdXdXkXfXfXjXfXjXjXjXzXcXjXcXcXBXUXcXBXBXBXVXBXBXPXZXY.p h T.| } G G G v G G v P g v G d u u 0 i h.:.f.f.-.<XhXtXtXgXtXkXgXgXtXtXUX<XAXAXQ.x x P n x g g N y u w k z l Q / _ _ b Q Q l l k k i 0 - - o 2 @ @ 2 : > > > < 1 < 1 6 : p 1 X Z qXGXdXzXpXdXzXlXlXdXdXlXqXlXlXlX6X6X2X2X2X>X>X:X:X-X-X&X~.&X~.~.!.!.R.&X&Xq.c o O $ 4 6 1 2 1 1 t 1 t t t t t 9 a y a y d 9 a 9 d a s s g j h h j h h h c h Z c Z Z L j 9 9 9 9 N 9 u 9 u i u 9 i y 9 i 9 i y t y t y 9 r 9 r r r r ",
"].].).H.H.v.h.v.h.u.m.z . * # 6 > 4 > 4 6 4 6 4 5 p p p p a f d a f a f s j j h w U.uX+X+XoX+XoXoX}.}.'.'.'.'.'.|.|.F.F.`.z.S.l.l.l.f.f.f.u.e.r.;.;.;.*.&.$.$.` ) ) ) Q Q Q n b q . $ $ $ $ o & & $ $ & & & * & & & * * 4 & 4 & 4 4 < r 4 1 r r f X < >XLXLXZXSXSXSXDXDXDXFXDXDXDXDXDXDXJXAXz.j.v.j.j.t.r.r.e. .< 1 7 p 8 8 a 8 8 s V A 6 9 UXAXmXmXmXmXUXkXUXhXkXAX:X9 ; V V 7 8 7 7 7 6 6 > 6 ; , & $ $ * u z l l W Q ^ ( ` ] ` -.w.w.-.y.k.c.r._ x t 5 a d 9 a a a g a a a a a d a a a a g a a s d f d d a a g 5 4 / u.A.x.) = i x y i i u b N t r N } 2.M.U.n.Z.B.Z.6.+.#.Y T T R Y R U F R F F F F U A D Z c Z h h h j a j a a a 9 y t 7 t 6 4 4 < & > 4 < # < 6 % O o @ & @ @ : : & ; > : , , 1 , 6 6 1 1 3 t 7 a f N d u y N u y y r r i 4 B 4 4 w 9 w z ^ e w ;.OX8X2X.X;X&X;X;XQ.*X~..XQ.&XQ.Q.Q.Q.V.Q.Q.Q.Q.V.Q.V.V.K.V.K.V.V.V.V.V.V.0.V.8.8.V.8.8.V.8.8.8.n.$ . + + - + - $ + + $ % $ X B ..3. .T.O.T.T. .! N w % o & % @ # & 6 4 + & $ $ $ $ $ $ $ + + + # # O 5 K.8.0.8.5.,.8.8.,.@.,.>.@.@.@.@.o.L 9 + # & + & O   X # & 9 g U o.,.2.9.2.2.1.3.>.9.9.9.b.b.b.b.b.n.n.V.V.U.C.C.C.J.I.I.K.P.P.R.P.%X!.%X%X%X=X-X*X*X*X-X-X5X5X4X1X4X2X3X4X6X6XlXlX9X0XiXiXiXpXpXpXdXkXfXfXjXfXjXjXjXjXjXUXUXcXjXBXjXVXBXjXVXAXAXSXLXlX%.f H  .| T.P G m v G v v G g P v d y g i B ..h.f.u.1.z.tXhXtXkXtXkXtXhXkXkXgXhX8XUX;Xo.g P m v x d z u u i w k b l W / / _ ~ Q W W l l z N i = o @ @ @ @ : & & & > < 2 < 6 < 1 4 f 1 O H 6XSXjXjXcXlXfXCXlXdXqXpXpXqXlXlX0X6X2X2X2X1X>X>X:X:X-X-X&X&X~.!.!.R.R.~.&X&XB.G 2 X & r a 1 1 t y 5 5 6 < 6 t t t y a p a a d d g d j j a f j h h j h h c c Z Z v v v x 9 N u 9 N u 9 u 9 u i 9 y y 9 i 9 y y y y r 9 i r 9 r r 9 ",
"].].H.H.H.v.v.h.r.u.m.z . * & > & > 6 4 4 6 4 4 5 t t 7 y y a a d a a f j V h h r *.eXrX+XoX+XoXoX}.,X,X'.'.'.|.|.F.`.F.F.S.l.x.k.l.k.f.u.t.r.r.e.;.*.*.*.&.$.` ) )  .~ Q Q n b 9 - X $ + $ - % $ $ & $ & & * & & & * & 4 & & 4 < < 4 < < r 4 4 B u X $ -XLXLXZXSXFXFXFXGXFXFXDXDXGXCXGXJX<X{ F.k.j.k.f.t.p.a.%.u < 1 f 7 7 f 8 s s s 8 9 , ~.FXUXUXmXUXhXmXhXkXBXfXG O s 8 8 8 7 7 6 6 , , > > ; , & + = w k z l Q ~ ~ ( ) ` ] ` w.r.{ y.p.l.p.N u y 5 p a a y a a a a a a a a y a a 9 a g a g f a a u g a a a j a 6 5 M <.A.e.0 r t r t u u u < x %.N.C.B.n.Y.b.n.q.n.0.#.T Y T T T R F R F U F F F F D Z v D Z h h j j f s a a a p p p t 9 t 4 6 4 < < & < 4 & & + o O o @ @ @ # % > : : : : : , , 1 1 1 6 7 p 3 p p f N u y u y y i y r y t 4 4 9 * * 9 W ( k k *.=XtX1X=X;X.X*X~..X*XQ.=X.XQ.Q.Q.Q.Q.Q.Q.Q.Q.V.K.Q.V.Q.V.V.V.V.V.V.V.V.8.V.V.8.8.V.8.8.0.8.8.8.8.n.. . . + - + + + $ + $ $ $ .   u <.<. . . . .T.T.T.G i 2 O # & @ # > 4 # & & $ $ $ $ $ + + + $ # & . 6 C.0.8.,.8.,.8.8.#.8.@.@.>.@.o.@.@.8.L + . X # # # 9 g G o.4.,.9.b.,.,.,.,.2.8.b.b.9.b.b.N.N.n.n.M.D.U.C.C.C.J.J.K.K.K.K.Q.R.R.R.%X%X%X%X&X*X*X;X-X-X5X5X2X2X4X4X2X3X2X3X9XlXiXiXiXiXiXsXsXpXdXaXdXjXkXfXjXjXjXjXjXUXUXcXUXcXcXBXBXAXcXBXZXBXcXZXPXlXO.2 H O.T.H T.} G G v v v G m c L g y f i r b h.h.f.r.:..XhXtXkXtXtXtXtXkXtXhXsXgXhXmXm.i g P v n x x N u y i i k l n Q _ _ _ ! ~ Q b b l z z z r $ $ @ @ % ; % 2 % > 2 < 2 < < p 2 1 f ; X f zXVXzXzXzXjXdXjXfXdXdXpXlXdXdXlX9X8X9X6X2X2X1X2X1X>X:X-X-X&X&X&X5XR.U.R.%X&XR.Z.9 < @ @ 1 t r 2 5 t 9 y a y t 6 p y y y a f a a a f a j g j j j j h h h h j Z c D v 9 9 9 i u 9 9 k u y u 9 i u y i y i 9 y y y w r w 9 r 9 r r ",
"].H.H.H.v.H.v.h.h.h.h.n . 4 & 4 > 4 & 6 4 6 4 6 t 7 t a a p f p a a j f j f f h p b ,XlX,X+X,XoXoXoX}.}.{.'.'.{.].|.|.F.F.x.x.x.l.l.h.f.p.p.u.u.e.e.;.;.&.*.$. .) ) ) ) Q Q m n n - . $ - # * $ $ $ & $ & & & * & $ $ 9 * & 4 & B < < 4 < 4 r 4 % c c   X &XJXLXSXSXGXGXGXFXFXGXGXGXZXLXZXh.w.`.k.v.v.t.y.p.a.<.m > 1 8 7 3 s 8 s s K V K ; #.FXUXmXmXhXmXmXkXUXcX3.; f V , 8 8 5 7 6 6 < > > ; > ; # # = k z z W W Q ~ ( ` ` ] [ -.{ y.k.l.;.c 6 9 t y y p y p a a a y a y a a a a y a a a a a a a u p y y u f 7 s f 7 < n a.A.0 4 9 i g N a g o.,.n.n.6.,.Y.Y.Y.n.Y.0.B.#.F T T T T Y Y Y F F F F F D Z Z Z j h h h j g f 9 a p 9 p t r 9 4 6 5 5 < 4 4 4 < & % % + o O + % @ @ % ; % : : : > 2 , , , 1 1 3 1 7 1 t p f f u f y y y y t t t 5 r 9 w = w W W W e p.5XeX;XQ.&X;X;X;X~.;X&X.X~.~.Q.Q.Q.Q.Q.Q.Q.V.V.Q.V.V.V.V.V.V.V.V.V.V.8.V.8.V.8.V.8.8.8.8.8.8.8.,.8.9.. . . + + - $ - $ % + % $ = . - x 3.;.T. .) T.T. .T.c x - # @ < & # # 4 & # $ # + $ $ + + $ # # & # & n.0.8.8.,.8.5.,.#.@.@.@.@.@.@.o.o.@.o.9 & r 9 v @.@.3.3.,.3.3.3.@.>.1.2.2.8.9.b.m.N.b.N.m.M.M.M.V.C.C.J.J.I.K.K.P.P.P.Q.!.%X%X%X%X*X&X&X*X;X;X-X5X5X1X1X4X2X2X2X3X9X9XlXiXiX0XiXpXpXaXdXdXkXfXfXkXfXjXjXjXzXjXUXzXcXcXcXcXBXBXBXBXCXBXZXBXcXJXFX=Xf f *.3.| c H | G G v v G v v v G g a g N 0 u ;.h.r.v.r.h.tXjXeXtXgXkXkXgXtXgXgXkXeXUXBX1.N L L M c x g u y i w N l l / _ _ ..$.~ ~ ^ b W l l l z N B $ o + @ % : & : * > < 2 < < 5 5 2 1 f 7 X h jXFXjXjXzXjXxXjXfXdXdXdXdXdXlX0X0X9X9X6X6X6X2X2X2X:X>X:X-X-X&X&X&X*X~.K.E. X-X*XN.h % o 2 5 t < > 4 5 t 7 t 9 p p p p y a a a a a a a s a j d f j f j h c j c v j D j g 9 i u y u 9 u 9 i y y i 9 y t i y r r 9 r 9 w r r r r ",
").H.H.H.H.h.h.v.r.u.m.z . 4 & > & > < < 4 6 5 5 t 5 p t y p p f 9 a d a s j j j f i U.yX,X@X+X+X,X}.,X}.}.}.{.}.'.|.|.G.S.(.S.x.l.l.l.l.f.f.u.r.u.e.e.;.&.%.*.$.` ) ) ^ / ( Q n _ w . + + $ * + & $ & & & & & & & & & * * 9 & 4 < B 4 < 4 r 4 r u % r c o . R.LXLXJXFXFXGXGXGXJXGXFXJXKXeX-.`.v.v.l.j.k.w.y.p.e. .r 2 f 7 6 s 8 8 8 V V A 6 9 VXmXmXhXmXhXtXUXmX0.; 6 A 6 s s , 6 5 7 , > > , > ; & % $ w N l l W Q ~ ( ^ ` ] *.&.{ y.p.p.*.c 2 6 9 9 a a a t t p p p a y y a p a t 9 y a a a d a a a a y a a p f p f f 7 r z  .* p g g g d c +.9.6.#.3.3.,.Y.n.0.b.9.0.B.0.F Y Y Y U R F U F F U D A D H Z Z Z Z j j j j a a a p p 9 t t 7 t t 6 4 6 4 * & & + . 4 u t & X # $ @ @ : % : : : 2 , , : , 1 3 1 3 t 3 t p N f i d y y u y t t 6 9 r 4 & w _ n e e u.,XtX4XQ.;X:X&X~.;X&X%X=X.X=XQ.Q.Q.Q.Q.V.V.Q.Q.V.K.V.V.V.V.V.V.V.V.V.8.V.V.8.V.8.V.8.n.8.8.8.8.8.,.8.9.. . . $ + - + $ $ $ % $ $ * * X - T.<.4. . .| | T.T.T. .x * . # * & # & & $ $ $ $ $ + . + + & + & # $ 8.8.8.8.5.,.,.@.,.@.@.@.o.@.o.@.o.v 4.+.} @.#.@.8.4.4.>.3.3.3.>.1.8.b.b.b.d.b.b.b.n.n.M.n.M.V.C.C.J.J.J.K.K.P.P.P.!.!.R.%X%X=X=X&X-X*X*X-X5X:X5X>X2X4X4X2X3X3X6X9XlX0XlX0XpXsXpXsXdXaXdXdXfXfXfXjXjXjXjXzXjXUXcXUXmXcXcXBXBXBXVXAXmXCXBXCXPXZXP.r h o.O.v G | G G G G m G m G H v H i u c r w ) g.r.t.f.:.Q.hXtX8XtXkXtXkXkXkXgXkXhX8XUXkXL x o.M M v x g i i r w z l Q / _ _ $...! ! ~ ~ Q b b b b b N * o o $ % % ; % 2 > > > > 6 % p a > , f p   G jXFXjXxXBXxXfXfXdXjXdXdXdXaXpXpXpXpX9X9X6X6X6X2X2X2X>X:X:X-X&X&X-X:X&XR.R.E.&X-X&Xn.H % . o 6 4 t 6 6 * 4 5 4 t t t t y a 9 a a a a a a a j a j j j j h h h Z c Z h d y y 9 9 i 9 9 i 9 y y y y y r r i r r 9 w 9 9 4 4 * 9 ",
"H.H.).H.v.H.v.h.h.u.m.z . 4 # 4 > 4 > < 4 6 t 6 5 t t p p y a p a f d j d j h V c 1 <.eXwXwX,X+X,X+XoXoX{.}.}.{.{.|.|.|.`.S.`.x.z.z.l.k.f.u.u.p.r.e.;.;.;.&.&.$.$.$.` ) ( _ Q n L i - . $ + = $ $ & $ & $ & * & & & & * * # & 9 B < * 4 < r r 1 r t % y H . $ R.LXKXJXGXGXGXGXGXGXGXKXZXz.r.OXt.x.k.v.p.y.e.r.;.<.N 2 p 7 7 8 8 8 8 8 s K 9 6 6XAXmXhXmXhXmXVX;X, 6 A 7 8 V , 7 6 6 6 , , ; # & ; % $ * i z l l Q Q ~ ! ` ^ ] { { t.p.a.T.k r 1 6 t 6 7 t t p a t 9 t t p y y p t y p p t a t p t a 5 a p t p y d 6 t t 2 = r } N r 4 d v P o.6.3.O.3.,.Y.0.6.3.b.Y.9.Y.n.0.+.T Y T F Y F F F F A F D Z Z Z j j j j j j a a a p 5 9 t 7 t 5 6 5 & 6 t < # o @ < 9 M o.| x 4 +   + @ @ : ; : : : : , , , 2 3 3 1 7 3 1 p d u d y y i y y y t 6 4 * r w z W e e h.8X4X;X&X;X:X;X.X&X.X=X=X=X!.Q.Q.Q.Q.Q.Q.Q.Q.Q.V.Q.V.Q.V.Z.V.V.V.V.V.V.V.0.V.V.8.n.8.8.8.8.8.8.8.,.8.8.,.X . . + + - $ + $ @ + $ % $ & $ . B  .2. .O.*.%.T.! T.T.o.n r $ + # & # & $ $ + + $ + $ . # & . & # . ,.0.8.,.,.,.,.,.@.,.@.@.o.@.o.o.o.L 4.o.4.4.@.o.4.3.3.,.1.,.9.b.b.8.9.b.b.b.n.M.V.n.n.M.V.C.J.U.J.J.K.K.K.P.P.R.P.%X%X%X=X&X&X&X*X*X-X-X:X1X1X1X1X2X2X3X3X6X6XlXlXiXlXsXsXpXsXaXdXfXfXhXfXfXjXjXjXjXzXzXUXcXUXcXBXBXBXBXBXBXBXVXVXCXBXSXLXcX3.t P o.4.v c T.T.G G G G G v G v c c k p u i 0 x a.a.:.h.t.f.<XhXtXkXkXtXkXtXyXkXhXtXhXtXUXeXx M } v M b x g u y y i l n W / _ ' $.$.`  .) ) ! Q Q b z b z r = - @ $ % % % > 2 > > > < > 1 5 1 > 5 f f   H fXGXBXdXvXzXzXjXjXfXjXjXdXdXpXpXqXpX9X9X0X9X6X6X2X2X2X:X>X-X-X~.&X&X&X-X&XB.R.-X>X!.6.h 2 # & < 5 4 5 6 4 t 5 5 9 t p t t p a 9 p a a a a a a a a g f f j f Z h h 9 g y y i 9 i y y y y y 9 y r 9 r 9 r 9 r 4 w 4 r 9 w w ",
"].H.H.v.H.h.v.h.f.u.m.z . * & 6 4 > < 6 4 r 4 5 5 7 t t y p p p 9 s g a g j j V H i b 5XeX@X+X+X+X+X,X}.{.oXoX{.'.|.|.G.`.S.x.S.z.z.l.l.f.f.p.p.u.e.;.;.;.&.$.$.$.` ` _ _ ( Q L L n = . $ - $ = & & $ $ & & & & & & & * * 4 4 & < B 4 < r < r r @ m t o u c % X :XZXLXJXJXJXGXGXGXPXLXwXy.).`.v.l.k.k.k.s.t.e.;.<.c < 1 8 7 7 s 7 8 7 s 9 9 & 8.CXUXUXhXUXZX8X9 6 V V 6 V 9 ; 7 6 1 , , , ; ; % # $ $ i k l l W W Q ^ ) `  .] &.;.e.;.! t 2 1 d t 7 5 7 7 t t t y t t 9 t t t t p t p t t a t d t y p t p p p y 4 w u k W ;.h.=XC.o.5 y o.,.3.,.3.,.,.3.@.3.,.6.Y.2.b.6.9.n.@.I Y U F F U F F D F D D Z Z j Z j j j f a a a a y a p 7 t 5 5 5 4 < , & & & t g v } } } ..X.P 4 o + @ % % @ : : : , : : , 1 1 1 3 1 1 5 p y d t u y y i y t t 9 * 4 w Q n e z h.8XtX;X!.-X;X~.Q.;X&X=X=X&X%X!.Q.Q.K.Q.Q.Q.Q.Q.V.Q.V.Q.V.Q.V.V.V.V.V.8.V.V.8.V.8.V.8.n.8.0.8.8.,.8.2.2.8.>.X + + . + + - $ @ $ $ $ % - + = - . r 3.O.%.*.X.*. .T.T./ } P N & + # & # & + + $ - + + # . & . & # + @.8.8.8.#.,.@.,.@.@.@.4.@.o.@.o.o.@.4.o.4.4.,.1.>.2.2.2.2.,.2.2.2.9.b.b.b.b.b.n.M.V.V.C.C.J.J.J.J.P.P.P.P.R. X!.%X%X=X=X&X-X*X*X:X5X5X1X5X4X4X2X2X3X3X6XlXlXiXiXiXpXsXaXaXaXaXfXgXfXfXjXjXjXjXjXjXUXUXcXUXcXBXBXBXBXVXBXVXAXCXAXCXCXHXHXaXO.r G @.G G P o.| G c G G m v v v v c x t u p 2 i X.a.a.t.v.w.H.yXhXtXkXtXkXhXgXkXkXgXgXtXhXUX.XN / L M M b x N i y i z n / ( _ _ $.$.:...` ) ! ! ~ Q ~ b b z b i 2 $ o % % % : & 2 > > < p > : 6 t , 2 f p O d fXHXzXcXzXzXzXzXzXjXjXfXfXfXdXpXpXpXpXpX9X0X9X9X2X2X2X>X2X1X:X:X-X&X~.&X-XR.Z.R.-X>X XU.t , # # 6 t t 6 t 4 5 5 p t 7 t p t 9 t a a a a a a s g s a j f f j h h c j 9 y 9 i y y y y i r i r i r y 9 r 9 w 9 w 9 r r r 9 ",
"].].H.H.v.H.v.h.h.r.m.x . 4 # > 4 > < 6 4 6 4 6 t 5 5 t p p p a a a 9 d s s j Z C f i  XeX@XwX+X,XoX+X,X}.}.}.{.[.|.|.|.|.`.F.S.z.z.l.l.g.f.p.u.u.u.e.;.;.;.&.$.$.` $._ ( ! Q Q n _ * . = o - = & $ & & & & & & & & & 4 * & & 4 B < < 4 < r 1 1 y % t N 2 < u 1 X ^.JXLXJXJXJXJXJXLXPXF.j.XXt.F.z.k.s.k.s.t.s.e.a.T.r 1 p 8 3 8 8 s 8 V 9 R & L ZXUXUXkXmXhXL $ A 8 6 K 3 ; j > 6 , 1 3 , ; ; ; & $ $ i z z l l ! ~ ^ ^ ^ *.&.*.t.e.Q 0 2 p p t y y 5 t t 9 t t t t t 7 t 5 9 t t 5 p p t t a t t p t a t 5 9 4 g n &.e.].tXsXpXUX&XO.P O.@.+.4.O.O.#.>.,.,.6.6.Y.3.N.0.5.n.5.F R Y R U F F D D D A Z Z Z Z j j j j d d a a a p p t t 7 t 5 5 5 t & o % y P O.@.} ..| } o.X.| v o @ % % : : : 2 : , : , 2 1 3 3 t 3 1 p f d d u y u u r 9 r 4 r w e ( l e h.kX8X*X-X;X;X;X~.;X&X=X*X=X.X.X!..X!.Q.Q.Q.V.Q.V.Q.V.V.Q.V.V.Z.V.V.V.V.V.0.V.V.8.V.8.n.8.8.8.8.8.8.8.,.,.d.>.  - . + - $ + o % - + $ % % - $ * X o T.a.O. . . .*. . .} ! m | v & + $ & # + + + $ - - . # & . & # + #.0.8.,.,.,.@.,.#.@.@.4.o.o.o.o.o.@.4.@.>.>.4.,.8.>.3.2.9.b.b.b.n.9.b.n.n.C.C.V.V.D.C.J.J.J.K.K.K.P.P.P.%X%X%X%X%X&X*X*X-X-X5X5X5X5X>X2X4X2X2X3X3XlX6X9XiXpXlXpXsXsXdXaXaXfXkXfXfXjXfXjXjXjXUXzXUXcXcXcXBXcXBXBXBXAXVXVXCXAXCXCXZXFXLX9Xu 9 >.X.v X.G G P v G } c G v G H n c g d u c r 0 T.a.e.a.t.v.w.OXnXkX8XtXsXyXtXkXtXyXkXgXgXUXjXm.i o.v G M c x N i i N z n / _ _ ' =.:.:.$...` ) ^ ! Q ! b l z ! x w $ o % % % % % : > > > 2 1 5 6 , 1 5 1 p p O C jXPXzXBXcXzXzXzXzXjXfXfXjXkXfXfXpXpXpXqXiX9X9X6X6X6X2X2X1X>X>X>X:X5X-X~.&X&X%XR.R.~.-X1X0.d o # < 5 5 5 5 4 6 5 5 t t t 7 7 a 8 a p a a a a f f g a j j f f Z c h d t y i 9 9 i y 9 r i 9 y y r r r r 4 9 4 4 w 9 4 9 ",
"H.).H.v.H.h.h.v.:.:.h.n $ & * & < < < > 4 6 4 5 5 5 t p t 9 8 p a a 9 s d d c f j H 1 <.hXwXwX+X+X+X+XoXoXoX|.oX|.|.{.|.|.|.G.F.F.x.z.x.l.l.p.p.p.u.r.:.e.-.&.&.*.-...' _ ) ) / ~ ~ b $ . = - @ $ $ $ $ $ & & $ & & & & < * < < * * 4 4 < 4 r 4 4 r t 4 t t r t y   N.KXKXJXLXJXJXKXeXj.}.).).v.z.v.v.s.j.t.y.r.e.:.x # , 9 6 8 8 8 8 8 K K 9 ; jXZX<XAXCX#.# A 9 8 8 7 7 7 6 6 6 3 ; ; 6 < @ @ O $ i l W W W W ^ ~ ~ ^ ] ` ] e.X.g < 4 t 4 4 t 4 5 t 5 t 5 5 4 6 6 4 6 4 9 y t < 6 9 9 4 6 6 9 6 r t u z l ( _ -.z.,XtXsX9X2X2X1XsXtXQ.P L 4.3.O.4.O.>.,.,.3.3.6.2.6.,.6.6.3.7.H H F J G F H F D D A j D j c j d j j a p t a 9 t 5 6 4 5 6 4 * X * v 4.>.4.X.X.X...X.X.X.X.} o.v & X @ < % % 1 > > > , 1 2 : 1 7 , 6 t a d y i k z 9 r 9 B w w z ( w e Q.tX;X:X;X.X;X;X;X;X;X;X~.=X=XQ.Q.Q.Q.Q.Q.K.Q.V.V.Q.V.V.V.Q.V.V.V.V.V.V.V.8.V.V.V.8.8.n.8.n.8.8.8.,.8.8.2.4.C.g X . $ . + - - + $ + $ + $ & $ & $ $ $ $ 4.8.>.o.X.*. .T. .! ! T.T.! r - + $ $ . o $ . = & & + o > X X I n.,.@.>.@.,.,.@.4.X.X.X.X.X.4.4.>.>.>.1.,.,.2.2.8.8.9.9.b.b.n.N.n.M.n.V.U.C.J.C.J.I.I.K.K.P.R. X%XR.%X%X%X=X=X=X;X-X-X5X5X>X1X>X>X1X3X3X3X3X9XlXiX9X0XiXsXpXaXpXdXdXkXkXfXfXfXjXjXjXjXzXUXUXcXUXcXBXBXBXVXBXCXAXCXCXVXZXZXCXCXHXLXU.r G #.| T.| P P P G G G m v P c v v v x p y f r 0 z <.l.e.p.A.-.S.gXhXlXgXiXtXkXgXgXgXgXkXgXhXhXmXL n } M M x x c N u u z n Q ) ) ` *.*.;.e.$.$. .` ) ^ T.~ ! Q l z b l i - % o 2 : ; % % > < < < 1 6 1 6 4 3 3 d f X f zXLXfXVXcXzXVXxXdXBXxXjXjXfXjXdXaXdXdXaXqXlXqXlXlXlX6X6X2X2X2X:X:X-X-X-X&X&X&X&X~.R.Q.~.-XV.9 $ o * 5 6 4 t t 1 t p t p r 1 a d 9 5 a y y a a s d d f f f f h h h h r p a y t r t 9 w 9 w w 4 9 9 4 w 4 w 4 4 w * * ",
"].H.H.H.v.H.v.h.h.h.h.n $ & 9 & & < < < 1 4 5 5 5 p 5 t p p p a a a 9 a d h f c s F t T.tXrX,XwX5X+X,X+X+X|.oXoXoX|.}.|.|.|.S.|.F.z.z.z.l.f.l.f.p.r.u.u.e.;.;.:.-.$.$._ _  .) ~ Q ~ Q = . = + + $ # $ $ & $ & & & & & & & < & * < < < < < r 4 4 1 4 4 4 r t t t y t + Y.JXLXJXJXKXIXXXs.).).).z.z.v.v.f.s.t.y.w.e.u.n * , 7 7 7 7 8 8 8 8 K s ; ;XBXmXVXJ.5 7 9 8 8 8 8 6 3 6 6 , > > > % # & 2 # & i l W W W W b ^ ] ( ] &.;.%.g 4 < t p t < 5 5 5 6 5 5 p 9 t 9 N i t 6 6 < 6 j 9 7 6 6 4 < & M l l n _ <.A.G.8X8XsXtX4X5X:X:X3X3X8X4XP.1.X.} o.O.>.3.@.| O.6.,.3.3.a.Y.6.6.3.I F G J J G H H Z D D j j j j j j d a j j d t 6 6 5 9 t * & & & L X.@.3.=.4.4.4.4.@.X.X.X.X.X.O.@.P t . O ; > % > ; > 6 1 1 , , 7 1 6 a d p y y 9 w B 9 9 B w i L w W Q.sX;X&X;X;X;X;X~.Q.;XQ.~.*X.X~.~.Q.Q.Q.Q.K.Q.Q.Q.K.Q.Q.K.V.V.Q.V.V.V.V.V.V.n.n.8.V.8.V.8.8.8.8.8.8.8.8.:.2.@.V.N X . $ . - + + + + $ $ $ $ $ $ $ # $ $ $ 4 :.8.X.X.<.X.%. . .T.T.T.T.c N % X $ * $ = + X     % o o + % u n.,.,.,.@.@.#.4.4.X.X.X.4.@.4.@.3.3.3.,.2.2.2.2.9.9.b.b.n.n.n.n.B.M.V.C.C.J.J.J.I.K.P.R.P.P.!.R.%X%X%X%X&X&X-X*X-X5X5X1X1X1X4X4X3X3X3X3X9X9XiXiX0XiXsXpXpXdXaXdXkXkXfXfXjXjXjXjXUXzXcXUXcXcXBXcXBXBXBXBXBXVXBXCXDXBXZXZXBXFXKXZX@.f v O.G v I } P P G G G m G G v G v v M g u u t 2 r  .a.a.a.s.l.*..XgXtXgXsXgXkXtXtXkXgXgXgXhXkXhXkXn n } n m x c b N i k z ! Q ! ) $.*.;.e.r.$.&.$.$. .^ ^ / ! Q b l b b k w $ O @ % ; % % > 2 < < < < 6 6 6 p t 2 c Z X f zXJXVXVXVXdXVXSXpXjXzXzXjXjXjXfXdXdXfXdXdXpX0XqXlX9X6X2X2X7X2X>X>X:X5X-X-X&X&X%X~.!.!.~.>X~.n.g O # $ 4 p t < 1 r 1 t t 1 < t y t y a a a a 9 a a d f f a f g g h t t y y t t r i 4 9 9 4 4 w 4 4 4 9 4 4 9 * 9 * ",
").H.v.H.v.h.v.h.r.r.h.n . * # & & < < < < 5 4 4 5 5 7 t a t a p a d s a j h h f j H g d  XyX+XrX@X+XoX+XoX XXX|.oX|.{.|.|.|.U.|.x.S.z.z.l.l.p.f.r.p.u.r.r.;.;.&.$.-.' ' $.) ) ! ^ Q ! w . - $ % & $ $ & & $ & = & & & & & 4 < < & < B 4 r < 4 4 r r 4 r r t t t & M 0   6.LXKXPXKXhXx.c.}.x.c.).v.x.v.j.t.t.t.y.w.u.L 4 > 6 7 7 7 7 9 8 8 K 8 , 3.ZXZX-Xt # Z 8 8 8 6 6 3 3 6 , > > > , ; @ : @ = 0 k z l W W / ^ ` ~ ] -.r.! y > < 4 t t 4 5 t t 4 r 5 4 t r a & 4 t t 5 7 7 7 , > & B y b m _ l ( :.h.L.,XeXsX1X1X:X;X*X5X5X4X8X;X4XgXiX=X8.} 4.o.| O.@.O.O.>.3.3.3.3.,.Y.6.0.I F J F F F H H Z D h Z j Z j j j a a a a t t t 9 4 6 & & 9 v o.6.2.1.@.4.4.@.>.>.%.@.=.4.4.4.4.@.,.+.y o o % & # % % ; , 1 1 , , , 6 t a a t u 9 w 9 9 = * z n z Q Q.tX8X;X;X;X:X;X*X*X;X*X;X.XQ..X~..XQ.Q.Q.Q.Q.Q.V.Q.Q.V.V.Q.Q.V.K.V.V.V.V.V.V.V.8.n.n.8.V.n.n.8.8.8.8.8.8.,.2.=.V.y X - + . + + + $ $ + $ $ & $ $ $ $ $ $ $   x 1.,.%.4.%.%. . . .T.T.m T.T.x * - X       o 4 X X + % @ + y n.,.@.,.@.,.@.4.4.o.@.@.@.@.>.3.,.,.,.2.8.9.9.9.0.b.n.n.n.M.B.M.C.C.C.J.I.I.K.I.P.P.R. X XR.%X%X&X%X=X*X*X*X5X-X1X5X1X>X4X3X3X3X6XlX9X9XiXiXiX0XaXpXaXpXdXhXfXkXfXjXjXxXjXjXUXUXzXUXcXUXBXcXBXBXAXBXBXBXVXAXCXCXVXZXCXCXPXKXfX| f T.3.O.P | } G P P L G G G m G c G G g d a y u t * b <.r.e.p.t.r.e.tXgXeXgXtXgXtXhXkXtXgXgXgXtXkXmX<Xn / L M m c x z u k k b Q ! ` ) $.&.;.e.a.-.;.*.$.` ) ) ) ! ~ Q l l Q b b = - o % > : > > < > < < 4 , , 4 5 f f 2 p p O d VXCXVXcXVXBXzXcXzXzXzXjXxXxXjXxXfXfXdXdXdXpXlXqX0X0X9X6X6X2X4X2X2X>X:X-X-X-X&X&X-X!.Q.!.>X-X!.M.g * X + 4 f 4 > r p d d t a p 5 a t y y a 9 a 9 d s a g f g f j a p t t r y t t 9 w 9 w 9 w 4 w 9 4 9 w * w 9 4 ",
"H.H.H.z.v.v.h.h.h.:.h.L + & & & < < > < 4 4 5 5 t t 5 a 5 a 7 a d a a a a h f h h s D 4 a.gX+XwX+X5X+X,XoXoX+XoX}.oX{.}.|.|.|.|.`.x.x.z.l.l.f.l.f.f.u.r.r.:.;.-.*.*.$...) ) ` ) ! Q  .b - . = @ $ $ $ & $ & & & & & & < * & & < 4 < * < < < 4 4 < r 4 t t r t t y > z u X 3.FXKXPX'.c.}.).}.x.x.x.v.v.j.v.t.y.r.-.p.=.y > , 7 7 7 7 6 8 8 8 s 6 9 FXpXd > V 8 8 8 8 8 6 6 6 , , > , > % < < #   r e z z z z n W $.^ ( &.-.! t $ 4 5 t 4 < 4 t t 5 4 6 4 1 1 1 4 9 7 6 , , > : > 4 y M L Q ( ( ` p.x..X<XeX8X4X:X*X*X;X1X4X4XwX<X4X<X4X8XsXiX*XN.3.%.|  .%.3.>.X.O.O.3.3.3.3.,.6.+.I H H F H Z S Z v Z Z j j j j a a a a p 5 9 y 4 4 * t v X.6.n.3.>.>.@.@.@.>.3.3.3.>.>.>.>.>.>.4.4.3.3.v $ O % & & 6 ; : 1 1 1 7 , 4 7 d p y t * 9 w * w z l z Q Q.sX<X;X1X1X;X;X;X;X;X;XQ.~.;X*X~.!.Q.!.Q.Q.Q.Q.Q.V.Q.Q.V.Q.V.V.V.V.V.V.V.V.V.8.V.V.V.8.n.8.8.8.8.8.8.,.8.,.8.2.>.n.r X + - + + - + - # + + + $ $ $ $ $ $ $ & + - L 8.>...%.<.o...X. .T.T.! ! m / r . 4 g y | ,.v #   & %   u n.,.,.1.@.:.@.o.@.@.4.>.>.3.,.8.2.8.8.8.9.b.b.b.n.m.n.n.n.M.U.U.C.J.J.I.K.K.P.P.P.R. X~.%X%X=X&X*X&X*X-X:X:X5X5X2X4X1X4X3X6X3X3XlXlXiXiXiXsXaXpXaXpXdXkXfXfXfXfXjXfXjXjXjXzXzXzXcXcXcXBXBXBXBXBXVXCXVXAXZXZXZXZXHXCXCXPXJX6X| u O.X.G G } | G G L G G G G v v v v L v g t u y t 0 d *.a.e.a.p.l.&.[.hXsXtXgXsXsXgXkXtXgXgXgXkXkXgXmXQ.9 o.n M L b x z N u z n ~ ) ` $.&.;.e.a.a.;.*.&.*.$.$.$.) ^ T.! Q b Q b b r * + o % & > ; > > < < , < 6 6 f % p f 1 d p o c zXJXVXvXVXzXVXBXBXBXzXzXzXzXzXfXjXfXfXdXdXdXdXpXpX0X9X9X9X2X6X2X2X2X>X:X>X-X-X&X-X~.~.!.!.~.>X&X0.c & + & t d t B 1 < t d a 5 t 9 p p a a a a a a a a f f g g f a t r 9 y y t r 4 B 4 4 4 9 4 w 4 4 4 9 * & 4 ",
"H.).H.v.v.h.h.t.u.1.h.n - * & & & < < < 4 r 6 4 5 p t p t p a p a 9 d j a j j j H p | p T.lXuX+X@X+X5X+XoXoXoXoX{.XX{.|.|.|.|.|.`.x.S.x.l.l.l.l.f.p.a.u.r.r.e.;.:.*.$.$.*.` ) ^ ! ~  .! = . $ $ $ $ # = $ & & & % & & & & < * 4 * 4 4 4 < 4 r 4 4 4 4 r r r t t N u 4 x x   ..PXnX(.|.XX_.].x.x.x.v.v.j.f.s.r.y.y.e.;.b 4 < 6 6 7 7 7 p 8 8 V 8 > 6X#.O p S 3 8 8 7 7 7 6 , , ; > 6 % @ 2 o . t i k z l l b W ( ~ ( *.$.b * * t 6 9 4 6 4 6 t 5 6 4 4 t t 5 t < 6 , ; & 4 y z l ! ` `  .` &.f.S.<X1X4X4X1X:X&X=X2X1X5X;X5X<X4X4X<X8XeX1X4XsXsX1XN.i.<.@.X. .X.4.O.3.3.>.O.>.3.6.@.I U A H H C H Z Z c j j j j a j a p a j g 5 % $ 4 G @.n.n.9.,.3.,.3.3.2.,.,.1.3.3.3.<.<.3.<.<.1.X.X.9.Y.G < . # 6 6 1 > , , , 6 6 6 p p p i p 9 9 q q z W 9 L <XtX8X.X2X;X&X;X;X;X.X;X;XQ.;X.XQ.*XQ.Q.Q.Q.Q.J.K.Q.Q.V.K.V.V.K.V.V.V.V.V.V.0.V.n.8.V.8.n.8.8.V.8.8.8.8.,.,.,.,.>.>.b.* X + - . + + + - + - $ $ $ $ $ $ $ $ $ $ B . = } d.1.@.=.*.X.X... . .! n n ..v r @.K.n.8.9.n.| O X + X < 0.,.>.@.@.@.@.@.@.@.:.,.,.2.9.2.2.8.9.9.b.N.n.N.M.M.M.B.C.C.J.J.I.I.I.P.K.P.P.R. X!.%X%X%X X%X*X*X-X-X:X5X1X>X1X4X4X3X3X6XlX9X9XiXiXiXpXsXaXaXaXkXfXfXdXfXfXjXjXjXzXzXzXUXUXBXUXBXcXBXvXBXVXVXVXAXCXCXCXZXZXZXZXCXZXLXPXR.f c O.| G v P | G v | G L G G G G G v v v g u y p u r 0  .e.e.a.p.p.a.:.tXhXtXgXlXsXgXgXsXgXgXgXhXgXhXkXmX:.9 ..n M n ! x N u k b ~ ) ) ` &.&.e.a.a.a.;.-.-.*.*.*.` ` ) ^ ) ! Q b W b x i = - o % ; : > : > > 6 < > 6 2 5 2 f f 2 f C X F zXLXVXcXZXBXBXBXcXcXzXcXzXzXzXzXjXfXjXfXdXdXaXdXpXiX0XiXlX6X6X6X2X2X2X>X>X:X;X;X;X:X&X%XR.K.-X:X-Xq.x % o @ p 1 1 r 1 r 5 a 5 t p p p t 9 9 a a a a a d d f h d t t r 9 r r 4 9 B 9 4 4 4 * 4 4 9 * w 4 w 4 ",
"H.H.H.z.H.h.v.h.r.h.h.n . & & 4 < & 6 < 5 6 r 6 5 5 5 p p p 7 a a a a d f f j j C p F c N ,XbX+XwX+X+X@X+XoXoXoXoX{.oX}.}.{.|.|.F.F.F.A.x.l.l.l.h.f.f.u.u.r.e.:.;.&.$.$.$. . . .^ ~ ~ } i + $ + # = # & $ & $ * & * % * < * < < 4 & * < < 4 < r 4 t 4 r 5 t r y 4 g r B g * 0 :.,X`.XX}.c.}.XX).x.c.v.k.f.t.t.r.y.w.e. .6 < t 6 8 5 9 8 8 8 s 8 7 R 6 f V 8 8 8 7 7 6 6 6 6 ; , % > % > @ X 2 2.e k l l l n Q ( ( $...N & % 4 t < 4 4 * 4 r 6 & 4 4 4 4 4 < > < % * r k Q ) ` _ ^ ~ ` e.H.=X4XiX1X:X-X-X&X*X;X1X=X&X=X*X5X4X4X4X4X4X8X8X1X3XsXsX*XU.i.i.3. .T.X.O.O.>.4.O.O.@.3.@.Y D D H H Z Z j Z h j j s a j f j g p 4 > 4 t P >.8.M.b.8.,.1.8.8.8.8.Y.8.2.2.i.2.2.2.2.,.,.,.>.8.1.@.,.N.X.t X # # , 2 2 , , 6 , > t a u y y w 9 * 9 z 9 [ ;XsX8X;X;X2X;X;X;X*X~.~.;XQ.;XQ.~.Q.Q.Q.Q.Q.Q.Q.Q.V.K.K.Q.V.Q.Q.V.V.V.V.V.V.V.n.V.n.V.8.V.8.n.8.8.8.8.8.8.,.8.8.:.>.2.8.$ X $ - + + $ - + + $ $ + $ $ $ + % $ & $ $ = . w 1.b.=.4.3.4... .*. . .! m ( / i 4 X.n.8.>.6.n.G + X X % 8.3.>.,.@.@.>.>.@.,.3.8.2.8.8.9.9.b.b.b.N.n.n.n.M.V.C.C.C.J.I.J.K.P.K.P.R.R. X%X~.%X=X%X&X*X-X*X-X5X5X5X1X1X4X4X2X3X3X6X9XlXlXiX0XsXpXaXaXdXdXkXfXkXfXjXjXjXjXjXUXUXUXUXcXcXBXBXBXBXBXBXVXAXVXAXCXZXZXZXZXZXCXZXZXLXSXU.t c O.G | o.o.o.| P G P G G G G v v G v v g d y y u t r N e.a.;.t.f.s.p.z.hXtXtXgXeXsXtXgXtXgXgXgXkXaXgXhXhXn L _ L M M b x k k b Q ) ) ` $.-.;.e.e.p.l.e.e.;.&.&.&.$.$. . .) ^ ~ Q l b n z r 2 + % % : : > > > > 6 < 6 : f 3 t 3 1 c p V X H zXLXSXcXDXVXVXVXBXBXzXBXzXcXzXzXzXjXjXfXfXfXaXdXdXpXpX0XiX9X9X6X2X2X2X2X2X2X:X~.&X-X-X&X&XK.!.-X:X!.9.j o % 2 1 t t 4 4 p t t 7 t 9 t p t 9 p y a a a d f g 9 y r r t r r w 9 w 4 4 9 w 9 4 4 r 4 4 4 4 4 ",
").H.F.v.v.h.v.h.h.r.h.n . < & & < < < < 4 6 4 6 t 5 p t t p p p a a a s 9 j j j c C C H 1 l.gX@X@X5XwX+XoXoXoXoXoX{.}.{.{.{.|.|.`.F.F.x.x.z.l.l.f.f.f.u.u.r.u.:.;.&.&.*.*. .` ) ! ) n ) x $ + + $ & $ = $ & & & % & > * & < < < < * < 4 4 4 4 4 4 r r 5 r t t t d $ t g * 9 y . '.'.}.|.).).].`.x.c.v.k.p.p.t.e.y.w.e.%.g > 6 8 8 6 7 8 8 8 V 8 8 8 , J 8 3 s 8 5 7 6 6 6 , , > % ; 2 @ O B | B.e k z l W W ( ( [ / y & & 4 r & & * * 4 4 4 B * 4 4 * * < < r r l ( ' ' ( ( Q ( %.p.L.,XlX3X*XR.;X&X*X&X=X&X*X;X*X;X5X1X4X4X1X1X8X4XeX8X4XeXtXsXaX,XU.m.m.a.%.| | X.O.O.4.4.O.@.5.+.D h D Z Z c Z j h j f a a a a a a 6 > t P 5.J.V.V.8.,.2.b.n.8.9.8.8.2.9.b.9.Y.Y.Y.2.2.2.8.8.4.d.b.3.>.N.N.3.9 % O # < 1 , 1 1 , < p a p t r 9 w e 9 z [ ;XhX;X;X;X8X&X;X;X;X;X.X;X.X;XQ.;X~..X~.Q.Q.Q.Z.Q.J.Q.Q.K.V.Q.Q.V.V.Z.V.V.V.V.8.V.8.V.8.n.n.n.8.8.8.8.8.8.8.,.,.:.,.,.1.,.+ X - . + - + + $ + + + $ $ $ $ $ $ % & = $ * - - n 8.u.=.<.%.%.*.$.*.]  ._ z _ i   - L b.6.O.n.n.I & X O ,.>.>.3.@.@.,.,.3.2.8.8.8.b.9.9.b.N.m.n.n.M.V.V.C.C.J.J.J.I.K.K.P.R.R. XR.%X%X%X%X&X*X*X-X*X5X:X5X5X2X1X2X2X2X3X9X9X9XlXlXpXpXiXaXpXaXaXkXkXfXfXfXjXjXjXjXjXjXUXUXcXBXcXcXBXBXBXBXVXVXAXCXAXCXCXZXZXSXZXZXZXSXHXKXBX6.r T.>.| o.| P P G G | } H G G m G G v v m x g a u y t r t *.e.a.e.a.k.p.e.oXhXtXtXkXtXgXgXgXgXsXkXgXkXgXhXmX8Xi _ L L M M b N u k b ! ) _ $.&.-.e.e.p.p.l.e.e.e.;.-.&.&.&.`  .^  .^ T.^ b b Q l B % % % : : > > > & 6 < < f 2 2 p p 1 p 1 f f O f zXLXCXVXZXVXVXVXVXBXBXBXcXzXzXzXzXjXxXjXfXfXfXdXdXdXpX0X0XpXiX9X9X6X2X2X2X2X2X2X:X-X&X*X2X~.I.!.:X2X~.B.t 2 $ 2 4 6 t 4 t 5 t 9 t 7 5 p 7 p p t a a a d f g d 9 9 t r 9 w 4 w 9 4 w 4 * 4 4 4 4 4 4 * * ",
"H.H.v.H.z.h.h.h.r.1.h.n + & & > & > < 4 4 4 6 4 5 t 5 p 9 p p 9 f d g a f j f j f T.p H 1 <.gXrXwXwX+X5X+XoXoX+XoXXX{.}.}.|.|.|.`.`.F.F.z.l.l.l.l.f.p.u.u.r.:.r.;.;.*.&.$.$.$. .) ) n / m = + + $ $ $ $ $ % = & * & & & & < * < & 4 4 < * 4 4 4 4 4 4 4 t t r t 4 g y r u y w w |.oX'.'.XXx.x.).x.c.v.k.p.p.t.y.s.] e.;.x > , 6 8 3 7 8 7 8 K 8 8 F 3 s 3 7 8 8 7 6 6 6 > , > > < : 2 O X >.R.%.w e z l l W ( [ ) i & % > 6 * B 4 * 4 4 B & B 4 & = & B t x m  .) ' ( l l ) :.D.5X4X1X,X X%X=X<X=XOX=XoX=X=X=X&X-X;X;X;X5X5X1X4X4X4X4X2X3XiXtX3XsXgX4XM.i.U.U.%.T.| o.X.O.4.O.>.6.O.U Z h Z Z Z j j j j d s a a a 6 : 5 U 6.B.K.b.b.b.b.N.m.N.b.9.b.n.b.b.b.9.9.Y.Y.Y.Y.b.8.8.8.N.8.2.8.Y.2.2.N.n.G ; # , > 2 , 6 , 6 t y y t y e 9 z 9 [ 8XhX;X;X;X2X;X<X;X;X&X~.;X;X~.Q.;XQ..X~.Q.Q.Q.Q.Q.Q.Q.Q.V.V.Q.V.V.V.K.V.V.V.V.V.V.V.V.8.V.8.8.V.8.n.8.8.8.5.8.8.,.,.,.3.,.,.+ X = + + - + - $ + + + % + $ + $ $ $ $ = * - * = . _ V.=.<.;.&.*.$.` ^ ^ ' l ( l -   . N I.n.9.9.n.o..   ,.@.@.,.>.@.,.,.2.2.6.8.9.b.b.9.m.n.n.n.M.M.U.C.C.J.J.I.K.K.P.P.P.R.R.%X%X%X%X=X=X*X-X*X5X-X>X1X1X4X2X>X2X3X3X3XlX9XiXiXiXsXpXsXaXaXaXfXfXkXjXjXjXjXjXjXcXjXcXcXcXcXBXBXBXBXvXBXCXAXVXAXCXCXZXZXZXZXZXSXZXFXPXLXpXo.t | @.| | | | P P | m P | m G G G G G m v v d y u d y 4 4 i a.;.e.p.s.p.p.;.gXsXgXsXtXsXtXgXgXgXgXgXgXgXgXgXAXQ.i ..v L M x b N u z Q ! ) _ ' &.-.e.a.p.l.l.t.a.e.e.;.&.&.*.*.*.*.^ T.^ ^ ~ z Q n u % % % % ; : & > < > < 6 2 1 f 2 p f 3 V t V f X f zXLXDXVXVXZXVXVXVXBXBXBXBXBXzXzXzXzXxXjXjXfXfXfXaXdXpXpXpX0XiX9X9X6X7X1X2X>X1X1X:X:X-X!.-X>X&X!.!.&X-X2XY.t @ + 4 6 6 5 t 4 6 t 5 a p p p 9 p a a s f a a g u r r 4 4 9 4 4 4 * 9 9 * 4 r 4 4 4 * * 9 ",
"H.z.z.H.v.v.f.f.r.h.1._ . & < & & > 6 & 6 4 4 6 5 5 t 5 t p p a a p a f g f g g H c f H Z u ,XyXwXwX@X+XoX+X+X XoXoXoXXXoX}.}.{.|.`.G.F.F.x.z.z.l.l.k.f.u.u.r.r.r.e.;.&.*.*.*.*.^ ^ ! ~  .k X $ $ & & & = & & & & & & > * > < * B < < < 4 < r < r 4 4 t r t r t 9 i t 6 i y i w z.oXXX`.).).].).x.(.x.c.c.j.t.r.:.r.;.:.} 6 # 3 8 7 , 6 7 8 8 7 f 8 9 8 9 7 3 6 7 , , 3 6 > ; > : 4 X o 3.n.n.X.i l l k b / / / = * < < & * 4 , > , > < & & & = r k l ( ` ( ( _ M z L @.Q.;X4X4X=X%X=X!..X.X~..X%X%X=X%X&X=X,X=X;X,X;X;X5X<X1X4X4X4X8X8X<X8X8X8X3XsXhXeXL.i.m.[.Y.<.o.| o.4.>.O.>.O.P v v Z A j j j j j j j 9 y . p 4.V.I.C.V.n.M.n.n.n.N.n.N.N.n.m.N.m.N.N.b.b.N.N.N.b.N.b.b.b.b.9.b.b.9.9.9.b.p.M.>.* X > 7 , > 1 > 1 a d r i 9 9 e h.tXkX;X;X;X;X;X;X;X;X;X;X;X;X;X.X;X~.;XQ.Q.Q.Q.Q.Q.Q.J.Q.Q.V.V.Q.Q.V.V.V.V.V.V.V.V.V.V.0.h.V.8.n.8.8.8.8.,.8.8.8.,.1.,.>.@.8.4.  . + . - + - + + - + + $ $ $ % % $ $ = $ & $ # $ $ w A.r.;.-.-.&.$.' _ ` ( Q Q b - X $ . + 3.R.N.>.J.9.  } ,.>.>.9.,.4.b.8.8.9.b.b.b.n.M.M.M.V.V.C.C.J.J.I.I.I.P.P.R.R. X%X%X%X%X*X&X&X*X-X5X-X5X1X2X1X1X4X3X3X3X9XlXlXiXiXiX0XsXpXaXaXdXkXfXfXfXjXjXjXjXjXjXzXUXcXUXBXBXBXBXBXBXVXCXAXAXVXZXZXZXZXZXZXZXZXFXHXZXSXKXPX-XN v P O.o.P P o.} P I } G G G P L v v L L v v g d u t i r 0 N i.e.e.f.r.h.r.:..XgXtXtXtXkXgXgXtXaXgXgXgXkXkXjXgXAX1.m T.X.b m z x k k b ~ T.` *.*.;.e.e.a.a.l.x.a.t.r.r.;.;.;.&.*.] ` ) )  .^ ! Q Q Q Q u = = % & : ; ; > > < < < 1 r 7 1 5 7 p p 7 Z s X V dXLXZXSXcXCXFXVXBXCXVXBXvXcXzXzXzXzXjXzXjXjXfXfXfXfXdXdXpX0XpX0X0XiX9X9X3X2X2X>X>X:X:X:X-X-X-X&X&X~.~.:X-Xn.j o o < t 4 < 4 t a p r t t 7 y g 9 a p a a a a a t 5 4 9 * w 9 * w 4 w 4 4 * 9 9 * 9 * ",
"H.H.H.v.z.h.f.f.r.r.h...X & < & & < & 6 6 4 6 4 5 5 5 t t t p p a p s f a f j h c f C C Z t |.gX@XwXwXwX@X5XoX+XoXoXoX{.{.{.}.|.].F.`.`.F.x.z.z.l.l.l.f.f.u.u.r.e.e.;.-.;.*.*.` $.) ) ! ) W - - $ & $ # # = & & % & * & > * * < * < * < < 4 < r 5 r r 5 t 4 r t r r 4 9 d g 4 $ h..XOXXXXXXX_.c.c.x.k.k.k.s.f.j.w.e.-.-.$.u & 9 6 6 7 8 7 8 9 8 F V 8 8 8 7 3 6 6 9 , ; > 5 : @ 6   % I n.9.Z.T.q l W Q ) / N & * & & & > > & < & & & 4 4 r u z ( ( _ ( ( Q W l _ h.Q.;X.X.XQ..X=X.X!..X!.~.~.Q.%X%X.X%X=X&X=X*X*X;X;X<X1X1X1X1X4X4X4X3X8X8X8XtXkX3XlXkXtXI.i.g.m.m.g.1.X.| T.| o.#.Y U j Z A 9 f j j j j a 4 6 @.9.U.K.I.U.V.D.V.V.M.V.V.M.M.n.n.n.n.n.n.n.m.n.n.n.n.n.m.n.N.n.N.N.b.b.N.b.b.b.N.M.n.3.g O O 7 3 # , d t B t z 9 9 H.<XkX;X;X;X;X;X;X;X;XOX;X;X;X~.Q.;X~.Q..XQ.Q.Q.Q.Q.Q.Q.Q.Q.V.K.Q.V.V.K.V.Q.V.V.V.V.n.8.8.V.n.n.n.8.n.8.8.8.8.8.1.,.,.,.,.,.@.d.o.  . + . + - o + - + + + + + $ = = $ $ $ & = & & $ $ w A.:.;.-.-.&...) _ _ ( Q ~ Q q X $ .   < | U.V.9.b.,.| ,.2.,.2.b.8.2.9.b.b.b.n.n.n.M.V.C.C.C.J.J.I.I.P.P.R.P. X X!.!.%X%X%X*X-X*X*X5X5X>X5X1X2X1X4X2X6X3X6X9X9XiX0XlXpX0XsXsXpXdXkXdXjXfXfXjXjXjXjXzXUXcXcXcXUXBXBXcXBXBXVXVXVXAXVXCXCXCXZXZXSXZXFXFXFXFXZXHXKXZXU.t P | O.O.| P | | } I T.I G P G G L G L G G v g u p u f t r i ! e.e.r.p.r.f.:.h.wXgXsXgXsXtXkXgXkXgXgXgXgXgXhXgXhXcX .c ! T.b c c x N N ! ! ^ ` *.*.;.e.a.a.l.l.S.p.p.a.r.e.e.;.-.*.*.$.$.$.^ ^ ~ Q Q Q W l i = + & & > > > , < < t 2 1 1 t 7 t 7 6 p > f H O 8 zXPXSXZXSXVXVXGXcXVXVXBXBXvXBXcXzXcXzXzXjXjXjXfXfXfXfXaXaXpXpXpX0X0X9X9X6X6X2X2X>X2X>X:X;X-X&X&X~.~.%X&X:X&X0.g o + < t p 1 < r a 6 5 t t t p a 9 y d d a y p 4 6 4 4 9 * 9 * * 9 9 4 * * * * = * ",
"F.F.H.h.z.h.f.f.r.1.h._ . & > > > > > < 4 4 4 6 5 t t 7 7 t t a a p a f s j g f f c C h c t <.gXwX@XwXwXwX+X5X,XoXoX}.oXXX}.|.|.].].`.F.F.x.A.z.l.l.f.k.p.p.u.r.e.<.e.;.&.*.*.*.$.` $.~ ! ! 0 . $ # $ & # & $ & & * & * * * < < < < < r r < 4 4 r 5 r r t r 5 t B y 9 9 4 4 p a 6.Z.V.H..X).).}.).x.x.c.v.s.t.t.r.y.{ -.-.Q B 4 > 9 8 8 3 7 f Z Y F j 7 6 9 7 6 6 , , , > ; : : O O | C.n.,.I. .q W ~ W n z B + < > : : % % % & = w e e l W _ [ ) ( z k l ' h.L..X&X.X.XQ.Q.Q..X.XQ..XQ.Q.Q.Q.Q.!.%X%X%X=X=X*X=X*X;X;X5X;X1X4X1XeX4X<X8X3X8X8X8XeXlXaXaXgXeX XN.A.S.S.d.>.| | O.+.#.#.v j j v 9 d h j 5 > t O.n.R.K.P.J.D.C.J.J.V.V.C.V.C.V.V.V.V.V.V.V.M.V.M.M.M.M.M.n.M.M.n.M.N.n.n.n.n.n.n.N.N.b.V.K.N.c + o , 6 6 4 t t i w 9 H.8XkX8X;X;X8X;X;X;X;X;X;X;X.X.X;XQ.~.Q.;X;XQ.Q.Q.Q.Q.K.Q.Q.J.Q.V.V.K.V.V.V.V.V.V.V.0.V.V.V.8.V.8.8.n.8.8.n.8.8.,.8.,.1.1.,.1.@.8.P   . + . + o + . + + $ + + + + $ = $ $ % $ = $ $ & $ * z.:.w.:.&.&.' ' ' ( ! Q Q ! 0   - - +     c N.K.J.,.@.,.b.2.8.b.n.8.N.N.n.n.M.M.V.V.U.J.J.J.K.L.K.P.R.P.R.%X%X%X%X&X*X=X*X*X-X-X5X5X1X1X1X4X4X3X3X3X6XlXlXiXiXiXsXpXaXpXpXaXfXhXfXfXjXfXjXjXjXzXzXUXcXUXBXcXBXBXBXBXVXVXAXVXAXCXCXZXZXCXSXZXCXZXHXSXHXZXPXLXVX6.c T.O.O.o.| | P | | P P P } G P G P v L m G v x x g t y N t 0 Q <.;.;.p.:.f.h.:.H.hXyXkXtXtXkXtXgXgXgXaXaXhXgXgXkXUXgXb T.T.m b x b N k b ! ` ` *.*.-.e.a.a.p.l.x.S.l.p.p.p.u.r.e.:.w.*.*.*.$. . .^ ~ Q W b Q b r $ % % & > < > : > 2 1 1 1 5 5 3 p , Z 7 , V 7 ; p VXPXFXCXSXZXVXZXVXVXVXVXvXBXBXBXcXcXcXzXzXjXjXjXfXfXfXfXaXpXpXsXsX0X9X9X9X6X3X2X2X2X>X>X:X:X&X&X-X%XR.~.-X-XR.C.p 4 + % r a r > 5 9 a a p p t t a a 9 d y p t 4 * 4 q 9 4 * 9 * * * * * * * 9 * ",
"H.F.z.H.v.h.f.f.h.r.1._ . & & > & & > < > 6 6 4 5 1 5 5 t p p p a a a s f d j j f c H V Z p c eXeXwX@XwX@X+X+X+XoXoXoXoXoX{.oX|.].].G.|.F.F.x.x.l.l.l.f.f.p.p.u.a.e.e.;.&.&.&.*.$.` $.! ~  .k . $ $ $ & $ $ & & % & & > * < > * 4 * < 4 < 4 4 4 4 r 4 t r t r t r u k 4 < 9 U 5.0.5.#.#.9.h.h.H.).).).x.v.j.s.t.p.w.{ -.:./ r & 6 7 7 6 6 9 Z Y U U A 9 6 7 7 7 6 # , 7 ; ; 1 @ X o.C.n.N.Y.U.} e W ! l i * & * & @ & & & 4 w r z W W ( ( ( Q W k l ) r.m.L..X&X;XQ.H.Q.Q.Q.Q.H.P.Q.Q.P.Q.Q.Q..X.X%X=X%X=X=X=X*X*X*X;X;X;X1X<X4X4X4X8XeX8X3X8XtXiXaXiX4XaXcXgX XU.G.G.S.M.i.>.| | | Y P j h v c j t 6 a Y n.!.&XK.K.J.J.U.I.J.L.Z.J.J.J.J.C.J.C.C.C.U.C.C.C.C.C.C.C.C.V.M.V.C.M.V.M.D.V.M.M.M.M.N.n.n.n.L.Z.| @ O 5 8 5 u t w i Q.8X8X8X;X;X;X;X;X;X;X;X;X%X;X&X;X~..X;XQ.~.Q.Q.Q.Q.Q.Q.Q.J.J.Q.V.Q.Q.V.V.K.V.Z.V.V.V.V.8.8.V.V.8.n.8.n.8.8.8.8.,.8.,.,.1.,.>.>.@.8.}   . . . + - + - + + + $ + % $ $ = $ = $ % $ & $ & $ = v.r.:.-.-.$.' ' _ _ ) Q Q / w   . $ - $ . X < >.J.X.2.2.2.N.N.9.b.n.N.n.M.V.V.V.V.V.J.J.K.K.K.P.P.P.R.%X~.%X%X=X%X*X-X*X-X-X5X5X>X:X1X2X3X4X3X6X9X3XlXiXiXiXpXsXpXaXaXaXfXfXfXfXfXjXjXjXzXUXzXUXUXcXBXcXBXBXBXBXCXBXAXAXCXCXZXZXZXZXZXFXFXSXFXHXHXSXZXLXLXjXT.d O.O.O.P | P } | | | P P G G P G G m v G v m g 9 y y y r t w u X.i.;.e.p.w.h.h.t.<XhXsXtXsXgXtXgXkXtXgXgXgXhXhXsXhXmX3XN ..T.M m d b u b b ^  .*.&.-.w.a.p.p.l.l.(.`.l.p.p.p.u.u.r.:.;.;.&.&.$.$.$. .! Q ! Q Q ! z B $ % & : > 1 < : 1 1 1 1 1 5 1 7 h 7 5 5 7 Z C X C BXPXSXVXGXSXZXCXZXCXVXVXVXvXVXBXBXBXcXzXzXzXjXjXjXfXfXfXfXfXdXdXpXpX0X0X9X9X6X6X2X2X2X>X>X:X:X-X-X&X%X~.%X-X2X&Xb.f % @ > r p 4 4 4 5 t y t 5 a y d p y p t 9 9 4 4 * w 4 & * 4 w 9 * = 9 * * ",
"F.z.z.z.v.h.f.r.r.u.d.... $ & > & > > 6 < 6 4 4 5 5 5 p a p t a a a f p f j j g f f h f H j t {.gXrX+X@XwX+X,X+XoXoXoXoXoX}.{.}.].].].].F.F.S.x.z.z.l.l.f.p.a.a.a.e.<.e.*.*.*.*.$.` $.^ Q  .! - $ $ & $ & # & & % & & & & < & 4 < < 4 * < 4 4 4 4 r t 4 5 r 5 t 9 9 * r v #.5.5.7.#.R 5.5.5.#.#.8.u.f.h.v.k.j.j.s.w.{ { :...v # 7 6 , 6 8 Z D U Z F U f 6 6 6 6 , ; > @ ; 5 >   G B.B.3.n.U.U.M u Q M i * - + $ * = * w u l W ~ W ( W W W z z l $.a.D.%X*X.XQ.V.L.D.Q.Q.Q.Q.Q.Q.H.Q.Q.H.Q.Q.Q.Q.R.%X%X%X=X=X=X*X*X*X;X;X;X1X1X1X4X4X4X4X8X3X8XtXlXlXeXgXUXpXI.O.>.,.N.G.{.I.g.<./ L | o.v j j y 6 f | n.&X-X%XZ.K.K.K.I.P.P.K.K.L.K.K.J.I.I.J.I.J.I.I.J.J.J.J.J.J.C.J.J.C.Z.V.C.C.C.C.C.V.C.B.U.B.K.C.b.m.P.J.,.& # # j t $ Q U.8X8X8X;X;X8X8X;X;X;X;X;X=X;X.X;XQ.;XQ.;X;XQ.Q.;XQ.Q.Q.Q.J.Q.J.Q.Q.V.V.Q.V.V.V.V.V.n.V.8.V.n.8.V.8.8.V.8.8.8.8.,.8.1.,.:.1.,.>.>.@.8.M   - . + - - o - - + $ $ o $ $ % $ $ $ $ $ & & $ & - $ f.r.w.:.-.$.' _ _ ] ~ Q Q ! k . X $ + + % o   * 6.Y.2.9.>.>.M.n.8.M.M.M.V.V.C.C.J.J.I.I.P.K.P.P.R. X%X%X%X&X=X*X*X*X-X:X:X5X5X4X1X4X3X4X3XlX9XlX0XlXiXiXsXpXaXaXaXaXfXkXfXfXfXjXjXjXUXjXzXcXmXcXcXcXBXBXBXBXBXVXVXCXCXCXCXZXZXZXZXSXZXFXZXSXPXHXSXHXLXJX2XH N O.O.H P o.P P | | | P G P P G G G m G L v M g g N y u t t B r T.e.<.e.a.p.u.l.:.H.tXkXtXkXtXkXkXkXyXkXgXsXgXhXhXgXhXBX[.u *.T.M ! N x k b ! ^ $.&.-.w.e.a.p.p.l.x.F.`.l.l.k.p.p.u.r.r.;.;.:.&.&.$.` $.) ) ! Q Q ! b z = % + % : > < < > 1 , 1 1 5 7 5 7 1 7 8 8 7 p Z O H BXLXGXCXGXCXCXZXZXCXCXCXCXVXVXBXBXBXcXcXcXzXzXjXjXjXjXfXfXfXfXfXpXpXpXpX9X9X6X9X6X6X2X2X>X>X-X-X;X;X-X&X!.!.2X:X~.6.d + o % p p t 6 5 5 9 y t a t a a y t t 4 4 4 9 9 * * 4 * 4 4 * * 9 = & ",
"F.F.H.z.z.h.f.h.u.r.u...+ % & > > & < < < 1 6 6 5 r 5 5 5 t p p 9 p a f a j s j c c h h H Z p 3.bXbXwXwXwXwX@X@X+XoXoXoXXXoX}.{.'.].].G.`.F.F.x.z.z.l.l.f.k.f.f.a.a.a.e.;.e.*.e.` &. .^ ~  .T.0 $ # $ # $ & $ & & & & * * & < * * < < 4 < 4 4 r 4 5 r 4 r t t r & 4 9 } #.8.5.+.#.T #.#.#.#.R #.@.+.@.@.=.1.:.h.f.y.r.w.-.:.L $ 6 , , 9 c F U Z Z D U h 9 6 , ; ; 7 ; ; 5 O X Z I.n.b.b.n.Y.U.! k u < $ $ $ = B i u k l l ~ W ~ l l l l Q ..u.h..X%X XL.J.C.Q.Q.Q.Q.Q.D.m.Q.Q.Q.Q.H.Q.Q.Q.Q.Q..X.X!..X%X%X%X*X=X,X;X;X5X1X<X1X4X4X4X8X3XeX3X8X9X4XiXjXfX&XO.N f G G | O.a.N.G.|.m.1.>.o.9 t 8 d O.B.&X2X&XK.K.R.!.Q.P.P.P.P.{.R.P.P.P.P.P.K.P.K.P.P.K.K.K.I.K.I.K.K.J.J.I.J.I.J.J.J.J.J.J.J.C.J.C.C.U.J.D.M.J.%X9.9 $ + - T.%XsX8X8X8X;X;X;X;X;X;X;X;X;X;X;X;X%X;XQ.;XQ.Q.Q.Q.Q.Q.Q.Q.J.Q.Q.J.J.V.K.V.V.V.V.V.V.n.V.V.V.8.V.n.8.n.8.8.8.8.8.8.8.,.,.8.,.2.>.>.,.@.8.N   + . + - o - + o $ o - % $ $ + & $ $ & $ $ & $ & $ - r.t.w.:.-.&.$.' _ _ ) ~ b / z . X - * X . &   $ >.N.>.b.} x 2.J.V.n.V.V.C.V.J.J.I.K.P.P.P.R.%X X%X!.=X=X%X&X*X;X-X*X5X:X5X1X2X2X2X2X3X3X6X6XlXiXiXlXpXpXpXsXaXkXfXaXfXjXfXjXjXjXjXjXcXUXcXUXcXcXBXBXBXBXVXAXCXCXCXAXCXZXZXZXZXZXZXSXFXFXSXFXHXSXHXLXJX XN c 3.| I 3.| | | o.| | P m m P G G m G G v v v M g N u t t i r * z <.e.&.a.p.a.f.p.r.OXnXtXkXtXtXtXtXgXkXkXgXaXgXgXgXgXjXmX3.N  .! M x M b N M / ` ` *.e.-.t.a.p.l.l.l.`.|.l.l.l.f.f.f.u.t.r.e.;.&.*.&.*.` ) $.` ~ ~ Q Q m i * % % % > > > 1 > < < 1 6 7 1 : f f 7 3 s f f C O f zXPXPXBXPXSXSXSXDXDXCXCXCXCXVXVXVXBXBXBXcXBXcXzXjXzXjXjXfXfXfXfXdXpXpXpXpX0X0X9X8X6X6X2X2X2X:X&X~.&X-X&X&XZ.%X>X4X!.6.h : # & 6 y t t 6 r 5 a 5 9 p y a 9 w 9 4 * = * 9 * 4 * & 4 & 4 & 4 ",
"H.z.v.z.h.v.f.p.r.r.u...- % # > > < < 6 4 6 4 5 5 5 t 5 a p p p a a a d f j f f f H d H f H s h lXrXrX@XwXwXwX,X+X,XoXoXoX XXX X'.].].].].F.F.F.F.S.l.l.l.l.a.a.t.t.a.e.e.;.*.*.` &.` `  .^ T.b + $ $ & $ # $ & & & & & < & & 4 < * 4 < 4 4 r 4 r 5 r t t r r r 9 9 @.#.5.@.+.+.+.o.+.+.o.#.+.#.R +.R Y Y U o.o.>.:.:.w.[ :._ B & 6 9 c D A h j c Z D D j 7 6 , > > > 5 & X 5 C.Z.Y.n.U.M.N.L.T.i B - - = i e k l b W W W W W W l Q _ -.d.D.Q.=XK.K.I.I.D.Q.Q.Q.Q.V.D.Q.Q.Q.D.m.D.Q.H.Q.Q.Q.Q.Q..X!..X=X=X=X*X*X*X;X;X;X;X4X1X1X4X4XeXeX3X8XlXtXfXjXlXM.c y T.3.| I T.H n } >.i.I.M.m.@.v v 3.0.2X:X%XR.R.R.%X&X.X%X!.P.P.%XR.%XR.%XP.R.P.P.P.Q.P.P.R.P.P.P.P.P.K.K.K.K.L.K.L.K.I.K.L.K.K.J.I.I.I.M.B.P.P.C.M.K.=XC.n - l =XgXiX;X;X8X8X;X;X;X;X;X;X;X;X;X.XQ.;XQ.;XQ.~..X~.Q.Q.Q.C.Q.J.J.Q.J.Q.V.V.V.K.V.V.V.V.V.n.V.n.V.8.8.V.n.8.8.8.8.8.8.8.,.8.@.,.>.>.>.>.=.,.N   $ . $ o - o o % o $ o % $ $ $ = & $ $ & = & & & $ . :.f.:.:.-.$.$.' _ _ ~ ~ b ~ b = . .   $ = * . . m V.@.b.X.y v 2.V.I.C.J.C.I.I.I.K.K.P.P.%XR.%X%X%X&X*X*X-X-X-X-X:X:X1X4X4X2X3X3X3X3X9X9XiXlX0XsXpXsXaXdXaXkXkXfXhXjXjXfXjXzXjXjXcXUXcXcXcXBXBXBXBXBXBXBXAXCXAXCXZXCXZXZXZXSXFXSXFXIXIXSXPXJXHXLXLXHX3.f ! 3.|  .O.T.X.| o.| | } P P P P P G G m v m v v g d i u t i i B u  .<.e.-.r.p.a.f.r.v.tXhXtXtXkXtXkXgXkXyXkXgXgXgXkXhXhXjXhXm M | n ! b ! z z ! )  .$.-.e.e.s.a.k.l.x.x.].|.x.z.l.l.h.f.f.r.r.r.;.;.;.;.*.$.$...) ) ! ~ Q ! b u * $ @ > > > > > 1 1 , 1 1 7 f > 1 C f 7 f 7 p H o 1 cXLXSXSXFXFXSXSXZXZXDXDXCXCXCXVXVXBXBXcXBXcXzXzXzXzXzXjXjXfXfXfXfXdXdXpXpXpXpX0X9X9X8X6X4X2X2X2X:X-X&X&X5X~.R.&X2X2XR.n.< % + % , 5 4 6 5 t t t 9 t p y * * * 4 * * 9 * * 4 9 $ & 4 & 4 ",
"F.H.H.h.v.h.f.h.r.:.u...+ % & > & : < > 4 < 4 1 5 4 5 p 5 t p p 8 p a d s f f h f H c F s H Z r 5XrXuXrX5X+X@X@X,X+XoXoXoX}.oX}.'.'.[.].F.`.F.S.z.x.S.l.f.f.f.f.a.a.e.e.;.*.e.*.*.-.^ *. .~  .T.$ # & $ # $ $ & & * & & & 4 < * < < * 4 4 4 4 4 4 r 4 t 4 t 4 t 4.#.#.+.Y R R #.Y U #.I U +.R Y +.Y +.Y Y R U D D P ...._ r.:.u > 7 j Z j f j j Z j j Z Z f 5 6 6 : 6 O   j C.K.Y.n.n.Y.U. X Xi = r w k l l l l k l W W W W l l $.1.A.Q..XQ.J.M.C.J.I.K.Q.D.A.m.V.Q.V.Q.V.V.Q.Q.Q.D.Q.Q.F.Q.`.Q.P.!.P.=X.X=X=X*X*X;X5X,X<X1X1X4X<X4X4X8X3X3X3XiXjX~.T.u H >.O.Z | | | | Y I H v } <.M.M.2.V.3XfX%X~.%X=X&X&X=X!.!.%X&X&X%X%X%XP.%X%X%X!.%X%XQ.!.%XP.!.R..XR. XR.P.P.P.P.P.P.K.P.P.P.P.P.P.K.P.P.P.P.I.U.Z.K.I.J.N.4XJ...*XfX3X5X8X;X;X;X;X;X;X;X;X;XQ.;X;X&X&X;X~.Q.;X.X~.Q.Q.Q.Q.Q.Q.Q.Q.C.J.Q.K.Q.V.V.V.V.V.V.8.V.8.V.n.V.8.8.8.0.8.8.8.8.,.8.1.1.,.,.,.>.@.>.@.8.u   $ . - o + - - o $ o $ - $ $ $ & $ $ $ $ $ & $ & = . :.f.w.w.&.&.' _ ' _ ) ) l Q n = . . o % X o $   t V.3.9.3.g * L n.%XJ.J.J.P.K.K.Q.Q.%XR.%X%X%X=X&X%X*X*X*X5X:X5X2X5X2X4X2X2X3X3X9XlXiXiXiXpXpXsXaXpXaXgXfXfXfXjXfXjXjXjXjXjXcXUXcXcXmXBXBXBXBXVXAXBXCXCXCXCXZXZXZXZXZXSXIXFXFXIXFXFXPXFXHXHXHXLXBXH f O.O.| | O.+.T.P | | | P P P | G G G G m H m H v x u y u u y r B 2 m ;.;.*.e.t.a.a.f.-.].hXhXtXtXtXsXtXtXtXgXhXhXhXhXgXhXgXkXkXz T. .m T.u G t b  .$.$.` -.e.e.p.p.l.l.S.`.|.].S.x.z.l.h.f.f.f.f.u.r.e.;.;.&.&.&.) ) ) ` ~ Q b ) x B % % : > > > 1 > 1 1 1 1 1 , p 7 1 7 p 7 j f f C 2 C BXJXSXFXFXFXSXSXSXSXZXZXZXCXCXVXVXVXVXBXBXBXBXzXBXzXzXjXjXjXjXfXfXdXpXdXpXpXiX9X0X9X8X2X2X2X2X2X2X:X:X-X-X-X&XR.R.-X>X:X9.p # % t y 5 5 5 5 t 5 t a y 9 * 9 * = 9 * 4 4 * 4 4 4 * * & ",
"F.v.z.v.h.v.h.h.r.1.u...- $ 6 & & > & < & 4 6 4 6 4 9 4 6 p p t y a a d a f f f f c Z c H H C f a.bXeXrX@XrXwX5X+X+X@X+XoXoX{.}.'.'.'.].|.`.`.F.`.F.x.l.l.l.k.f.f.r.t.r.r.w.;.;.&.&.$.` ` ) ) ) w . $ * + & & & & * = = * * 0 0 * < 4 4 4 4 < * < 4 5 1 > p P 5.+.+.T +.+.I Y Y I I I T U U U U +.I I U P U U U U D j D D v v v 6 5 a f d s j c j j j s 9 Z j : # , , X 6 0.V.n.B.Z.R.K.M.$.l e k l W l k e W W ~ W k k k / 1.b.K.L.L.C.J.V.J.J.J.D.C.J.V.J.J.J.J.J.D.J.J.J.J.J.L.J.I.L.P.P.Q.Q..XQ.!.%X%X=X&X*X%X;X1X:X;X1X1X5X;X8XeX<X3XjXaX3XG G G P P I P G P P P U P P I P P G c O.n.G N %X3X2X-X%X%X&X&X&X%X~.!.~.;X-X&XQ.%X%X&X%X&X%X%X&X X%X~. X~.!.!. X%X%XR.%XR.R.!. XR. X XR.R.P.P.R.I..X!.K.J.P.{.J..X.X1.b.aX3X3X3X2X2X4X1X1X;X;X;X;X;X&X&X;XQ.&XQ. X&X X X X X!.P.P.P.P.K.V.J.J.J.V.Q.Q.V.V.V.V.V.n.n.h.n.8.8.8.8.8.8.8.8.8.8.,.,.#.8.8.@.,.#.@.,.>.8.$ . . + + X $ . + $ + + - + $ $ + $ $ $ = $ = = $ & & . ..h.:.-.:.&.$.$.` ` / Q ( n W w X - - X + o + X o b.6.Y.O.N N N T.Y.-XK.C.{.&XR.P.%X%X%X%X%X*X*X*X*X-X:X5X1X>X4X4X2X3X3X3X6XlXiXiXiXiXpXpXpXaXdXdXkXfXfXhXfXjXjXjXjXcXjXcXUXcXBXcXBXBXBXBXVXBXCXCXCXZXCXDXZXZXZXZXSXFXSXZXIXFXFXHXHXHXGXFXKXKX6XG G X.O.O.o.+.X.o.| | | | P | P P | G m G G m G v v c u g x t t u i = b *.;.;.e.r.p.:.F.-.r.tXkXtXsXsXtXkXtXgXhXkXkXkXtXhXkXhXtXAXQ.k L } v v M N z ~ ) ` *.&.;.r.a.f.k.c.x.(.|.|.'.H.x.z.z.z.v.f.f.u.t.r.:.:.-.;.&.*.$.' _ _ _ / ( l / n w $ % ; > > < 2 < 1 1 6 1 4 7 7 t p p 8 p p s C C X p zXLXSXGXSXFXHXSXZXSXSXZXZXCXCXVXVXVXVXVXVXBXvXcXzXzXzXzXzXzXjXjXdXdXdXdXdXdXlXlXdXlXlXlXlX7XlX7X5X7X5X7X5X5X*X*X&X&X~.2X:X0.y X o t p 1 1 1 t t t t p p B 2 4 9 4 $ B 4 4 * * 9 = = ",
"F.H.H.h.h.h.h.r.r.1.u.=.- & 4 # & & > < 6 & 4 6 4 9 6 4 9 r t y p p a f a d d h c f V Z H H b f *.gXrXwXrXwXwX@X5X+X+X5XoXoXoXoXOX'.OX].].].|.F.F.x.S.A.l.l.l.f.p.f.p.r.:.;.w.-.&.&.$.$.$.) ) ) z - + = $ & & $ = & * * 0 * 2 0 r < * & * 4 r r y < % < h Y +.+.Y o.Y Y Y I I I I I I U U U U D P I U U U P U U j U U P g 9 v } 9.@.c t t y a a a j c h a 9 d 7 s O X t b.;X!.Q.Z.,.P x r = 0 e e e k k l l W W w z Q =.i.D.L..XJ.J.J.V.V.V.D.V.V.V.D.V.J.V.J.D.C.J.J.J.L.D.J.J.J.L.L.I.L.P.P.P..X!..X%X%X=X=X*X<X=X.X*X1X1X4X4X8X1X;XiXfXiXV.m G P G I P P G I P P P P I P P P G G c v 9.>.r 0 C.%X6X3X-X%X&X*X1X1X:X&XQ.Q.&X:X*X=X*X&X&X*X*X=X&X%X=X=X%X%X%X%X%X%X%X%X%X%X%X!.!.%X!.R.%X X!. X&XP.K.Q.%XP.P.P.%XP.} 1.iX5X*X*X:X1X:X:X1X8X1X1X;X;X;X&X&X;X&X;X&X~.=X=X%X X.XQ.P.P.P.P.Q.Q.Q.J.K.V.V.V.V.V.V.V.m.n.V.n.n.V.n.n.n.8.8.0.8.8.8.8.,.#.@.@.@.:.@.@.@.2.$ . + . $ . . $ . + + $ - $ $ - $ $ # = $ = $ = $ & = X ..h.-.-.;.&.$.' ) _ ( ( W W W w . . . . + . $ . . @.Y.Y.%.N u N p T.M.%X&XP.K.%X%XR.=X=X&X-X*X-X;X-X5X1X5X2X4X4X3X2X6X6X9XlXiXiXsX0XaXsXpXpXkXkXfXkXjXfXjXjXjXjXcXjXUXcXUXcXBXcXBXBXBXVXAXVXAXCXAXCXZXZXZXZXZXFXSXIXAXHXPXFXHXPXHXGXHXLXKXJX%Xv c X.+.X.+.O.o.| | | | P | P P P P P G G G G G v v c N a a a i p t 0 r T.*.;.e.e.e.a.t.h.:.H.tXkXtXsXkXkXyXkXtXkXyXkXkXhXhXyXhXhXAXz.x / m n v b N b / ..$.&.-.;.r.a.f.l.l.S.S.|.].'.`.x.z.z.z.v.k.f.f.u.u.r.e.;.;.-.*.*.$..._ ) _ _ Q Q n N 4 @ % > > > > < > 4 1 1 5 6 1 7 7 p p 8 C 3 p f F 2 p zXLXJXGXJXSXSXJXZXDXSXSXDXZXCXCXCXVXVXVXvXBXvXBXcXcXzXzXzXjXjXxXjXdXjXgXdXdXdXdXdXlXlXlXqXlXlX7X7XlX5X5X/.-X-X&X&X!.~.-X:X&X0.f X % 2 t d p B t p 1 p t 2 # & * 4 4 * * 4 & * & * ",
"z.F.v.v.h.h.t.r.r.:.1.=.$ $ & & > & & < & 4 6 4 4 6 4 6 t p 9 p u a a a f a f d h h h c b C H C p eXyX@XyX+XrXwX+XwX+X+X+X,XoX}.'.OX'.'.].|.`.].F.x.S.x.S.l.l.f.f.p.u.r.r.e.;.;.&.%.$.$.) ` ) ) _ * - = $ & & # & = * = 2 0 2 < 4 B & * 4 4 r 6 2 4 a G +.#.Y I Y I Y I I U U U U U U P U D D D D D D U U P v D v D v h g M ..1.m.M.m.2.4.m g y a 5 5 p s h f 8 # X j C.!.n.o.D < 4 r 0 0 q e W l l W W l b e k $.1.m.J.I.L.V.M.V.V.M.V.V.M.V.V.V.V.V.V.V.V.V.V.D.V.C.D.V.J.V.J.J.L.I.P.P.P.P.P.!..X!.%X.X=X=X*X=X*X5X1X;X;X5X1X;X3XaXsX%X>.M g P } G G G | I I P G G P G P G P v G | v  .9.o.* $ G C.4X9X2X:X*X&X*X-X1X1X:X-X&X;X*X*X*X-X&X*X*X*X*X*X&X=X*X=X&X=X=X=X=X=X%X=X%X%X%X=X%X%X%X%X%X%XR.!.%X%XR.%X-XD.N.M N.cXpX9X0X>X:X-X*X~.~.!.Q.&X&X&X&X!.&XQ.Q. X X X XR.Q.Q.Q.K.Q.P.L.J.J.J.V.V.Q.V.V.V.8.n.V.V.n.n.m.8.8.8.8.,.8.8.8.8.@.,.,.:.,.:.8.#.:.:.#.>.>.. X . + $ . + . + + + - - + $ $ $ $ $ & $ = = = $ & = . _ v.:.-.&.*.$.` ` _ _ W W W n i . . - . + . $ + . M N.Y.O.k u b N d m n.&X&XR.%X*X*X&X*X*X*X-X5X:X5X1X4X2X2X3X3X3X9XlXlXiXiXiXsXpXsXaXdXfXkXfXfXjXfXjXjXjXjXUXcXUXcXcXcXBXBXBXBXBXBXAXVXAXCXCXCXZXZXZXZXZXIXIXFXFXFXPXPXFXFXPXPXFXPXPXKXSXn.d P 3.+.X.+.o.| | | o.P | P o.P } P P G G v G G m v c g y u y t u t 0 * Q ..<.e.e.r.y.a.f.r.u.<XkXkXkXtXkXtXkXkXgXhXkXhXkXhXhXkXhXUXmX=.n G ! v m x b ! ) ` $.;.e.e.a.p.k.l.x.S.`.|.'.OX|.F.F.x.z.z.z.f.f.f.u.t.r.r.e.;.;.&.$.$.' ' _ ) _ n Q n u & @ 2 > 2 > < 1 6 1 1 1 5 7 7 5 p 7 8 2 V C 1 C f : f vXLXGXSXLXGXZXJXFXFXSXSXSXZXDXCXCXCXVXVXVXBXBXvXBXcXcXcXzXzXzXzXzXfXfXdXdXdXdXdXlXdXdXlXlXlX7XlX7XlX5X7X>X>X-X-X-X~.!.~.>X:XR.n.p 2 o 2 1 y 1 2 4 f f p 4 4 & * & * * * 9 * * * ",
"H.v.z.h.v.h.t.h.r.1.1.=.- $ < # & & > > 6 4 & 6 6 4 4 9 5 5 a t p p a a d d f h h h Z f C H H T.2 S.bXwXyX+XeXwX5X+XwX+XoXoXoXoXXX{.OX'.].].G.].`.`.x.z.x.l.l.l.f.f.p.p.r.e.e.;.;.-.&.$.$...) ) ..i - - & $ $ * % = * * * * < * $ & 4 r 4 4 4 & 4 c +.#.+.P U U U U P U U P P D D D D D v H H H D v j D D D D v v g y x o.=.4...b ..N.J.C.9.@.X.c a 4 t 7 1 , , a t @.6.D # # * * y N r 0 e k e l k e e l ^ a.a.J.J.H.D.M.m.b.b.n.m.M.m.M.m.M.M.V.V.m.V.V.V.D.D.M.M.V.V.D.C.J.V.J.J.I.L.P.L.Q.Q.Q.!.%X%X=X=X=X=X5X*X=X*X4X4X<X*X2XiX1Xn.m u v O.G G G P G G P G G P G G G G G G G v | v x | } z 4 c X.9.K.-X3X9X6X2X;X*X1X2X2X;X-X5X-X5X5X5X-X-X-X*X-X-X*X;X-X-X-X*X-X&X*X&X*X&X*X&X&X*X&X&X=X=X!.&X*X%X~.=X=X%X>.X.x !.HXVXVXvXcXUXjXjXkXdX0X0X:X:X;X&X&X&XQ.Q. X X XU.I.I.J.C.I.I.I.J.J.K.J.I.V.V.V.V.V.V.V.V.V.V.V.V.m.b.m.8.8.8.8.,.8.,.,.,.8.#.#.@.4.4.o.o.@.4.X . . . + . - + - + + $ + $ $ $ $ $ $ $ $ = = $ & $ * . n h.:.:.;.&.$.' _ _ ( / ( l n z - . + o + X $ + X * n.N.X.u u T.M x y P m.-X5X%X%X4X;X-X:X5X5X5X2X2X2X2X2X3X3X9XlXlXsXiXpXpXdXdXaXaXkXdXfXfXfXjXjXjXzXjXzXcXUXcXcXUXBXcXBXBXBXVXAXVXCXCXCXCXZXZXZXZXIXSXFXSXHXFXFXHXHXSXHXJXLXHXPXLXKXjX>.x +.3.X.o.X.X.O.X.| o.} | P o.P P P P G P G G m G v c g d d d t i u t 0 u *.<.;.*.e.r.r.t.h.[ H.tXyXtXkXtXtXkXtXkXgXtXkXkXgXhXtXhXhXUXhXz / } m m n x b T.$.$.&.;.e.a.p.g.l.x.`.`.`.|.'.oX|.`.F.F.F.x.z.z.z.f.f.p.u.a.e.e.;.;.&.$.$.$..._ _ ( / ! Q u $ @ % > > > > < < 1 5 1 5 1 7 t 7 p p 8 p Z f f F O 1 vXKXGXHXJXHXGXHXHXFXFXSXSXSXZXZXZXCXCXVXVXVXVXBXBXcXBXBXzXzXcXzXjXzXjXxXxXdXdXdXdXdXlXqXlXlXqXlX7XlXlX2X>X>X:X2X-X-X&X~.&X>X2X&XY.f O o < t d 1 4 5 r 4 4 & & 4 & * 4 $ * * * ",
"H.z.H.h.h.t.h.:.u.:.1.:.= $ < & & > & 6 & 4 4 4 4 5 5 t p t a 7 p a d a d d f h f c C c f H H H p T.nXrXrXrXeXwX@XwX+X5X5XoX+XXXoX{.}.'.'.].'.|.F.F.F.S.x.l.l.l.f.f.p.p.r.r.r.;.-.-.&.*.$.' ) ) ..z $ - & $ $ & & * & * < * < * * 6 r 4 < & 4 t I Y I Y U U U U U U G D U D D D v D D D c Z c Z Z c h f 9 v g c M x g L %...z 0 = & 4 M 4.9.n.B.,.6.2.4.v y m >.6.u 4 4 # r 9 9 t 4 0 0 e z W k e k Q *.a.N.U.[.V.m.m.b.b.m.V.J.m.N.n.n.V.m.V.M.n.M.M.M.n.M.M.M.M.M.M.V.V.D.V.J.J.I.J.L.P.Q.L.Q.Q.%X!.%X=X=X=X=X4X%X%X;X5X*X4XaXaXK.P y c | | v G P G G G G G G G G H G v P v G P c v v v } M c 3.,.,.3.O.#.n.K.>X6X0X9X2X-X-X4X1X1X1X>X5X>X5X>X5X5X5X5X:X:X5X5X-X5X:X-X;X;X-X;X-X*X*X*X-X;X*X*X;X;X=X%X>X:XJ.>.X.o.v :XLXCXDXVXDXCXCXCXVXvXvXvXvXvXvXcXUXxXxXfXlXlXlXlX5X5X5X XQ.Q.K.I.C.C.M.n.V.V.V.0.V.n.8.8.9.0.8.8.8.8.8.8.8.8.8.8.,.8.8.,.#.8.,.,.:.#.4.4.>.X.X . + . $ . + . $ . $ $ - + - $ % % $ $ $ = = $ = $ = . l h.w.:.-.-.$.' ) _ _ Q ~ W n z = . . + . . $ $ X . Y.M.>.N N c b G M g } C.:X:X-X*X5X:X5X-X5X1X>X3X3X3X3X9X9XlXlX0XpXsXsXdXaXaXkXfXfXfXjXfXjXjXjXjXUXzXUXcXcXBXcXBXBXBXBXVXAXVXAXCXZXCXZXZXZXZXZXZXFXIXFXFXFXHXHXHXFXHXLXPXSXJXKXKX0XO.c >.O.o.@.| o.o.o.| o.P | | P } } P G P G G m G G G c x u u y a t r u 0 0 T.=.r.;.&.e.r.p.p.t.:.OXhXkXtXkXtXkXkXhXgXkXkXyXkXkXhXkXhXhXmX2Xu  .G m ! c b Q  ...*.;.;.e.u.f.l.l.x.`.G.].'.OXoX'.|.G.F.F.F.x.z.f.h.f.f.p.p.r.r.e.;.&.&.%.&.' _ ) ) ! ! T.! t o : : > > > , > 1 1 1 5 7 1 7 7 7 8 C 3 s j 7 f f O C cXLXJXFXLXGXGXHXHXGXFXFXSXSXDXZXZXZXCXCXCXCXVXVXVXBXBXcXcXcXzXzXzXzXjXjXdXfXdXdXdXlXxXlXdXlXlXlXlX6X6X7X2X>X:X2X2X5X-X&XR.&X>X2X~.Y.h % @ 2 a p y p 4 4 4 * * * & 9 & * * * ",
"v.H.v.v.h.v.h.t.r.:.1.:.= + & # > > & & 6 4 6 4 5 5 5 5 t p p p p p p d f f d d f f c f C c H H C 3 lXbX@XrXwXwX@X5XwX+X+X+XoXoXXXOXoX{.'.'.[.|.|.F.F.x.S.x.l.l.k.f.p.p.u.r.;.r.;.;.;.*.*.$.$.) ..n q - = = # & % & * % & * > 2 B B < & : 4 h I +.I I D v D D D D D D D H D H Z Z h Z c h h h h j j c c h 9 g 9 j c G M d B & * 4 % o # < g P O.N.N.2.X.M u n >.c o o 4 N g r w w 0 w k e w w l  .>.N.U.U.U.Y.a.b.N.n.b.b.b.n.n.b.N.b.m.n.m.N.M.b.N.N.m.m.n.m.m.m.n.m.M.V.D.J.D.J.L.P.J.L.P.Q.P..XQ.%X.X=X=X=X=X.X;X4X;X;X2X3X5X9.G d v | } H c G v G G G G G G v G m v G v D G v v m v G } m ..,.,.3.,.3.@.X.+.,.n.&X2X0X9X6X3X2X2X4X4X4X4X1X5X>X4X1X1X1X>X>X5X5X5X5X5X:X5X5X:X5X:X:X-X-X-X5X*X1X*X*X4X1XQ.,.o.3.4.c 5XJXBXVXVXvXcXcXcXcXcXcXxXcXxXUXxXxXxXxXUXzXzXzXxXxXdXdXdXkXqXpX9X6X2X:X>XQ.&XQ.Q.V.K.V.V.n.n.n.9.0.8.6.,.8.5.,.8.#.#.@.#.:.4.4.@.#.4.@.4.>.o.  . + . + + - + . + + + + $ % - $ $ $ & = $ = $ & $ 0 . z h.-.:.&.-.$.' ' _ _ Q ( l n l = . + . + . + + . X T.n.<.x N N x G } v x m U.2X9X%X5X5X2X2X3X3X3X2X3X9X9XlXiXiXsXiXpXaXdXgXaXfXhXfXfXjXjXjXjXjXcXUXcXUXUXcXcXBXBXBXVXVXVXAXCXCXCXCXZXZXZXZXSXIXFXFXFXFXHXFXHXHXPXHXJXPXPXHXLXLXPX-Xd G 3.@.P | >.+.+.o.O.| | | | P P P P P G G P m G G v M h d d y N t t r t 0 N <.;.;.-.-.r.u.a.f.w.v.wXhXtXtXtXkXkXtXtXgXhXtXkXhXhXhXhXhXkXmXQ.9 } m m m b b ^  .*.&.;.e.u.p.f.l.x.S.`.|.].'.OXoX'.|.].`.`.F.z.x.z.v.f.k.p.p.p.a.y.e.;.&.&.*.$.' ` $.^ ! ~ / b 0 * : : > > < > 1 , 1 1 6 5 7 5 7 5 p H 1 7 Z p Z Y X s vXLXLXSXLXJXGXGXHXFXFXFXFXSXSXSXSXZXDXCXCXVXVXVXVXVXVXBXBXBXzXzXzXzXzXjXzXjXdXgXxXdXdXdXlXqX0XqXlX6XlX6X6X2X>X:X-X5X-X>X-XR.&X6X>X X3.f o @ : 5 p y 4 & * * * * * * * * * ",
"H.v.v.h.h.r.r.r.:.:.1.:.= # & # & > > 6 & 6 4 6 4 4 4 t p t t p p y a d f f f h f c f c c c C T.J 2 U.nXwXrXrXwXwXwX@X5X+X+X+XoXoXXXXX'.'.'.[.].].`.F.F.x.S.x.l.l.f.k.p.t.r.u.;.;.-.&.&.$.[ .._ _ _ e $ = & & $ & = & * & < < < & & < 4 a v U T c P Y U D Z H D D D v Z c c c c h g c g h j j g a j h f a p g g 9 a y < % + * r 4 6 t < # o % < v c < % $ .   . % O % < B B = e w q e w w e ..N.U.U.n.Y.2.Y.N.n.9.b.n.b.N.b.N.d.b.b.b.m.b.N.b.N.b.m.N.N.m.N.N.N.m.n.n.M.V.V.J.J.J.J.P.L.P.Q.P.Q.!.Q.!.=X=X=X=X;X=X;X=X=X3XlXI.m < g | O.G d c o.D v G G v v v v v v v v v v v v v v P c N x x } 9.@.I O.,.9.0.9.O.>.3.9.K.-X6X0X6X3X6X3X2X3X2X2X2X4X3X4X4X2X1X4X2X2X4X4X4X2X5X1X4X5X5X2X1X:X5X5X;X1X2X;XK.,.@.>.3.@.c >XJXvXDXVXCXVXvXvXvXcXcXcXxXxXxXxXxXxXxXxXdXdXdXdXqXdXdXdX0X9X6X9X0X0X0X0X0X0X0X8X8X2X2X>X&X&X&XQ.Q.Q.Q.Z.n.0.8.8.8.8.,.,.#.#.R :.:.R R L 2.} X . + X + . + . $ + + - $ + - $ @ $ + = $ = = $ = $ * . k h.:.:.&.*.-.' _ _ ( / ( l n Q q X + . . # - + o X * n.3.y x c c m v m c g o.I.1X3X>X3X4X3X2X6X6XlXlXiXiXiXsXsXsXpXaXaXaXfXfXjXfXjXjXjXjXjXcXcXcXUXcXcXBXBXBXVXBXVXAXCXAXCXCXZXZXZXZXZXZXZXFXIXFXFXHXHXHXHXGXHXPXJXJXPXHXKXKXPX%X4 | O.O.O.,.U v >.o.o.| o.| | P | P P P G P G G G G v c h d u y y y t t i 0 u ^ ;.%.;.-.-.t.a.p.p.r.Q.hXhXtXtXkXgXkXgXtXkXhXgXgXgXhXkXhXhXkXmX_ n T.v ! M z Q $.$.&.;.;.u.p.f.l.l.F.|.|.[.'.XXoXoX'.'.|.|.|.`.F.x.x.z.l.l.l.p.p.p.p.t.e.e.;.-.-.-.*.` ) ^ ) ) ! b % : ; < > > , > 1 , 6 1 5 7 7 7 f : C Z 8 f 7 S V F O 7 vXLXJXJXJXJXJXGXHXGXHXFXGXFXSXSXSXSXZXZXZXZXVXCXVXVXVXBXBXBXzXBXzXzXzXzXjXjXxXgXjXdXlXxXdXaXpXlXlXlX6XlX2X2X6X6X>X:X-X-X>X&XR.&X>X4XR.0.6 @ o % 6 4 * 4 9 & * * & 9 * * ",
"H.z.v.h.v.v.h.r.r.:.1.:.= + & & > & 4 & & 4 6 4 5 6 6 t t p t p a d p p d p f f f c H C C c c C H f *.nXlXrXrXwXwXwX@X+X+X5X+X+XoXoX{.oX'.].].].].`.F.F.S.A.x.l.l.l.f.p.u.u.r.r.e.;.;.;.$.$.$.' _ :.9 = = $ & $ & % & & * > > 1 & & t c I o.U v U j j Z H D Z j c D c c c j j c h h j j j g g 9 d f h t t t g D t > + + > 1 < > & & % & < 4 & & @ & : < 9 4 # + * % % X = 9 w w q e e q z 1.S.n.Y.N.b.b.9.9.9.6.b.9.9.d.8.8.i.b.b.b.b.m.b.N.b.d.b.b.N.b.b.N.N.m.m.n.m.M.D.C.V.J.L.I.J.P.I.Q.Q.L.Q.%X%X.X=X=X=X=X*X=X4XsX*X=.x z } F c j c U G c v G v v H H v c v v v v H v v v G p c P n v c c ,.,.,.3.@.@.O.3.6.6.6.@.O.3.B.P.iXlXlXlX6XlX3XlX3X3X3X6X3X3X2X3X2X2X2X2X2X4X2X2X2X2X2X4X4X2X1X2X8XsX2XQ.,.4.@.3.4.X.x :XJXVXDXvXvXVXvXvXvXvXcXcXvXcXxXUXxXxXxXfXxXfXxXdXdXqXqXqXqXqXqX0X0X6X2X6X2X>X2X;X/.>X;X>X-X-X;X/.&X~.&X&X;X&X&X~.Q.Q.K.K.V.V.V.V.8.8.8.8.2.o.  - - X + . . $ . $ - + + - $ - $ $ $ $ $ = = - & - * X u g.-.-.:.-.' ' ` _ _ ( ( l n m w . . . . . o o - . o U.i.B u Q c v x m |  .M c U.fX1X3X3X3X6XlXlXlXiX0XiXpXpXpXdXaXaXfXgXfXjXjXjXjXjXjXcXzXUXcXUXBXBXBXBXBXBXBXCXAXCXAXCXCXZXZXZXZXSXFXIXFXFXFXFXFXHXHXHXHXPXPXJXPXPXJXLXLXCX2.y 3.>.O.O.O.o.@.@.P o.+.o.P P } | P | G G P G G G m T.H c x u d d y t t t B 2 l <.;.&.;.e.e.r.p.r.f.r.OXhXtXtXhXtXtXsXkXkXhXkXgXhXkXhXtXUXhXkXmXM L v m G x z ! *.*.:.;.r.a.f.g.l.A.F.S.].'.'.{.oXoXoX].[.].|.|.`.F.F.x.x.l.l.l.f.f.p.t.e.e.;.;.&.*.$.$.)  .^ ! ) *.% % & : > < > > , 1 1 6 7 1 5 7 1 H 1 3 V p s s 3 Z F O a cXLXJXJXJXJXJXJXPXGXGXGXFXHXSXSXSXSXSXZXZXZXCXVXVXCXVXBXBXBXBXBXBXzXzXzXzXzXxXjXjXjXdXdXdXdXpXpX0X0XlX9X6X2X2X3X2X2X>X5X>X>X&XR.-X>X6X:X6.6 # & t 6 * * * * * & * * * ",
"H.H.h.h.h.h.:.:.:.:.:.:.= + & & & & & < < < 1 1 5 4 5 t t p t p p u p a d f a g f j h h Z j v Z J f d ,XnXwXrXwXeXwX5XwX+X+X5X5XoXoX}.oX{.}.}.'.].|.|.F.F.F.x.S.l.v.k.f.p.p.r.r.:.e.:.:.&.$.' $._ ' _ * . = = & & & $ & < B & $ 6 d U I U c Z D v Z H c Z c j Z h j h h j g j j a g 9 j j a t g f d r $ u @.X.9 & ; : 2 : > = * * * * * * < B < < < * < < & + # @ @ @ - - q q w e q 0 z d.M.Y.,.Y.Y.Y.9.Y.Y.Y.b.2.b.2.b.Y.2.Y.b.b.8.8.d.d.8.d.8.8.8.8.b.b.b.m.b.m.M.V.M.V.V.V.J.J.J.J.P.L.P.Q.Q.L..X.X!.%X*X&X%X%XiX4X9.c x H c H G v v H v v v v v v v v H c v v v v v c c v v v g g x x v M M o.V.o.o.,.o.@.>.3.3.,.,.6.6.6.6.%.N.~.lXfXdXpX3X6X6X6XlX0XlXlX>XiX3X>X4X3X3X3X2XiX2X4X4XiXaXpXiX5Xi.N z >.b.2.X.>.3.t >XGXCXDXVXvXvXvXvXvXcXvXvXcXxXvXxXxXzXxXxXfXfXxXdXdXdXdXdXdXqXqXlX0X0X0X6X2X2X7X2X2X>X;X;X/.&X&X/.~.~.~.~.~.Q.~.Q.Q.K.K.Z.Q.K.Z.V.E.V.V.V.Z.V.#   $ . + . - o - o o - @ - % - % $ $ $ = & $ & $ & $ = $ g.r.-.{ &.$.' ' _ / ( n l l / e   . . - . . + + .   @.d.x x z / x n m } } } T.O.N.sXsXiXlXlXlXpXlXiXsXpXdXfXfXfXgXjXjXjXjXjXjXzXjXcXUXcXUXBXcXVXBXVXBXVXVXAXCXAXCXCXZXZXZXZXSXFXIXFXIXFXFXFXHXHXHXPXPXLXPXPXPXLXLXHXKXLXfX| v 3.O.O.O.O.X.+.o.o.| o.| | o.| P P | G G } G m v G } v c g f d u y y 1 d B $ b ;.;.*.&.r.-.e.p.a.s.a.V.kXhXtXsXtXgXgXsXgXkXsXgXgXgXhXhXUXhXtXAX4XM P L m x M m ) *.*.e.r.p.p.p.l.x.S.`.|.'.'.'.'.,XrX{.|.{.}.|.|.`.F.S.S.x.l.l.l.l.p.f.t.r.r.e.-.&.$.&.$.` $.) ) ) ~ ..i - $ 4 : ; , > 1 < 1 1 5 7 3 7 t p p p f a s p c V F O 8 CXLXJXKXJXLXLXGXGXJXJXHXGXHXHXFXSXFXSXSXSXZXZXCXCXVXVXVXVXVXVXzXcXcXcXzXzXzXzXzXjXdXjXdXdXdXdXdXlXlX9X9X9X8X6X3X2X2X:X>X5X:X:X-X&XR.-X3X5X9.p X + t * * 9 = & 4 & . ",
"v.v.v.v.v.h.h.y.r.:.:.:.= + & & < & > < < B 1 B 6 4 4 5 7 t t t u p a a a d d f j j f c h v Z Z H c p {.bXrXrXrXrXwXwXwXwX@X+X+XoXoXoXoX}.{.'.'.|.].|.F.`.x.x.l.c.l.f.f.f.p.p.r.e.;.e.-.&.&.$.' _ ..[ 9 - * * & $ $ * * % * < 1 c v D U h c Z H j j j j j g j a j h j f d f d g f g y 4 y a t y * & N @.b.@.9 $ & ; : : : & & & & & & & & & % * * > * < & & % # + o + $ = 0 e w q z ( =.d.b.,.Y.2.i.Y.2.2.i.2.Y.b.2.Y.2.Y.Y.Y.2.8.b.8.8.8.8.8.8.8.8.8.b.b.b.m.b.n.m.m.M.V.V.C.D.J.J.I.L.K.P.L.Q.=XQ.Q.=X%X.X=X1XiXK.| d a H G G v v G H v v v v H v c v c c c c v c c v c c g v M x v v v v M v L 9.,.o.@.o.@.>.>.3.3.#.,.,.Y.,.6.6.6.Y.U.-X0XfXdXpXlX6X6XlX0XpX1X6XsXsXiX9XiX8X4X9XaXfXpX*XM.3.x x u N x m >.N.o.O.P pXLXVXvXDXDXCXCXVXVXvXvXvXvXvXzXvXUXxXxXxXxXjXfXfXfXfXdXdXqXdXqXqX0X0X6X6X8X7X8X7X>X:X>X>X;X;X;X&X&X&X&X~.Q.~.Q.Q.E.K.K.K.K.K.K.V.V.V.W.V.n.C.4   # . . + o o o - o - - - o % + $ $ $ $ $ @ & $ & $ = - f.r.-.-.-.[ $.' _ ( ( Q l l l e - - . . . - - - $   m n.b t g c b v v v v m c M o.!.pXlX5XaXsXlXjXpXpXaXaXaXaXfXjXfXjXjXjXjXzXzXUXUXcXcXBXBXBXBXBXVXVXAXAXCXCXZXZXZXZXZXSXZXIXSXFXFXFXHXHXHXGXPXPXLXFXFXLXLXLXJXHXKXJX-XG G >.#.O.O.O.X.+.X.o.| o.} | | | | | | | G G P G G G G G c x g u u a t y t t 2 B / *.*.-.;.e.t.a.a.p.p.e.OXgXtXtXhXsXtXkXgXgXgXgXkXhXkXgXhXhXhXkXAX&X9 _ L m x b Q $.-.-.e.e.u.p.l.x.x.S.F.|.'.|.oXeX,Xl.e.U.oX{.|.'.|.`.`.(.|.l.x.l.l.l.f.f.p.r.r.e.;.;.&.$.$.$.) ` ) / _ n r & & > > > , 1 1 1 1 5 1 t t 7 p p p s 8 a H 7 7 f F ; 3 xXLXLXLXLXJXJXLXFXGXJXGXGXFXFXFXFXSXSXSXZXSXSXZXZXVXVXVXVXVXVXBXVXBXzXcXzXzXzXzXjXxXfXjXdXdXfXdXdX0XsX9X9XlX6X2X6X6X>X>X-X-X-X&X-X&X:X>X>X&Xb.a   * & $ & + . . $ ",
"H.v.h.H.h.r.h.r.:.:.1.:.* + & & & & * > < < 1 1 4 t 4 t t t t p u p y p a d f g j f j j h Z Z Z Z J p a.bXyXrXrXrXwXwX@XwX@X+X5XoXoXoXoXoX{.{.}.[.].].|.|.F.x.S.z.x.l.l.k.f.p.t.r.r.;.:.;.&.*.-.$._ :.n $ - = $ 4 * & $ % < g G I U c h h c c c v v c j j c c j j 9 g 9 f a a a 4 d j d t 4 < * M L 1.M.>.2 X O @ ; ; : ; > % & @ & $ $ * & = = & * % * & & # % o . - $ * w w w w *.d.b.d.3.<.d.i.2.2.2.2.2.i.2.2.2.2.2.Y.2.2.2.8.8.8.2.8.8.2.8.8.8.8.8.h.n.N.b.n.M.M.M.V.D.C.C.J.L.I.P.P.P.P.Q.I..X.XQ.!.*X5X4X2.m d c T.G c v v v v c v v c c c v v c c c c c c c h c g c g c g x v x x v g M g @.9.@.P @.4.@.3.3.3.3.3.6.3.,.N.0.3.>.3.Y.U.R.6XlXdXfXfX0XlX6XpXaXpX9X4X3X3XiXjXfX3X X9.} d B x M m M g N L 4.b.@.c Q.JXLXGXxXvXDXCXvXvXCXVXzXcXvXcXxXcXxXUXxXjXxXxXfXfXdXdXdXdXqXqXlX0X0X0X6X8X7X2X7X2X>X:X>X/.;X&X/./.&X~.&X^.!.Q.E.Q.Q.E.K.V.K.V.E.E.V.V.V.n.Q.P   . $ X $ o - - o $ $ @ - $ @ $ $ $ & $ $ $ % % % $ = - a.r.-.-.-.[ ' ' _ ( Q Q n n l z w . X . X     X     * b.! N m b T.} T.T.| O.| T.| h R.zXjXlXaXfXlXdXfXdXfXgXfXjXjXjXjXjXzXzXcXcXcXBXBXBXBXBXBXAXBXAXCXCXCXZXZXZXZXSXZXSXFXFXFXFXFXFXHXHXHXPXPXPXPXJXJXLXLXJXPXKXKXLXI.a P ,.| | ,.O.O.O.X.X.o.+.| | | | | P } P P P P G G G v G v x g u y y t t t t = * ! %.*.&.;.e.-.f.a.a.l.s.a.hXgXtXsXkXtXtXkXgXtXgXgXgXgXgXhXhXkXhXhXmXJ.y } L n x n ) *.;.-.r.r.p.p.l.S.S.(.].|.}.oX,X{.Y. .T.O.l. X,X|.|.}.|.`.S.`.x.x.l.l.l.f.f.r.u.r.r.:.-.&.&.$.$.` ) _ / / n * # & < & < , 1 1 5 5 3 7 7 7 7 p a a a s 8 8 J 1 V H O s zXLXLXLXLXLXJXLXJXJXGXJXPXHXGXGXGXSXSXSXSXSXSXZXZXZXVXVXVXVXVXVXBXBXBXzXzXzXzXzXzXjXjXdXxXdXdXlXpXsXpXpX0X0X0XlX9X6X6X2X2X>X>X:X:X&XR.~.:X2X!.N.9 $ + $ 9 >.;XUX",
"v.v.v.h.v.h.r.y.1.:.:.1.* # & & & > * < < < B 1 4 5 4 t t p p t p y a d a f d f g h j h Z h Z c h | p T.eXbXrXuXrXwXwXwX+XwX+X+XoXoXoXoX}.oX}.{.'.[.].].G.F.S.F.z.x.l.f.f.p.p.u.r.r.r.:.-.&.*.*.:._ ..Q 0 . & & = $ # $ r g H G c g d g j j a a 9 a a a y p p t y y 4 t t 4 r 4 y y r * B r g L =.m.b.P @ O ; 1 : ; @ @ # % ; ; % $ & & = & & * $ * * * * < * & o . - = & w w 0 i i.d.1.,.<.,.,.,.,.2.,.2.2.3.2.2.2.2.2.3.a.6.2.3.1.1.,.2.2.2.2.8.8.8.d.b.b.b.N.m.n.m.V.V.V.J.D.J.J.J.L.J.L.L.Q.Q.%XQ.Q.;X4XC.P t d c G c c c F c v c c c c h c c c c c c c g h h g x c c g c g g x x M x x M M g L V.6.o.o.| O.O.@.O.3.3.3.3.3.3.Y.0.N.0.6.3.@.6.U.&XlXaXfXjXjXiXiXlXiXfXjXjXdX-XJ.X.x u x m T.T.n c b v x g y o.>.c 6 0.dXDXLXSXvXcXCXDXvXvXvXvXUXcXcXzXvXxXzXxXxXjXfXxXdXdXdXdXdXqXqXqX0X0XlX8X8X2X8X7X2X>X>X;X:X;X;X&X&X&X^.~.~.~.Q.Q.K.Q.Q.Q.E.K.V.V.V.q.V.9.Q.8.&   $ . . - o - - o o - - + o $ $ $ $ $ = $ & + % = = . ;.u.w.-.-...' ' _ ( ~ Q Q Q z z z / / / L L L L n r i ..i N x g x H v G  .4.O.O.4.X.G  XBXzXaXdXfXaXjXjXjXjXjXjXzXzXzXzXmXmXUXcXBXBXBXBXBXVXCXCXVXCXAXCXZXZXZXZXFXFXSXFXIXFXHXHXHXPXHXPXPXPXPXJXJXPXLXKXJXPXKXLXHXY.v | 6.O.O.,.| O.o.o.+.o.o.| | | | | | | P P P } P G G G G v c d g a y u t t r r = y *.e.*.*.-.e.-.l.r.t.p.e.[.hXkXtXtXtXgXkXgXhXkXgXkXgXhXkXhXhXkXhXmXhX1.u } P n b L ..&.;.-.t.p.a.l.l.S.S.G.|.'.oX,X|.>.%.7.7.| O.U.{.{.|.|.|.|.`.`.x.S.l.l.z.f.f.f.p.r.r.:.;.;.&.*.$.$.$.` ( .. .N = % > > > < 1 1 1 1 1 7 5 t p 8 p 8 8 a f 7 f Z s A J O 7 cXLXJXLXLXLXLXLXLXJXJXJXJXJXGXHXHXGXGXSXSXSXSXZXZXZXZXZXVXVXVXVXVXVXBXBXBXzXzXzXzXxXjXjXxXjXdXdXdXdXpXpX0X9XlX9XlX6X6X6X2X>X>X>X>X>X&X&X-X4X2X;X:.:.8XCXvXfXfX",
"H.v.h.v.h.h.h.:.1.:.:.8.$ $ & # & & > & * B 2 B 1 t 1 1 t t p p u a y a a d f f f f h h h Z Z Z V | f u .XhXrXuXrXrXwXrXwXwX@X+X+X,X+X,XoX{.}.{.{.'.'.].|.S.F.F.x.z.l.l.l.p.p.p.r.u.r.r.;.:.:.*.-._ $...u $ & * # * r M P P v d j g c c c c j g g 9 d a a a a y 9 9 9 9 y r y y r = = r M } :.u.b.1.v $ . ; 7 ; @ ; ; @ ; # @ % % + @ = % % * $ $ $ % % & * & & & & r w * = 0 0 N 2.1.@.>.,.2.<.1.>.<.3.<.3.3.3.3.1.3.1.3.1.3.1.>.>.2.1.,.1.2.2.8.8.8.b.b.b.n.h.m.M.V.m.V.D.V.D.J.J.L.J.L.L.J.Q.Q.Q.&X;XP.>.g r x v v c d c c c c c c c h c x c c c c x h M j g x d x x g c c g v x v x M M x M g M 8.n.4.o.P X.| O.O.O.O.3.#.3.3.3.6.6.6.Y.N.n.,.6.6.N.U.&X0XfXaXcXmXzXjX9XP.b.M g N x v } P G x c c c M g g x u m g     1 0.xXJXGXDXvXzXvXVXCXvXcXvXcXcXvXxXxXzXxXjXxXxXfXfXfXdXdXdXdXpXqXlX0X0X7X8X8X7X2X2X>X>X>X>X;X;X^.&X&X&X~.~.Q.~.E.Q.E.K.K.Z.K.V.V.V.E.n.n.Z.x   . . . o o - - - $ - $ @ + $ $ $ $ % $ % % + * $ * . ' u.w.:.{ ' ' ' _ ( Q Q ( n z l / }  .....$.4.=.=.1.=.N   * $ & & & < 4 t d g d v  .f a n.zXBXfXpXaXfXjXjXUXjXzXzXzXUXUXcXcXBXBXcXBXBXCXVXCXAXZXCXZXZXZXZXZXFXZXSXFXIXFXHXHXHXHXHXPXHXPXPXJXJXJXLXLXLXJXJXKXKXjXO.h 4.@.| O.>.+.@.X.+.+.o.o.o.| | | | } } | P P } P G m G v v c x d u u y t t 1 r = r ! ;.*.*.w.;.-.e.p.r.g.a.a.eXhXgXtXgXtXtXkXgXgXtXhXkXaXkXhXhXhXhXhXmXtX} M P G n x _ $.:.e.r.p.p.f.z.l.|.S.|.|.oXoXY.O.X.O.7.7.7.O.O.g.{.oX|.|.].|.G.S.S.x.l.l.l.f.f.p.u.r.r.e.;.:.&.*.*.$.' _ _ ../ k % + B > > 6 > 1 4 1 t 5 5 7 p p p a a p Z ; h F 8 F C ; f fXKXLXLXKXJXLXLXLXLXJXJXJXJXHXGXHXGXGXFXFXSXSXSXSXSXZXCXCXCXVXVXVXVXBXBXBXzXzXzXzXzXzXjXxXxXfXfXfXaXaXdXpXpX0X0X9X6X6X2X2X:X-X2X2X9X4X*X XP.G.>...D.8XvXUX9X",
"H.h.v.h.h.h.h.:.:.:.:.1.& $ & & & & & < 2 < 1 1 2 1 t p t p t p a p p a d d f g j j f h c Z h Z H F Z p g.gXyXuXeXrXrXwXwX@X5X+X+X,X}.}.oX'.oX}.'.'.|.|.|.|.(.x.S.x.z.l.l.l.f.p.p.r.r.r.;.-.:.-.$.[ $.=.l $ . . * r 9 g g 9 f a a d 9 a y t p y y y p t y t t t 4 4 B 4 4 B B B = 4 b 4.=.>.8.8.1.x + + # & # O @ ; # # @ # # @ # + # # o @ @ % + + @ + # $ $ $ i i z g w & & * 4 ,.1.O.1.>.1.>.>.>.>.>.>.>.>.>.3.>.3.>.>.3.>.>.>.>.>.>.1.2.2.2.8.8.8.b.b.b.b.n.n.m.n.V.V.J.V.J.L.J.J.J.J.Q.Q.Q.Q.&X*XM.m 4 u G v c c G H c g d c h c g x c h g g g h h j g g g h d h d g g x g x x g M M M M x L 9 4.n.,.o.| o.O.X.O.O.O.@.O.3.6.,.3.3.3.6.6.0.B.n.Y.6.6.Y.B.Z.lXfXaX*Xb.} u y v L | | G n g N c G G c c g x x 4 X.2.x 2 o X ; Z.cXJXHXCXCXVXcXvXvXvXcXcXxXcXcXzXzXzXxXxXfXxXfXdXdXdXdXqXqXqX0X8XqX0X7X7X2X7X2X>X>X>X;X>X;X^.;X&X&X&X~.Q.~.Q.Q.K.K.Q.E.E.V.Z.V.V.n.Q.@.X   # X - o - o o @ - o + $ $ $ $ $ $ $ + & + % $ 0 . ..f.w.-.-.&.' ' _ ) Q Q ! Q z l / / m / / _ ..$._ =.i.N X * . % & % * & % & & > 4 @ d r - O.dXCXjXfXjXjXjXjXUXzXjXBXcXBXcXBXBXBXBXVXAXCXAXCXCXZXZXZXSXZXSXZXFXIXFXFXHXHXHXHXHXPXHXPXJXJXPXJXLXLXLXKXJXLXLXJX9X@.y 9.O.o.O.@.| o.>.O.X.o.o.| | | | P | I G G P G P G G G G v v d g y d y y y t r r = x ..*.*.&.w.w.-.p.e.a.l.e.S.nXsXtXhXsXsXgXhXtXgXkXhXhXhXhXhXkXhXhXUXmX<XN } } G M L ..:.:.:.p.p.f.l.z.S.|.|.|.,XU.<.T.| 7.O.O.+.5.3.O.O.N.{. X'.|.|.`.|.(.S.x.z.z.l.l.f.p.p.u.u.r.;.;.;.&.$.$.' _ ' $.! r $ 4 < < > 6 < 1 1 t 5 7 5 7 7 p 8 8 1 Z A 7 8 Z Z h Y O p xXLXKXHXKXKXLXLXLXLXJXJXJXPXPXHXHXHXGXHXFXHXSXSXSXZXZXZXZXZXZXZXVXVXVXVXBXBXBXBXzXBXzXjXjXfXjXfXfXfXdXdXaXdXiX9XlX0X0XpXiXpXiX5X%XU.A.p.a.h.H.=.  . 1.UXDX",
"v.v.v.v.h.r.r.r.:.:.:.:.= $ & & % & & > B < 1 0 t t 2 i 1 p t t p y a a f a f d f h h f Z v Z c H f U p T.eXbXuXrXrXrXrXrXrX5XwXwX+X+X+X,X}.oX}.}.'.'.].|.|.].`.`.x.x.z.z.l.l.k.u.p.u.u.e.e.-.-.-.-._ $./ 0 + & 9 9 i 9 4 4 5 p t t r 4 < < < 4 < > & & & & & & # & & & * * & & n P =..._ ..1.>.9 $ . ; > # # , # ; @ @ @ @ @ @ # + $ $ % $ $ $ $ = $ = & * & = w w z b u 4 & $ B 2.3.O.3.O.>.>.>.>.%.>.>.>.4.>.>.>.>.>.>.>.>.>.@.>.>.>.>.2.1.2.8.8.b.8.b.h.n.h.n.n.V.m.V.V.V.J.J.J.L.J.J.Q.Q..X:XI.O.d y c v g G x d d g y c P h x g h h g g h h d g g g g g g x d g d g c g M x M M x x M x M M x L 8.0.>.4.} | | | O.O.#.O.3.+.@.,.,.6.6.,.,.,.Y.Y.n.n.n.b.0.6.n.,.v N g v X.} } P v x M m } x x N N g M g u = D.3XJ.G 2 O , X t !.DXJXDXvXCXvXvXvXcXcXcXxXcXzXzXxXzXxXfXfXfXdXdXdXdXdXpXqXqXqX8X0X8X8X8X7X2X>X>X>X>X;X;X^.^.&X&X&X!.~.Q.Q.Q.Q.E.Q.V.K.V.V.Z.C.0.Q.M.&   + . - . + - o - @ - @ $ $ $ $ $ % $ + & + % * * X ) h.w.-.-...' ' _ ~ ( Q Q n k z ) / / / .._ ' _ ../ $...= B * < < < r 4 < 4 < < 4 u t r > X v 3XZXBXjXjXzXzXzXcXUXBXcXBXBXBXAXVXAXCXCXAXCXZXZXZXZXSXZXZXFXSXHXFXHXHXHXHXHXPXPXPXPXJXJXLXLXLXLXLXLXLXLXKXPX;Xv c b.@.O.9.3.G @.Y.H o.o.o.o.| } | I I } P | } G P G m G G v v g g u y y y y r 1 B * i  .*.*.&.-.w.e.e.p.e.f.a.a.,XnXtXsXkXtXkXhXsXkXhXgXtXhXhXkXhXhXhXhXUXmXQ.r 4.v m M L ..=.:.r.f.f.f.z.x.x.|.|. XU.*.T.| 7.O.O.7.#.O.#.7.O.| Y.|.{.}.].].S.|.|.S.A.x.l.l.l.f.f.a.a.u.e.;.;.;.&.*.-._ ) *...Q i * < & & > 2 r 1 1 5 7 7 p 7 a 7 a C , j Z f s 8 H a Y > 6 zXLXJXKXKXKXLXLXLXJXJXJXPXPXPXPXHXPXHXHXHXSXSXSXSXSXSXSXZXZXZXVXZXVXVXVXVXBXBXBXzXzXzXzXzXzXjXfXfXfXdXfXdXdXdXdXaXiX9X3X.X.XG.F.m.k.l.`.f.h.D.d.0   # 6.",
"H.v.h.h.r.h.r.r.:.:.:.1.= $ & & & & & & 2 B 2 2 t 2 p 1 i t t p u p y y a f f d j f h h j c Z Z G p +.f x eXnXuXbXbXyXrXrXrXrXrXwXwXwX+XwX+X+XwXoXXXoX}.OX'.'.].`.F.F.F.z.l.l.l.f.t.u.r.r.;.:.=.' -._ _ ..N x } L L v L I I U v G H G G P P G v P G U G G v G v v v v L v v m L X...=._ =.h.=.i X # ; & # ; # ; # ; @ # @ @ @ @ & = = = 0 = 0 0 0 0 0 0 0 w w 0 . = w z u r * $ t 6.4.o.>.o.%.@.@.>.@.>.@.>.%.>.>.%.>.>.>.>.4.>.=.>.>.1.>.2.,.1.8.8.8.9.b.b.b.n.m.m.M.V.V.V.J.V.J.J.L.J.Q.Q.!.~.,.c 4 y G c g v d h c c c c g a g h g x d c d d g x d g g f d g d h x x d x g M g x x x x x M x g M 9 #.b.,.,.m | | | O.O.O.O.O.@.3.@.>.>.3.,.Y.0.Y.6.6.6.n.n.n.N.M.>.m | X.P m m m n m G m c N n n M N x x k w =.m.G.=X X>.p % 7 #   6 &XFXGXvXvXvXvXvXcXvXxXcXzXzXzXxXxXfXdXxXxXxXdXdXdXdXqXqX8XqX0X7X8X7X2X7X2X>X>X>X/.;X;X;X&X&X~.&XQ.~.~.Q.Q.Q.Q.E.K.Q.E.V.C.n.Q.J.y   . + - o o + - - - - $ o + $ $ $ $ % + % + $ $ 0   ( f.:.-.:.[ ' ' ' ( _ Q Q l z z / / / / ......$.:.=.%.u.$ . & % * % < < < r t 4 4 1 y 1 N d O 2 K.ZXBXcXzXUXBXBXcXBXBXBXBXVXVXCXVXCXCXZXZXZXZXZXFXZXIXFXHXFXHXHXHXHXHXPXPXPXJXJXJXJXPXLXLXLXLXKXKXLXKXSXV.d P 9.@.O.O.O.O.@.| I O.X.+.o.o.| | | | } | P P P P G P G G G m c g u a d t r t t B < = N <.%.^ ;.e.-.y.p.p.;.m.p.i.yXhXgXtXgXtXhXhXtXhXgXgXhXkXhXkXhXkXhXhXUXmXD.B @.n M M } =.:.:.r.f.m.l.l.F.|.|.|.|.T.Y O.7.| | O.*.O.O.O.+.Y 7.%.<.{.'.}.'.|.|.|.|.F.S.x.l.l.f.g.p.p.r.u.;.r.;.&.$.[ *.` ^ ) X.M # & > & , 1 1 1 r 1 1 5 5 p 7 p 7 7 Z 8 3 Z j 8 C C h F @ a cXLXLXLXKXKXKXLXLXJXLXLXPXPXPXPXHXHXHXHXHXHXSXSXSXSXSXSXZXZXVXZXZXVXVXVXVXBXBXBXBXcXzXzXzXzXzXzXfXjXfXfXjXfXkX0X5XP.C.H.z.z.F.|.`.c.c.F.k.z.A...& X O ",
"z.z.z.f.h.u.r.r.:.:.=.:.0 . & & & & & > * < 1 1 < r 6 4 5 7 t t t t a t d f a f f f j h Z h Z Z c H T.f f n.>X~.^.R.R.R.R.E.Z.E.n.q.n.0.0.0.0.6.7.#.#.#.#.#.+.+.o.T Y Y U P D U D G D Z v j Z v f f t H i n P.Z.U.Z.Z.B.Z.U.M.B.n.B.n.N.Y.Y.n.0.Y.6.6.6.3.3.3.#.@.X.@.>.>.4.X...=._ _ :.8.o.4   O O @ o 2 $ @ @ % % = 0 = 0 * 0 q 0 w w w 0 q 0 w q 0 e l z i 0 - & % r x g w . l <.%.o.@...X.@.X.X.O.%.X.4.X.X.%.X.O.4.4.4.>.4.@.>.>.>.<.,.,.2.2.i.Y.b.b.b.N.b.b.V.V.m.m.V.J.V.C.J.J.C.Q.&XV.L u d d d c x x c h x h x d x d g g g g g d g d g d N p d N d d d x k d x N x x f x x x M x M M v M v g P b.9.@.>.L | } } X.O.X.O.O.@.@.3.@.,.,.,.,.,.6.Y.Y.0.N.b.Y.U.n.F m | M T.m m m n v M b c M x z N c N k k z.Q.`.F.H.OXz.x X 6 9 O   j 6XJXGXZXzXxXBXVXvXdXzXcXxXfXxXxXxXfXdXxXqXqXdXqXqXqX0X0X9X0X6X6X6X6X2X2X2X>X>X-X-X-X/.^.&X~.^.&XQ.~.Q.E.E.Q.E.K.Z.Z.Z.J.b.~.9.  X o o o o + @ o - $ + + $ $ $ $ $ $ # $ = $ & = - w h.y.w.:.&.' ' _ _ ( Q Q l l l /  ./  . .....$...=.$.:.L . - r o 2 < < B 1 1 p 0 i 1 1 p p k 2 - N.zXHXCXjXcXBXBXBXVXAXVXAXZXCXZXZXZXZXZXZXSXIXSXSXFXFXHXHXHXPXHXPXJXPXJXLXLXLXLXPXKXKXKXLXKXKXKXKXjX3.H +.>.O.O.O.@.@.O.O.O.O.o.X.o.o.+.| | | | | | P P G G P G T.T.c x d d u d t d r 1 i * $ z *.*.*.&.-.;.e.e.r.e.z.u.;.<XkXtXtXgXtXkXkXtXkXgXgXkXhXgXhXhXhXhXgXjXhXmXy } } P c T.*.e.e.a.a.g.k.k.z.[.[.U.>.M | O.| O.O.O.O.O.O.7.*.7.7.7.*.7.*.U. XoX|.|.|.|.x.x.F.x.l.x.l.p.p.p.t.r.;.e.-.;.*.*.$.' ' ) ) / $ $ 1 1 1 > 1 5 t 1 t t 3 5 p p f p 8 a s f f f V Z H J 2 p xXLXJXKXKXKXKXPXLXKXLXLXLXJXJXJXJXJXJXGXJXGXHXFXFXFXSXSXSXSXZXCXCXDXVXVXVXVXVXVXVXVXvXzXzXzXzXcXcXcXhXsX<X.X].].].].G.`.H.`.S.(.S.l.x.S.g.g.d.z o t ",
"z.z.z.f.h.u.r.r.:.:...:.* . & # % > & < < < < < < 1 5 4 5 t t 7 a t a a p f d f g j f h h c j Z Z F Z f Y W.R.q.q.q.q.6.6.6.6.7.6.5.6.5.3.#.#.#.#.#.#.#.+.+.+.T Y Y Y I U U U G U H D c h h j h d x z b N b M.P.B.B.B.B.n.n.N.N.9.9.9.6.6.,.,.,.3.6.3.3.3.3.3.3.@.>.@.@.o.o.o.X.n =.8.,.b & o + = 2 2 2 = 2 = 0 = 0 0 0 0 0 0 0 w w 0 q w w w 0 0 w w z z z k i + % . & u N i . z >.o...4.X.X.X.X.X.X.X.X.X.X.X.X.X.X.X.4.4.O.4.>.>.>.>.3.1.2.2.2.2.2.b.Y.b.b.N.D.b.d.m.V.J.J.V.J.J.Q.Q.Q.,.g 4 d d x c d d h x x d x N g g g g g g g g g g u d N d N N f N k f N f N N x N N N x x c g M g g M x M g L 8.8.,.>.X.P P } P X.@.o.O.O.O.@.@.3.3.@.3.,.6.,.6.Y.0.Y.b.B.n.| v } m G m G m m n M c b x x N c b i i ..H.`.Q.x.z.Q..XA.O.6 O , 6 O ; A qXDXJXGXxXqXzXFXcXxXzXvXzXxXfXxXxXdXxXdXdXdXqXqXpX0X0X9X6X6X6X7X7X7X>X>X>X:X>X-X;X&X&X~.~.&X~.Q.!.Q.Q.Q.Q.K.K.Z.C.K.N.R.C.>   $ o - o - - - @ - $ $ + + $ $ $ $ = $ $ $ & = - 9 h.t.w.-.$.[ ' _ _ ( Q Q l l b _ ) / ) ......4.$.=.$.1./ - - < % 2 * < < r 0 2 t 1 i 1 t f f d 1 X v -XZXHXVXcXBXBXVXVXVXVXVXBXAXZXZXZXSXZXFXFXSXIXHXFXHXHXHXHXHXPXPXPXPXPXPXJXPXKXKXJXPXLXKXKXKX&X9.| O.,.3.O.>.@.O.O.X.O.O.o.O.o.O.o.o.| P P o.P P P P } P G m G c c x N u d i t t r t t = r ! *.*.*.&.-.;.e.e.r.f.l.r.l.eXhXtXkXtXhXtXgXhXsXgXhXgXkXhXkXhXhXhXhXhXUXkXN P } / ! ^ *.*.e.a.p.p.l.`.].S.a.X.X.| O.| Y O.| O.*.7.O.O.7.7.*.7.7.*.7.*.a.|.,X|.|.|.F.`.F.x.x.l.l.f.p.p.p.t.r.e.;.;.*.&.*.$.' ) ) / i * % > 1 , < 6 1 5 1 p p p p p p f f 8 s f s V H V s f J 2 p dXKXKXKXLXLXKXKXHXLXLXLXLXLXJXJXJXJXJXGXJXPXGXGXHXHXFXFXFXFXSXCXVXZXZXVXVXVXVXzXzXzXzXVXCXBXjXtXeX,X.XOX'.'.{.OXoX[.H.`.F.`.S.x.S.l.l.p.d.m.<.i o ",
"z.z.h.h.h.u.u.:.r.:.=.:.0 . & % % & & * * < < < < 1 1 5 5 5 5 t u a u a a d d f g f h f j Z h Z Z A V J q.E.q.0.q.q.q.q.q.7.5.0.0.6.6.5.5.5.#.#.#.#.#.+.+.+.Y Y Y Y U U D F D D D D c h g g g g N b Q l l l =.=XU.B.U.B.U.U.B.n.B.n.n.n.n.0.Y.0.Y.6.6.,.,.,.6.3.3.3.>.@.#.@.@.@.@.1.:.v = . $ w 0 0 0 0 0 0 0 0 w 0 0 q e e e e e w w w w w w w e k z l z k k z * + X $ 0 N N o z X.%.} @.%.} X.X.X.X.X.X.X.X.X.X.X.O.X.X.4.4.4.>.>.>.>.>.,.,.1.2.Y.i.2.Y.N.N.b.m.b.m.C.J.V.m.V.n.Q.!.N.v r y M g g x g x d d d d d g d d d d g g g d d d g d d d u u u u u N k N N f N N N N x x g x g g v x g g v x x 4.8.2.@.1.X.P L } X.X.| o.+.O.O.O.O.@.#.3.3.,.,.,.6.Y.2.0.b.n.O.n m G m m v v n v M c x g x u z c w Q S.z.Q..X.XH.F.Q.Q.L.4.y & , 7 ; O ; #.0XSXGXSXzXpXvXvXzXxXxXzXzXxXfXfXxXfXdXdXqXdX0XpX0X9X6X6X6X6X3X2X2X>X>X>X-X-X&X/.&X/.~.~.~.~.~.Q.Q.E.K.E.K.Z.Z.K.B.B.!.I   % - o + + o @ - - + $ + + $ $ $ $ $ $ & + & = + w h.r.:.w.&...' _ _ / W Q l z n _ )  ..._ ....$...=.=.8...* . & * * * < < 2 r 1 t p 1 1 i p d f f t 2 v -XZXGXFXSXHXFXFXHXHXHXHXHXHXHXPXHXPXPXJXLXJXLXLXLXKXLXLXKXKXKXKXKXKXKXKXKXKXLXKXKXKXKXZX6Xv G X.,.3.O.+.3.O.@.O.O.O.X.O.| O.| | o.| P | P P P m P G G G G H c N d u u p u t 1 t i < 0 z %.$.$.&.&.-.e.r.e.r.l.f.;.[.hXkXtXtXkXtXgXgXkXkXhXgXhXgXhXhXhXhXhXhXhXBX;Xx / } n ~ $.e.e.e.p.p.p.G.G.A.<.T.c T.+.O.| O.| +.E O.O.J *.7.*.7.*.*.7.a.*.*.Y. X X|.|.|.`.F.F.x.k.v.z.f.f.f.p.r.r.r.;.:.:.&.&.` $.$.) T.t % % 1 4 1 1 t 1 t t 5 5 8 p 8 p p f f f f f 8 A J 7 C F 2 1 zXLXKXKXKXKXKXKXLXKXKXKXLXLXLXLXJXJXJXJXPXJXGXGXFXFXFXSXSXFXSXHXSXCXVXVXVXVXSXSXFXAXjXyXwX,X{.}.XXOXOXOXOX.X'.'.].].].H.F.F.F.x.f.l.l.a.N.U. .o ",
"A.z.v.f.f.u.u.r.:.:.=.:.0 . % & & * & > < < 1 < 1 r 4 4 5 t 5 p p t p p a d d f f j f h c j Z Z H f C 6.E.B.0.W.q.q.q.0.q.q.0.0.6.5.6.7.5.#.#.#.#.+.+.Y Y Y I I I U U U D D D H c c h c x g x x z W ~ l ^ W ! .XI.R.U.E.U.Z.U.Z.n.n.B.n.n.n.n.n.n.n.Y.N.0.Y.2.2.8.8.9.0.9.0.9.9.4._ 9 * = 0 w w 0 e e e q e e e e e e 0 e e e e w w e e e e e e l Q Q Q l k k k u & - - $ i M * c X.%.} X.X.} | ..o. .o.o.o...| |  . .X.X.X.X.4.>.>.>.>.,.1.,.2.Y.2.9.b.b.b.b.N.m.M.C.C.M.b.M.K.!.V.4.g r d x x g g d g d d u g x d g d g g d d d d d u u u a u u u d p u N u f N N u N N f x N x g x x x x x M g v M u P 8.8.>.@.2.X.v P } P o.o.o.o.O.O.4.O.#.#.@.@.,.,.,.6.6.Y.6.n.,.v c } m v v n M M x b x x g x N i i %.[.z.x.Q..XQ.F.z.z.J..Xb.g # ; 8 8 X X % 0.zXGXFXvXxXxXzXzXzXzXxXfXxXxXdXfXdXdXdXqXpXqX0X0X0X9X6X6X7X6X2X>X>X>X>X:X;X;X&X&X&X&X^.Q.~.E.~.Q.Q.Q.K.K.Z.B.R.N.%Xn.  O o o o + - o @ $ $ + $ $ $ $ $ $ $ $ = $ = & . w f.y.w.-.' ' ' _ _ ( ~ Q n z n / ) } ) ....%.$.=.:.=.1.=.i o % < 2 < * 2 B 1 2 p p i p t 2 t u p x t - 1 U.UXZXcXVXAXVXAXCXZXSXZXFXHXFXFXHXHXHXGXPXJXPXPXJXJXJXLXLXLXLXLXKXKXKXKXLXKXLXKXKXCX%XG 3.,.,.@.O.o.O.3.O.O.O.+.+.O.| O.o.| o.o.| o.P | P P P G P G G m c x d d u u u u t i r * * k ) =.$.&.*.-.;.e.r.r.r.k.;.u.<XhXsXtXhXtXkXgXtXhXtXhXkXgXkXhXhXhXhXUXhXhXAXb.M } / n ~ *.a.t.y.l.l.A.A.i.%.T.T.| | | | J | O.| O.| O.*.7.*.J *.7.*.7.7.7.7.O.a.|.oX|.`.F.F.`.F.z.z.z.l.l.f.p.u.r.u.r.r.;.;.&.&.$.' ..%.Q r % & < 1 > 1 1 1 3 7 5 p 7 p p 8 p f s s V f V f J f C T 2 7 xXLXKXLXKXKXKXLXLXKXLXLXKXLXLXLXLXLXJXJXGXJXHXFXPXJXHXFXSXDXDXZXSXSXSXGXZXVXBXtXeXwX,X+X,X+XwX+XoXOXOXXXOX{.{.[.[.].F.|.F.S.x.l.A.A.p.r.m.a.z ",
"z.z.z.h.h.u.r.:.:.-.:.:.0 . # & : * & > < < < 1 r 1 4 5 5 t 7 t t a t t a p d f f g h f h h Z j Z c #.B.q.0.0.q.6.6.6.6.6.6.5.5.7.#.#.#.#.+.+.+.+.+.+.o.Y Y I U U D D D H H c c h g x x N z l l W W ~ W ] ~ k D. X XR.R.E.I.I.I.R.K.I.Z.B.n.B.n.Y.Y.Y.n.n.B.n.B.D.V.8.@.P g 9 B & * e w w e i w e w e e e e e e e e e k e e e e e e e e e k e z / ( Q n l l z e z w $ $ . 0 } m v o.X./ |  .}  .o. .|  .} }  .|  . .o.X.X.X.4.4.>.@.>.3.1.1.2.2.2.Y.Y.2.b.b.N.b.N.n.m.m.m.C.K.P.b.M B y x d y g g g a u g u a u a d d u d u a u d d f u u u y y y u u d a u d u u g N N N N N d x g x x x x x x g v x g M ,.b.@.X.2.b.X.M m | o. .| o.+.O.O.O.4.@.@.>.,.,.,.,.6.6.,.b.9.P M L v n v M M x x x x N x x y 0 / A.D.H.Q..XH.G.G..XG.G.F.I.I.o.# X 6 Z 5 O   1 q.zXJXSXvXfXxXzXzXzXxXfXxXfXfXxXqXqXfXpXpXqX0X0XlX9X0X6X6X6X2X2X7X>X>X/.;X/.&X&X&X^.&X~.!.~.!.Q.Q.K.K.Z.C.!.N.K.R.<   o o o @ - o $ $ + $ $ + $ $ $ $ $ $ = $ & = + = h.e.-.-.' ' ' ' _ Q ( Q W l n _ _ } ........$...$.=.1.:.M + o < * > < < 2 r 1 0 2 i p r r t p t y G N o % c h B t y u a N x x h f g g g d x h x f h c x h c c c c c v v G G G G I G D P o.O.| G ,.,.@.#.O.3.@.O.O.O.X.o.| +.} O.o.| | | | } G | P } P G P G G v f d u d u p i t t t r = 0 Q %...$.&.-.;.-.e.e.r.p.f.r.G.gXhXtXsXkXtXhXkXgXgXgXkXhXgXhXhXkXhXjXhXUXUXmX/ m } / ! *.e.r.e.e.l.`.`.<.| H T.| +.+.T.| | | J J +.O.O.7.*.E *.*.7.*.7.E 7.*.*.*.Y.|. X].|.F.F.F.F.z.l.l.l.l.k.f.r.u.u.e.;.;.&.*.$.$.' $...b 0 + > < < 1 1 1 1 5 7 p 5 p p 8 f s s p s C Z 7 C J p Z I 2 s dXLXKXJXKXKXKXKXKXLXKXKXLXLXLXKXLXLXLXJXJXPXGXJXGXHXFXFXGXGXFXHXHXIXAXgXrX5XwXwXwXwXwXwX,XoX,XoXXX{.}.}.{.}.[.`.].G.F.G.S.z.A.z.m.l.e.a.d.<.",
"z.z.v.f.u.h.:.r.:.-.=.1.0 . & $ % & & * * < < < < 1 6 4 5 t 7 t a t a a a f f d g s f f h h j h 8 Y B.W.0.0.q.0.0.0.q.7.5.6.7.6.5.3.#.7.#.#.+.+.+.Y Y Y I U U G P G D G H h c c g g N N b l l l Q W W W ` ( l r.5X&XR.R.R.R.Z.I.B.B.B.B.Z.U.Z.U.R.~.R.R.U.n.6.,.x 9 4 & # + + + $ w e e e e e e e e e e e e e e e e k e W e e k z z e e e z Q _ ( Q Q W Q W l z z i 0 = . $ } ,.N m X.P L | P  .T.} } } } } } } | o.| ..X.X.X.4.=.>.>.>.3.,.,.1.2.d.2.b.i.b.b.N.N.m.n.M.K.P.N.o.B 4 y M N 9 g c g u d d p u u a d u u a d y u y y y y u t a y y y d y u u u N N g u N d N N N c g x N x x g x x M v M x x o.8.8.>.X.B.M.M c 4.G I | | | X.+.O.O.O.@.O.@.@.3.,.,.2.6.6.9.| x m v M c M x x x x x N x x w k 1.L.z.z..X.XF.F..XG.G.G.S.S.[.I.2.d O @ 1 a ; X O F Z.VXDXDXBXxXzXzXzXxXxXzXfXfXfXxXqXpXdXpXpX0X0X9X9X6X6X6X6X2X>X>X>X>X;X;X;X;X&X&XQ.~.~.~.!.Q.E.Q.E.R.B.R.B.B.%XX.  o - - o o % o $ $ + $ $ $ $ $ $ = # & $ $ = + = f.r.w.-.&.&...' _ ( Q Q n z n _ _ ..} ..$...=.=.=.:.>.1. .* . > * & > * 1 0 r 1 2 p i p t t p t 1 t H | | c d | c v v M c v v v G G G G I P P P T.T.G G | T.| | I I T.| I | | | @.O.+.| | F #.Y.#.@.3.@.#.3.O.o.X.X.+.O.X.o.o.| o.| | | P I } P } G G } P m v c d u u p k t i r i i B 0 u ..$.) &.-.-.-.e.e.r.t.f.r.r.oXhXtXtXkXtXhXkXtXkXgXgXgXkXhXkXhXhXhXhXhXhXmXkXb / / ! ) e.e.e.a.l.U.a.3.T.T.T.| T.I T.+.J | | | | O.T.J J J *.*.7.*.*.7.*.E 7.7.7.*.Y.U..XOX].`.F.`.F.x.z.l.l.l.f.f.p.u.u.r.;.:.&.*.&.$.$.&.$.N 0 * < 1 1 1 5 4 5 5 7 7 p p p 8 p p s V f C H 7 f J 8 H T O s dXKXKXLXKXKXKXKXKXKXKXKXKXLXLXLXLXLXLXLXJXLXPXPXPXJXKXLXPXIXAXnXlX5XrXrXrXrXwXwX@X+XwX,XwX,X,XoXoXoX{.}.'..X].].G.|.F.F.x.F.f.f.z.g.a.f.g.",
"z.h.h.h.h.r.r.:.:.:.$.:.B - % % & & & < < * < 1 1 1 6 5 5 5 5 t t a p p a f d f a s g h h f Z Z A 5.Z.q.0.q.q.5.q.5.7.5.5.5.#.7.#.+.+.+.+.Y I Y Y I Y U U D D G D D H c h h h h g N N z b l W W ~ W ~ ^ ^ ^ ~ T.*X&X&XR.!.%X!.!.R.R.%X&X&X&X&X X0.3.o.m y & o X & # # + $ $ q w z l e e z e e e e e e e e k e e e k k k e e k l l l e l W ( _ ' ( Q Q W W W l l k u w 0 - o v 2.% d o.| /  .m } P } } T.} } } } |  ...o.X.X.X.%.@.>.>.>.3.1.,.2.2.Y.2.9.Y.b.N.N.N.n.U.C.M.>.n r y x g r N c g B d u u y a u u d u a u t u y y y y y y t t y y t t i y u g d g N u N u N d N N N x g x g g x x x g g M v g L ,.b.3.o.N.I.>.G | T.P | | } | o.| o.X.+.O.O.@.,.3.3.6.,.6.9.@.x v M b c b x x N N z 9 x i i ..m.H.z.x..X.X.X.XG.F.A.H.[.H.p.S.{.m.x % ; , 7 p ; O X H -XDXSXzXxXxXxXzXxXfXxXxXdXdXdXdXdXqXpX0X0X9X0X6X6X6X7X2X>X2X>X>X;X/././.&X&X&X&X~.~.!.~.Q.Q.Q.R.I.Z.K.B.R.Z.O o o $ - - o % o $ + + $ $ $ $ $ = $ * $ $ = $ = f.r.-.-.$.$.[ _ _ _ ( Q l n n ..../ ......=.=.=.=.:.=.:.@.t o & & > * < 0 1 1 1 1 1 p 1 p p y p c t t G T.c c O.| | | | | | | T.} T.| } | | | | | +.| | | O.| +.O.O.+.O.#.| O.+.G | 3.3.3.O.X.+.3.3.@.@.O.O.X.O.+.O.X.| X.+.o.| | | | | | G } G I P G G G v x d d d u t u t i r t 0 = i ) $.' $.&.&.;.;.e.u.r.u.f.:.z.tXhXtXtXkXkXtXgXhXtXhXkXgXhXkXgXhXhXhXhXhXUXmX<Xu }  .b *.e.*.a.A.l.a. .M C T.| | T.J J | T.| T.J | | | O.*.J *.7.7.*.J *.7.*.*.7.<.J O.<.S.].'.].F.`.`.A.x.z.z.z.f.f.f.a.r.u.r.;.;.&.-.&.' ] $.) x * > < 1 2 1 1 1 5 1 p t 7 8 p s p s s C 3 Z A s C V C C O.3 3 dXKXLXKXKXKXKXKXKXKXKXLXLXKXLXLXLXLXLXKXLXLXLXLXLXIXBXnXrXeXrXrXbXrXrXyXuXwXwXwXrX,X,X}.oXoXoX,XoXoX}.oX'.].].].G.G.S.S.F.h.l.z.l.f.f.a.",
"z.v.f.h.r.u.r.:.:.:.:.1.0 - % % > & & > > < < < < r 4 4 5 t 5 p a y y u a d f d a j s j f h h c 0.E.q.6.q.0.5.0.5.6.5.6.#.#.#.#.+.#.#.+.+.Y | Y I I U U F F D D G v H c c h f h g N N l l W ( ~ W W ~ ] ^ ^  .l =X&X X-X-X-X2X4X>X5X-XK.Y.| h t $ % @ + * & 1 t & 4 & * w r e e e e e W z e l W k k k k k k l W W k k l l W e e l e e W ..:.' _ ) _ ( Q Q W l k k z i w $   u <.X r o. .P o.m P } ! } P T.} G T. .|  .X.X.X.4.@.@.:.>.3.1.3.,.2.Y.2.Y.Y.b.b.N.b.N.V.U.N.m 0 < x N u N N y 4 y g d a y y y y u a u u p u y y y y u t u t y y r y d u u u d u N N N u d N N d N N g x g x g x g x c N M n y M @.8.3.>.,.J.J.} d | G P G P | | | o.o.+.X.O.O.#.@.3.,.,.,.9.>.x x M c x c x x x N g 9 x w 9 h.H.v.Q.Q.OXG.H..X.X[.G.S.A.S.[.|.l.S.{.G 7 ; ; , 1 t 3 X X c 0XGXSXzXxXxXxXxXxXfXxXxXqXdXdXqXpXdX0X0X9X9X9X6X6X6X2X7X>X>X>X;X;X;X&X&X/.&X~.~.!.~.~.Q.E.P.R.B.R.U.I.%X< o - o o o - - $ + + $ $ $ $ $ $ & + * $ $ * + - h.e.-.w.-.' $._ ( Q Q Q W n Q _ _ .._ ..$.....$.:.=.=.=.1.x + & & * * > 1 2 0 2 i t r 1 t p t t d H | c H T.H c G v v G v G G G I G G I G } | | | T.| | | | | | I I | | | | | | O.O.+.| +.@.@.+.O.O.O.@.4.O.O.O.O.o.+.X.| o.| o.| | | } | P I G G G G G v c g d u d u u i i t B r 0 2 z @.$.( ;.&.&.-.e.e.e.u.t.f.w.G.hXgXeXkXsXkXtXsXtXhXkXhXgXhXhXhXhXhXhXhXjXhXMXQ.u }  .b ;.a.a.a.g.<.! c T.| H H H T.| | T.| T.| *.| | | | *.*.J *.J E *.7.O.O.O.*.7.Y.7.O.;.F.OX.X|.].G.x.F.S.z.z.z.h.f.l.u.r.u.;.r.-.-.&.w.` ` &.} r % > < 1 1 1 5 1 7 5 7 p 8 p p 8 p s p C 8 Z C 8 F C C C Y 2 1 aXKXLXKXKXKXKXKXKXKXKXKXLXKXKXLXLXKXLXLXLXHXAXnXyXuXbXbXbXbXbXyXyXyXrXeXwXwXwXwX@XrXwXwXwXoX}.{.oX{.{.].'.].].|.H.F.S.z.x.z.f.l.l.p.a.",
"1.H.h.:.f.t.:.w.w.&.$.=.i X & % % % % & * < > 1 1 < 1 6 4 5 5 t t t d d f f p p f c f s F j a Y q.0.0.0.5.0.5.5.5.5.,.#.#.#.+.+.+.+.+.+.Y o.I P U P P D P P Z H Z Z j f g N N k l l l W l Q Q Q Q ( ( ( [ [ ( W d.sXaX0X0X&XJ.q.c a 4 % + + * * t r t r < 4 < < 4 & = & w e e l e W e e e W W W k l k W l e W l k W W l l W W l e W ` -.*.[ ) ( _ ( ~ Q Q W l l l k k i 0   $ ,.. . x 3.o.L } L ! G m m } } } } ..o.X.o.%.X.X.@.=.>.>.>.>.1.1.,.2.2.2.8.8.b.b.b.%Xn.I y r t y a a y u a p u u p t t t u t u t y y y i t r t t r t r i y y r i i y u u i y N i y u d N u u g N N N N N x g N x x M g g M v i v N.2.@.%.N.[.N.T.u m P } L m L P } X.o.X.X.X.4.O.>.O.3.#.,.2.m N v x x x x x N z x l w i :.H.H.h.H.Q.OXQ.Q.L.].I.G.U.G.G.D.D.M.A.m.[.<.u o % p 7 ; 3 1 O   F dXGXSXxXfXzXzXxXqXdXxXdXdXfXqX0X0X0X0X9X0X6X6X6X7X>X2X>X>X>X:X>X&X;X^.^.&X~.~.!.~.Q.E.R.Z.R.K.n.R.R.,.X $ . . = . . $ + + + + + $ $ $ $ # * $ $ & $ . %.f.` ;.$.&.*.^ _ ( ~ Q l Q ) ) .._ ....4.=.:.=.%.<.;.<.a. .= = & * < * > < < B 1 r r t t t y u c v v M v v v v v m v G m G v G G G G G G T.P G G | I | P | | | | | | | | Y o.o.o.+.o.+.o.+.+.o.X.O.#.@.@.O.O.o.o.X.o.+.o.| | | | | | I } P G } | T.G H c f N f u d i t t t r 1 B = k *.) ) &.*. .a.-.;.t.e.u.f.h.r.tXnX8XgXsXgXgXsXgXsXkXgXkXgXgXkXhXhXhXhXhXhXhXAXd.n / / [ ;.a.g.Y.G h H T.c T.H H T.T.J T.T.| T.| | T.| | | 7.J *.*.| O.O.J *.O.O.O.O.O.O.*.I #.m.{.oX|.|.|.|.S.l.l.l.v.k.f.t.p.u.r.<.e.;.;.*.*...) ' / k - 4 < > 1 1 4 1 1 5 p p p p p 8 s f 8 s f j V Z Z C Z s +.7 2 dXLXKXKXKXKXKXKXJXLXLXLXKXKXKXLXLXPXMXnXbXbXbXbXbXbXbXbXbXbXyXyXrXlXrXeXrXwXwXwX,XwX,X+XoXoXoX X{.}.{.'.].[.|.F.F.F.A.z.z.l.l.f.g.p.",
"B :.Q.h.:.f.t.:.:.&...:.u X = & & % * & & * < < 1 < 4 4 5 t t 7 t p t p t a d f d h s a f j U q.0.0.0.6.0.5.6.5.#.#.#.#.#.+.+.+.R +.I I I I I U P P D U v Z c c c h h g g N z z l l W W Q Q Q Q Q _ ( [ ( [ [ [ <.D.,.P c > $ & 6 6 4 4 4 r r r < r 4 4 4 < < < & * * w i e e l e e W W W e W W l l l l l l e W W l k W W l l l W ` ' -.-.$.' ' ) ` ) Q Q Q W l k k k i e - $ | + X * } @.X.X.L } } L m m } } } } o.X.X.o.X.X.=.>.=.>.>.3.1.,.1.8.8.8.d.9.N.m.M.| v u t t y u u y u y y u y y u u i y t y t u t t t 9 r r t t r i t r y y i y y y y u 9 y g u g N u g u N g u g g N g g x g x g x M g M M u x 1.b.>.X.i.U.M.%.! M m L | P P P } o.o.o.o.X.X.O.@.>.3.@.,.,.} N x g M M x g N N u u w l 8.m.H.H.H.OXQ.Q.'.[.[.G.L.G.G.H.D.S.A.A.m.S.U.Y.T.2 O 2 p ; , 3 1 O O #.qXFXDXfX6XqXVXcX0XqXdXfXfXfXfX0X0X9X0X9X6X6X6X6X>X>X>X>X>X^.>X-X&X&X&X&X~.~.!.!.!.!.K.K.!.Z.K.K.C.. . + + + + . = + + + + $ + $ $ $ + $ $ $ & & . $.f.$.-.&.$.$.) ( _ ) Q W b / ) _ _ ....=...$.=.;.<.<.%.3.*.0 - * 2 * > * > > r r < 4 4 r t d d v M c c c v v v v H G v H m G m G G G T.G G G G | G } | I | P P | | | | | o.| o.o.o.o.o.o.o.o.+.| +.4.O.@.#.X.O.O.+.O.o.o.o.| o.| | } P P P P P G G m c c N u u u u t t t 1 r 0 * 0 ! *.) $.*.$.*.e.e.t.u.e.f.l.:.D.sXgXiXhXsXtXsXgXkXgXgXgXhXgXhXhXhXhXhXhXhXjXmXhX} M / ! $.g.a.%.T.c x H H T.H T.T.H T.H T.F J T.T.J Y | | +.J *.7.J O.| O.O.7.O.7.*.7.O.O.7.#.O.>.l.|.XX|.S.S.|.x.S.x.x.v.f.f.f.u.u.e.e.;.;.&.&.$.$.$.$.b 0 % > 6 4 6 1 6 5 p 5 t p p 8 s 8 f f s s j V V Z h A C V T 3 C GXKXJXLXKXKXKXKXKXKXKXKXLXIXNXnXbXMXnXMXbXbXbXbXMXbXbXbXrXbXrXyXrXuXrXwXwXwXwXwX+X+X,XoXoXoXoXoX{.'.].[.].S.F.F.F.F.z.z.m.g.h.g.a.",
"X i 8.z.r.r.r.:.:.&.$.=.k X & % % & & > 2 * > < < < 1 6 5 5 5 t p 5 5 a a f f f f j f f p H 5.Z.0.0.0.,.,.5.5.#.#.#.#.#.+.+.+.+.o.U U I P I U U Z D D D h c j c g g N z N z b b n W W W Q ~ ^ ~ _ _ _ _ [ [ [ $.w r % > 6 4 t g 4 4 t y i y r r < r < < 4 < < * = B w e i e z e W e W e W W W W W W W W W W ^ W W W W ~ W e W ^ w.-.-.-.-.' [ *.` ) ( ~ Q Q Q l l k k k k = - u & . + g X.@.} o.} } / T.T.m T.} } X.X.X.X.X.X.@.=.>.@.1.1.,.>.2.8.2.,.9.n.N.,.X.r r r t u d y t t y i y t y y y t t t u t y t t y t r r t t t 5 t r y r i y y i u y k i u u N u u u N u u N N N g N N N N x g x g M g x v g x } N.,.%.<.M.D.i.>.M x x P o.} L m } } | } | } X.X.@.@.O.3.,.o.x x N x M x N N N k i i =.A.h.H.H.z.OXOXOXQ.[.L.L.[.G.G.G.H.S.S.A.A.N.S.G.N. .2 O @ 7 > , 3 ; O O ; Z.dXGXSXdX6XdXVXfXqXqXqXpXqXqXdX0X0X9X6X6X2X6X2X2X>X>X>X>X;X&X;X^.&X&X&X~.~.~.!.R.E.R.!.K.Z.I.&X9   . $ . $ $ + + + + + $ $ $ $ $ + $ $ & $ & . ) g.$.;.&.$.*.^ _ ( ( Q l Q )  ...........$.=.=.:.:.<.%.<.%.k . % & * > * < < r < r r t a y x c c c c c c v c c M v H v v G v v G G G G G G G G G G P G T.P P | I I | } | | Y | | | | | o.o.o.o.o.O.O.X.O.X.o.O.o.+.o.| o.o.o.P | } } I P G G G G G v c x d u a t i t t t t B < * b ..$.` $.&.$.;.-.;.p.p.e.f.h.-.<XkXtXsXhXtXgXgXsXkXkXkXkXgXkXkXhXhXhXhXhXjXnXUX8X/ M M  .=.1.%.m N c H H c T.T.H H T.J T.H T.T.| | T.| | I | *.J ^ J J O.| O.7.*.| O.+.O.*.7.3.+.| O.Y. X|.|.|.(.|.S.x.S.v.l.f.f.f.u.a.r.e.;.;.;.$.' $.*...n = % < t 6 , 1 p p p p p p p f 8 s f s j V j C Z H f F 8 J F O q.LXKXJXKXKXLXLXLXPXIXNXMXbXbXMXMXMXbXnXMXbXMXbXbXbXbXbXbXyXyXyXyXuXwXeXeXwXwXwX,X,X+X+XoXoXoX{.}.'.{.].].|.G.F.S.A.A.z.z.l.l.f.a.",
"$ . i 8.m.:.:.r.:.=...=.u . & $ % % & % * < > < 1 r 1 4 5 5 t 7 5 5 a a d d a a p p f C Z +.0.0.5.5.5.5.5.5.#.#.#.+.#.+.+.| Y I I U U P U P D D D j j j j j g j u N N z k l W W W W W ~ ~ ( ( ( ( ( ( [ $.$._ L N t u c j y y p u a y r r r 4 4 < < 4 4 4 4 & * B i e e z z z l W W e W W W W W ^ ^ W W W W W W W W ~ ^ W l ^ { t.r.:.-.-.' $.$.` ` ) Q Q Q W W W l z k z i $ i $ $ . * P 4.o.X. .| } P } } / G } } o...o.%.4.4.4.>.:.@.1.>.2.2.>.2.b.n.9.4.x 5 y y y y y t t t t t t t y t t t t t t r t r t t 4 4 4 9 r 4 4 r r i t i y r y y i y i 9 u i y u u d u u g y d N N N N g g N x N g x x x x x x n b.i.>.@.N.J.M.i.3.P x x v m P P P P } o.o.o.o.o.#.@.O.O.,.4.v g g c x i i x x u w L h.D.z.v.Q.).Q.Q.OX'.[.[.[.L.].G.|.G.H.S.S.S.A.g.g.G.U.Y.N . % 6 3 : 3 8 3 O X a Z.zXDXVXfX0XxXfXfXdXpXqXpXdX9X0X0X9X9X6X6X2X7X2X>X>X>X:X;X/.;X^.&X^.~.!.^.Q.!.!.K.R.!.B.Z.&X2.  . & . $ $ . + + + + + + $ $ $ # $ & $ & $ . ~ f.&.;.$.&. .` _ ( ) Q l b ) ...._ ..$.=.=.=.:.:.<.a.<.%.<.T.- $ % > * < > < < 2 r 1 t a g h c h x c c x c c c c M c M c c v v m H v G G G G G G G G P G G P P G } P I I P | P | I | | Y | | o.| | X.+.O.O.O.X.o.o.| X.| | | | I } | } } G P G G G c x d u u f u t t t t B * 0 k ! $.) $.*.*.&.e.;.e.f.r.p.f.r.z.hXhXeXgXtXsXgXgXgXgXtXgXhXhXgXgXhXhXjXhXjXjXhX4XsXV...b <.2.! b d x H H d c H H T.H H T.H T.T.J T.T.J I T.I | J *.J *.*.E *.| *.J O.O.*.7.O.O.O.3.#.#.O.Y.U. X|.|.(.x.F.x.x.c.z.f.f.p.a.a.e.a.e.;.&.$.*.&.*.$.i < > < 4 < 6 7 1 1 t 1 p p 8 8 8 8 f s f j f V C C Z C C J C O zXKXKXLXLXIXIXIXNXMXNXMXNXNXMXMXMXMXMXbXMXbXMXbXbXbXbXrXyXyXyXrXuXrXrXrXwXwXwX+X+XwX,XoXoXoX{.oXOX'.[.G.|.|.F.|.F.z.z.z.l.l.h.f.",
"9 . . z h.h.:.:.:.$.$.>.u X & & & % * > & < > < < 1 1 6 r 7 t t 5 a p a a a p p s a Z U T 0.q.5.6.5.#.5.5.#.#.+.+.+.+.o.+.I U U U U L U D D D D Z c c f 9 g d N k k z z l W W W ~ W ( ( ( ] ( ( ` ` ` $.:.$.n y u t d d t y y 4 p t r r r r r r 4 4 4 4 & * * * e e e W W e W W W W W W W ^ ^ ^ ( ( ~ ~ W W ^ ^ W ( ^ W ~ ] r.p.p.r.e.-.-.-.$.*.` ` ) ~ ~ Q Q W z l l k k k i n . $ . . M 1.>.P X.o.o.} } / } m o.} o.o.X.X.4.4.@.4.>.>.,.1.,.2.1.b.b.3.v 6 * 4 y t t t r r t t t t t t t t t t r t r 4 r r 4 r 4 r 4 r 4 4 4 4 i t r i y t r y y i u y u u y u u u N y g N y N N N N g N g x g N x x g M x N u >.Y.3.%.Y.U.U.Y.I.9.O.m M g L X.L P P | } } o.o.O.O.+.X.>.>.L u x g N u u N N r u :.m.z.m.H.H.Q.OXOX.XOX.X.X[.'.[.[.[.F.H.H.S.S.S.S.A.l.S.U.Y.T.O @ 2 3 2 # 2 V , O   s R.vXCXcXqXqXdXfXfXfXqXpXqX0X9X0X9X6X6X2X2X8X>X2X>X>X;X;X;X&X&X&X~.~.~.~.R.~.K.I.!.Z.Z.!.Q.$   $ . + $ . + + + $ $ + $ $ # $ $ & $ & = . n g.&.;.&.&.*.) ) ) ) ~ b Q ) .._ $...=.4.=.=.=.<.=.1.<.*.<. .$ $ % * > * < * < * r t d d h x x x x d x x h x c c x c c c c c c c v v v m H H m G G G G G G G G G P P U P P P P P | I | | | P | o.| o.+.| O.| +.o.o.| o.| | P | | P } I } G G G v c x f u u p u u t t r B 0 = 0 Q ..) ( *.*.*.;.;.;.a.e.r.f.f.-.<XnXsXtXgXsXhXgXkXhXgXkXkXgXkXhXhXhXgXhXUXnXiX,X%X3X5XU.!  .T.d d N c H c c c H H H T.H T.H T.H T.T.T.F T.I T.I *.J *.J J *.J O.J O.*.O.O.+.O.O.O.O.7.7.O.T.Y.|.{.|.|.|.S.`.x.x.z.k.k.f.f.p.a.r.e.:.:.-.-.-.*.%.} k $ % 1 1 4 5 1 5 t 7 p p p p a s s s s s V j 7 Y s H J V J p #.HXKXLXLXNXNXNXNXNXNXNXNXNXMXMXMXbXbXNXbXbXMXbXbXbXbXyXyXyXbXrXuXeXrXeXwXwXwXwX,X+X,X+XoX{.oX{.'.[.].].].G.|.S.F.z.S.m.m.l.g.d.",
"+ 4 # + n 8.8.:.:.$...:.k X & $ % & % & * > > < 1 < 4 4 5 5 t 5 t a 5 5 5 f a h U I +.#.+.5.0.#.5.5.#.#.#.+.+.+.+.+.+.Y I o.U P P U D v H H h h j h 9 d N N N k z l z l W Q Q ( ~ ( ( ^ ( ` ] ] [ [ [ $._ / N 4 a a h y t p y t r t t t y 4 4 r 4 4 4 B B B 0 w e W W e e e W W W W W W W ^ ^ ^ ] ( ( ` ^ ^ ^ ^ ( ^ W W &.p.l.p.r.e.e.w.:.&.$.[ $.` ` ) ) Q Q Q W z z e k N k / L u .   = 4.6...X.X...o.| } } | } } o...} X.X.4.=.>.>.>.>.>.,.>.n.,.I N B * 4 g 4 r t r r t t t r r r r r 5 r 4 1 4 4 r r 4 5 4 4 4 4 4 w 4 9 4 r r r t r y i y y y y y y i u u u g y N N u N u g u N g N N N g g g x g g M g N } 2.i.@.1.D.U.N.b.M.M.2.o.v g M m m L P P } |  .| o.| | O.3.| u g N u N z u w = _ m.H.z.H.H.H.OXOX.X.X=X.X{.[.].].].G.[.G.H.D.S.A.`.S.a.a.S.S.U.X.< X 2 d 3 ; ; 8 3 > O O j -XDXvXcXfXqXqXdXkXqXpXqXpX9X0X0X9X6X8X7X7X>X>X>X>X>X;X/.;X&X&X~.~.~.R.~.!.Z.!.!.C.C.&Xg   . $ + $ $ + $ + + $ $ $ $ $ $ & $ $ $ $ . z g.&.;.&.&.$.$.` ~ ! ~ W Q ) ........4.=.=.:.:.=.:.1.1.*.<.>.i + % & * < > < < < t y d x d d d d d d d d x d x d c d x x c c x c c c c c v M H G v v v G G v G G G G G P P G P P I P P P I P | P P P o.o.O.| X.| | | o.o.P | P P | G P G G m G c M g N p y u y i t B t 0 2 0 i $.$.! ` -.*.*.a.;.e.a.e.p.v.u.p.gXhXtXkXtXtXhXtXtXgXgXgXgXhXgXhXhXjXjXjXgXeX5X=X=X*X,X,X%.x r c c c c x h c H Z H c c c c H H T.T.H F T.J T.| T.J T.J *.| | *.J J *.J +.| O.O.O.O.| | 7.O.7.+.<.[.{.'.[.|.x.x.x.x.z.z.l.l.p.p.p.e.r.r.:.*.-.$.$.>.! r % * 1 6 , 1 7 1 7 7 7 p 7 8 8 8 s s j V f s C f C H H H G O 6XKXKXKXIXNXNXNXNXNXNXMXNXMXNXNXNXNXbXbXMXbXbXbXbXbXbXbXyXlXyXrXuXuXwXwXwXwXwXwX+X+X,XoXoXoXoX'.OX{.[.G.].G.F.F.A.x.x.l.l.l.f.",
"# & & + = L :.:.=.$.=.=.u X $ @ % & * : * < < < < < 6 4 5 5 7 t 5 5 t a d Z F F +.#.5.#.+.+.#.5.#.#.#.+.+.+.+.R +.I Y U U U D U U D v D Z Z h h j j d u u N z z l l W l W W ( W ( ( ( ( ` ` ] ] [ { -.' ! N N t 5 t d t p g 5 a r t t y t r B B 4 4 B * B w e k W e e e W W W W W W W W ^ ^ ^ ] ] ] ] ` ( ` ^ ^ ( ( ] -.p.x.k.t.r.r.e.-.w.-.&.$.$.` ) ) ) ~ Q Q ! l W z k i i b h.o.n =   i ,.>.%.O.X.X.o...} } } ..} X.X.X.X.4.>.@.>.>.3.2.,.,.@.G 4 & 4 d g y t r t t t t r < 4 r r < 4 r 4 r r 1 4 4 1 r r 4 4 4 4 r 4 4 w 4 r r t r r r i r i y i i y y y u u u u u y N y d N g N u N g N N x g x x x x x x x <.b.%.@.M.U.d.3.9.V.M.9.>.P N v m m P P P P P T.O.| | X.>.o.y x u u N N y r u 1.z.m.h.H.H.].OXOXOX=XOX.X{.[..X[.[.G.G.G.G.S.S.g.S.S.l.g.g.m.N.L.<.N o @ 5 1 2 ; # 3 8 ; X : F dXcXvXzXdXqXfXfXpXpXqXqX0X0X6X6X6X6X2X2X>X>X>X>X>X-X&X/.&X&X&X&XR.~.!.R.R.!.K.C.~.,..   & . $ + + + + + $ $ $ $ $ + $ $ & & $ . k f.;.;.*.&.` $.^ ! ) ~ b Q ) ....$.$...=.=.:.:.:.:.u.u.%.O.<.T.+ % & > < < < 4 t t d d d d u d d g d x N d g g d x x h x h x x c c c c c c c c v c v G v v v G v G G G G P G G P D P P P P I P P P | P P | o.+.o.| | o.| P o.P P P } P G G G v g g g u u y t t r r t B 2 = i ! .._ ' $.*.*.*.e.*.a.e.e.f.f.r.OXhXyXtXhXgXtXhXsXgXgXgXgXgXhXhXkXhXhXnXsX<X.X%X,X*XP.=X<X2.n r H c c c x x H H c c c T.H T.T.C c H H T.T.T.T.T.J T.J *.T.| J *.*.*.J *.*.+.*.O.| 7.O.| O.O.O.O.*.2.U.|.'.|.F.F.F.x.z.z.l.l.f.f.f.r.r.r.:.:.-.&.*.&.%.n r * < 5 1 1 1 7 5 t p p p p 8 8 8 a s s V H 7 Z C V J F Z 3 J DXKXKXLXNXNXNXNXNXNXNXMXMXnXMXNXbXbXMXbXbXbXnXbXbXgXyXyXyXrXyXuXrXwXrXwXwX,XwX,X+X,X,X+XOX{.{.OX'.'.].G.].F.S.F.S.A.A.l.g.f.",
"6 . & & . $ ..h.=.$...:.u X & % & % % * < < 2 < < 1 1 4 5 t 5 5 6 7 9 h U I +.#.U Y Y Y T R #.5.#.#.+.+.+.Y +.I Y I I P U U U U 9 v D j c h h j g f a u N z z z W W W W / ( W ( ( ( ( ( ` ` ` ] [ w.-._ k r p g d p a r a f 4 y 4 4 4 r 4 4 * 4 4 * * * w e z l W e W W W W W W W ^ W ^ ^ ^ ^ ( ] ] ] ] ] ] ] ^ ^ ] e.x.S.k.t.p.p.r.e.e.;.-.;.&.$.` ) ) ) Q Q W W l l z z k i l >.4.h.=.  . o.,.%.X.4.X...o.o...P ..o.X.} X.X.4.@.@.:.@.>.3.,.,.& * 4 y 4 t 4 6 t t 4 4 r 5 4 < t 4 4 r 4 r 4 r < 4 r < 4 4 4 < 4 4 4 B 9 4 B 9 t r t i y r y y 9 i y y u i u y y u u u N u N N y N N N u g N g g x x x g x M M r >.b.%.%.M.D.N.b.b.,.,.b.J.b.O.M v m L L L L L G o.o.T.| >.o.u x u u N i r N / V.h.v.H.H.H.'.Q.;XOX.X.X.X{.{.{.[.[.L.G.U.G.C.H.U.S.S.S.S.g.g.g.a.D.M.b o o 2 1 , 2 , ; 1 7 ;   . 5.fXCXcXfXqXqXpXqXsX0X0X9X0X0X6X6X6X2X>X>X>X>X>X-X>X;X^.~.&X~.~.!.!.!.R.K.Q.Q.Q.Q.*   = . + + + + $ + + + $ $ & + $ & & $ = o i g.;.&.-.*.` $.` ~ ! Q W Q ) $.....%.=.=.=.>.:.1.1.1.d.;. .<.4.+ $ & * < < * < d d d y t t a d u d a d d g d g h d d x d d x h c x c c c c c c v v v v H v v v G v v G G G G D G G G G P P P P P P } P o.P o.o.o.| | | | P o.P } P G G G G G v g g d d u t t r r 1 B r = 0 z  .( ` $.&.*.&.;.e.e.e.a.a.h.t.u.eXhXtXhXkXtXgXkXgXkXgXgXgXhXkXhXhXUXgX4X,X=X*X,X*X%X[.=X{.i.;.d u f d c c b b c c c c c H c H T.H H T.H F T.F F T.T.T.J T.J *.J T.J *.J O.O.J | 7.| O.<.O.O.O.7.3.| 3.S.{.|.].`.`.x.F.x.z.l.f.f.f.f.t.r.u.r.;.;.&.$.%...x % 2 1 1 1 7 1 7 3 p p p 8 a a a s s f j s C A H C V V J J O 7XKXKXLXMXNXNXNXNXNXNXNXMXMXMXbXNXMXbXMXbXMXbXbXbXbXbXyXyXyXrXuXrXrXwXwXwXwX+X,XwX+X,X{.OXOXOX'..X'.].|.G.`.F.S.z.z.m.l.h.g.",
"& $ # & & o * L 1.:._ :.n X . 4 % * % * % > < 1 t r > : > < t t F U U U U U U U U U I I I +.+.#.#.#.+.+.Y Y I Y I I U D D D v D c c c Z c j d d y u k z l l W W W W Q ( ( ( ( ( ^ [ [ [ [ [ ' $.1.o.n u y y a y a 9 y t t t t 4 t t 4 4 4 t r 4 & * w i e e W W W W W W W W ^ W ^ W W [ [ ^ [ [ [ [ [ [ { { ] ~ [ v.`.c.k.k.k.p.k.t.t.r.w.w.-.-.$.$.' ) _ ) Q ( ! W l z N k 0 b 3. .%.Y.T.. 2 Y.,.@.@.X.o.o.o.X.} } o.@.o.o.o.4.@.@.3.,.6.o.d # 4 4 r 4 r t t t 4 4 4 4 4 4 4 4 4 4 4 4 4 < < < 4 B B B B B * 4 4 4 4 w r 4 r r r r r r r y r r y y y i i y y u y y y N u u g u u N N N u N g N x x N N g M b g g M 3.b.@.,.V.M.8.h.b.d.1.1.b.V.8.X.x g m } o.} P I L } :.} 9 * y x 4 M u . / h.h.h.z.z.F.H..XoX,X{.{.=X*X.X{.{.[.[.[.G.G.G.S.U.U.S.A.A.m.A.g.g.m.i.g.m.%.r o % 7 ; # , p 1 1 < 4 . O #.kXSXvX0XfXfX0X9X0XdX0X6X9X6X6X2X>X2X6X>X-X>X-X-X-X-X&X^.^.~.~.~.R.R.K.R.Z.-X|   + &   $ + + + - $ $ $ $ $ & $ $ & $ $ = w z.:.[ :._ [ ' _ _ ( W n L _ ..=...X...=.:.:.:.:.1.h.u.;.$.=.<.$ $ 4 & & r 4 d i y t y u u y t d d a u u d d d d g g g g g d g c x c h x c h c c c c c c v v v v v v m H G m H m G G v G G G G G P P P } I } P | | } | | I } P G G } I } G c g d g u y y t t t < < 1 0 $ i  .) )  .*.&.&.&.-.e.e.a.e.k.t.*.{.hXtXsXkXkXgXtXgXtXgXgXgXhXhXhXhXjXeX,X=X=X&X=X%X!.I..X5XS.-.A.;.z u c a g H v N c C b c c c T.H b H ! H T.T.H T.T.T.T.Y T.| | | | J +.T.| | O.O.| | 7.7.*.*.7.O.O.7.T.O.U. X}.|.|.`.F.z.z.l.x.A.a.l.a.a.a.e.e.e.&.' ;.;.*.k = $ a 1 1 2 3 3 p p 1 p p p f p f s s f f j Z C Z C H F V 3 zXLXKXLXNXNXNXNXNXNXMXMXMXNXbXbXNXMXbXbXMXnXbXbXbXbXyXyXyXyXyXeXrXeXrXwX+XwX,XwX+XoXoX}.oXOX'.'.'.{.].].F.S.S.x.S.z.z.l.g.",
"# + # $ & + o = ..:...=.z . + . + % & > < < 1 < > < 1 4 a s Z H D H F D D U P U U U U U U I Y T +.+.+.I I Y I I U P U D v D D c h c j j g f a N N u z z l l W W W W W Q Q ( ( ( ( ` [ ( [ [ -.:.$.! N u y u 9 y t p y y p t t t t r 4 4 5 4 4 < * 0 i k W e W e W e W W W W W [ [ [ ^ ^ [ [ [ [ [ { { [ { { [ { c.).`.x.k.v.l.j.k.t.t.e.r.w.-.&.&.$.$.` _ ( ( Q Q n n z b k r b O.*.O.Y.O.2 2 | ,.3.4.4.@.>.X.} X.} } } o.=.,.=.o.#.8.>.v 4 * * y r t t t 4 r 4 4 r 5 4 r 4 5 r 4 4 < < * 4 4 4 * 4 B B B B B B 4 w 4 4 r 4 r r r r r 9 y r y r i r i y y y i y N i N y u N y u g N y N g g N N N N g g g M g g x M o.3.>.,.M.n.8.n.m.8.>.>.8.m.b.b.=.L x N m } m P L P o.x 4 4 r 9 r M u i =.d.h.h.z.x..X.XoX,XwX,X,X,X'.{.oX{.[.[.[.[.I.G.|.G.S.S.A.A.m.A.l.g.i.i.i.d.m.i.c + O 3 3 ; O 2 1 2 4 # O # 6 6.0XFXqX9X0XfXdX9X6XqX6X6X0X0X6X-X-X>X>X:X>X-X-X-X&X&X&XR.%XR.R.R.R.R.I.&X,.o . $ . + - + + + $ $ $ $ $ $ $ & & = $ $ = h.:.:.-.[ [ .._ _ / Q l _ .._ ......:.=.:.:.:.1.:.:.1.u.1.<.<.x o . & % 4 t t y p y p t t y u u y a u d a d u u d d g u g d N d x d x c d x c x c c c c c M v c v v v M v v m G v v G m G G G T.P } G P P G | | | I | P } P | | G G P G c c d u d a y t t r r < t 0 = w Q ) ) `  .] *.&.;.e.e.a.t.a.l.a.a.,XgXsXyXyXsXsXhXhXhXsXgXgXhXUXhXiXeX,X=X=X=X%X%XP.{.%X1X,Xf.e.g.e. .i d j j a h c c b H c c c H H T.H H H H H T.J H T.J T.I T.T.J | *.T.+.O.O.Y | O.O.J *.J J *.E O.<.7.*.*.l. X|.|.F.x.F.F.A.l.p.l.k.a.s.p.a.e.e.e.-.&.&.%.! u < > 2 3 3 3 1 p 1 p f p p s s f s f C j C C Z C H Z A H 3 0.LXKXIXNXNXNXNXNXNXNXMXMXMXMXNXbXbXNXbXbXbXbXbXbXyXbXyXyXyXrXeXrXrXwXwXwXwX+X,X+X,XoX XoXoX'.{.'.].].].G.|.S.A.x.z.z.h.f.",
"$ # # $ @ % + - i _ :.=.i . & $ % % * % * & : > > 4 t f c D D G c D D P Z D D D D U U D U U U U +.+.Y U U U U U D D D D D v h h h h 9 g u u u u k z z z l W W W W W ( Q ( _ ( ( ` ] ] ] ' ' :.:.m z u t y a a a y y p y t y i t 4 4 4 t r < r < i w i l W W W W W W W W W [ W ^ W W [ [ [ [ [ [ { { w.{ w.{ w.v.'.].`.c.l.c.l.k.k.t.t.t.t.w.e.&.&.*.$.` ` ) ~ / Q Q n z b k r b %.%.O.<.,.N * c 8.,.:.4.4.>.@.o...o.o.o.X.o.} L ,.@.L 9 & & * 9 < < < * * & & * < * < < * < & B < < < * & * < 4 w 4 * 4 * B B 4 4 w w 4 w 4 * 9 r r r r r i i r r r w y y y i y i u y N u u g u u N u g N N u g N g g x M g M M P L v v P X.b.Q.9.b.b.8.8.2.>.2.b.b.V.8...M M M / / ..X.L t & 4 4 4 N i = k u.l.H.Q.Q.Q.F.d.*.Q eX<XoX{.oX.X{.OX{.[.[.[.[.|.U.G.U.`.A.A.A.A.l.m.g.m.g.1.p.M.d.! = @ % 2 , ; ; 3 # 6 9 #   O v q.VXBXfX0X9X0XdXpX0X6X>X6X6X6X6X6X>X>X>X-X-X^.&X&X^.&X&X~.~.R.R.R.K.!.I.a   + + + + $ + $ + $ + $ $ $ & $ $ $ $ = = h.:.:.:._ $._ ' _ _ Q l L ........=...:.:.:.:.1.1.h.1.=.%.>.2.P o % y 4 r t r 4 r y y y t r 4 y u u y u u a u d a u d u d d g N d x d d g c x c c x c c x c c c M v c v v v v G v v m v v G G G G G G T.P G T.} } I } | G P } G G v v c c d u d a u t t r r < B t * = b  .) ) ) $.*.&.&.;.e.y.a.t.p.p.-.S.eXyXgXgXtXtXtXkXkXkXgXgXhXhXhXsX<X,X%X%X%X%X%XP.P.%X=XeX[.r.f.p.a.Y.n u N j u g v N c c C T.H b H C b H H T.H T.H T.J T.T.T.J T.Y | | | T.O.| | +.| J *.E *.O.O.*.7.O.7.O.| *.Y.U. X].`.`.).x.z.l.x.k.a.a.a.a.e.e.e.;.&.*.&.;./ i + 1 5 3 p 3 p 3 f p p s p p f f s j f C j C Z Z A A F s ; lXKXPXNXNXNXNXNXNXNXMXMXNXbXbXNXNXbXMXbXnXbXbXbXbXyXyXyXyXuXrXrXrXwXwXwXwXwX,X,X+XoX+X{.OX{.oX{.'.[.].].`.F.S.x.A.z.l.g.",
"& $ & & + @ $ & . y } 1.N X & $ % % % % + % < 4 a f h c c H c c j Z c Z D h D D D D D D v D D P I I I U U D P D v v v c c g j j j 9 g y i u k k l l l W W W Q Q Q ( Q _ ( ( _ [ ] ] [ &.&.&.$.' N u u a g 9 u y y y y y t y r t 4 4 y 4 4 < 0 w i k k l e W W W W W ^ W ^ W [ ^ [ [ [ [ [ [ [ [ { [ { y.w.{ s.'.|.`.`.x.x.x.k.k.k.k.t.r.r.e.e.-.&.&.$.` ) ) ) Q n n W z b N w ! O.%.X.O.2.T.t B L 3.8.>.X.@.>.4.@.} o.4.o.o.@.8.o.v & # * t t 4 t 5 r t t t t p 4 r 4 4 4 4 4 4 < < 4 < < < * & * * 4 * * 4 * 4 4 4 4 4 r 4 r w r r r r r r r y r 9 9 i y i y y i 9 i u u 9 u i u u N u g u d N N N x x g x x v P P M x g M @.J.V.V.8.8.8.2.>.4.2.8.b.m.n.8.} N m M L } 9 & & 4 4 4 y r i u.I.G.H.8.4.L t $ .   ;.,X<X'.,X,X{.OX{.{.[.[.[.U.|.I.S.U.S.S.A.A.m.l.d.N.g.i.e.p.h.M.*.u o 2 1 3 ; ; # 4 4 4 > # X X H ^.BXcXdX0X9X0XqXqXlX2X>X0X6X-X>X>X>X-X-X-X-X-X&X&X~.R.~.R.~.R.!.I.-XX.  . $ + + - - $ $ + + $ $ $ $ $ $ & = = = u.1.[ -.' $.' _ _ ( Q W _ ..$._ ..:.:...$.:.1.8.1.:.} c z v o.@.& X & 4 y t * 4 * < 4 y y y t t t t y t y u y y u a u d d y d d g a g d x d d g g g x h x c x c c c c c c v c v v v v v G v m G m G G G G G G G P P P G } I G } } v c x g g d u u u t t r 4 r r B = i  ...^  .$.$.*.&.;.;.e.e.a.a.k.a.;.,XhXgXtXsXgXgXkXgXgXtXhXhXhXgXeX=X X=X*X%X!.{.R.{.%X;X5XeXA.u.A.p.a.f.1.M r g c c c x C c b C b C b H T.H H H T.H T.H F T.J T.T.| T.T.T.J J T.+.| | | J O.*.J O.O.E *.J O.<.7.O.| Y.U.{.'.`.`.x.).(.x.l.l.k.p.p.a.a.a.r.;.*.*.<.;.n * % 2 1 t 3 2 p p p 8 p p p s 8 f V f f j C Z Z Z A A J ; G HXKXAXNXIXNXNXNXNXNXMXNXNXMXNXbXMXbXbXnXbXbXbXbXbXyXbXyXuXeXuXeXwXrXwX,X@X+X+X,XoXoXoXOXXX{.}.'.'.].G.G.F.S.x.z.A.l.l.",
". . o % % + + $ o = N 1.L . + $ + + $ % 2 1 d h c c h h h h d f j c j c h h v v D v D D D h c D Y U U P U v P D H v c c g g g g 9 y y y i k z l l W W W W Q Q Q Q ( ( _ _ _ [ [ [ [ [ -.;.*.~ z u p y 9 g a a t y y y y i t r t 4 9 4 r * w w e z l e W W W W W ^ W W [ W [ [ ^ [ [ [ [ { [ { { y.{ { y.w.w.x.OX).x.x.`.x.x.k.v.v.f.p.t.t.r.e.w.&.&.%.$.$.` ) } ! n m z z N i b %.>.>.O.<.O.N B i o.b.n.2.1.8.,.,.,.>.>.4.o.X.L % $ $ % & < % + & % * & * % & > * * & * & * & & 0 * * * * * * B * * 4 * w * * 4 * 4 w 4 4 4 4 4 r r r r r r r y r i y r r y y r y u i y y N y N u N u N N N d d g x g N N g M P M L v m v x M X.V.V.n.h.2.:.@.4.1.@.=.8.n.m.8.4.n N b x 9 & & 6 & & * B ..M.<.} * * # + @ 2 p d o N.eX,X.X.X.X{.{.{.{.{.[.I.|.G.|.U.S.S.S.A.m.m.m.p.i.l.g.d.a.a.m.<.x + O > 3 ; : : @ @ > 4 6 <   o | >XcXBXfX6X>X9X0X9X6X>X>X>X>X>X>X>X>X-X-X-X-X^.&X&X&XR.%XR.!.Z.:Xn.o   $ + - + $ + $ $ $ $ $ $ $ & $ $ = = - :.r.:.-.[ [ .._ ( _ Q n _ ......$.=.:.=.=.<.1.:.} x N g N a y G c a $ + % * g g t 4 4 4 4 t r t t t t t t t t y y u y y u u y a u d a d d d g g d x d x h x h x h x c c h c x v c c c v v v v v v G v G v m G G G G G G P } G T.G H c d d d g t u t r r 4 4 r i $ 0 ! ) ! ^  .` $.*.-.-.e.e.r.t.a.k.a.p.eXnXsXgXtXgXkXgXgXgXkXhXkXiX5X%X{..X=X%X{.K.P..X%X*X<X4X,Xa.l.l.p.l.e.i.%.x u x c f x b b c c c c c c c C ! H b T.H T.T.T.H T.T.T.F J | T.| | Y | | +.*.J *.J E *.O.E <.E O.7.7.*.O.O.F.'.{.`.S.|.(.l.(.l.l.l.a.a.a.a.;.;.;.-.:.=...M 0 2 2 1 1 1 p p 7 p 7 p p f 8 f s s s C V c C C H C Y F # ^.KXIXNXNXIXNXNXNXNXNXMXMXbXNXbXMXbXMXbXnXbXbXbXyXyXyXyXyXrXrXeXrXwXwX,XwX,X+X+XoXoX,X{.oX{.'.'.].].[.`.G.F.S.x.l.l.l.",
"w . . + @ @ @ % * . X z M . + & % % < t t y d f d a d d f d f h j j j c j h v j h c v j h D h Z U P U U P D Z v c j c g j g d d i u u k k l l W W W W W ~ ~ ( Q ( _ ( _ [ [ [ [ [ &.&.:.%.} x t N d y d 9 y t t y y i i t i r r r 4 B w w i k l l l W W W W W W W [ ^ ^ W [ ^ [ [ [ [ { { { { { { { y.y.y.s.`.OX|.].`.`.x.v.c.x.v.j.f.t.t.r.e.e.;.&.&.$.$.) ) ^ n Q ! x z N i ! %.>.%.%.>.>.T.r y M I } P P L L L L L x v o.v $ r r t y y i 4 B < * * & % * $ $ & & = & = $ $ $ B & $ $ $ $ & & * * * & * 4 * * w 4 4 4 4 w w 4 r 4 r r r r r r y r r y i y y i u y u y i N N y g y u u N y N N g N N N N M v L L v M M L v y x m 4.b.C.M.2.>.4.X.@.:.>.2.8.b.V.>.@.I t 4 # ; & & & * r x t % O $ * 4 4 7 t 1 2 % B a.eX<X.X,X{.{.{.{.{.|.I.I.|.U.|.S.U.S.S.A.m.l.m.l.m.m.g.u.r.e.Y.<.! > o ; 5 : > 1 2 > 6 > > h O   ; 5.7XxXzXdX0X6X6X0X6X>X0X2X6X>X:X>X-X-X-X-X&X&X^.^.~.%X~.!.Z.-XR.g   $ . + - + $ - $ $ $ $ $ $ $ $ $ = = - -.r.-.:.' ..' _ _ ( Q n _ ..$.:.$._ =.<.2.1.%.M x y y y t y y O.J.R.,.H *   o % * r t 4 4 < 4 r r 5 r t t t t r t t r t t y y u a u u y d u u g g d N g d d N d x d h x x x h x c c c c c v c v v v v G v H v m v G G G P G P G v c x g g u a y t t t r 4 < < B $ e  .^ ! ` *.$.&.*.-.;.e.e.a.a.s.p.a.|.yXhXtXgXgXgXhXtXhXhXhXsX2X;X%X%X%X%X%X{.P.L.=X=X;X;X<XtX{.a.l.l.p.l.a.e.g.*.k u d u h f f c f C b c c c c H c H H H H H H T.H J T.T.T.T.J | T.T.| | | J *.J *.*.J J *.J *.J *.O.7.O.*.<.S.{.|.|.|.|.l.x.l.l.l.l.l.s.p.r.u.e.;.*.-.:...i B * 1 t 1 1 p t 7 p p f p f 8 f f s j V C C c A C C E ; Z CXKXNXNXNXNXNXNXNXMXMXMXNXbXMXMXMXbXnXbXnXbXgXbXbXyXyXuXyXuXrXeXwXwX@XwXwX,X,X+XoXoXOXoXXX{.OX[.].].|.`.F.S.z.A.m.l.",
"M i = + X + & + . .   * i X X & * < t y u y t t t t a t a f p f a g g f d d j j g g g h h h c c v A P Z c v h v g j g d d d y u e k k l z l Q W l W Q Q ~ Q ( Q ( ( _ [ [ $.[ [ [ -.;.$.~ x u u d d a a u p u t y t y t r t r r 4 4 4 r y k z l l W l W W W W W [ W [ ^ [ [ [ [ [ { { { { { { { r.y.y.{ y.`.XX'.].].|.`.x.x.x.c.v.k.f.s.p.t.e.e.-.-.&.$.) ` ) ) ! m ! z b N i T.>.%.3.<.O.3.%.u i r B $ $ & * * & $ . $ x >.8.4.>.4.o...X.X.X.} o. . .} } ! G ! M c M x x g x x y y y r B = = $ * & & * * * 0 * 4 * 4 * 4 4 r r r r r 4 4 r r r r r i r r y y r i u y u u y y i u u u g N N N N N u N g b c m v L v g N x x x g w N o.8.M.b.>.4.} X.@.2.>.1.8.h.V.V.X.& + & * = w w z =.b X o 1 & & # & 2 2 1 5 f X % N.<X,X.X.X.X{.{.{.[.[.[.G.U.|.G.S.S.S.A.A.m.A.m.h.2.u.d.i.<.a.g.N.%.r o % , 1 > : ; , > ; X 7 p X X O 0.pXzXfXpX0XlX7X6X2X6X2X7X>X>X>X>X-X^.-X-X&X&X~.~. X!.!.R.*X@.X . # + $ . $ $ + $ $ & $ $ $ $ & = * . ' r.:.:.[ ..' ' / _ Q n _ =.$.=.$.=.=.=.4.} c r u x g u y L @.,.n.R.R.%XP.| t @ % & * 4 r t t 4 4 4 t r 4 r t t t t t t t t y y y y y y u u a u a g a d g d g d x x d x x N h c c c x c c c c c n v v c v v v v v m G G P P P v v x d g u a u t t r 4 < 4 < < = i n  .! ^ ` *.*.*.-.-.;.e.r.r.p.p.a.l.eXjXeXgXgXtXhXtXgXkXtXtX;X=X{.%X%X%X%XK.P.P.%X=X;X;X4XeXeXz.f.l.l.l.k.l.e.f.a./ k y u d f b f b c f c C c c c c T.c H c m H H H H T.J T.T.T.T.J | | | | | | *.J *.O.*.O.T.7.<.E | O.O.O.%.3.U.|.|.|.|.`.(.S.S.l.l.p.l.s.t.a.u.e.-.-.&.:. .u < < 5 1 t 3 7 t 7 p p 8 p f f f s V V c h C C Z C J F , z.LXIXNXNXNXNXNXNXNXMXMXMXMXMXbXMXMXnXbXbXnXbXbXyXyXyXyXrXrXyXrXwXrXwXwX+XwX+X,XoXoXOX{.oX'.'.[.].].G.G.F.F.S.A.z.l.",
"z N N B X X O   X N N } } r + $ 1 r t r t t t p t d a a t p t t a y 9 d 9 N 9 j 9 g h h g h g c v v v v Z c h h g d d d y y t y k k l l l W l W W Q W Q W ( ( ( ( [ _ ' [ [ [ [ -.w.e.' N t t c g u y y y y a d y y t y r r t 4 4 4 4 r z z l l W W W W W ^ ^ ^ W [ ^ [ [ [ [ [ { [ { { { { { { y.s.s.w.s.|.OX`.`.|.).).`.`.F.l.v.k.f.p.t.t.e.-.;.-.&.$.$...) ) n ! ! z N N i T.%.O.<.,.*.Y.a.u y i t y i r B 4 * * N ,.Q.V.n.,...X.>.>.=...4.4.X.X.X.X.%.X.%.X.%.X.X.X.X.X.X.o.X...} P M u * $ & & * * * * * & * 4 w 4 * r * r 4 4 r r 9 r r r r i y r r i y i y y y i u y u u 9 u u u u g y y y d N M v L v M g x L v g x x x M u 4 x >.n.d.4.4...o.X.>.1.>.>.8.V.L X X w 9 k W z ( Q.<.- * 2 & 4 4 r B 0 B t < u + 2 I.4XoXoX.X X{.{.{.[.G.[.[.G.G.G.S.S.A.A.z.h.d.N.m.d.u.d.a.a.;.e.i.2.c . @ ; 2 : % > < 2 7 @ @ r 1 @ X O B.dXzXdX2X6X9X0X2X7X2X>X>X>X>X-X-X-X-X&X&X~.~. X!.~.B.>Xn.X X $ + + $ $ - $ # $ $ $ $ $ $ $ = * . _ f.:.[ :.[ _ ' _ L Q W _ =...} :.1.1.X.g y < 9 9 N u x L =.d.3.6.C.Z.B.R.!.R.N.| < X o < 4 4 4 r 4 r r r 5 r r t t y r r t t u t y y y y u p a u u u u a u d d d d d d f N N d c x c c x x c c c c c M v v v v v v v G G G G c c x d d y y y t t t r 4 < * * = b  .~ ` $.^ *.*.-.*.;.;.e.u.p.p.l.t.l.gXnXeXgXtXgXtXkXhXkXeXQ.%X!.!.!. XP.I.J.!.%X=X*X;X5XlXaX,Xf.g.l.l.x.t.l.l.e.a.a.! t f c f f f f c b f b c c H c c H c H H H H T.T.H T.H | J T.T.T.J T.Y J J *.| J *.J | O.*.J *.O.+.*.O.O.| %.m.{.|.|.|.S.(.S.l.l.l.k.l.a.a.r.r.e.:.-.*.<.Q B 2 5 t 5 t 7 7 7 p f p 8 8 8 f V f f V C h h C S 3 T 9 * IXIXIXNXNXNXNXNXNXMXNXNXbXMXMXbXbXnXMXbXbXbXbXgXbXyXuXuXyXrXeXrXeXwXwXwXwX,X+XoX,XOXOXOXOX{.].[.].G.`.F.x.F.x.A.l.",
"b k k k k k b b ....! i % * v X.& % $ + > t t r 4 t t 4 4 r t t t y y y y d y d d y d a g g 9 g g c c H Z h 9 9 s a d t i i e z k l l l l W W l ( ~ ~ ~ ( ( ` ) _ _ [ [ [ { ' -.u.=.n g N g g g p d d t i u p t y t 1 t p 7 1 B w w e z l W W W W W ^ ^ ^ ^ ] ^ ` ` ] ] [ [ [ -.{ { { { y.y.y.y.s.j.y.{ _.XXXX'.}.].).].).F.x.x.c.k.k.k.k.t.r.r.;.;.%.$... .} T./ l b b b k i %.<.%.>.<.<.i.1.! r i y r r i 4 . & o.V.Z.b.n.B.C.3.X.@.>.X.4.>.4.X.4.X.X.X.X.X.X.o.o.o.o.o.} } o.o.P } } L } } L 4 & $ - - * w 9 4 w w * * 4 4 w 4 4 B w r r r r r r y i r r y y i 9 i y y y u y u d u u g g N N N g x g v M v M x M x x x g g N x g u r i x @.m.@.4...o.4.=.>.>.>.} N i i n z k l ! =.m.m.! = $ 4 $ & 6 B B 4 B r 2 4 & r L.tX|.OX,X{.{.OX].S..XG.L.H.S.S.S.A.A.A.z.l.g.h.d.i.p.i.u.1.1.r.<.<.>.O # @ ; : ; ; 1 % : 2 : ; > > 2   6 Z.fXcX6X>X6X6X2X2X7X>X5X-X>X>X-X-X&X&X^.-X&X X-XB.&X-Xd   + . + - + - + $ $ $ $ = $ = $ $ * X ! i.<.$.*.*.*.' ( ) b l  ...X.>.@.o.M y y d x v g u N / =.:.1.a.1.V.Q.K.Z.Z.B.K.!.Z.9.c & o . < B r r r < < r r r u t i 0 r t t t t t t t y i y y d u u u u y d g d d g g g g x d x d c x h c x c c c c c c c M v c c v v n H f d g a u u u y t B t t < r 1 . b ~ ^ T._ ` $.&.&.&.&.;.e.e.e.r.f.r.1.wXUXtXtXtXkXkXhXkX2X;XQ.&X%X%XP.L.L.L.{.%X%X*X=X>X4X5XsXsXS.F.x.z.z.l.k.k.f.r.1.a.%.b i N k c C b f f N f c c c c c c c T.G c H H T.H T.H T.F T.T.J T.I T.*.J | | | T.O.J | | | O.J O.O.O.+.7.O.| Y. X}.|.(.S.S.S.S.l.l.a.k.p.r.r.r.e.w.;.*.;.n * > t , 3 1 t 1 p p p p 8 p s s f V f h C C C C H H H F H KXIXNXNXNXNXNXNXNXMXbXNXbXNXbXMXbXbXMXbXbXbXbXyXyXyXuXyXuXrXwXrXwXwXwX+XoX+X+X}.oXoX{.}.{.'.[.].].G.F.S.S.x.A.A.",
"c N x b i b b ! b = o $ X   t n.n.P d x < . . . 4 4 4 6 p r > t 4 5 r t t y y y d d d d g 9 d d y g d c j f a g a u i u k k z z l l l W l W W Q Q ~ ~ ( ( ( ^ ` [ ' ' [ [ { w.:.:./ M N d d N g u p d u u t u u y p p t r t 1 B w e z l l W W W W ^ ^ ^ ^ ] ^ ^ ] ] [ [ &.[ { { { { y.{ y.y.y.t.y.j.y.s.XX+X'.}.XX].XX).).F.x.x.x.v.k.k.k.p.u.e.;.&.%.$.o. ./ / / M b b b k u ..<.%.%.%.$.>.i.2.x r 4 u r + * x ,.n.V.9.8.n.Z.B.n.,.X.>.>.4.4.,.4.=.@.4.4.%.%.4.X.X.X.o.o...o.o.o.} o.P o.P P L o.L x 9 w * $ + & * 4 r 9 w * = r w 9 r r 4 r r y r r y r 9 y r r i i 9 i y i u i a u N u N g u N N x M M v M M x N x g N g u N t d y y r y g m 4.>.4.X.@.=.=.>.1.>.>.=.u.h.m.m.d.h.g.g.g.1.b - < * > & & 6 B & > < 5 < o b [.tX{.[..X{.].{..XG.G.L.G.G.G.S.S.S.A.m.m.g.m.i.d.d.f.a.u.1.1.:.;.=.4.f O O % , 2 % 1 > 2 : > > : ; 4 O X p R.BXvX0X6X6X2X2X2X6X>X-X>X-X-X&X&X&X~.~.~.~.R. X:X3.  + - + + - + + $ = $ $ $ & $ = & & . n i.e.;.&.{ ] _ _ ` Q ~ <.%.%.X.o.L N g g v v u u M } 4.:.8.1.d.u.m.P.K.K.I.Z.C.n.B.K.Q.n.O.u + o O % t u y < t B < B t N i t t t r r r t t t y t d u d t d d a u d u d d u a g g d x d x x d c c g c c x c c c v c c c c v c d g g u u i i i r 1 1 r 1 2 = 0 Q ~ ~ ^ ) ) ' $.$.&.-.;.e.r.t.p.z.r.z.tXhXyXkXtXhXkXtX8X;XQ.Q.Q.%XP.P.K.L.P..X%X=X;X-X4X4XlXaX4XS.F.F.x.x.v.l.k.f.r.r.u.i.%.c r k f k f c c c u N c c b c c c H H G H T.H T.H T.H T.F T.T.I T.Y | T.| | | O.| O.| +.O.+.O.*.O.O.+.O.O.O.*.Y.|.{.U.|.(.|.|.l.l.l.p.p.p.p.u.r.e.e.&.;.=.M % 2 s 1 t 3 p p p p p p f s s f C f C f Z S H H C C s s kXIXIXNXNXNXNXNXMXMXMXMXNXbXMXbXMXbXbXbXbXbXyXbXyXyXtXrXeXeXrXwXwXwXwXwX,X,XwX,XoX.XoX{.{.OX].[.].|.F.F.S.S.l.l.",
"1 0 0 r 2 0 i N * - X - . X X = Z.b.6.,.O.v t a + + o & 4 < 2 r 4 < 4 4 t r t t 5 r < r 5 t 9 y a a j g d f 9 N y i i i e k e W l l l n W Q ~ Q Q ( ( ( ` ` ' ' [ $.[ -.-.w.:.r.n x N y d N N d f u p u p p y t t y t t r 1 r w e W W W W W W W ^ ^ ^ ^ ^ ] ^ ] ] [ [ { { { { w.{ y.y.y.y.t.t.s.j.s.y.c.XXOXXXOXXX`.].).`.F.F.x.x.x.k.f.a.a.a.a.;.<.%.......} ! / n M z x k k %.<.4.%.%./  .<.N.g r r 4 + & | V.Q.n.V.n.V.B.C.V.K.V.3.4.8.,.4.8.>.>.>.>.>.@.>.@.4.4.4.@.4.X.X.o.X.X.X.X.o.o.X.o.@.X.X.} L g 9 * $ $ & & 0 B w 9 * * 4 r B w 4 r r r w 9 i y y r y t i i i u y y u u u u i u N N N g M v M M g M g g g N u g u N t 9 u y r B B * M } 4.X...4...o.} o.>.1.8.8.b.m.V.m.m.u.a.S.<.B + < > # & * & & < r 1 t < o b {.4X{.{.oXOX{.{.].L.G.G.G.D.S.S.S.m.m.A.l.g.g.g.a.d.a.u.1.u.e.<.<.Y.O.d 2 @ @ ; , ; # @ @ > > > & : > & X X s R.jXpX3X>X2X6X-X>X9X>X:X>X-X-X^.~.~.&XR.&XE.:XR.o O + + $ $ + + $ $ + + $ & & & = $ . z %.*.$.;.*.*.Q ~ _ l Q <.=...b N y u d g u t t z / =.1.1.1.u.d.8.m.K.!.R.R.R.R.K.B.C.I.K.K.C.3.} d % X o = r B B t B r 1 1 i r 4 t 4 t t t t t y y t p y u d a u u u d y d d g N d d N d d g d x h x x c x c c c x c c c c c d d d a u i t t r r 2 < r = $ b ! Q )  .) $.$.*.&.-.-.e.r.p.p.p.f.:.OXhXgXtXkXkXkXwX;X.XQ.Q.Q.Q.K.K.L.K.P.{.%X&X,X1X4X4XlXaXsX{.S.S.F.x.x.l.k.f.u.f.p.u.i.i. .u p u d f N C N f N c N c c c H c c G H b ! H G H T.H H T.T.T.I T.T.J | J J | | | J *.| | J O.O.O.+.O.O.O.*.O.Y.|.|.|.|.S.l.(.S.l.l.k.p.p.u.r.r.e.;.;.a.%.y : 4 1 1 t 1 p 7 p p s p s f s f C f C C f c Z Z Z V f _ AXIXNXNXNXNXNXNXMXMXNXMXNXbXMXMXbXnXbXnXbXbXbXyXbXuXuXuXrXrXeXwXwX+X,X,X,XoX,XoXOX.XOX}.{.'.].G.|.`.F.F.x.l.z.",
"< 0 1 0 0 w i N u i = X   + .   i 9.n.3.2.9.3.O.c g r < = % $ 2 < < < < < < B 1 1 4 5 r t y r 9 p f j f a i r r N k u k z z l W l W W W W ( ( ( ( ( ( ` ` ] [ &.:.[ [ -.y.e.-.$.x d y a f N f u d p d u i u y i t t t r r w t z e W W W W W ( ( ^ ^ ^ ^ ^ ] ] ] [ [ &.{ &.{ w.{ { y.y.y.t.s.s.s.j.s.j.XX+XXXXXOXXXXX].].`.`.).x.z.z.k.l.g.a.a.a.<.%.%.%... .) ) / n n b b u N =.%.<.a.3. .!  .i.1.r X + m b.J.N.9.9.n.V.C.Z.C.C.K.Q.V.3.>.,.,.,.8.>.2.1.>.1.>.>.@.>.@.=.@.@.4.4.@.4.X.X.X.X.X.X.L o.X.@.@.4...L u 9 w & $ $ * B 4 4 4 w r 9 r 4 4 r r r r r r i i y y t y y i y u i u u y d u u M x g M x x g g x N N N g u u u i u i t i r 4 4 r M } } } } } o.} o.4.4.=.=.3.2.8.8.d.a.e.g.g.*.$ + & 6 > % * r r r > r d > + t *X,X=X{..X{.G.{.].[.U.G.H.S.F.S.A.A.m.m.m.g.d.g.d.d.u.u.1.1.<.;.;.1.<. .r o # > , ; # ; # ; & 6 & ; 4 p @   @ D 7XxXzX6X-X6X2X~.>X>X-X-X-X-X-X~.&XR.5XI.-X>Xc   + $ $ $ $ + $ $ $ + $ & & $ $ $ * z b z b ! ! ~ ' $...Q T...! M x N N v m x y r m } 4.>.>.:.u.u.h.h.h.P.=X~.R.~.E.R.R.K.C.n.B.K.R.K.n.3.M < + o 2 0 t B 2 0 2 0 4 r 4 r r 4 4 4 r t t y r t y r y y t a u y u a u a g d d g u g d d x g g g c d x c h x x M c c g a u y y y t t 1 1 0 2 = = w T.! ~ ^ ) ) ' ' &.-.-.:.e.r.p.p.p.y.f.tXhXtXkXkXkX<X;XQ.Q.Q.Q.Q.Q.J.L.P.P..X=X;X5X5X3XlXlXiXhXsXS.F.|.`.F.S.z.z.l.t.h.f.u.;.a.;. .i p N N k i c c f c c c c c c c c c H H H H T.H H G G G J T.T.F T.| T.T.*.| | | *.J O.| *.+.J O.O.O.J 3.+.+.| 3.U.|.|.|.x.l.l.S.l.l.l.p.f.p.r.r.e.<.;.<...r @ a 3 t 1 p 7 p p p f p 8 f f f V h f C C V Z S A F = oXPXNXNXNXNXNXMXMXMXbXMXbXNXbXbXMXbXbXbXbXbXbXyXuXyXyXuXeXeXrXwXwXwXwX@X+X,X+XoXoXoX}.OX{.'.'.].G.F.F.F.A.A.A.",
"i w w i i e u b n x i r $   . $   L n.8.@.,.2.>.8.9.X.g r r 1 r < B < B < * < & < < 4 B 4 4 6 4 < 4 5 y 9 i i w e e e z z e l l Q W W W Q ~ ~ ( ( ( ( ] ' ] &.&.[ -.[ r.t.:._ M g N d f g d a d u y y y p i t t t t r r r i z W W W W W ( W W ^ ^ ^ ^ [ ^ { ` ] ] ] { w.{ w.y.y.y.y.y.y.s.s.j.s.c.s._.XX@XXXXXXXQ.].].).].).).F.z.z.l.h.g.i.a.<.<.%.%.O.*. . .T./ n n M b u k =.=.<.1.i.%.! n  .b.N 4 4.V.J.V.6.n.n.V.C.C.C.Z.Q.I.Q.Q.V.,.,.8.,.,.8.,.2.2.,.,.1.,.>.>.,.>.3.@.@.>.4.@.@.@.>.4.X.4.4.4.@.4.4.4.o.:.@.L 9 9 = = = w B 4 r 4 r r r r r r r r y i r r y y t i t i y u u y u y u N N v x x x x g g u x N N u y y y y e 9 4 r r y i 9 r n o.P } P } o.X.4.4.=.>.,.8.8.9.m.m.g.p.t.a.m.b o o 5 < @ < 4 * < < < 1 1 1 & n %X4X{.L..X{.].].L.L.L.G.S.G.S.A.M.A.m.l.m.d.g.g.i.a.u.u.u.<.u.;.<.u.1.} x % X : ; > 6 > % % > 6 @ O : p p @   X #.6XzXqX:X>X6X5X>X:X>X-X-X-X-X-XR.~.~.R.5X0.  . - $ $ $ + $ $ $ $ $ & $ $ $ = z n x i i u u N z i i i m m B $ r B B r r i N m %.%.%.%.=.1.u.d.h.M.m.V.=X*XR.R.P.R.R.R.I.I.B.B.B.C.Z.I.I.6.| f % o o % i t i 1 4 4 r t 4 r < r t t r t t t r t t t t t t u y i y d u a u a a g d g g d g g d x d c d x x c h x a u y u r t r t < * B B - 0 b ) Q ^ ) $.` $.*.&.:.;.:.r.r.u.f.f.:.].gXsXkXhX4X<XQ.Q.Q.Q.Q.Q.Q.V.J.K.{. X=X,X1X4X5X2XsXlXsXUXeXx.|.`.|.S.x.z.l.l.f.f.h.r.:.:.u.a.b i i b f p u H x f b c N c c c C c c H c c T.H H H G G G G T.H J T.T.J T.T.J O.*.J | O.J O.*.J 7.O.*.7.7.+.| O.a.|.|.|.|.S.U.(.z.l.l.k.f.f.p.r.u.e.*.;.a.T.0 2 1 1 1 p 3 p p p f p 8 f s f V j Z Z Z C A A A H 7 v AXPXMXNXMXNXMXNXMXMXMXNXbXMXMXbXMXMXnXbXbXbXbXbXrXyXuXuXrXrXwXwXwXwXwX,X+XoX,XoXoX{.OX{.'.{.].G.|.S.F.S.S.z.",
"w e w e e i k z b N M L M & . X X X P I.b.>.9.3.>.2.4.x d b b N N N u d u i y r r r r 4 4 * * * * 4 r i i u z z z z z z l W W W W ~ ( / ^ ( ( ( ( ( ( ] ' [ ] [ -.[ -.-.:...n y g 9 d d d f d y y d t u u t t t r r r i e z Q ~ W W [ W ^ ^ ^ ^ ^ [ ] [ ` { { *.{ { w.{ { { y.y.s.y.s.s.j.s.j.j.j.j.}.+XoXXXOXOX}.}.].XX].).F.x.x.z.l.g.g.a.a.1.<.>.%.O.%. .T.~ / L m l x k z <.<.>.<.1.<.} n } } o.b.Q.n.,.n.V.Q.n.n.Q.K.C.K.K.Q.K.!.~.n.,.8.8.8.8.8.8.8.8.2.2.,.8.,.,.2.>.>.2.1.,.>.>.@.>.@.@.3.@.X.X.o.4.@.4.4.=.>.4.o.L g 9 & * & & * B B r r r r r r r r y y i r i y y i y y u t u u N N x x v x x g N N u u u i 9 y i r r y i i i u z k z u } 4.} } / L P o.o...=.1.,.,.,.i.U.S.p.p.a.e.p.d.r . & & @ < = * & < < > r 1 B X o.,X5X[.{.oX[.[.[.].G.G.G.H.S.S.S.A.m.m.g.g.g.g.d.a.d.a.1.u.;.a.e.*.=.1.@.c < # # @ , , ; # @ o > 6 @ O @ 5 y ;   X 3.0XzX0X-X>X>X-X-X-X-X-X-X&X~.R.5XR.&X&X@ . + + $ $ $ - + $ $ $ $ $ $ = B x c N d N u i i 2 * y | P.5XJ.N.@.G u r * * N ..%.%.%.<.1.d.d.d.g.G.d.b.%X-XR.R.&XR.R.Z.Z.I.K.R.B.B.n.B.C.Z.Z.U.O.T.t % - % 0 2 * < < 4 r 4 r r t r 1 r B t t t i t t t t t t t y t u u u u y N d d a u d g d u d x d d g g x g u y t t t B t 1 B 2 1 0 $ u ^ ! ^ ! ) ) $.$.&.&.e.;.r.r.r.f.p.f.:.<XUXsXtX8XQ.Q.Q.Q.Q.Q.Q.H.Q.V.P.P.%X=X*X5X4X3X3X9XsXsXjXhX,X`.`.|.`.`.|.z.z.l.z.f.t.f.h.t.e.u.*.b t p b c k d f N d N c x f c b c c c c H c H c T.c G H H G T.T.T.H T.J T.| T.T.J | | *.| +.*.T.*.7.O.+.+.O.O.J <.U.|.|.|.(.l.x.z.l.l.f.f.f.p.p.e.;.;.%.a./ = 1 2 1 t p p 7 p p 8 f 8 s f f V V C Z A A Z C V F o eXPXNXNXNXNXNXMXNXMXMXbXNXbXbXMXbXbXbXnXbXbXyXyXyXyXeXuXrXeXwXwXwXwXwX+XwX,XoXoXoXoXOXXX.X].[.].|.G.F.S.S.z.",
"w k e k k k k n M b N g b L z B .   + @.n.b.9.>.>.>.G i u N x N b b M b b c n c m n M M x x M x z N i r B w i k z z l W Q ( ( ( W W ~ ( ( ` ` ` ] ] [ ] ] [ [ w.w.y.w.:._ x N u g h d d d d y d y d d t y y r t B r i i l W W ~ W ^ ( ^ ( ^ ^ ] ] ] ] ] ] { &.w.{ w.w.y.y.y.y.y.s.s.s.j.j.j.j.j.j.x.+X@X+XOXoXOXXX}.XX`.].|.`.F.H.m.l.g.i.u.1.<.<.>.%.*.O.| | | / Q / b z N z 1.<.<.>.1.1.%./ } / L >.n.n.n.V.V.n.0.B.Q.K.Q.Q.I.Q.Q.Q.;XQ.Q.8.9.9.b.b.8.8.8.8.8.8.8.8.8.6.2.,.,.,.,.,.>.2.>.1.,.=.@.4.4.@.>.3.3.o.o.=.,.,.:.@.4.g N y w * B 4 4 r r r r y r r r r r t t i 9 y i t i y u u N N c x g N N N g y u u 9 y k i y i i z z z n n x x n z } =.X.} / L m P ..} =.1.,.1.,.3.m.m.p.p.p.u.e.l.%.0 . % > & & r = % < r < B 1 $ > 4.=X<X{.L.{.{.[.[.].L.G.G.D.S.D.S.A.m.g.m.g.g.d.d.f.u.1.u.<.;.;.;.=.=.>.4. .* + o % % & # > ; @ @ < 4 , % @ ; < #   ; B.qXzX6X7X>X-X-X-X-X-X~.5X~.-XR.&X>XP . . . - + $ $ $ = $ $ $ + $ 9 9 u N u N N d t y 0 N | 2.5XjXaXiXiX:XR.U.3.! ! ....%.%.<.1.u.d.d.h.L.i.X.K.5X&X&XR.R.&X&X!.K.K.Z.C.Z.K.K.B.n.B.Z.%XR.Y.| t 2 $ $ % & * < < 4 < < r < B r r 1 5 r r 4 t r t t t t t t t t t t u p a y u u u a N a d x g g d g d h i y i t t r B r 1 < 0 = r Q ) Q ! ) ` ` ` $.*.;.e.r.r.r.p.p.p.p.h.gXhXeXOXQ.Q.Q.Q.Q.Q.m.V.V.V.Q..X%X*X5X1X4X4X3XiXiXsXhXnXtX'.}.].].].`.S.z.z.l.z.f.r.f.f.u.r.r.a. .b i k f f p c f d N f N N c c c c c b C c T.c H c H T.H H G T.H T.T.J T.T.| J *.O.T.| O.J O.| O.*.J +.+.7.O.*.*.*.U.U.|.|.(.F.x.z.z.h.f.h.p.t.r.p.;.*.a.;.N 1 1 1 1 3 7 p p p f a 8 s s V s s s V Z Z A A V R 2 =.NXNXNXNXNXNXMXNXNXMXMXMXbXMXbXnXnXbXnXbXbXbXyXyXyXuXuXuXeXwXwXwXwXwX+X+X,XoXoXOXOX'.OX{.'.].[.G.`.F.F.S.S.",
"i k i w k i i n / m n M n n n n N &   + 2.I.Y.,.N.>.v i N M M M z b b b b n n Q b b b M n n L n P m y * . . $ $ $ $ = B w e e e W W ~ ( ( ] [ &.&.{ &.-.w.w.w.w.{ t.r...x 9 9 v g d g a u y y 9 p t u t y i t t B t u z W ~ W W ^ W ( ^ ^ ( ^ ] ] ] ] ] &.&.{ { { { y.y.y.y.s.s.s.s.j.j.j.c.j._.j.).@XrXOX+XOXXXXX}.Q.XX].`.`.F.A.m.m.d.i.i.1.<.<.%.O.%. . . .T./ L n b l u x 1.=.1.1.i.d.<. .! } * g n.Q.n.n.n.Q.Q.Q.B.C.Q.!.&XQ.~.!.~.:XQ.0.8.n.9.b.n.b.9.b.9.8.8.8.8.8.8.8.8.8.8.,.2.2.2.2.,.,.1.,.,.,.,.>.4.>.>.4.4.4.@.@.,.b.,.4.n 9 r * * 4 r r r r r y r r y i t r i t y u y r y u N c c g x N g u u u y i y i 9 u u 9 N k z l n l z n n x X.1.=.4.X.o.L } P o.X.4.>.,.8.Y.i.m.A.u.p.f.1.&.l.! . @ < @ < % < < * < > 2 r t - - 4.,X<X{..X'.[.L.[.U.G.D.S.G.S.A.A.m.m.m.g.h.g.d.d.a.i.u.1.<.1.1.*.$.=.=.=...u o O # ; ; > > : ; @ : > > % > ; < > O   a n.qXlX6X7X>X-X-X5X~.>X&X-XR.*X>X0.. . + + $ - + $ $ $ = $ + = w L N N u i u r * B | n.K.N.P.lXlX4X:X*X5XeX=XY. . .%.&.<.<.<.1.8.d.d.[.<.T.J.1X-X-X&X&XR.~.!.!.!.R.!.R.C.Z.I.C.B.n.Y.n.U.R.I.Y.T.p + % & < < < < < < B < 1 B 1 r r r r 4 t r t r t t t u t t u t y u u u a u a u u g f g d x d x d u t y r 1 B 1 B < r $ $ z ~ Q ~ ) ) ` $.$.$.&.-.r.;.r.r.r.p.t.u.<XhX<X.XQ.Q.Q.Q.Q.H.Q.V.Q.V.Q.Q.%X=X,X,X4X4X3X6XsXsXaXhXmXeXS.{.'.].].].F.z.z.A.f.z.h.f.t.t.t.r.<.<.T.k 0 f b k N f N f c N c f c c c c H c c c c H T.m H H G G F T.J T.T.T.T.J *.J T.J *.J *.J *.J J +.O.O.| O.7.E O.<.U.|.|.|.).S.A.x.z.z.h.h.a.l.r.e.r.;.*.a.B 2 1 1 p 7 p p p 8 p 8 a s f s Z V f C j A A S S D = @XIXNXNXNXNXNXbXNXMXNXbXNXbXMXbXMXbXbXbXbXbXbXyXuXuXtXrXrXuXwXwXwX,XwX,X+X,XoX.XOXoX{.{.].[.].].F.F.x.S.S.",
"k k e k l l k k ` T.T.M m T.c m ! T.k   . 2. XY.n.v i c ! x b b x n M n M M m m m ! m m ! T.! } B 4 & & # $ $ + & % % % @ % @ + @ : & < < 4 t i M b Q / ..*.:.;.i.1.o.b d x g d d g a d a y p u u t t t 7 p t r e z l W W W ^ ^ ^ ^ [ ^ [ [ [ ^ ] { &.&.{ w.{ w.y.y.y.s.s.s.s.s.s.j.j.s.(._.(.s.(.+XwX@X+X+XXX+XXXXX}.'.|.[.U.U.m.m.N.g.i.Y.2.<.<.%.;.X.*. . .T.m m Q n n u l u.>.1.u.2.d.=. ./ =.u X >.=Xn.J.I.K.K.R.K.Q.K.!.~.~.*X&X~.-X1X!.M.9.n.n.n.n.B.n.9.n.b.0.b.b.b.b.8.8.8.9.8.8.9.8.8.8.8.8.,.,.,.,.,.,.,.,.,.@.,.@.>.4.4.>.,.,.@.L N * * * B r r i 4 N = 9 y y i w r y y y u N x d u g g N u u r u t z x x b x b b b b Q n c Q Q M b b i.Y.@.3.X.} } } } 4.4.%.4.>.2.2.i.b.m.g.a.<.u.:.p.r.b . + 4 + # & * 4 < B 2 < : a : + O.5XeXG.[.{.[.[.{.G.A.G.H.F.S.S.A.A.z.l.h.g.g.i.a.u.1.1.<.<.<.<.;.%.*.;.<.:.n % X % 2 @ @ ; ; & ; ; & % @ & : : & # O O f Z.fXxX>XR.&X6X-X-X^.~.~.%X&X&X<   o % . % . % . = 2 - @ N T.c i N x N * * v Y.C.Y.M.I.b Y.kXsX*X4X*X X=XU.b ....:.>.=.u.h.d.h.H.8.:...u.8X&X-X-X^.-X&X~.~.!.R.R.R.K.K.K.Z.C.C.Z.C.B.n.n.B.C.Z.5.P 4 . . # B r 4 4 * B t i B * r 4 < 4 r t 4 4 t r r 5 r t y t t u y y u u u p u a d u d d d u r y d t < 1 1 * 4 = $ u Q ( Q ( / ) ' ' $.*.&.-.;.e.p.r.a.k.a.a.eX;XQ.Q.Q.Q.P.L.J.J.J.J.L.P.Q.=X,X5X5X5XlXlXlXsXpXjXgXBXjX|.|.{.'.].G.|.`.F.S.z.z.l.l.f.f.p.u.r.&.e.e.) u i u d d d d c c d N c c d c c c c c c c c c G m G c v T.T.H T.T.F T.T.| J | T.Y | +.| *.J O.O.J O.7.J *.7.*.*.*.a.U.5XF.x.x.x.x.v.k.l.p.p.a.a.u.e.e.;.%.r o < d 1 1 p 8 7 p p p f a a f f j C C h Z A V T 2 | AXIXNXNXNXMXNXMXNXMXMXbXNXbXbXMXbXbXbXbXyXbXyXyXuXyXrXrXwXuXwXwX<X@X@XoX<XoXoXOX{.{.{.}.`.].[.`.].F.x.S.",
"k k l k l e k l T. .T.m T.T.m ! b ! | N $ u 2.R.o.x c  .T.! ! b n n m ! m ! ! ! n n m } | } z r * & & & % $ + # $ % % % % ; ; % < 6 > > > > < 4 > > < < 4 4 y t N N N g g x g g g 9 u a y d u p y u y p 1 r t t e W W W ( ( W ^ ^ [ ^ ^ [ [ [ [ { ] { { { w.w.w.y.y.y.s.s.s.j.j.s.j.(.s.j.(.j.j.|.#XrX+X+X,XXX+XoXoX}.'.[.G.G.U.A.A.N.g.i.a.2.<.<.>.*.*.%. . .) / / n n n k n 2.<.1.2.1.i.=. .} } N . y n.P.J.P.I.K.R.!.Q.Q.!.~.!.*X;X&X-X2X:X!.n.n.V.B.n.b.b.n.V.n.n.n.n.b.n.b.b.b.n.8.n.9.8.8.8.8.8.8.8.8.,.8.8.8.1.,.,.1.,.,.,.>.4.,.,.8.>.@.X.L y B = * B r r B u i r y y N r y y N x x N N i y u u N N N z l c b b b b b m ! Q ! Q m ! ! n m N.b.>.1.X.X.o.P ..o...%.>.>.,.2.Y.b.m.d.a.e.e.r.:.1...4 . # & * & & = * < B < 2 t t + 2 2.,X,X{.|.].].G.[.L.D.G.F.S.S.A.m.m.l.g.b.g.d.d.u.2.u.<.<.<.e.;.;.;.%.$.%.%.T.r . O 2 1 : @ # @ ; % > % ; > > > ; # #   # v Z.9XjX2XK.>X-X&X-X~.R.&X0XP   o = O = o % 2 2 - - r N N t u N r * i O.N.N.B.n.N.P. .b N.gXsXeX*X5X*XI.x <.=.<.>.:.8.d.d.h.A.1.:.$.=.1X4X-X-X-X^.^.&X%X~.~.!.R.R.K.R.Z.K.Z.C.Z.C.B.B.B.B.V.V.Z.9.@.v 4 o X & & 4 4 * % B t r t 4 4 & < r y 4 5 r r t r t r t t y i t p y u u g u d u d d d r y t r < 4 4 2 & = 0 z Q Q ~ ) ) ) ' ' $.&.-.-.r.e.r.a.t.a.A.|.*X.XP.P..XP.I.J.D.J.J.L.P.Q.=X=X5X5X5XeXlXlXpXpXaXjXjXmXbX|.{.}.'.].|.G.F.`.x.z.z.l.l.f.f.u.u.r.*.a.<.*.b i t N g a p u f N b c d c c c N c c c c G v c H v G G H H T.F F T.J T.| T.T.I | | | | J *.| O.O.O.*.J O.O.*.E J a.Y.U.].].F.x.x.(.x.l.l.f.p.a.r.r.e.;.<.m r < 1 7 5 7 7 8 p p a p a s f j f C C j V A C S C x eXPXNXNXNXNXMXNXNXMXNXbXbXMXMXbXbXMXbXbXyXyXyXyXuXuXuXuXwXuXwXwX<X@X<X+X+XoXoXoXoX}.}.{..XF.`.H.F.S.S.A.",
"k l l l l l W l T.*. .T.T.| T.T.T.b T.*.b * G U.T.v m T.M T.T.T.m m !  ./ ! ! T.n T.} o.v u 4 & & & & # # $ # + % % % % & & > > & & & 6 6 < > > 1 6 , 6 6 6 6 5 1 B r g x g d g d y d y d y p u y u p t r < i z W W W W ^ ( ( ^ ^ ^ [ [ [ [ { [ { { { { { { y.w.s.y.s.s.s.j.j.j.j._.(.j._.j.(.(.#XrXrX@XwX+X+XoX}..X[.[.[.G.U.S.M.m.N.Y.g.Y.a.a.<.<.*.O.%. . .T./ / n n l u n i.<.1.2.i.u.o./  .o.u & . P %XP.J.K.K.!.!.Q.&X~.&X&X*X:X-X;X2X2X2XQ.B.B.V.V.n.n.C.V.V.V.n.n.N.n.n.8.n.n.b.n.b.b.h.0.8.n.8.8.8.8.8.8.9.8.8.8.8.,.,.8.,.,.>.>.2.8.8.b.8.>.o.n 9 4 $ * 4 i 9 y y w B y N z x N N N d u g N x c b b m b b ! b ! ! ! ! ~ T.T.Q ! T.! !  .n.b.2.2.>.4.%...} } ..X.>.>.<.,.2.b.N.d.a.1.u.r.-.:.1.} # X 4 & & & * 2 * 2 < 1 % 1 t o B i.eX.X[.'.{.[.G.L.G.G.G.H.S.S.A.m.m.g.m.g.d.u.i.1.a.a.;.<.<.<.%.%.&.$...%.<.} t o o % ; @ @ @ : 2 ; ; ; : 2 > > > : 4 O   > #.~.9XfX&X~.~.:X&XR.R.-XC.+ X % $ $ - - = $ - 2 i c x N t B r G 2.B.U.U.Y.J.M.J.<.m ! M.iXiX5X5X1X=X/ %.=.<.<.1.d.d.h.m.m.:.=.:.$.Q.9X-X:X>X-X-X-X&X^.&X~.!.!.!.R.K.K.K.K.Z.C.C.Z.B.n.n.n.n.B.V.V.,.P g + - + % * r r B & & 4 4 t r < * r 4 r t 4 r r 5 t t y t y i y y u p y u u u d d r t r < 1 r 4 < . B k n / Q ( _ _ ` ' ..-.-.;.;.u.e.e.a.a.a.G.,X.XQ.L.P.K.J.D.J.J.I.I.P.Q.%X=X;X5XeXlXlXlXlXaXgXjXjXnXBXlX|.oX}..X].].].].F.F.x.x.z.f.f.f.f.u.r.e.e.e.<. .b i t u y d p u c f N h N N c h c c c c c c m H m m H H T.H T.F T.H T.T.T.T.Y | T.| | *.J E *.J *.7.O.J *.E *.J *.O.a.A.'.].F.x.F.x.v.l.l.p.p.p.u.r.r.;.>.T.< % t p 5 7 7 p s s f f p f j f V Z C Z C C V +.2 y.IXIXNXNXNXNXMXMXMXbXNXNXbXbXbXbXbXbXbXbXyXyXyXyXuXrXeXwXwXwXwXwXoX<X<X,XoXoXoXoX}.oX{.`.XX.XF.F.F.z.x.",
"l l l l W W W b T.*.O.| O. . .| *.! m |  .! c ! n G  . .M ! /  .} / ! } T. .} } X...} M 4 & & < & & & & $ $ - + + + + % % % % % $ $ & B < 4 4 < 5 t 5 7 7 p t p d t p c j g g d d d d d y d u y t p t r r i z W W W [ ^ ( ^ [ [ [ [ [ [ { ] { { { { y.{ y.s.s.s.s.s.s.s.j.j.j.j.s._.j.c.(.(._._.rXrX@X#X#X+X+X+XOX{.[.{.I.G.G.G.M.A.l.N.Y.a.2.<.<.%.;.O.*. . .) / / m n n u ! 2.<.1.d.d.<. .!  .} r r & * 9.&XI.Q.P.!.!.~.&X*X&X-X*X;X:X:X;X2X8X2X!.C.V.C.K.C.C.V.V.V.V.V.V.V.V.V.V.V.n.n.n.n.n.n.n.n.n.n.b.b.b.8.n.9.8.8.8.8.8.8.8.8.,.,.3.@.,.@.,.8.n.b.>.o.n i y * & i y y u i i u y u u N x n M n n M ! ! ! ! ! ! ! ! ~ T.~ ) !  .! /  . .Q >.V.m.d.9.1.@.@.4.o.} } ..=.>.>.,.2.d.N.m.i.u.e.r.&.:.u.:.u - $ $ & & & & & 0 > B 2 % d i $ t M.5X=X{.[.{.G.H.G.G.G.S.S.S.A.z.A.m.g.g.g.g.i.i.i.a.a.<.<.e.<.;.;.;.%. ...4.X.c % O O % > : @ % @ @ ; @ @ ; : : : 6 1 ; X   : 5.-XqX0X-X~.~.>X>X~.4Xt   $ 2 o 2 @ $ o 2 k c d i t 0 u ..M.I.M.N.B.n.J.J.J.4.4. .b U.5XaXeX,X;X=. .<.<.1.i.d.h.m.H.d.=.$.u...A.sX2X>X>X-X>X-X-X-X&X&X~.~.!.!.!.!.Q.K.K.Q.Z.Z.B.B.B.V.0.9.n.B.Z.V.0.O.v < - o * > > 4 < * < & < < 4 4 4 4 4 5 4 r 4 t r t t t t t t t y y y y p y u y r 4 < < < * * - i n ! Q Q ( ) ) ` ' $.-.*.;.e.e.u.a.e.g.|.OX=XQ.P.L.I.J.D.J.J.I.L.Q.Q.=X*X;X<X5XlXlXlXsXgXjXjXUXjXBXMX5X|.oXoX.X'.].].].`.S.x.x.A.z.l.f.f.f.p.p.e.%.e.<.*.x w u g d u u N x f N h d h N c d c c c c c v c c m H H H H T.H T.H T.J I T.| | J T.J *.T.| *.J T.O.O.7.*.J O.O.O.J 2.D.G.G.A.x.S.x.l.l.f.p.f.p.r.r.;.a.%.N * 1 p 3 7 7 p p p 8 p f f j f V V V Z C C C J t u yXIXNXMXNXNXMXMXMXNXbXbXNXbXNXbXMXbXbXbXyXyXyXyXuXuXuXuXtXwXwXwXwX@XoX@XoX,XoXoXoXoX{.Q.XX`.F.G.F.F.F.",
"W b l l W b b W T.*.O.O.O.O.*.O.T. . .! T. .T.i w k T.%.%.} ! T... .} } ..X.....4.m r < 1 0 2 $ & & = $ & = $ = = - 2 - + + + % & & & * 0 2 = 2 * & & < 4 4 4 6 t 5 t a d d d g a d d y d y y u t 9 r i k l W ~ ( ^ ^ [ ( ( ` ] ] ] ] *.{ ] { { { y.y.y.s.y.y.s.j.s.j.j.j.j._.j.j.(._._._._._.XXrXrX+X#XrXwXXXoXoX{.{.I.[.I.S.U.A.M.g.Y.g.Y.a.a.a.%.%.%.%. . .| / n m n n k ! d.1.1.i.i.=.} /  .} r B N $ N K.;X!.!.!.&X&X&X&X-X;X-X;X1X2X1X1X2XpX2XQ.C.Z.P.K.C.J.J.J.C.V.J.C.V.V.V.V.n.V.V.V.V.n.n.V.n.n.n.n.b.9.n.b.8.n.8.8.8.8.b.b.b.8.8.8.9.8.8.>.3.8.8.n.n.,.o.N r B * B i y x M n c b b ! / / ! ! ! T.Q ! ! ! ! T.T. .)  . . . . . . . ./ i.U.m.N.b.2.,.>.@.X.o. .o.%.@.>.,.3.i.Y.d.a.a.e.:.r.:.:.1.=.i . & # # & & & & > % t 1 2 B < = * P.<X{.S.[.{.G.G.L.G.G.H.D.A.A.A.m.l.m.f.g.a.i.i.<.1.a.1.<.<.;.;.%.;.%.}  .4.X.m < * @ o % 2 @ # ; ; ; ; % ; % ; @ @ > > # X o : 0.&XpX9X&XR.R.-X9X|   o % o $ - - = r c b u 0 2  .Y.J.D.n.V.J.U.I.U.P.P.}  .%...b N.lXgXlX5X&...>.:.1.i.d.m.m.S.<.*.&.d.%.1.9X6X7X2X>X>X5X>X-X-X&X&X~.%X~.~.!.!.Q.Z.Z.Q.Q.B.B.B.Q.B.n.n.6.9.n.C.B.n.2.o.g & o . + & r 4 * & & 4 < 4 < 4 4 4 4 r 4 r r r r t t r t t y t y y y y r r 1 1 r 2 = - 0 z n ! Q ~ ) ^ ) $.' $.-.-.e.;.e.e.u.a.D..X%X[.P.L.J.V.D.M.C.J.P.P.%X%X=X;X4X4XlXlXgXlXgXgXjXnXmXjXAXBX,X|.,X}.XX'.'.].].].F.F.S.x.A.l.h.f.f.u.d.r.;.&.<.<.} u r u N N d d d f f N N d d c x h c c c c c c c v H ! H c T.T.H T.F T.F T.J T.J T.| T.T.| | O.| | *.J *.O.O.7.7.*.X.>.N.G.[.S.x.S.z.z.l.f.f.f.p.r.e.e.<.*.k 2 2 p t p 7 p 7 p p 8 f 8 s s f j V c C H V F t <.IXIXNXNXNXNXMXMXMXMXMXbXbXbXMXbXbXbXbXyXyXyXtXuXuXrXuXwXwXwXwX<X<XOX+X,XoXoXoX}.{.}.XXQ.).x.F.F.F.F.",
"W W W Q W ^ ^ T.T.*.<.*.*.*.O.%.X.%.%.| *.X.! z i 0 0 b %.1.X.T... . .....4.X.o.N t < * 0 r 1 2 * * 0 = * * 0 & 0 = = = * $ = $ % # % ; : 2 2 2 4 4 4 4 4 6 4 4 , > 6 t f d f g u d u d y y p y r r i z l Q ~ ^ ^ ^ ^ ( ] ] ] ] { ] { { { { { y.{ y.y.s.s.s.s.s.j.j.j.j._.j.j.(.(._.j._.(._._.#XrXrXwXwXwX+X,XoX.X XP.{.I.G.G.U.U.g.l.N.Y.g.a.,.3.;.<.%.%. . . ._ m n / x k } d.2.2.d.i.o.) / } m y $ i r $ @.4X&X%X%X&X&X*X:X*X1X:X:X2X3X6X6X6X9XpX2X!.J.Z.I.I.I.I.P.I.I.J.K.J.V.V.Z.Q.V.V.V.V.V.V.V.V.V.V.V.m.V.n.V.n.n.n.n.n.m.n.b.9.9.9.b.b.n.N.8.3.>.2.8.8.8.b.m.n.X.i r r N z n / ! } / T.m / T.! T./ T.~ /  .)  .^  . . . . . . . ...*.T.M.I.V.n.N.8.8.,.>.4.X.....%.4.4.<.<.2.m.m.g.a.a.:.r.r.' :.u._ = $ $ $ & & & & & * % < 2 2 t r o u U.1X{.[.[.].[.].G.G.G.H.A.H.A.m.m.g.m.d.i.i.i.u.a.1.u.e.<.<.<.%.%.=... ...X.X. .N $ X o @ ; O ; ; @ @ @ @ % % < ; @ % > > # O   a 0.:X9X>XR.R.6XB.%   = o o $ o 2 N u 2 2 x >.U.U.M.n.n.C.C.C.J.J.P.P.o.X.%.=.T.! Y.4XkXsX1...:.<.i.d.g.A.S.m.=.;.;.p.r.:.;XpX2X7X2X2X>X>X>X-X-X-X&X&X&X&X!.~.!.Q.!.E.Q.Q.Z.Q.Z.Z.Z.q.n.n.n.0.9.n.Z.Z.n.@.v t % o o % < 4 < & < < < * < 4 < < 4 1 4 r 4 4 4 4 4 t r t r t r t < < 0 B r & = = z n ! W Q ) ) ! $.' $.&.*.;.e.e.u.e.u.D..X.XL.I.I.J.V.V.M.V.D.K.Q..X=X*X;X1X4X8XlXlXgXgXjXjXjXzXBXUXZXnXoXoXoX}.OX].'.[.[.].G.F.F.z.x.l.l.l.g.a.r.u.e.;.;.<.%.! w w p N p u u f u N f N d N f x N c d c c c c c c H H c T.C T.H T.H T.F T.T.| T.| | | | | T.| | J *.J J *.O.O.O.+.o.%.Y.|.{.F.S.x.x.l.k.f.f.p.p.p.e.a.a.T.w 2 5 t 1 t 7 8 p 7 f 8 f s f s C Z V C J 3 E f B hXIXNXNXNXNXMXMXMXMXbXNXMXbXMXbXbXbXbXbXbXyXyXyXuXuXuXwXwXwXwXwX@X@X,XoXoXoX{.oX{.OX).Q.XXQ.`.F.F.x.",
"^ b Q ~ ~ ~ ^ T.W <.a.<.O.<.O.%.3.%.X.%.<...Q b ! u - - N  .%.%.%.*.O.%.4.} M N % B r 4 2 2 2 i w q w w w q w q 0 0 0 0 0 0 0 = $ + + & % > 2 0 6 4 6 6 4 6 6 4 6 5 t 9 d d d d d a a y a y p t y k z l W ^ ^ ^ ^ [ ^ ] ^ ] { ] { ] { { w.{ y.y.y.y.s.y.s.s.j.j._.s.(.j.j._._._.|.(._._._.(.XXbXrXrXwXwXwXoX,X X X{.[.[.|.G.G.S.A.U.N.N.Y.i.2.a.<.<.%.%.*. . .| } / n n x N ..h.u.i.d.<.) }  .! L i $ B y * t V.-X-X&X&X-X:X:X>X1X1X2X2X3X8X9X9X8XpXpX2X%XI.I.R.Q.Q.K.K.Q.I.I.I.V.K.Q.V.Z.Z.V.Z.J.J.C.C.C.V.V.V.V.V.V.n.V.V.n.n.V.n.n.b.b.9.b.9.2.8.8.n.b.9.8.8.8.8.V.Q.3.X.b.N./ / n x b !  . ./  .T./  . . . . ... ... .*. ...*.....*.%.%.*. .U.[.C.D.M.b.b.2.1.>.<.%.X.X.%.4.3.>.,.Y.m.g.u.u.:.r.r.-.[ 1.:.n = $ & # # % & & t o % r 2 2 t t   M P.<X.XH.[.].].G.G.G.H.H.A.A.m.l.m.g.m.g.i.i.1.u.u.a.<.<.<.<.=.=...$.%.$...) %.} N < + @ @ % @ @ ; @ @ % % % @ : 2 ; @ ; : ; ,     f E.9X6X-X-X:Xh   % o o % 2 p N t t c Y. XK.N.b.D.I.B.M.J.C.I.%XI.%.i.=.} <.T.c Y.5XUXU. .<.1.i.g.i.A.A.a.*.;.p.e.d.=.Q.fX0X7X6X6X2X>X7X>X>X:X-X-X-X&X&X~.~.!.!.!.!.!.Q.Q.Z.q.B.B.Z.Z.n.6.n.9.6.9.n.B.B.N.@.c % X o * 4 r < < * < * 4 < < < < 4 < 4 < 4 4 t r r t t r t t r < < B 0 * = w n Q ! Q Q ) ) ` ` $.$.&.-.e.e.e.e.i.A.{..XJ.V.J.D.M.M.V.V.J.K.!.%X&X*X<X4X3X8XtXlXgXgXgXjXjXzXBXmXnXZXgX X5XoXoXOX'.{.'.].].|.S.F.F.z.S.l.l.f.f.r.p.u.e.-.;.%.%.b p 0 p k p p d u f d N x d d h h c h c c c c c c c H T.H c H T.H H T.T.F T.T.J T.| T.| | | | *.*.*.J *.J O.E 7.+.| | >.Y.S.|.S.x.x.z.l.l.l.f.f.f.t.e.i.<.T.t < 1 p t p 8 p 8 8 f f f f f f Z V Z F V C F 2 Y.IXNXNXNXNXNXMXNXNXNXMXbXbXMXbXNXbXbXbXbXbXbXyXyXyXuXuXuXwXrXwX<XwX@X@X+XoX+XoXoXOX.XXXXX].Q.).F.F.",
"T.^ ^ T.^ ^ T.^ ! O.Y.3.<.<.<.O.>.>.%.<.%./ b ! Q ^ l -   = T.i.O.%.%.>.X.v r + 9 6 < * 0 2 0 0 w w w w e w e e e e e e i e w w * * & $ & $ 2 - & < & < < < 4 6 5 5 5 6 1 f d a a d u a p t 5 p r u W ( ( ( W ( ^ ^ ] ^ ] { { { { { { w.{ y.{ y.y.y.s.s.s.j.j.j.j.j.j.j.(.j.(.(._.(._.|._._.#XbXrXrXrX,XoX,X,X X{.{.[.[.[.[.G.D.U.S.N.l.g.Y.2.a.<.<.<.%.%.*. . ...n / / l k } h.2.d.d.=.}  . .m L & 4 B y i + n 4X-X&X*X:X:X2X4X2X3X2X2X2X8X9X9X9XpXfXkX4XR.P.%XQ.Q.Q.Q.K.I.Q.Q.Q.K.Q.Q.V.Q.K.K.K.J.J.V.Q.C.Z.V.Z.V.V.V.V.V.V.V.n.V.n.V.V.V.V.n.M.n.n.8.b.n.V.V.C.1.M B . N =X8X8X*Xm...! b m ! .. ..... . . . . . .......X.*.*.%.%.%.X.%.%.O.%.L.%XJ.U.V.m.n.8.,.,.,.>.X.X.X.4.>.3.1.b.d.i.u.u.u.[ :.h.[ ' :.1.$ $ # $ & & & & = i < 2 < 1 : 1 y X M {..X]..X[.[.[.G.H.S.H.A.A.A.m.m.l.g.g.i.g.f.a.a.a.u.<.<.<.$.=.=.$. .$. ...! %.%.m < X O : # # # # % @ % % @ % ; @ % < > @ @ 1 ;     H R.qX%XaX|   = % . - z i 0 p 3. X XY.N.C.I.C.C.K.P.K.%XU.%X%Xo.>.>.=. .<.*.z a.jX*X*.a.2.g.i.d.S.m.&.*.;.f.;.z.=.M.fX9X0X6X6X2X6X>X2X>X>X:X-X-X-X&X&X~.~.~.!.!.!.Z.Q.Q.Q.Q.Q.B.V.C.K.B.B.B.n.9.9.6.Y.B.B.N.o.y + O o & * * < < < * < 4 < < 4 < r < 4 4 4 4 4 r 5 4 r r < 0 2 = 2 0 i n n Q Q ~ ( ) $.` $.&.-.;.e.e.a.&.A..X{.L.V.V.J.M.M.V.J.P..X.X%X*X*X5X4X4X3XlXsXlXgXjXjXnXBXMXBXBXBXAXyX|.+XoX+XOXOXOX'.].|.G.|.F.x.A.x.z.l.g.p.f.u.e.u.e.&.%.;.*.b r u f k 1 p u f d f d d x d N d c N c c c c c H c c c T.T.C H T.H F T.F T.T.J | T.J T.| | | J *.O.O.*.J T.O.+.#.+.| %.m.G.].F.x.x.z.l.l.f.k.f.s.e.e.i.a.c 2 p 1 1 p 7 p p 8 s 8 8 f f h f Z V C S V Y f 2 MXIXNXNXNXNXNXNXNXNXNXNXNXNXbXbXNXMXnXnXnXbXbXbXbXyXyXuXuXuXrXuX<XwX<X<X+XwX,XoXoXXXOX.X'.Q.XXF.Q.",
"^ T.^ ^ ^ *.^ ^ ^ *.a.a.<.Y.<.3.6.<.>.%. .) ~ ~ Q ~ } b =   X r %.6.,.v t 4 5 4 2 i 2 2 e e e e e e e e e e e e e e e e e e e 0 e e e e e 0 2 = $ = 2 2 < 1 1 2 6 , 6 5 7 y 9 d d d a d y p t i ( W W ( ^ ^ [ ^ [ ^ [ [ [ [ { { { { y.y.y.s.y.y.s.s.s.s.j.j.j.j.j.j._._.(.(._._._._._._.XX+XbXuXrXeX<X,X<X,X,X XoX X{.{.L.I.G.S.m.m.m.g.Y.Y.a.a.<.<.%.%.%.O.*.T./ / ! ! ! i >.i.1.d.1...} / / } L B B 4 r y 4 B 8.pX;X;X8X~.2X2X6X2X8X9X9X9XiXpXpXpXpXfXjX>XP.R.!.!.!.%XQ.Q.Q.Q.Q.Q.Q.Q.Q.K.K.K.Q.Z.Q.J.Z.V.Z.Z.V.V.V.Z.V.V.V.n.C.q.V.V.V.n.B.n.n.n.K.Q.Q.V.@.P $ r X   P ;X2XQ.*X2XiX9X;XV.X.N x m ) %.%.;.$.) -.;.*.*.*.*.%.%.a.<.;.*.<.<.%.%..XQ.Q.Q.C.V.M.b.b.8.,.>.>.X.X.X.>.,.i.1.i.Y.i.<.;.r.;.;.:.*...=.:.=   * & @ : > & * * * * < < < 1 < o m ,X,XA.{.H.[.L.H.S.H.H.H.A.m.A.m.m.g.g.Y.d.u.u.1.u.;.;.<.;.=.%.*.*.$.....$.) /  .T.z % X % @ % ; O # % ; # $ & & & % % % % % > : o X @ y &XfX>X#   B X y 2 i | U.R.B.0.U.C.Z.I.I.U.R.R.U. XU.5XU.4.:.:.=.T.*.<.*.l <.4X<.<.Y.p.i.A.S.u.%.*.a.p.e.l.1.1.8XfX6X9X0X6X6X6X2X2X>X2X>X>X-X-X-X^.~.~.~.~.~.~.!.Q.Q.K.Z.K.Z.C.Z.C.C.B.n.n.n.n.0.N.0.Y.B.n.,.H < o o + % * < & % * & * > < < 4 < 4 t r 4 < * 4 t < < B * $ = k ! b Q ! ^ ) ) ` ' $.*.&.&.-.r.r.=.L.U.P.I.J.V.m.n.M.D.J.K.P..X=X=X*X;X4X4XtX9XsXaXgXjXjXnXzXBXzXBXBXAXNXwXoX,XoXoXOX{.OX'.'.'.|.].|.F.A.z.z.z.l.p.f.p.a.e.r.:.-.$.*.*.u w u k p p u d d d d f d N d h h N h h c c c m c c c G H G G H T.H m H T.T.J T.T.T.| | Y | | +.| +.| O.O.| E *.7.O.J *.Y.|.[.x.c.x.F.l.f.p.f.f.a.e.a.a.$.b % r 7 7 7 V f 7 8 s s s f f j V H f H V A s 8 0.^.R.E.E.E.E.E.R.E.E.W.E.W.q.q.W.Y.q.0.0.0.7.6.0.5.7.5.5.#.#.#.#.#.#.+.+.T o.T T R U R P U U D D ",
"^ ^ ^  .^ *.*.^ *.*.l.Y.Y.a.,.a.<.Y.Y.%...! ) / ! ~ ! n i $ - - o u x r 4 t 4 t 1 i e k i e e e k e e e e e e e e e e e e e e k k e e e e e e e 0 0 0 2 2 * 2 2 6 5 4 4 4 y y u u d d t r i N b Q ( ( ( ^ ^ ^ [ [ [ [ [ [ { w.[ { w.{ y.y.y.s.s.s.s.s.j.j.j.j.(._._._.j.(.(._.|.(.}.}._._.+XbXrXwXeXwX<X,X,X,XoX X{.{.{.[.G.U.G.U.A.M.g.g.Y.2.a.<.<.<.*.%.*. . .} / n n ! u 1.i.i.d.<... ./ ! ! n * * w r y r 4 9 ~.0X~.;X2X2X2X6X6X8X9X9XpXiXpXaXaXaXaXkXfX3XR.~.!.!.Q.Q.&X&XQ.~.Q.Q.Q.Q.Q.Q.K.J.Q.Q.Q.Q.Q.Q.V.Q.Q.Q.Z.K.V.Q.K.Q.Q.V.n.B.n.Q.V.&XK.8.o.c 6 & $ 9 . . L Q.;X*X%X*X-X4X2X9X9X9XiXV.i. .Q b } %.i.%.;.<.%.<.<.<.<.;.*.<.%.<.e.*.Y.<XQ.Q.Q.J.C.V.m.b.8.8.,.>.@.X...=.1.2.,.2.b.2.<.u.<.e.;.:.:.$.$.=.l = - + % ; @ & & > > > < 2 < 2 t 2 = T.=X<XS.[.I.A.H.{.H.z.H.A.A.m.g.g.g.Y.g.d.i.i.u.1.1.1.;.<.;.;.%.*.....' .. .)  . .! g r X X @ > & # # @ # # # + @ @ @ & @ % & 4 < + # # X +.C.P   X * r m 6.U.U.B.U.Z.n.C.I.I.K.R.R.R.R. XR.1XU.=.<.:.>.a.*.*.a. .T.g.;.a.Y.d.g.A.m.1.&.a.a.a.p.l.u.u.*XjX0X9X0X6X0X6XlX6X6X>X2X>X>X>X>X-X-X-X-X~.~.~.~.!.!.!.R.K.K.K.Z.Z.C.B.B.B.n.n.n.0.Y.6.2.b.n.b.9.| H t % X o & t t 4 * % * < 4 r & * 4 4 r 5 t t < > 0 2 = w k b W b ! ! ! ) ) $.$.$.$.-.w.;.u.l.L.L.J.C.V.M.M.M.D.J.L.K.Q.=X*X;X;X4X4X8XiXsXaXaXjXjXzXzXnXBXcXBXAXZXAX,X+XwX+XoXoXoXXX{.'.'.|.[.`.F.S.x.z.z.l.l.p.p.u.r.r.;.:.-.*.*.~ i r p N p p d u d u N d d c N N h x x c x c c c c c v M c T.H G c H T.G G T.F T.J Y T.T.| | T.| | | | | +.*.J *.O.*.J O.a.S.].|.x.l.c.A.z.p.l.l.t.p.p.r.%.t 4 1 p 7 1 7 s a a a a f V f j Z C C A H s V E.E.Z.E.W.q.B.q.q.0.B.q.q.q.0.q.0.0.0.0.0.6.0.5.5.5.0.5.5.#.#.#.#.#.+.+.+.+.+.T o.o.U U U U D D U ",
"^ *.*.^ *.^ ^ *.^ *.a.U.Y.Y.Y.Y.a.g.Y.%. .) ) ) ` ! Q ! ! k =     > t < 4 i t i e e e k e k k e k e e e k k k e k k e k k e k k l e e l k k l W k k k r w 0 2 0 * * < B 4 t p a a a y u u k W ~ ^ ^ [ ^ ^ ] ] ] [ [ { { { w.{ { y.{ y.y.s.s.s.s.s.j.j.j.j._.c._.s.(._.(.(.)._._.$X_._.s.#XuXbXrXwXeX5X<X,X,X,X X%X{.{.{.[.L.G.D.A.A.g.g.l.Y.a.2.<.3.<.%.%. . . ./ / ! n n k 1.d.d.i.;. .} ) / ! x = & B r y y y . @.8X6X;X8X2X2X8X9X9X9XpXsXpXaXaXaXfXdXfXBXjX-X~.=X&X&X&XQ.~.Q.&X!.~.~.Q.Q.Q.Q.Q.Q.Q.Q.Q.Q.Q.Q.K.K.Q.V.K.K.Q.Q.0.Q.Q.Q.Q.~.Q.Q.o.v 9 * * & & 4 * X g !.6X-X%X-X:X:X:X1X2X9XaXdXjXaX5XI.Y...! l %.%.<.<.a.<.;.<.<.a.a.a.a.a.%.U.1X=XQ.Q.L.I.J.V.n.m.8.9.2.>.=.@.X.>.1.3.2.Y.i.<.e.e.e.e.:.:.$.=...%.x X . % & % & & & * * * > < < 1 r $ $ ..=X,X[.].[.G.H.D.H.A.A.A.A.g.N.g.g.i.f.a.f.1.u.<.;.1.:.;.;.%.$.$.$.....) } )  .} T.m r $ o o o o + o + + & # % @ $ @ < % o X       X   O c O.o   g P U.R.U.B.N.N.U.U.I.I.R.K. XR.~. X%X{.1XU.=.u.1.;.a.*. .<.<.! ! <.i.u.d.m.A.i.;.;.a.a.a.a.d.f.u.D.jXfX0XqXqX0X9X6X6X6X6X7X>X2X>X>X>X-X-X~.-X~.~.&X~.!.!.!.!.K.K.Z.J.Z.C.Z.C.B.V.n.M.n.n.0.9.6.b.n.n.Y.,.G u & + o $ % < < 4 < * $ * < < < < * * & B 2 = $ = k Q l b ! ~ Q )  .` ` *.$.$.;.&.-.h.L.I.U.V.V.N.N.D.C.J.K.P..X%X*X;X<X4X4XlXsXsXaXhXfXjXjXBXnXBXBXBXAXBXIXMX XwX,X,X+XoXoX}.XXOX'.].].G.`.F.x.x.z.l.l.l.p.u.u.1.;.:.:.*.*.*.T.i 1 N i d y u f d d f N N d f c N h x h c c c c c G M G c b G G G m G H H T.F T.T.T.I I T.J | | | O.| O.J | J O.7.*.J *.3.S.[.|.z.x.x.x.k.l.k.p.p.f.f.i. .t : 5 p , 3 p 8 a 8 s s s j f f H s H H 8 T R.E.E.E.E.E.E.B.E.q.B.q.q.0.0.q.0.0.0.7.0.6.5.5.6.5.6.5.5.#.#.#.#.+.#.T #.+.Y Y U R U U U U D D U ",
"*.^ *.*.{ { *.*.*.*.a.l.U.Y.Y.Y.Y.N.i.*. .$.$. .$.) ) !  .~ e . % y g r t i i i k k k e k k k k k k W k k k k k k k k k k k k k e e l e k k l e l k k k k k i i B * < 6 6 6 5 5 s p 4 y z b ^ ^ ( ^ ^ [ ] ] ] { { [ { { { { y.y.y.y.y.s.s.s.s.j.j.j.j._.j.c._.c._.|.(.j.(._.}.}._.j._.bXIXhX3X5XeXwX5XwX,X,X,XoX.X X{.{.L.[.U.U.U.m.m.N.N.i.a.2.a.<.%.*.%.%.%.| / / / n n u i.d.N.i.%.} ) } } ! n & & B B y u N 9 & Q.kX8X1X8X8X0XiXpXsXpXpXdXkXjXaXfXUXjXjXzXjX;X&X&X;X;X;X~.;X&X&X&X&X&X&X&X!.~.!.!.Q.Q.&X&XQ.!.Q.Q.Q.Q.Q.Z.Q.~.~.!.Q.n.@.z 4 + * B * 4 r r r   g J.1X:X&X:X:X1X2X2X6X6X8X2X3XsXfXzXzXkX1XJ.d...%.*.;.<.a.a.<.<.<.<.<.a.a.<.[.<X;X=XQ.Q.Q.L.U.Q.n.m.8.8.,.>.>.X.>.>.1.i.N.i.i.1.;.r.;.*.&.$.$./ :.) * . @ % > % % & % & * * 2 < < < B & -  .5X%XS.L.[.A.G..Xm.U.A.A.A.m.g.N.g.d.d.i.u.u.1.u.;.<.:.;.=.=.$.4.$._ .. . .) } }  .T.t + o # % > < + # $ # O X X X     O & d F ,.C.2XR.&XdXJ.H N.iXU.B.n.U.R.R.R.R.R.I.R.R. X~. X X&X=X4XU.>.u.1.1.%.*.>.*.%.*.! <.d.i.h.D.A.:.*.1.a.a.p.f.a.l.d.d.jXjXdXqXdXqX0X0X0X0X6X6X6X6X2X2X>X>X>X-X;X-X-X&X~.&X~.~.!.R.!.R.K.Q.K.Z.K.C.Z.B.n.n.B.n.b.Y.6.6.9.9.0.b.9.O.c r o . o + % * < < & > * * & & 4 4 B % - = t b ! x Q Q ^ ! ^ ` $.*.$.;.;.&.;.m.G.L.D.D.M.n.n.V.U.J.P.P.=X=X*X;X1X4XeXlXsXsXaXhXjXjXjXBXzXBXBXBXAXAXAXIXnX{.+XwXoX+XoXoXoX{.{.'.].[.].`.F.F.z.z.z.l.l.l.p.u.u.r.r.:.e.*.*.<.b 0 0 t y y y u y d u f N d N N c d h x x c c c c c c c c H c G c H G G T.H T.T.J T.I T.| | | T.| J | | 7.*.*.J O.E O.*.X.<.N.[.'.x.v.x.l.S.l.a.t.p.a.a.a.! r < t 7 5 7 a 8 a s s f s s f Z V Z V K W.^.E.E.q.E.W.B.W.q.W.q.B.q.q.q.q.0.7.q.7.6.5.6.5.7.#.#.3.#.#.+.+.#.+.+.+.T Y Y o.U } U U P U D A D ",
"^ *.*.] { *.{ w.e.*.<.S.U.N.Y.U.N.g.e.*.*.;.;.$.) $.) ) / ) b i * t i e z z z l e e W e k W k l k l k l k l l k W k k k W k l k l k l e l e l k l z l l l l l l z N u t r 1 > : a y y x W W ^ [ [ ^ ^ [ [ [ [ [ { { { y.{ y.y.y.s.s.s.s.j.j.j.s._.j.j._._.j.c._.j.(._._.}._._._.s.+XNXKXKXsX,XgXeXeXwX<X5X,X X,X=X{..X{.[.L.G.G.S.M.m.m.Y.g.i.i.<.3.%.<.%.*.....) / / m n N d.d.m.1...} } / / ! M & * B * y y u M $ v 2XfX1X9X9XiX0XiXaXpXdXkXkXfXgXfXjXzXjXjXBXkX1XQ.;X2X;X;X:X;X&X;X&X&X&X&X&X~.~.;XQ.~.;XQ.~.Q.K.Q.&X&X;X;X;XQ.V.4.g 4 $ $ + * 9 r 4 r 4 & + B B.2X&X%X-X:X:X2X2X2X9X9XpXpXdX6X0XfXjXBXcXcXjX=X[.Y.*. .%.i.m.d.m.i.a.g.1.1.,XtX<X&X=X%XQ.P.L.n.8.n.8.b.8.,.>.%.4.>.3.2.Y.Y.i.<.e.e.;.:.$.$.$.....%.m * X + % % % % % & & & * 2 r % % t 0 B %.5XG.A.L..X].D.F.A.S.S.A.A.g.g.g.g.d.d.i.u.a.1.r.;.;.<.:.=.$.$.$......._ / ! ! ! %.n u 0 X       X X X . & u U o.6.n.K.&X1X2X2X6X>X&XdX6X| o * O.I. X~.I.Z.I.R.I.R.R. X~.=X~.=X-X=X=X<XD.>.d.1.1.a.%.Y.*.X.<.| %.m.i.h.D.g.=.*.u.a.;.u.g.f.m.z.<.iXjXfXdXfXqXpXqX0X0X9X9X6X6X6X6X2X>X>X>X>X-X-X/.&X&X&X~.~.!.!.!.!.Z.K.Z.K.I.Z.B.U.B.n.n.q.N.Y.n.9.6.,.9.9.b.9.,.P c > o X . % < < < * < < < < & t - - w z b Q Q Q ~ / ) _ ` $.*.*.*.;.;.b.L.L.U.N.N.n.M.V.J.I.K..X%X=X*X;X4X4X3XlXsXgXkXfXjXnXjXzXBXBXBXAXBXAXAXZXIXgX+XwXwX+X+XoXoXoXoXXX}.{.'.|.|.F.S.x.S.x.A.l.k.a.a.r.r.r.:.-.&.$.*.*.b 2 r u y y y d u u f f u d N d h x h N x c c c c c c c v c v m G c G H T.H H F T.F T.T.T.T.| | | | | | | J *.+.| 7.7.O.| %.U.[.|.x.x.x.S.l.l.p.a.a.a.g.<.c r < t f 7 7 p 8 a f s f s f C h C 7 F E.E.W.B.q.q.q.B.q.q.0.q.0.0.q.0.5.0.0.0.6.7.6.7.5.3.#.#.+.#.+.+.o.+.I +.+.Y U I P U U D U D D j j D ",
"w.w.{ *.*.{ { *.e.e.*.l.|.U.n.U.A.g.e.&.;.<.&.*.` $.$.) ) _ ..) 0 u k l l l k l W e e ^ W k W k W k k W l l l l l l W k l l k ^ W W W W l l l k l z l l l W W W Q ~ W l z u i i B u n _ [ [ ^ ^ [ [ [ [ [ { { [ { { { { y.y.y.y.s.s.s.s.j.j.s._.j._._.j._._.)._._._.}.XX_._.j.(.nXPXKXKXLXgX5XgXeXwX5XwX<X,X,XoX,X{. X{.{.L.L.U.S.S.m.d.l.Y.i.i.a.<.<.%.%.X.X...} / / ! b z m.d.i.=.../ / ! ! m b = 0 r r y t i g y % 8.fXkX9XpXpXaXpXaXkXfXfXfXfXzXjXfXUXjXjXBXCXkX;X~.;X1X1X1X;X;X;X;X;X;X;X;X;X~.~.Q.;XQ.&XQ.;X;X;X;X&XQ.h.8.9 * & $ $ w 9 x 4 r B * 4 * $ $ M.:X1X&X:X1X-X2X1X2X3X9X9XiXiXpXjXfXaXdXfXjXBXBXHXCXjX5XI.a.*.! %.a.A.A.S.u.d.1X8X1X;X;X%X%X%XP.Q.Q.Q.m.N.9.8.8.3.>.<.%.<.i.b.i.u.;.;.;.:.:.$.-.$.) $.%.k o . @ % % % % $ * & & & < > > r 1 2 o a.,X=XS.G.L.A.G.S.S.S.A.A.g.N.g.g.g.g.f.i.u.1.1.1.<.r.=.=.=.=.=......... .~ ) / / } ..x * & 4 r P +.1.n.Q.~.1X2X-X&X&X-X-X;X~.Q.!.1XfX0.X   X   T.Y.R.&XR.Z.I. XR.R.~. X&X=X~.-X%X&X1XM.=.d.1.a.l.%.a.<.O.*.*.<.d.d.m.m.u.*.=.a.1.u.u.p.l.m.S.1.*XzXjXdXxXdXqXqXpXqXqX0X0X9X6X6X2X2X2X7X>X-X:X;X-X-X&X&X&X&X~.~.!.!.!.!.K.K.I.Z.R.I.B.B.B.M.N.0.N.0.b.6.6.,.6.9.n.9.4.G u % O   % $ & > < * & & r - $ u n b W ! ! ~ ) ) _ $.*.&.;.*.;.Y.U.U.M.N.i.N.m.D.J.L.P..X%X=X;X;X1X4XlXlXsXaXaXfXjXjXjXBXBXBXMXBXAXZXAXZXIXIXwX,XwX@XwXoX,XoXoX{.oX'.'.{.[.].].F.F.x.A.z.l.p.l.f.p.r.r.:.&.e.&.$.*. .k 0 i t p y p t d u u f d f d N d d f h f x h c c c c c c v H c c m ! H H T.H F T.T.J T.T.J T.| J | J *.*.7.O.| | | O.O.| %.d.{.].A.l.S.x.x.l.l.p.a.a.p.;.z < < p 8 7 p a 8 8 s s s f f Z C 7 7.R.q.W.W.E.q.W.W.q.W.q.0.0.0.0.5.0.5.0.7.6.7.3.7.#.7.+.#.#.#.+.Y R +.+.I I U P U U U D D D D D v v j ",
"l.a.s.{ { *.{ w.e.a.*.l.[.U.U.U.A.a.*.;.r.;.&.-.*.&.*.' ` $.&.&.W Q W W W l e W e ^ k W W k ^ k ^ k ^ l l W ^ k W W k ^ W l ^ k W W W W W W l W l l W W W W W W W W W W W W l l z z z ( [ [ ( ^ [ [ [ [ { { { { { { y.y.y.y.s.s.s.s.s.j.j.j.j.j._.j._._.j._.(._.}._._.(._.|.yXIXLXKXKXLXKXmX5X,XeXeX5X5XwX,X,X,X.X{.{.{.{.[.U.G.U.M.m.A.d.d.i.i.a.3.<.<.%.O.X. ./ / / n b z m.g.1.%... .! ! / m N & B r r i y y 4 x 4 u Q.jXpXpXpXaXdXfXkXfXjXfXjXUXzXjXzXcXcXcXCXBXkX2X;X2X2X:X:X;X:X;X;X;X;X;X;X;X~.;X1X:X:X;X8X:XQ.m.@.9 w . 4 B 9 u 9 9 B & r 9 4 4 4 # 4 4.2X:X&X:X3X1X:X3X2X8X0XpXpXaXpXsXaXfXfXfXjXUXcXzXfXBXZXHXSXUX3X Xa.<.<.;.m.a.h.8XtX4X1X<X*X=X=X%XQ.n.V.n.M.m.b.d.i.,.>.<.>.a.i.b.1.e.:.:.:.$.$.$.$.$...../ i o O + % % $ * % % & > % > r > 2 * = 0 m.,XI.D.D.D.L.H.H.D.m.A.m.g.g.g.g.g.i.d.u.a.1.<.r.<.:.:.;.$.$......._ ..$.) / l / / L } b.Q.!.Q.Q.!.~.Q.Q.Z.V.~.!.K.I.Q.!.:X1X:X0XB.4   + % X   - H U.*X=X X~.R. X&X&X&X=X-X X=X*X5Xn.<.m.u.d.a.a.<.<.a.3.*.<.g.m.A.h.=.=.u.r.u.i.u.g.g.l.S.d.V.zXcXfXfXfXfXdXdXdXpXpX0X0X0X0X6X6X6X2X2X>X>X>X:X-X>X&X&X&X~.~.!.~.!.!.R.R.R.K.B.B.U.C.U.U.n.n.9.N.n.n.n.6.,.,.3.,.9.0.6.o.x t $ + + + % * 4 B = = 0 b b l Q Q Q ( ) ` ` ` *.&.-.-.a.S.B.n.b.n.N.n.D.J.L.P..X%X*X;X5X4X3XlXiXsXaXgXhXjXjXUXBXmXBXAXAXAXAXZXZXZXHXZX5XrXwX,XwX,X@X+XoXoXoXoXOX'.[.].`.G.S.F.x.z.l.l.p.p.p.r.r.:.&.e.;.` *.*.! i t t t t t y t u f u u u d d d d f x x h c N c x c c c c c G H m H H H T.T.H T.H T.J T.J | I | Y J | J *.| | | | +.O.| | %.Y.D.G.F.x.S.x.l.l.p.k.e.l.g.%.g 2 , 8 9 7 p 8 p f s f f s c 8 S q.E.W.q.q.q.0.q.0.q.0.q.q.q.7.0.0.5.5.7.3.7.3.3.7.O.+.T +.+.o.Y +.U Y P U I P P U v D v v j j j j j j ",
"|.(.l.a.y.w.s.a.e.a.&.l.[.U. X|.l.a.;.a.r.;.&.<.;.&.$.*.;.e.;.w.^ ~ W e W W W ( W k ^ W k ^ l W k ^ l ^ W W l ^ l ^ ^ l ^ W W ^ W W W W W W ^ W ^ ^ ^ ~ W W W W W W ~ ~ Q Q b W u.n 0 q l ] w.y.[ [ [ { { { { { { y.y.s.y.s.s.j.s.s.j.j.j._._.j.j._.j._._._._.).|.}.}.+X+X,XAXKXLXKXPXKXKXnX,XgXeXwXwX,X,X,X,X,X.X=X{.{.L.I.G.U.D.S.m.m.m.Y.i.a.a.<.%.%.%.%... ./ / / ! x z M.b.<. .}  .! ! ! ! N = * r r y y N y 9 v $ o.kXjX9XfXkXkXfXfXjXjXjXjXfXcXBXUXUXBXcXUXZXCXpX;X2X2X:X2X2X2X2X>X>X:X:X1X:X;X2X8X8X8X2X5.P 9 + # 4 9 9 9 9 4 w r r r w * * 4 4 $ . o.kX:X&X:X4X-X>X3X8X9X9X9X8XiXaXfXfXjXjXjXjXjXcXBXzXBXBXBXBXZXSXHXPXAXlXg.*.<.a.D.hXsXeX1X1X;X*X*X=XQ.Q.Q.Q.V.M.N.b.b.2.>.%.>.2.Y.d.r.r.:.:.-.:.$.-...*./ ~ =.! = X % @ % % % $ * & < & > : * 1 r t = w d.<X[.H.L.H.A.H.H.A.A.m.A.m.m.g.d.g.d.u.1.u.u.u.<.:.:.=.:.*.=.4._ ..) $._ ) ) _ Q x / M.Q.M.C.V.Q.C.C.Q.Q.Q.Q.%X-X&X&X~.~.~.2X3Xt   r o X $ % -   X T.-X3X%X X~.-X-X&X=X X-X&X&X5XM.<.m.d.d.<.N.a.*.a.%.%.*.b.m.A.i.*.:.u.<.a.f.a.g.l.l.S.m.Y.zXvXfXxXfXfXfXdXdXdXpXpXqX9XqX6X0X6X6X6X2X>X2X>X>X:X:X:X&X:X~.~.~.!.!.R.R.R.P.R.R.E.I.Z.B.B.Z.B.B.n.9.n.n.n.8.9.6.,.3.,.6.9.9.P h < - . X o + + = k b b Q Q Q ! ) ) ` $.$.&.&.) a.U.S.n.n.n.Y.V.C.D.L.L..X%X=X*X;X4X4X9XlXsXaXkXkXjXUXUXjXBXBXBXBXBXZXAXZXIXIXHXAXoXuXwX+XrX+X+X,XoXoXoXoX'.{.'.].].|.S.`.z.A.l.l.l.f.f.u.t.r.r.-.&.;. .*. .! i t t y t y t d y a u a a x d d x f N N h N c c c c c c c c c c ! H H H H T.T.J T.T.T.T.T.J T.T.T.J *.J | O.O.| | +.O.+.| | i.{.S.x.x.l.A.l.l.k.p.a.a.Y. .4 : 7 7 7 p p 8 p s f j C C 3 +.E.q.W.q.q.q.q.q.q.q.7.6.7.q.6.5.0.5.5.7.7.3.7.7.+.+.+.#.+.T Y o.U I I U P U P U D D v v D D j j j g g ",
"l.z.F.`.`.k.e.{ t.y.p.p.Q..XH.Q.u.a.f.u.r.:.:.:.w.:.r.h.r.r.r.[ ~ ~ ( ~ W W W ~ ~ ~ Q Q W ~ W W ^ b b ^ Q b ~ b ^ Q ~ ~ W ~ W W ! W W W ~ W Q Q ~ ~ ^ Q W ~ ~ ~ ^ W ^ ^ W W ~ w.u.u.z - % 2 2 r ) ` s.] s.{ y.y.s.s.s.s.s.s.s.s.s.s.s.s.(.x.x.S.[. X X~.&XR.R.-X/.-X-X-X-X-X-X5XKXLXLXLXLXIX,XyXeXwXwXwXwX,X,X,X=X.X X{.[.[.L.U.S.U.A.m.d.g.i.2.<.<.<.<.%.*.*. .T. .! T.k n D.d...o. .} / ! n n N = 0 B 0 i t u p d x c B n.CXlXdXfXjXzXjXzXzXjXUXcXcXcXcXBXBXVXVXBXFXZXpX5X2XiX4X3XiX8X1X1X1X2X6XpXkXiXQ.>.N = * w w 9 u y 9 i B N B B B 4 B 4 4 * y & . X.1X&X;X-X:X2X4X2X6X9X8X9XiXpXdXdXkXjXkXxXUXUXzXcXmXvXVXAXVXCXCXZXZXZXHXJXJXZX8X8.n.kXlXsXlX5XeX5X5X%XQ.Q.Q.Q.Q.V.V.m.b.b.8.1.@.>.,.d.1.e.;.&.:.:.$.=.$.' .._ / ..Q - . = = $ * + o = % & & 2 > < < < t O 4 m.;X{.H.[.H.A.H.A.A.A.A.A.g.g.g.i.d.a.u.u.1.1.1.;.:.=.%.&.=...4.......} / _ / / k / J.Z.n.Q.Z.Z.Q.Q.!.!.!.~.!.:X!.~.2X~.:XjXj . * # + + X + + $ -   o %.4XiX1X!.J.%X-X-X=X;XlX,Xm.2.l.A.i.d.i.i.1.u.<.:.;.i.D.l.=.;.;.r.u.a.g.p.d.m.l.S.S.l.5XVXfXzXxXxXxXxXfXdXdXdXdXqXlXqXlXlXqXlXlX7XlX7X6X5X7X5X>X-X-X^.-X^. XR.&XR.R.R.R.R.K.I.K.Z.C.C.B.B.B.n.n.n.0.0.9.8.6.6.,.,.,.6.,.3.3.4.G N k * k ! ~ Q W Q ~ ( ' ~ ) &.*.;.$.M.m.n.N.b.m.b.m.V.J.L.P.%X=X*X;X5X5XlXlXlXlXgXjXjXzXnXBXnXBXBXBXAXAXVXZXZXZXIXIXPXlX5XrXwXwXwX+X+X,XoXoXoX}.}.{.}.'.].|.|.S.F.x.x.l.f.f.f.p.r.r.r.:.:.:.&.$.' ' x r r i 4 y g 4 y y u u d d d d d N f d h c N h c c c c c c c m H G H T.c H T.H H T.H T.T.J T.I *.J *.J | | *.+.O.| | | | 7.O.*.U.|.|.(.l.|.S.a.a.l.e.p.l.T.2 3 7 p p a d a p a a f s 8 0.W.Z.q.q.q.0.0.0.0.0.5.0.5.6.,.5.5.#.5.5.#.#.@.@.+.+.o.X.R R o.o.I U P U U U D D Z h c 9 L 9 9 9 9 9 9 ",
"l.x.F.|.|.(.x.S.t.t.t.r.x..XH.h.m.h.a.u.u.r.r.u.h.h.h.h.r.r.:._ ^ ` ` ` ~ Q W ~ ~ ~ ~ ~ ~ ~ ^ T.~ ^ ^ ^ ^ ^ ^ ^ ^ ^ ^ ^ ^ ^ ^ ^ ^ ^ ^ T.^ ^ ^ ^ ^ ~ ~ ~ ~ ~ ~ ~ ^ ^ ~ ~ ^ ] r.r.;.g./ 0 $ 2 1 1 2 0 z ~ e.{ s.*.{ w.{ a.s.l.x.N.|.U.[. XR.R. X XR.R.R.R.R.-X^.-X^.-X^.-X-X-X-X-XlXVXLXLXLXmX XgXeXeX4X5X,X,X,X,X.X%X{.{.I.[.L.G.D.m.M.d.m.g.Y.a.Y.<.<.%.%.O.X.|  .T.~ T.u / D.u..... ./ / n n n x * B 4 r t r u u x d x t m 4XVXdXfXzXdXjXzXjXcXcXcXcXBXBXBXBXVXZXBXBXZXBXpX>X1XaX1X;X2X8XfXjX9X9XQ.,.g 4 * r 9 r i 9 u y y r 9 r i B 9 9 w r B $ x $   P ;X2X&X;X:X:X2X2X2X8X9X9XpXpXdXdXkXjXfXxXUXUXzXUXcXBXBXVXVXCXCXZXZXZXSXZXFXPXJXJXPXCXsXlXgXlXeXeX5X5X*XQ.Q.Q.Q.Q.m.V.V.n.b.d.2.1.>.1.d.u.u.;.=.:.&.=.$._ _ _ _ / _ _ w X o $ $ - * < $ % & & * * < * < & 4 $ g D.=X|.A.[.G.H.S.A.S.S.g.m.g.d.g.d.a.u.u.1.u.u.;.:.;.;.=...%....... .)  .) / / N } J.Q.V.C.Q.Z.Q.Q.Q.!.~.~.~.~.:X:X&X2XpX8.# + & . X + . + . + $ X   X & 9.&XaXiX%XI.=X3X%XlX;XH.A.d.a.S.f.i.a.i.<.<.<.:.p.S.g.&.;.1.r.u.a.g.m.d.m.S.z.S.A..XVXmXzXzXxXxXdXxXfXxXfXdXdXdXqXqXqXqX0X7X0X7X7XlX7X5X>X>X5X>X-X-X^.-X&X^.R.^.R.R.R.R.K.Z.Z.I.Z.C.C.C.B.n.n.q.b.n.0.8.6.,.6.,.3.@.@.@.>.>.>.2.N 0 = 0 N T./ ! / $.' *.&.) *.r.m.N.m.b.b.b.V.V.J.P.Q.!.%X=X;X;XlXlXlXlXlXgXaXaXjXjXnXBXBXBXBXAXAXAXAXZXZXSXGXIXPXyX@XyXwXwXwX+XwX+X+XoXoXoX{.oX'.'.'.].].F.F.x.z.z.z.k.f.f.u.r.r.:.e.-.-.-.$.../ k B r y r r d t u y d d u p d d d x d d N x h c N h c c c c c H c c H H T.H T.G T.T.H T.T.I I | T.J *.*.J *.J | | | O.J *.O.O.a.Y. X|.l.l.l.S.l.l.l.a.p.<.N 2 p 6 5 7 p f f p s s s V q.q.q.q.0.0.q.0.0.5.5.0.5.5.5.5.#.#.#.#.#.+.+.+.R o.R I R o.o.U U U P U v Z v v j v h j v 9 n 9 z z z 9 ",
"x.x.`.`.|.|.}.}.c.l.t.w.A.oXQ.f.l.f.f.p.h.h.z.F.F.z.v.h.r.:.-.( ( ] ] ' ` ] ^ ~ ^ ^ ^ ^ ^ T.^ ^ ^ ^ ^ ^ ^ ^ ` ^ ^ ^ ^ ^ ^ ^ ^ ^ ^ ^ ^ ^ ^ ^ ^ ^ ^ ^ ^ ^ ^ ^ ^ ^ ^ ` ^ ^ { t.f.t.-.k.e.N $ 2 1 2 1 2 2 2 2 i Y.U.l.U.U.U.U.U. XZ.E.U.E.E.E.R.R.R.R.R.~. XR.-X~. X X-X-X^.^.5X&X&XR.5XjXHXLXPX5XuXeXeXeX,X,X,X,X{.,X{.{.{.[.[.L.U.D.M.A.m.m.m.i.i.<.<.<.%.%.%.O.*. ./ T.~ N  .S.>..... . .! ! m n n * & B i y r y u N y N c 2 O.VXzXfXjXjXfXBXzXBXcXcXcXBXVXBXAXVXVXZXZXZXFXBXsX4X=XlXjXjXaX1XQ.8.y r & & 9 g x N 9 u u y i y r r 9 r * r 9 * 4 * y * X M ~.9X;X;X:X:X2X2X8X9X9X9XiXpXaXkXfXfXjXjXUXxXUXUXvXBXBXBXCXCXAXZXZXZXSXIXHXFXFXHXHXKXKXjXsXjXlXlXlX5X5X5X;X~..XQ.Q.D.J.V.M.m.N.9.,.1.,.8.d.u.<.;.:.=.$...=.' $.$.) _ $./ = X . $ o % & % % % % & > & * < & & * & N U.5XS.G.L.G.H.S.S.A.A.m.g.m.g.i.a.i.u.u.1.1.<.<.;.=.%.$.%.%.....} ) / _ ) _ N X.Q.J.K.Z.Z.Q.Q.Q.~.~.~.;X;X~.>X*X-XqX&X# . & %   . + . $ . + = < % . X   y b.5XaXiX:XP.4XsX*Xi.d.m.g.p.d.d.i.u.a.a.<.;.d.m.a.=.:.u.u.a.a.g.g.g.l.A.S.F.S.D.BXBXzXxXzXxXxXxXxXxXfXfXfXdXxXdXqXlXlXqX0XqX6X7XlX7X7X7X5X5X>X-X5X-X-X^.&XR.=XR.~.R.R.K.K.R.Z.K.Z.B.B.V.B.n.n.n.n.9.0.8.9.8.2.,.@.O.4.3.2.,.2 - . X X $ 0 0 x n / =.=...a.D.N.b.b.b.b.M.J.K.L.P..X=X*X;X1X4XlXlXlXlXgXaXjXnXzXzXzXBXBXAXAXAXAXZXZXZXSXIXIXHXIXrXwXeXwXeXwX@X+X,X+XoXoXoXOX}.OX'.[.].|.F.`.F.x.z.z.f.f.p.p.u.r.u.r.-.*.-.' ' ../ i B y r < g u y y i u p d d d d u N d h h c c c c x c c c c c H c T.H T.H T.H H H G J T.F T.T.*.J J | | | J | | +.O.O.+.| O.T.<.Y.|.|.S.l.x.l.a.l.p.e.A.a.i 1 3 7 p 3 f s 8 9 8 s A q.q.0.q.0.0.0.0.6.0.5.5.7.5.#.#.#.#.+.+.+.R +.+.+.R R o.} U U P L U U v v h c c v j c g 9 n n n Q n 9 _ ",
"F.`.x.|.|.|.}.{.{.}.F.f.z.OXH.v.f.l.z.F.F.F.F.H.z.h.f.r.u.r.{ ( ] ` ' [ { ] ( ~ ^ ^  .^ ^ ^ ^ ^ Q ~ ~ ~ ^ ` ^ ^ ^ ^ T.^  .^ ^ ^ ` ^ ] ^ ) ^ ) ^ &.] ^ *.] ] ^ *.^ ^ *.a.v.s.t.t.w.p.g. .r $ 2 1 3 1 3 p O 2 0.n.N.U.B.B.Z.U.q.E.E.U.U.U.U.R.I.I.R.R.~.R.R.R.~. X X X~.^.-X^.-X-X5X XR.lXPXLXgX5XwXeXwX5XwX<X,X,X,X.X X{.[.[.G.U.S.U.A.m.Y.d.i.i.a.<.<.<.%.%.*. ./ / T.! z %.M..... .} / ! ! n n m 0 = B i 4 4 u d c h u c t t  XCXjXjXcXzXzXBXzXcXBXVXVXVXVXCXCXBXFXCXBXFXKXKXJXZXCX9XV.@.d % * w 9 M v M N y r 9 u y y y y r 4 w r 9 4 $ & r 4 t   d *X9X&X&X:X1X2X2X8X8X9XiXpXaXdXdXkXjXfXjXjXUXUXvXvXBXvXVXCXCXCXZXZXZXZXFXFXFXFXPXPXFXLXLXZXlXjXgXlXlXeX2X3X;X<X;XQ.Q.Q.Q.Q.V.V.m.b.8.8.2.1.d.u.<.=.:.*.:.$.$._ ' ../ ( _ / n - . $ $ o o = $ % $ & & & < > 6 % t * . m [.=XS.S.H.D.D.S.m.S.l.m.m.g.g.g.i.p.u.u.u.1.:.;.;.;.=.=.%.%....... ..._ / b =.Q.Z.Z.Q.!.Z.!.~.~.&X~.~.-X;X:X&X9X2X9 . & * o . # + . $ + . + $ * = & - X o c U.9XpX9X X3X1XD.f.m.S.g.g.d.d.i.u.i.1.;.p.p.;.=.r.a.p.a.f.h.l.m.m.S.F.S.G.g.jXCXzXvXcXxXzXzXxXxXxXfXfXfXdXdXdXdXqXqXqXlX6X0XlX7X2X2X7X2X>X>X-X-X-X-X-X&X&X&X%X~.!.!.R.R.K.K.I.K.C.Z.B.C.B.B.n.n.n.0.0.8.9.9.9.3.@.>.} N = 0 t 0 - X . o - . $ i i ..m.m.d.h.b.b.M.D.I.P.Q.%X%X*X,X4X4X3XlXlXgXgXjXnXjXBXMXMXBXBXBXBXZXAXZXZXZXZXIXHXHXHXMXeXrXyXrXrXwXwXwX@X,X,XoXoXOX{.{.'.'.].|.`.F.F.A.x.z.l.h.f.f.u.r.r.r.:.*.:.$.$._ =.n w B i t u t y y u p u u p u u f f N d N d N d c d c c c c c M c H c c H H T.H G G T.T.T.F J T.T.T.T.J | *.O.J T.T.| *.+.| E O.<.Y.|.|.S.l.S.a.l.l.a.l.l.<.a 2 7 j p 3 s s 8 f D U q.0.0.0.6.5.5.5.5.5.5.5.#.#.#.#.#.#.+.+.+.+.R o.I I U U L U U D D v D v v v v v v M b v n n n n _ _ _ [ ",
").`.`.`.|.}.}.}.wX+X}.|.).).h.h.F.G.].'.XXH.z.z.v.h.p.t.f.w.[ ( ] ] ] &.w.w.] ^ ^ ] ^ ^ ] ^ ^ ^ ^ ^ ^ ^ *.` ^ ^ ^ ^ ] ] ^ ^ ] ^ ] { ] { { *.` { ] ` ^ *.^ ` ) ) T.! ) a.z.v.p.t.t.y.p.p.Q - % 1 1 2 5 f 2 T.U.6.Y.Y.n.n.q.U.q.B.U.U.U.E.E.U.R.R.R.E.R.R.R.R.E.R.^.^. X^.&X-X-X-X-X-X~.R.lXzXlXtXeXwXeX<X,X5X,X,X=X,X{.{.P.[.I.G.D.S.A.m.l.m.i.a.a.3.<.%.%.%.X.X. ./ / m b %.N.....) }  ./ n n n / i $ B i r w 9 d p c N c H t c jXCXfXBXBXjXCXzXBXVXVXVXCXCXCXCXZXFXAXZXLXKXKXKXKXdXc $ * t 9 v 9 g g y y r N x u y y y w i r i 4 r 9 4 * r 9 B X 4 K.0X-X&X2X1X2X2X8X8X9X0X0XaXpXaXfXjXjXjXzXjXUXcXvXmXvXBXVXCXAXCXZXZXSXIXFXFXFXFXJXLXPXPXKXLXaXgXaXaXsXlX3XeX4X1X;X=XQ.!.Q.Q.J.D.M.m.b.9.2.1.8.1.=.=.:.=.*.:.$._ _ _ ) ) ) / } u o . $ $ . & % $ % % % > > & % t r & B % b  X{.[.A.S.G.A.z.H.m.m.l.m.g.a.i.i.d.u.u.1.<.;.;.;.=.=.=....... ...) / / x 1.!.C.Q.!.!.!.!.~.~.;X~.-X~.>X:X9X6XX.  & 9 & . . # . . . + $ . . + $ + $ + X   o m =XjXaXsX,Xm.S.A.m.H.m.m.d.d.i.i.a.1.a.u.&.%.e.i.p.a.g.g.l.m.S.z.`.G.[.i.3XZXvXvXvXzXzXzXzXzXxXxXxXxXxXfXfXdXdXdXqXqXqXlXqXlXlX7X7XlX2X>X>X>X-X-X5X-X&X&X&X~.!.!.!.!.R.K.K.Z.I.Z.C.C.B.B.B.n.n.0.n.0.8.6.8.8.Y.2.} = i u k z z u 1 2 + X - .   } C.3.9.b.N.M.V.L.P.Q.=X=X*X;X1X3X3XtXlXgXxXgXnXjXnXBXzXBXBXBXAXAXAXZXZXZXIXSXHXIXHXHXnXeXrXuXrXrXeXwXoXwXoX+XoXoXoXOXXX{.'.'.].].F.F.F.z.z.z.z.h.f.t.u.r.r.:.-.:.:.$.' ....x 0 r y r i p p i i p N p u d y u f u u N d d c d c c c c c c c c H H H H G T.c G H T.G G T.T.T.T.T.| | | | O.| | | O.| | O.+.T.O.N.|.|.l.S.g.l.l.g.e.p.l.T.t 1 f s 7 8 s 6 Z | U 0.0.0.5.5.6.0.5.5.#.5.#.#.#.#.#.+.+.+.+.R +.R o.U U L U U v D D v v v v G L m L / L m ! _ _ _ L _ 9 _ 9 ",
"`.(.`.`.|.}.'.'.XXXX+XoXOXQ.).OXOXOX.X.X`.F.v.z.z.v.f.f.f.:._ ( { ] ] { w.w.w.] ] ^ { ^ ] ] ] ] *.*.] ] { { { ] { { { { { { { { *.] ^ ^ ^ ^ T.^ m m v G H H c H c M b ) 1.m.z.f.k.w.e.l.*.r - 1 < 2 1 2 @ | B.n.0.0.0.n.q.U.U.U.q.n.B.U.Z.U.U.E.E.R.R.U.R.R.~.~.^. X X~.~.-X~.5X^.-X7X X~.5X5XgXeXeX5XwXwX,X,X,X.X.X X{.{.L.G.I.D.U.S.N.m.Y.Y.i.a.<.<.<.<.O.*. . . ./ n n %.d. ......./ / ! m / m N * B y 4 r i x 0 x x p T.x 1 U.CXVXzXVXzXVXBXVXVXVXAXCXZXZXZXZXZXFXKXKXPXKXKXBX .+ x M x n g u N N x N y y 9 i y i y 9 y 9 y 9 w 4 * 9 i = . & Q.9X%X*X1X:X2X2X3X9X8X9XsXaXdXkXfXfXfXjXjXUXcXUXBXBXvXAXAXCXZXZXZXSXZXFXFXHXHXJXJXHXHXLXLXLXKXBXaXgXjXaXaXlXlX4X4X;X;X&X.X.XQ.L.J.C.V.m.b.8.1.8.1.;.;.:.&.*.$.;.$.$.' ) / Q n M v *   . $ + $ % % % $ % % & * > r : < t $ % ! *X{.S.S.G.H.A.A.m.A.N.g.g.Y.g.i.a.i.u.1.1.<.<.:.:.=.=.%.%.......) ../ b 8.!.K.Q.!.!.!.!.~.~.-X~.>X&X:X2XpXn.X % $ 6 $ . + . . + . . + $ $ $ * $ - & B = X X * n 3XUX4Xi.D.I.f.A.m.m.m.g.g.g.i.a.a.<.%.;.<.a.a.g.f.l.l.z.S.z.S.|.|.m. XBXCXvXvXvXcXcXcXzXzXzXxXxXfXfXxXdXdXdXdXdXlXqXlXqX0X0XlX7X6X7X2X>X2X>X>X-X-X-X&X&X~.&X~.~.!.!.!.R.K.K.K.Z.Z.V.C.C.B.n.n.n.9.9.9.9.9.2.P $ k i i u N z z i N r p o   o.I.6.b.N.V.J.I.P..X%X=X;X5X1XeX3XiXiXgXgXjXjXjXzXBXBXBXBXBXAXAXZXZXZXZXZXHXSXHXIXIXIXbXrXyXuXwXrXrXwXwXwXwXoX,XoXoXoXoXXXOX'.|.[.].G.F.F.x.z.z.f.f.h.p.u.u.:.:.$.-.&.-./ ....N w i r r r r p p i p p t d y f u N f f d d N h d N d c c c c H c c H b H G H G H F T.G J T.J J | J T.T.J T.| | Y | | +.| J +.*.O.N.U.|.l.`.x.l.l.l.s.p.g.G 2 2 p a 7 8 p U +.U 0.6.6.6.6.5.5.5.5.#.#.#.+.#.+.+.Y +.Y Y U U P U U U v D v P L L L L P L P _ } } } / / ) _ L L n 9 L [ _ ",
"`.`.`.|.}.{.}.}.}.oX+X@XwX@XOX@XOXOXXXF.F.F.x.F.z.z.k.t.r.-.( [ ] { &.{ w.y.y.w.] ] ] { &.{ &.] { &.{ ] *.*.*.*.*.`  . . . .^ T.T.H H c C H c C Z V C f C C f f C H h f m =.u.f.p.s.w.a.a.T.0 2 % 2 f 0 O 7.Y.0.0.n.0.N.Y.B.q.N.B.B.B.U.U.E.I.I.U.[.I.R.P. X{.R.!.~.R.R.~.~.-X X>XR.5X-X-X5X5XlXeXeXeX<X<X<X,X,X,X.X%X{.[.{.L.G.D.S.S.m.m.g.g.i.Y.3.<.%.%.%.%. ...! } ! b %.,....... ./ / / / n m M 0 * r * y r p r N c N c c x g 6XCXBXBXBXBXCXVXAXCXCXCXZXZXZXZXFXLXKXKXKXKXZXi . < } n 9 9 u x N 9 N g g y r 9 r r r w r 9 4 B 4 4 * 9 * . 4 n.9X3X%X2X:X&X9X6X8X9X9XpXsXdXkXfXfXjXjXjXUXcXcXUXvXBXBXCXCXCXZXZXDXFXFXFXFXHXHXHXJXLXLXKXKXKXLXHXgXjXjXsXgXaXlX8X8X4X1X;X*X&XQ.Q.P.L.V.V.n.b.d.d.1.1.=.;.&.*.$.` ` _ ( Q Q n n L o.L r + . . + o % + + % % & = r o > t $ * * - %.L.{.H.G.G.A.V.A.A.l.m.m.g.i.i.d.f.u.u.1.;.<.;.:.>.=...%.........) / n d.&XP.Q.!.!.~.~.~.;X-X-X:X-X2X9XK.y   t # * . . $ . . # $ + . $ + + $ $ & - . & r * -   = M.5X XD.S.A.A.M.l.m.g.g.i.i.u.a.;.;.;.a.e.a.g.l.l.A.A.S.S.F.|.|.{.N.zXSXvXVXvXVXBXcXcXcXzXzXzXxXjXxXfXfXdXxXdXdXdXdXlXqXlXlXlXlX6X2X2X2X>X>X>X>X>X-X-X&X&X~.&X~.~.!.!.R.R.K.R.Z.Z.Q.n.C.B.B.V.V.n.n.0.,.,.} B k k z k k k z b N b k 0 x 8.b.b.V.D.J.P.Q..X%X&X;X;X4XeX8XiXsXaXgXjXnXzXzXBXMXVXBXBXAXAXZXZXZXZXZXSXHXHXIXZXIXIXyXuXbXyXeXuXwXwXwXwXwXoX@XoXoXoXoXXX{.'.{.].].|.F.F.x.z.z.v.f.f.p.r.u.r.;.-.*.&.$._ _ $./ u r r r i w i i p i p t u t d u f u f d h N d d h c c c f c c c c c H H c T.H T.H H T.T.H T.T.T.T.J | | | T.+.| | +.| | | 7.J T.O.Y.|.(.|.S.l.(.l.k.p.l.a.b * 6 a p p c P I G 6.6.5.5.5.5.5.R #.#.+.#.+.+.Y +.+.Y I | U U P P L } } L } _ } o......._ ../  .) ../ / _ n n _ ..8.8.8.V.",
").).).|.}.{.}.oX+XoX@X}.+XwX+XOXOX.XXX`.).F.F.x.v.v.t.r.r.[ [ { { { { { { y.s.s.{ { { &.] { { &.*.^ *.*.^  .T.T.G H Z H C C C C C H Z C H C C c H H H H c H H H C c H Z u i _ h.t.k.e.e.l.<.i o 1 2 p @ 2 U.q.6.Y.6.n.N.N.N.U.U.B.B.B.B.B.B.B.U.E.E.U.E.I.E.E.R.R.R.R.R.R. X~.-X^. X>X-X X5X5XlXeXeXeXwX<X,X,X,X,X.X=X{.{.{.I.U.D.U.m.m.m.m.Y.i.a.a.<.<.<.%.%.....T./ ! n $.1.$.......} / / ! / n m r * B r y r r c f N c N c T.> ,.CXZXzXCXBXCXCXCXCXCXZXZXSXZXHXKXKXKXJXKXIX< % m } t 9 x u N y 9 i y r k 9 y r i y 9 9 4 0 4 4 w r * B & $ 4.pX&X&X4X:X2X9X2X8X9X0XpXsXdXkXfXfXjXjXjXcXcXUXBXBXBXCXAXCXCXZXZXZXFXIXFXFXFXHXHXJXHXPXLXLXLXKXKXLXjXnXjXaXaXaXlXtXeX4X4X<X;X&X=XQ.P.L.J.V.V.n.d.h.u.u.;.*.*.' ' ) $.=._ ..=.1.8.2.,.b.1.9 X . $ + + % % % % % % % 2 < 2 : 2 < 2   a.,X[.H.G.G.A.A.A.m.A.l.g.g.g.d.i.i.u.a.u.<.;.<.=.=.4.%.%.....' ....m b.&XI.!.!.~.~.~.;X~.-X:X-X-XpX9XG   4 & & & # . + . + + . . $ & $ + + $ $ $ & * + - + * .   b [.D.S.].m.A.m.m.m.m.g.d.i.u.;.;.a.a.a.g.l.h.l.z.x.S.S.F.G.|. Xa.jXFXBXVXvXBXvXvXvXcXcXcXcXzXzXzXxXxXxXxXdXdXdXdXqXqXqXqXlX0X0X6X7X7X6X2X>X:X:X>X:X-X-X&X&X%X~.~.!.!.R.P.R.Q.Z.Q.Z.Z.V.B.B.B.9.n.V.Y.Y.<.b i k k l l l b z l b k b V.Q.8.n.I.L.P.P.Q.=X=X*X<X4X2X8XiXsXaXkXgXjXjXzXnXBXBXBXAXAXAXZXZXAXZXZXSXSXHXIXSXIXIXIXuXyXbXrXrXrXwXwXwXwX@XwX<X+XoXoXoX{.'.{.'.].].].F.F.A.z.z.z.h.f.p.r.u.r.;.:.*.-.' *._ / ..m r 0 w 1 t t t i i p d t y t d u u N d d N d c d N d C b f c c H c b M H H H H T.H T.H T.T.J T.J T.T.T.J | | | | T.+.O.| T.+.O.T.*.a.{.'.|.|.S.p.p.l.r.S.<.r < 5 6 7 Y I P G 0.5.,.5.#.#.#.#.+.+.+.+.o.Y +.Y I I I F } P } } } o.o...........[ ..$..._ ....) _ .._ / 1.8.b.Q.V.V.V.V.",
"|.|.].'.XX'.XXOXOX$X+X@X@XOXOXOXXXXX}.].].F.F.v.z.f.v.f.[ [ [ [ { { w.w.{ s.s.s.c.;.T.| F D G G H Z H D Z H H c H H H H H H c Z T.c C c c C C c c c C c Z c c H Z f h C C c c b *.s.x.p.y.p...o 2 1 2 . c B.3.Y.Y.Y.6.Y.0.n.q.N.q.N.U.U.B.U.B.U.Z.U.U.R.U.R.E.I.R.R.R.R.R.R.~.~.~.~.&X~.-X&X-X=XeXeXeX,XwXwX,X,X.X XoX{.{.{.I.|.G.D.S.m.m.g.Y.Y.a.a.a.%.%.O.*.O._ } } ..0 <...%..... . . . ./ / n / N * 4 w B y p N f N x c c c P % !.SXCXVXCXBXZXCXBXHXHXBXIXJXLXKXLXPXKXVXr B g g g g N g x N N u u 9 u y y i r r 9 y r r 9 4 N * 4 9 o . 3.dX;X:X:X2X2X2X9X8X9X9X0XaXpXfXfXfXjXjXjXUXcXcXBXBXBXVXCXCXCXZXZXSXFXFXFXHXHXGXJXJXLXLXLXLXKXKXKXKXKXHXaXBXjXgXgXgXiX9X8X3X4X1X;X*X=X%XP.P.K.K.I.L.Q.z.>.h.8.6.q.#.B.B.B.n.B.n.n.0.0.8.5.5.0.@.9 X + # o % % $ + & % 1 = % < 1 < 1 % = 3.=XG.A.].F.A.S.S.m.S.g.a.m.f.i.a.u.u.1.1.:.<.:.<.=.%.%.$.%....._ M Q.&XQ.~.Q./.Q.&X:X;X7X&X&XpXpXo.X # & * & o X + o X X $ o + + o o + o % $ $ % $ % $ & & 2 = X a.,Xm.D.H.A.A.m.m.l.g.g.d.g.a.e.<.<.a.g.g.l.m.A.z.S.G.|.G.[.[.[.[.PXAXVXDXVXVXVXvXVXcXvXcXzXzXzXzXxXxXxXxXfXfXfXdXdXdXlXdXlXqX0XqX6X6X0X7X2X2X>X>X:X:X-X-X-X^.&XR.~.R.~.R.Q.Z.Z.R.Z.Z.C.J.C.C.M.2.>.1.b.m.z z z l l b Q Q w n =.V.L.J.n M >.9.P.*X1X1X;X*X2X8X3X8XaXkXkXjXnXzXBXBXBXMXBXAXAXAXAXZXZXIXIXIXHXHXZXZXAXIXPXBXeXbXbXrXyXwXrXwXwXrXwX@X+XoX@XoXoXoX{.OX{.'.].|.F.).F.x.x.z.v.v.f.h.r.r.y.:.-.:.&.&.$.`  ...m i 0 r i 2 1 i p p y y y d t d p f d d d d x d f x c b c c c c c c c H c G T.H G c T.T.H T.H H T.T.T.J T.| | T.+.| J O.| O.+.I O.O.N T.%.g.S.|.|.G.z.h.m.4.w < g d D U v D #.6.+.3.#.#.#.#.+.T T R Y U U U } o...%.:.=.=.*.$.=.$.=.:.4...[ ..:.:...} L L X.4.8.Q.Q.V.V.V.V.V.V.8.8.",
").|.].'.'.OXOXXXOXOX+X@X@X<X@XOX'..X].].).F.H.v.v.f.f.j.-.[ [ [ [ w.y.y.y.{ s.j.e.T.H H F H Z F H H H Z H H H H H H Z H Z H H H C c H H H c c c C H c c c c C c c c c c C c f b k T.a.p.a.a.e.z = 2 2 2 T.n.3.6.6.Y.6.Y.Y.0.N.N.q.N.Y.q.q.U.B.B.Z.U.E.U.U.E.U.R.R.R.R.R.R.R.~. X&X X~.-X&X&X-X&X4XeXeX<X<X<X,X,X,X,X X X{.[.[.G.D.S.S.m.A.N.l.a.Y.a.<.<.a.1.*. .=.L n w i d.o.*.%.X..... .T./ / n } N * * r B y i u u N x x c T.G c P pXHXVXVXSXVXHXSXBXCXFXLXKXKXFXLXKXcXg + g M g M N N 9 9 u 9 u u y u i y y i 9 i r r 4 w 4 & 4 u $ . @.:X:X;X:X1X2X3X8X9X9XiXpXsXdXkXkXjXjXjXjXcXUXcXBXBXBXBXAXAXCXZXZXIXZXIXFXHXHXHXHXPXJXJXLXLXLXLXKXKXKXKXPXjXjXjXfXjXfX9XiX9X3X3X3X4X4X4X<X=X{.L.m.8.<.Q L L 1.!.~.B.Q.Z.C.B.B.n.0.0.n.8.6.8.8.0.9.,.U X X X + % + + @ % * 2 2 2 % % & 2 $ 1 a.%X{.z.G.A.m.m.g.m.m.g.g.g.d.i.1.1.u.1.;.:.:.=.=.=.%.4.$.....L L Q.^.Q.~.Q.!.;X>X^.&X;X2X:XfXn.# # 4 & & 4 & o X # % o X o o o + + + + o + % + % % $ & $ = 2 . k G. XS.G.V.S.A.m.m.l.m.g.i.a.<.e.a.g.g.g.l.A.S.F.S.G.G.[.|.{.|.I.ZXSXVXDXDXVXVXVXVXcXvXvXcXcXzXzXzXxXxXxXfXfXxXdXfXdXdXqXqXpXqXlX0X0X6X6X2X7X2X>X>X:X>X-X-X-X-X&X&X^.~.~.!.!.!.Z.K.K.K.J.K.C.N.2.,.2.Y.m.i.z i ! ! b b k / d.J.V.V.V.} v M L 4.9.J.*X8XaX3X3X3XiXkXhXkXjXBXnXnXBXBXBXAXAXAXZXIXZXIXIXHXHXIXHXZXIXIXIXPXMXuXbXrXuXbXrXeXwXwXwXwX<X@X<X,XoXoXXXoX'.OX'.'.].`.F.F.z.A.z.z.h.f.r.r.r.r.:.:.-.&.&.$..... .~ N i 0 r w i r t i t y y y p u u d u d u d f d x d N f c f h c c c c b c c c m G G H H H H T.J T.J | T.T.| | | T.Y T.| | Y | | O.+.0 2 $ $ * k ! $.z.v.H.L.} 4 y U D U D F 5.5.5.7.R #.+.R I Y o.} %.4.<.<.<.%.>.;.:.:.=.$.:.$.$.%.:.:.:.4...} _ _ 1.b.b.Q.Q.Q.Q.m.V.V.V.V.V.h.V.8.",
"|.|.}.}.'.OXXXoXOX@X@X@X@X@XOXOXXXQ.).].].).x.x.v.v.v.t.[ [ [ { &.y.y.y.y.s.t.a.T.H Z H F H A F H H H c H H H H H H H H Z c c c c H c C H c C C c c c C c Z C c c f Z h f f f b p N T.*.<.x.l.;.= @ 2 1 +.N.3.6.Y.6.6.6.0.q.N.q.Y.N.N.U.N.B.B.U.U.Z.U.Z.I.I.I.R.I.R.I.R.R.~. XR.~.~.~.&X X~.&X-X5X4XeX<X5X,X<X,X.X X,X X{.[.I.G.S.U.S.m.N.g.g.i.Y.a.<.%.%.%.=.>.X.N k X ..U. .%.%..... . ./ T. .L _ b * * 9 r 9 p u p N h x c c v O.& ,.FXFXcXFXCXZXSXZXHXLXLXKXJXKXKXZXL X L g g x g N g N 9 z u y 9 u 9 y y y r y w 9 r 4 4 4 * 9 & . o.2X9X*X:X:X2X8X8X9XiX0XpXsXdXkXfXfXjXjXjXUXcXcXBXBXBXVXCXCXZXZXZXZXFXFXFXHXHXGXPXJXJXJXLXLXLXLXKXLXKXKXKXKXAXBXmXBXUXjXBXjXjXgXtX3X<X=Xm.g.u.;.' ( W l ( n l x V.>XC.Q.Z.Z.Z.B.n.n.n.n.0.n.0.0.8.0.n.9.4.y X   o & & + % $ = = < = $ 1 2 t o 0 g.{.].S.S.G.S.m.g.m.A.a.d.i.a.u.1.u.u.<.:.1.:.>.=.%.*.%....._ L Q.Q.Q.&X&XQ.>X&X;X8X&X>XfX~.& . 9 # # & * & + X X X o o + o o + + % + + # % $ $ & $ $ & $ B - . <.,XG.G.D.D.A.A.A.m.m.g.g.a.e.a.a.p.m.g.l.A.S.S.S.G.G.[.|.{.I.|.jXPXDXCXVXDXVXVXVXVXvXvXvXcXcXzXzXzXxXzXxXxXxXxXxXdXdXdXdXqXqXqX0X0X9X9X6X6X2X2X>X>X>X:X-X-X-X-X^.&X-XR.~.~.!.Q.!.Z.K.K.P.M.b.2.d.b.b.N.{.%.u z ! Q b m V.Q.J.V.V.Q.v m X.o. .| @.b.K.%XkXkXfXkXpXkXUXUXBXzXMXBXAXAXAXAXZXIXSXIXIXIXIXPXIXIXZXHXIXHXPXbXyXyXuXyXbXrXrXrXrXwXwX@XwX,X+XoXoXoX{.XX'.'.].]..X`.F.F.z.z.z.v.f.f.f.u.t.r.:.-.;.=.*.` ` *...~ k r 2 p i r 1 p t u t r u d u u p N N d N d d c f c x f c c c c c c c T.m H H c H H T.H T.T.H T.J T.J T.I I | I | O.+.| | O.#.| 2 > < < < & + $ * = i / 4.} M j d j f H #.#.Y P I +.o.o.4.:.1.a.1.e.e.;.<.<.<.:...-.:.1.u.1.1.:.4._ _ _ :.h.Q.Q.Q.Q..XQ.Q.Q.m.V.V.V.V.h.8.V.8.8.",
"|.}.].}.'.XXXXoXOX@XOX@X@XOXOXOXXXXX].].H.F.H.v.h.f.v.t.[ [ [ :.{ y.y.{ s.k.a.T.Z C H F F H F F Z c H H Z c H Z Z H c Z H H Z C c H H c c c c c C c c c C c c Z c c c h c c f f G p t c T.e.p.l.N 2 . 1 3.Y.7.6.3.6.6.Y.Y.0.Y.0.N.q.q.N.B.B.B.q.Z.B.B.B.U.E.Z.I.R.Z.R.R.R.R.R.R.~.~. X~.~.-X~.&X5X,X4XeXwXwX,X,X,X,X{..X{.{.[.G.|.U.S.M.A.A.Y.i.a.a.<.%.4.=.%...N w 0 o D.S. .<.%.%.%... . . . .n ..M r & r r r u u N d x c c b v O.j t 2XJXSXCXHXVXZXJXLXKXKXKXHXKXCXc o x o.d N g g x N N N 9 N y u u i i y y 9 r r 4 4 r 4 r N & . M 1X9X&X>X2X2X6X8X8X0XiXpXsXdXkXfXfXjXjXzXUXcXcXBXBXBXAXCXCXZXZXZXSXFXFXHXHXHXPXPXPXJXLXLXLXLXLXKXLXKXKXKXLXKXPXBXAXAXmXhX<X,XOXG.h.e.&.' -.[ ' ] [ [ [ ` _ Q Q = 9 Q.>XK.K.R.K.Z.Z.B.B.B.n.V.n.0.8.0.8.0.I.6.c $ X X $ & 2 % + + * 2 < > 2 t B . B m.%XG.S.m.G.G.m.g.m.f.g.g.d.f.u.u.u.1.<.:.>.:.=.%.=.$.....} L &X&X~.&X;X;X;X~.2X2X;X8XqXc   4 * + 6 . o X X o . X X & o + o + o o + o $ % $ % $ % $ & = 1 0 X u L..XS.G.D.D.S.M.A.l.m.g.g.a.a.a.g.g.l.A.A.F.S.S.G.[.|.|. X|.[.3XJXDXDXDXDXDXDXVXVXVXVXVXvXvXcXvXcXzXzXzXzXzXxXjXfXxXxXfXdXdXdXqX0XqXqX0X6X6X6X7X2X2X7X7X>X>X-X-X-X-X-X^.~.!.~.~.!.Q.Q.J.N.2.d.m.N.m.n.U.L.$.u ! b n g..XJ.9.b.V.J.n L O.4.@.4.@.>.,.2.I.&XsXUXUXBXBXUXnXBXBXBXAXAXAXZXIXZXIXIXHXHXHXIXZXZXIXIXIXPXIXuXbXnXbXbXyXuXyXuXrXwXwXwXwX+XoX+XoXoXOXOXOX}.'.'.).`.F.A.x.z.z.z.h.h.f.r.u.r.:.:.;.&.&.` _ .... .! i w 0 t t r r r t t t t t t p p d p N f d d N N N d x N c d c c c c c c c c T.H H T.H H H T.H T.T.J T.T.I T.| T.| T.| | | +.T.1 r t 7 5 4 4 < + B & + $ t 4.!.6.3.| I >.,.1.2.:.:.:.1.u.1.1.1.u.<.=.<.<.1.<.=.h.8.1.:.%.%.%.%.:.8.V.Q.&X&XQ.&XQ.Q.Q.C.m.V.V.Q.V.V.V.V.V.8.8.8.",
"'.'.}.'.OXXXoXoXOX@X@X@X<X$XOXOXOX).].].).H.F.v.h.v.f.w.[ [ -.w.w.y.y.y.j.t. .Z H H H F H H H F H H H c v Z H v Z Z Z Z c C c c c c c c C c c c c c c f c c c c C f c c f b f C C f f x u N *.m.>.t X f Y.Y.O.6.3.Y.3.6.6.Y.6.Y.0.Y.N.0.Y.B.B.N.B.B.B.U.U.Z.I.Z.I.Z.E.I.R.R.R.R.R.R.R.~.~. X~.~. X5X5X5XeX<X,X,XoX,X{.{. X{.[.[.U.G.S.A.m.l.Y.g.,.<.<.2.i.>.b r & w + u ,Xi.%.;.%.%.%.%.*. . . ./ } / i * w i r p u u N N c c H v v O.y P VXKXVXSXSXJXLXLXKXKXLXLXcXL X v v * L N g N N 9 u u u 9 u y 9 y 9 i r 9 B B r r r 9 r 9   g &X8X-X:X:X2X2X8X9X9XiXsXaXdXdXkXfXjXjXzXUXUXcXcXBXBXVXCXCXCXZXZXZXIXFXFXHXHXHXJXPXJXLXLXLXLXKXKXKXKXLXKXKXLXKXLX@X.X].l.t.s.s.t.t.j.v.j.k.r.r.w.-.w.-.&.[ ( ' _ u - P 1X~.K.E.!.E.Q.Z.Z.Z.q.n.V.n.B.0.0.9.3.n.B.@.4   X & % * & + $ * 2 = B + 2 B - N g. XS.m.m.A.m.d.m.A.g.d.g.i.i.u.a.1.1.1.:.=.:.=.=...=..._ 4.;X&X~.&X/.&X&X8X2X~.8XdX@.. # r + * 4 # < o   X + % + X o + o + + + + % $ $ $ $ % = $ % 2 = B = .  .,X[.G.G.G.S.S.S.m.m.N.l.a.a.a.g.l.N.l.S.S.S.|.G.|.[.[.{.'.{. XPXGXSXDXDXDXDXVXDXVXVXVXVXVXVXvXvXcXcXcXcXzXzXzXxXfXjXfXfXdXdXdXqXdXqX0X0X0X9X6X6X6X2X2X>X:X:X>X-X-X-X&X~.~.~.~.&X!.Q.M.9.8.b.n.m.V.D.m.=XV...! n } P.V.V.b.V.U.N.b X.v o.4.>.2.,.2.2.>.,.V.*XpXUXUXBXBXBXAXAXAXAXZXZXIXFXIXHXHXIXIXZXIXIXHXHXIXLXPXbXyXbXbXyXrXyXuXrXrXrXwXwXwX+X<X@X+XoXoXoXoX}.{.'..Xx.F.x.F.x.z.z.v.h.f.t.r.r.r.:.;.-.;.$.' ` ) )  .M u 0 0 t t 0 t t t t t t y t i u u d p N p p d N f N N c x c c x c c c c c c b H T.H c T.T.T.T.H T.F G T.T.| T.| T.T.| | O.H B 1 B < 1 < 1 t * 6 r 4 $ . P 4X:X!.6.| o.@.>.i.h.z.h.h.h.d.1.:.=.:.:.u.h.d.1.u.:.:.=.' =.d.A.L.Q.;X;X;X;X&XQ.V.L.V.L.V.Q.V.Q.m.V.V.V.8.8.V.V.8.",
"}.'.'.'.'.oXoX+X@XOX<X@X$X$XOXOXOXOXOX].].).H.v.v.z.t.-.-.[ { w.y.{ y.f.;.G Z C H H H H H Z c Z Z Z D Z H H Z H H c H c c c Z C H H C H c c C f c C C c C h f Z c C f c c f b f c f Z c f t N T.N.M $ Q 6.O.O.3.3.3.3.6.3.6.Y.6.Y.0.Y.0.0.N.N.q.B.B.n.B.U.Z.B.B.Z.I.U.Z.R.R.R.I.R.R.R.R.R.~.~.&X~.-X5XeX5X,X,XwX,X,X.X X{.{.U.I.U.G.U.m.m.N.g.Y.a.Y.d.<.| z i 0 w i . =.5X%.%.>.%.%.%. ... . . ./ / } x < 2 p t u u f N x c c c G h | | 4 K.KXFXZXLXKXKXKXLXKXKXSXL & g M v 9 v g N N 9 N z 9 u k y u i y i 9 r w B B r 9 r B &   N Q.pX2X;X2X8X2X8X8X9XiXpXdXdXkXfXfXjXjXjXUXcXBXcXBXVXVXAXAXZXZXZXSXSXFXFXHXGXPXJXJXJXLXLXLXLXKXKXKXKXKXKXKXKXLXKXKX`.x.`.x.`.`.).x.c.v.k.f.t.t.e.-.&.$.$._ ~ ( [ _ _ 0 X 8.6X!.!.!.R.~.Z.E.Z.Z.B.Z.B.B.C.M.n.6.b.n.B.9.U &   X o & & + & & * 2 @ % r * . N N.{.I.m.m.S.A.m.m.l.g.g.i.g.u.u.1.r.:.:.1.=.=.=.=...:.L :.:X&X&X:X;X;X;X8X;X2XxXQ.# + 4 # & #   9 @.o.a X   O + X + o + o o + + + % % = $ * $ % % 2 $ 2 0   w L.*XL.U.G.S.S.S.S.A.S.A.Y.a.Y.g.l.l.A.S.S.G.S.[.[.'.'.oX{.'.[.AXJXSXSXSXSXSXDXDXDXDXVXDXVXVXVXvXvXvXcXcXcXcXzXzXxXzXxXxXxXfXfXqXdXqX0X0X0X9X0X9X6X6X6X7X2X>X>X>X-X-X-X-X&X-X~.~.Q.C.9.b.N.n.M.D.J.I..XQ.J.1.M n b..Xn.V.b.n.J.U.c T.} X.@.@.>.,.9.9.n.b.Y.8.n.%XkXFXAXAXAXAXAXZXIXIXIXIXHXHXIXZXZXIXHXIXHXIXHXKXLXIXyXyXbXyXyXyXyXrXuXrXeXwXwXwX@X,X,X+XoXoX{.OX'.'.XX]..XF.F.F.F.z.h.v.f.h.r.h.u.:.;.;.;.&.$.` ) ) ^ ~ l r 2 r i 1 B t t t t t t u p t u p N u N N u f N N N f f c x h h x c c c c c c c c H H c T.H T.H T.J T.J T.J | T.+.I | O.d * t r t i r 0 2 9 & = r 9 & $ B a 5 > % > 7 s s U o.#.3.d.h.l.m.l.z.z.f.;.;.u.u.>.1.m.Q.%X5X4X4X8X;X&XQ.V.Q.Q.&XQ.Q.Q.Q.m.V.V.V.V.8.8.V.V.8.8.n.",
"'.'.'.oXOXXXoX+X@X@X$XwX<X$X$XOXOX).OX).).H.).v.v.v.f.[ [ -.{ y.y.y.y.=.G 8 K C S H H H Z S H c c H Z H Z Z c H c Z c Z Z c c Z c C C c c c c c c c c c c h V c f C c f f c f c C f f f f c t 1 | m p | 3.O.3.O.3.3.#.6.6.3.Y.6.6.Y.0.Y.0.N.0.N.N.n.n.B.B.B.B.B.U.Z.U.R.I.E.E.I.R.R.R.R.!. X XR.~.~.=X5X5X5X,X,X,X{.=X X{.P.[.U.L.D.S.m.m.N.g.g.Y.i.>.! i * r N u w = Q.=X<.%.<.%.;.%.%.%... . .} /  .! B * r r u i u N x c c T.m v G O.g c pXLXLXKXLXKXKXKXKXHXM & g L 4 g L 4 9 N N 9 N y u u y y y y y r i r 9 B 4 r r B & $ 4 Q.9X;X1X2X1X9X8X9X0XiXpXdXkXkXkXfXjXjXzXzXcXcXBXBXBXAXAXCXDXZXZXSXSXFXFXHXHXJXPXPXJXLXLXLXLXKXKXKXKXKXKXKXKXKXKXLXLXc.F.'.).}.).(.S.x.c.v.k.t.f.t.r.r.e.e.-.$.( _ ( _ N   t Q.>X~.!.!.!.~.!.Z.E.Z.Z.B.Z.V.B.B.K.n.,.0.K.J.X.4 # X o & % $ & < $ 1 2 & B = $ N U.{.|.m.H.S.g.m.m.g.d.g.d.f.u.u.1.1.1.:.:.4.=.=...=._ ,.2X;X&X:X;X>X7X;X>XfX;X* . & & % 4 # * @.0.B.6.x .   X % + o o + + @ + + $ $ - = $ = % % < o * 2 - - / ,XL.L.G.L.G.H.S.S.S.l.g.p.l.g.A.l.A.A.S.G.|.|.|.[.{.{.oX,X|.dXLXSXGXSXSXSXSXSXDXDXDXVXVXVXVXvXVXvXvXcXcXcXzXzXzXxXfXxXfXfXfXfXdXdXdXqXpXpX0X0X0X9X6X6X6X7X6X7X:X>X>X:X:X-X:X!.C.B.b.N.M.V.D.J.P.I.Q.d.1.} u 4.P.K.n.V.Y.N.I.L.M m X.O.O.@.>.3.9.b.9.M.C.C.C.M.;XAXAXAXAXZXZXIXIXFXIXHXIXIXZXIXIXIXHXIXHXPXKXKXLXLXnXyXbXbXbXbXyXuXuXuXwXwXwXwX@X+X<X+XoXoXoX}.oX}.`..XF.F.F.F.x.z.z.h.v.f.h.f.r.r.;.;.&.&.&.$.` ) /  .~ N w * 2 t r 1 t r t t t t t u t u u p N p f f N f N f N N h h x h x c c c c c H H H T.H C H H T.H G T.T.T.T.J J | | | | t < B 2 * 2 * t t $ w * = * r 9 k y 9 j j 9 8 7 3 ; 6 8 V H Y O.@.N.N.g.d.u.u.h.D.;X4X8X8X8X4X=X.XQ.Q.&XQ.Q.Q.K.K.L.K.V.V.V.V.V.Q.V.V.h.V.8.8.8.8.",
"|.}.'.oX'.oXoX+X@X@X<XwX$X<XOXOXOXOX'.'.H.).H.v.v.v.r.[ [ w.{ y.s.j.w.v 8 K K C h c Z H H H H c Z Z Z c c H Z Z Z c H Z f Z f c c c H c c C C c f C c f h h c c c c f c f f f f t h h p f f h h * v c | O.| 6.O.7.3.3.3.3.Y.Y.6.6.6.Y.Y.N.Y.q.N.q.n.n.n.B.B.U.B.B.Z.Z.Z.I.I.I.R.R.R.R.R.R.R.~.~.R. X X5XeXwX,X,X,X,X{. X{.{.[.I.G.G.S.U.m.A.Y.Y.m.%.z r i N u B w = y OXL.i.%.1.%.%.%.%.%...o. ...n o.} t = r t p p u c d c x c v | G } O.t X.KXLXKXLXKXLXKXLXN . L g x } u g x N N N N u y 9 u u y y i y y 9 r r 4 4 4 B 4 + . Q.4X2X-X-X2X8X2X9X9XpXpXpXkXfXfXfXjXzXUXUXUXBXBXBXBXVXCXCXZXZXZXSXIXFXFXHXHXHXPXJXJXLXLXLXLXKXLXKXKXKXKXKXKXKXKXLXKXLXx.'.oX|.).`.F.x.x.v.k.f.p.t.t.w.w.w.[ { ] [ ( ' L x * X y 9X7X^.!.^.~.~.~.!.Q.Q.Q.Q.Z.C.C.0.C.I.n.9.0.C.K.c .   + = $ + % % % $ 2 t 2 $ =  .G.[.g.A.M.g.m.l.m.g.g.d.d.a.2.:.1.1.>.:.=.=.=.=.=._ 8.8X&X&X:X;X;X2X>XdX8Xv X > 4 & # X t M.0.3.3.b.B.X.%   . o o + o + + + + $ $ = $ 2 = $ 2 % % * = t - . .XL.L.G.I.G.D.D.D.U.S.g.g.Y.A.A.l.x.S.|.G.U.{.[.[.OX'.oX,X[.4XKXFXSXSXSXSXSXDXZXDXDXDXCXVXVXVXVXvXcXvXcXcXcXzXzXzXxXjXxXxXfXfXdXdXdXdXpXqX0X0X0XlX9X9X6X6X6X2X2X>X>X>X>X>X&X~.V.9.n.M.U.V.J.P.L.L.4.X.} x n M.%XN.n.n.2.M.I.Y.i %.| o.@.>.3.,.2.9.n.M.b.M.P.n.U.3XZXIXZXAXIXZXIXIXPXHXIXIXIXIXHXHXPXIXPXLXLXLXPXLXIXbXyXbXyXyXrXbXuXeXrXwXwXwX<X@X@X,XoXoXoXoX{.{.XXH.F.`.F.F.x.x.z.z.h.f.f.r.r.1.u.;.&.;.&.$.` $.) ^ T.! N 2 % t 1 r 1 r t t t t t t t t p u p u u u f u f N c d d x h x c c c c H c b H c c c T.T.H H T.G G J G T.T.J T.I | } < < r r r B 1 < B r * * 9 4 & y n 9 i 9 9 6 9 8 V 9 j 9 6 3 6 3 8 7 V U 0.~.3XsXsX8X8X1X;X&X&X*X-X;XQ.&X&X&XQ.Q.L.Q.V.Q.Q.V.V.h.n.V.V.8.8.V.8.8.8.",
"'.XXXXoXXXoXoX+XwX+XwXrX+XwXwX}.XX}.].].].F.v.z.H.h.y.[ { y.{ u.d...c V K 8 K K V C C Z H G H H v Z H c c H c c c C C c c C c c c c Z h c h h f c h c f c f h d g f h f f h f g d f f a a g a g j f r Z.B.y 4.>.4.4.>.,.3.@.3.6.3.6.a.6.Y.6.Y.0.n.0.n.n.n.n.n.B.B.B.U.B.U.E.U.E.I.I.R.R.R.R.R.R.~.~.~.&X5X4X<X,X,X,X{.{.{.{.{.|.Q.D.A.m.V.V.m.h.z u k 9 9 r w w 9 X 8.<XQ.:.:.:.:.>.:.=.4....... . .T. .x 0 t r y t d d d x c H v G } v | O.i LXLXLXLXJXLXCXo.. g x M g g g N g 9 N N u u u u y 9 i r y y r r 9 = 9 0 B y X $ Q.2X:X2X2X2X6X8X8X9X9XsXdXkXkXjXfXjXjXzXUXUXBXBXvXVXVXCXZXZXZXZXFXFXFXHXHXHXHXPXJXLXLXLXLXLXKXKXKXKXKXKXKXKXKXLXKXLXKXKXF.].'.}.|.).F.x.x.c.v.f.f.t.f.r.r.r.-.-.$.[ ' _ _ ( i + & L 0X2X!.~.-X^.~.~.!.!.Z.Q.E.Z.Z.Z.Z.Z.B.B.q.n.q.K.6.y     < 4 + % % & % & 4 4 *   P K.[.z.A.G.f.l.g.b.d.d.g.d.a.u.u.u.;.;.;.;.=.=.=.M V.1X&X^.>X/.8X;X0XxX8.$ & 4 * + $ v 0.n.3.9.9.0.Y.B.9.h   X @ o O o = % X o o % $ $ = 2 2 2 = % 2 = % < N 4X]..XG.S.'.S.D.H.S.m.g.a.l.S.S.S.H.G.|.|.{.{.{..X.XoX,X.XoXIXKXHXPXGXGXGXGXGXGXGXGXGXGXFXFXFXFXFXSXSXFXDXDXDXSXZXDXCXCXCXCXVXvXvXvXcXvXcXcXxXzXzXfXfXfXfXqXqXpXqX0X0X=XQ.Q.b.m.b.V.J..X%XL.i.%...O.M z 2.R.J.m.N.b.b.b. X,.m } o.X.O.>.,.,.Y.9.N.n.n.U.K.P.C.n.jXFXZXZXIXZXHXIXIXIXAXIXIXHXHXIXPXPXLXKXKXKXKXKXLXnXuXnXbXrXbXrXuXuXrXrXwXwXwXwX,X+X+XoX,XoX{.}.'.'.].].`.F.F.F.z.z.l.f.f.f.p.r.e.:.;.-.:.$.' ' _ / L Q n z 0 & w 4 * 4 9 r t r y t t i t p N u a u a u d N d d d x x x d c h c c c c c m c m c v m G m G G G G T.T.| T.T.#.H 2 B B B B < * 0 2 & B B w 4 4 9 z 9 9 u 9 p 9 8 8 8 f 8 s s s s s V 8 7 9 vX8X4X2X<X:X;X;X;X;XQ.;X.X~.Q.Q.Q.Q.Q.Q.Q.V.K.K.V.V.V.0.n.V.8.n.8.8.8.8.",
"}.}.XXXX+XoX+X+X+XrXrXrX+X}.XXoXXX}.].`.).v.x.x.v.h.t.[ { y.y.f.X.H 8 V K V K K K V C V c H c H D c H Z c C c C c c c f f c f c c Z h h h h c h h h c h f N h h f g f g d d j g f d f g f f f a j a X | pXR.m T.@.3.@.@.3.Y.6.@.6.6.6.6.6.Y.6.Y.Y.n.0.N.n.n.n.M.B.B.B.U.Z.U.U.R.U.R.U.R.R.R.R.R.R.R.~.%X*X5X5X5X{.,X,X.X{.{.{.{.H.H.H.H.H.h.4.n x u u z i w 9 9 = q m.<XQ.:.:.:.1.:.4.=.4.=.=... . .T...b 2 r r i d u N x f c b v G G G P o.5 CXLXIXJXKXZX4.& M v g x g g g g N N N 9 N 9 u u y i y y r r 9 r r y & r N # & 2.8X2X2X4X2X3X8X9X9XsXpXpXdXfXfXfXfXjXzXcXcXBXvXBXBXVXAXCXZXZXZXZXFXFXFXHXHXHXJXPXJXLXLXLXKXKXLXKXKXKXKXKXKXKXKXKXKXLXKXKX).'.'.}.].).F.).x.c.v.v.f.f.r.y.r.-.-.-.[ $.[ _ ' _ u = * # n.dX-X-X>XR.>X~.~.~.!.!.Q.Q.Z.Z.K.C.Z.B.B.n.n.B.C.n.+.&   X 4 * % % & * & * r < o I .XG.m.S.S.m.m.m.g.d.g.g.i.1.a.1.1.<.;.=.;.4.=.n Q.2X;X:X2X7X;X0XUXE.* $ 9 & X & | n.n.6.6.9.0.Y.0.B.I.Y.o.X   O * % X X < $ $ $ % - 2 - = 2 $ % 0 = = $ = L..X[.G..XG.H.L.S.D.A.d.g.l.S.l.S.S.S.|.[.'.{.{.OX.XOXoXOX<XCXLXPXPXPXPXGXGXGXGXSXZXDXCXVXvXcXvXxXzXxXfXfXfXpXqX7X>X>X-X^.~.~.R.B.B.q.0.5.6.5.#.Y +.I I U D P v D g c d X.Q.V.I.%X&X&XQ.n.1.4.*.4.} c  .M.K.V.m.b.d.d.b.%X<.m } o.X.4.>.3.,.2.9.Y.B.U.B.n.I.%X%XN.UXIXHXPXPXHXHXZXZXIXHXIXIXIXHXLXJXKXKXKXLXKXKXKXIXbXuXbXbXrXbXuXrXuXuXrXwXwXwXwXoXoXoXoXXXoX}.OX].[.].|.`.F.z.z.z.l.k.f.f.a.u.r.e.;.;.*.-...' ' / Q ( L x i 0 * B r r r r i y y t t y u u p u u a u u d d d d x f d f x h x x c c c c c c H G G H v H m H T.G J H | H G O.c % r 1 1 B B 2 < 0 0 B 4 * & 9 i 9 9 9 y 9 8 8 8 8 s 8 s s s s 8 s s s 7 6 0X8X4X4X;X1X1X;X;X;X;X~.;XQ.Q.Q.Q.Q.Q.Q.V.Q.V.V.V.V.V.V.n.h.V.8.0.8.8.8.",
"}.XXoXoX+X+X#X#X+XrX,X|.<XwXXXOXOXQ.Q.].].).x.x.v.t.y.[ { j.t.=.h 8 8 8 V V s K K K K s C Z Z c Z H c c Z c f c c f c c f c f c c d h h h h h h f c f h f h h d h f f d h f d f g a a f f d f d a j @ # &XVXK.+.G X.>.,.@.@.@.3.3.3.3.6.6.6.6.Y.N.0.Y.n.n.q.n.n.n.B.B.B.E.U.U.U.U.I.E.R.U.R.R.R.R.R.R. X=X,X5X,X5X,X.X{..X X{.U.H.Q.Q.H.1./ z i z 9 u N 9 i r r . n Q.<XH.:.:.h.1.1.4.=.=.4.....%. .T. .Q r B u t u d d x x x T.c v G I P o.y !.LXKXLXZX>.$ 9 L g x x g x N g N 9 N N u y i y i y y y r i r r 9 4 4 9 - . @.8X6X1X2X2X2X8X9X9X0XpXdXkXfXfXjXxXUXzXUXcXBXBXBXBXCXCXCXZXZXZXFXFXFXHXGXGXPXJXPXJXLXLXKXLXKXKXKXLXKXKXKXKXKXKXKXKXKXLXKXLX].XX].}.].].).).F.x.v.v.v.t.f.f.r.r.-.{ &.[ [ _ ' ) z w * + % Q.fX>X>X^.-X~.-X~.~.~.!.!.!.Z.E.Q.Z.Z.Z.C.Z.B.B.K.K.,.p X X * > % o % 4 * # < o $ ..{.I.l.D.m.l.m.g.d.g.p.p.u.u.1.a.e.;.;.;.=.=.L Q.8X>X2X>X8X;XfX8X& . 9 + X p @.B.C.N.9.n.n.n.N.n.n.B.Z.I.3.t   X % % o o o $ o % $ @ % $ = $ 2 2 B 2 % X / ,X.XH..XG.G.G.G.G.S.m.i.A.z.z.G.S.|.I.{.[.{.{.OX'.oXwX<XJ.n.0.+.Y J | G F F F H Z Z Z j j s 8 9 d 9 9 8 t t 7 9 d 9 a d y 9 9 j h h h 9 s t 9 j 9 9 9 9 9 7 p j p d y @.Q.P.P.9.b.,.o.x t r u X.M M 2.I.U.M.m.b.b.b.M.%X@.L } o.X.4.>.,.2.9.b.n.Y.n.U.I.P.I.J.N.nXFXAXIXLXIXPXIXIXIXHXIXIXPXLXLXLXLXKXKXKXLXKXKXKXMXrXbXbXbXbXbXuXuXrXrXwX@XwXwX+X,X}.+X}.{.oX'.{.].].|.G.F.F.S.x.z.l.f.f.a.u.r.1.e.-.:.*.$.$..._ _ / / n z u * B r r B B 4 y t t t t i p p u y p u f u f d d f N d x f x x h c x c c c c c c v v m G G G G G T.H T.J H | N 2 0 r B B < < 0 2 0 B 4 * B 9 9 9 9 y 9 9 9 7 8 8 8 8 s 8 a s s 8 8 A 7 , Z.pX:X4X1X1X;X;X~.;X;X~.Q.Q.;XQ.Q.Q.Q.Q.Q.V.Q.V.V.V.V.V.V.8.8.8.8.8.8.8.",
"}.}.XXoX+X+X#X@XeXwXY.O.L.4X+XoXOX}.].].].H.F.v.v.y.[ y.r.r.$.j 8 K s K V V s V s V V s V f C H c h h Z c Z c Z C c c C c C c f h h h h f x f d h f c f h f d h g f d f g f f g f a d f a d d f d p c X p dXBX2X3.| P O.,.O.O.,.3.3.3.6.6.a.Y.6.6.Y.6.N.Y.n.N.q.n.n.B.B.B.B.U.E.E.U.U.I.R.R.U.R.R.R.R.R. X=X*X,X<X.X{.oX X{.[.{..XL.m.=.x y u M x z u k k 9 w 9 . 1.;X.XQ.1.:.1.:.>.1.=.=.=...=.*. .T.%.T.r < r t r d d d x c c v G v o.I o.v I LXKXZX..X 9 ..9 v g x g x 9 N N u u y y y u 9 y i r 9 r r r r 4 4 M $   o.2X9X;X2X2X3X8X8X0XpXpXdXkXkXjXfXjXUXUXcXUXBXcXBXBXCXAXCXZXZXZXZXIXFXHXHXHXPXJXJXJXLXLXLXLXLXKXKXKXKXKXKXKXKXKXKXKXKXKXLXKXKXG.].XX}.].].].x.F.F.x.z.v.f.j.r.r.y.w.-.-.$.' _ ' _ n i < 9   u 9XqX-X0X^.-X-X:X~.~.^.~.~.!.!.!.!.K.K.Z.Z.Z.B.0.B.~.I.I @   % 4 < @ + $ 4 % y - - >..XD.l.A.m.g.l.m.g.d.i.d.u.u.1.a.<.;.=.=.:.Q ~.9X>X:X2X2XqXqX9 . 9 + + g 6.K.n.9.9.n.B.B.n.n.n.n.n.B.I.*Xn.h     $ * + % o % = $ % $ % 2 = = $ * B 0 $ . A.,XQ.L.[.[.F.G.G.S.m.l.A.F.S.G.|.G.|.{.'.{.{.'.,XoX,X.X8.U P +.O.O.7.#.+.#.#.+.+.+.+.#.+.#.7.+.O.O.#.+.#.#.#.+.+.+.T Y | I I G D D F D P U U v U D D Z v H H v c m y x o.x y B 4 4 r t N N c } b o.D.L.D.m.M.d.d.b.M.P.X.L } o.X.O.3.3.2.2.9.N.Y.n.I.I.n.U.R.BXHXHXgXaXAXBXAXZXHXHXIXHXJXLXLXLXLXKXKXKXKXKXKXKXKXPXyXbXbXbXbXuXuXuXrXwXwXwXwXwXwXwX+X,X+X+X{.OX'.{.].].`.F.F.F.A.z.z.h.f.p.u.u.r.r.;.-.:.$.$...' _ / / ( n b * B 4 B r B 4 t r r t i p i t t y y p i f i p d d f d d d c c x x h c c c c c c v c v v H v G m H H T.H | | u 2 2 1 0 2 0 * < 0 0 9 * = 4 9 z 9 y 9 9 4 7 7 8 8 8 s 9 8 a 8 8 s 8 Z 9 , +.pX:X4X;X1X;X;X;X;X.X;X.X~.Q.Q.Q.Q.Q.Q.V.K.V.V.V.V.V.V.8.V.8.V.8.8.,.8.",
"oXXXoX+X+X+X#X@XyXL.| c I 8.Q.@XOXXX].F.F.H.F.z.v.[ { f.:.o.A 3 K 8 K K V V s V V V V 8 8 V f f f Z c c V c Z c f C c f f c f C d h h h g h h f f x h d h f f f f f f d g f g f d d a f d a f a j & a 4 X +.pXcXdXZ.T.G @.6.3.O.3.3.3.3.,.,.,.6.Y.6.Y.Y.Y.b.N.b.n.n.n.B.B.U.B.B.Z.U.Z.U.E.R.R.U.E.R.R.R.R. X=X5X,X,X,X,X{.{.{. XP.8.L u N x M N z N 9 u 9 i w * * Q.;XOXL.8.:.h.1.1.<.>.=.%.%.%.*. . ... .N * i u u u u d c c c v G M o.P o.P N KXCX4.$ x M 9 x g g g g 9 z 9 N u u 9 y y y y i i r r 9 4 9 r 4 9 $ X } 2XiX;X2X2X2X3X9X9XpXpXpXpXkXfXjXjXUXzXzXUXcXvXBXVXAXCXCXZXZXZXZXFXFXHXHXGXPXPXJXJXLXLXLXKXKXKXKXKXKXKXKXKXKXKXKXKXKXKXKXKXLXLX}.].OX}.'.].).].).).x.z.v.v.t.t.r.r.w.w.-.&.$.[ ' _ m k & B t . | dX0X-X6X>X:X-X-X:X^.&X~.~.~.~.!.!.!.R.Z.C.R.K.B.B.K.K.B.p O   & 4 # $ & < & 4 + $ <.=XA.S.S.A.m.m.m.g.Y.f.d.i.u.<.<.<.;.>.=.L &X8X:X>X7X8XjX9.. * # X L K.n.0.n.n.n.n.B.B.n.B.I.B.B.B.U.n.-X&XO..   . < - % $ = 2 $ % = = * 2 $ % B r *   n ,X<XD.]..XH.G.U.G.A.m.z.S.S.|.G.G.[.}.{.oX}.{.wX,XU.5.#.5.q.7.O.#.#.#.+.O.#.+.+.+.+.T o.Y +.I o.I U P U U P v P v U v U U v F U U P D D D D h g c g h c h c n L ..v n ! u = N u p d N f N t x } b.K.J.M.m.m.8.d.b.V.Q.} L } O.X.@.3.,.2.9.9.Y.n.U.Z.Y.U.lXAXHXHXHXBXgXcXmXBXBXZXIXHXLXKXKXLXKXKXKXKXKXKXKXKXKXKXKXNXrXbXbXbXuXyXuXuXrXwXrXwXwXwXoX+X,X+X+X{.OXOX'.[.].].].F.x.z.z.S.k.f.h.f.u.u.e.e.;.;.&.*.' ' _ / ( / ! Q y B * * B r 4 B t t r t t r t i y t u y p u d u u d d N N d x f x c x h c c c c c c G c c G v H T.H T.H T.J i 2 2 B * < < < 0 2 4 w * B 9 N N 9 y 9 9 5 5 7 8 8 8 8 8 p a 8 9 8 7 V 8 7 g pX3X1X1X;X;X;X*XQ.~..XQ.Q.Q.Q.V.Q.V.Q.V.Q.V.V.V.V.V.V.n.8.8.8.8.8.8.,.",
"}.+X+X+X+XwX@XrX<X3.D T U D 3.A.OXOXXX).F.H.F.z.v.t.y.:.o.9 8 K K K 8 K 8 K V V 8 V 8 V V V V f f c f Z h c Z c c c c c c f f c h h h d h f d g f f d f d f d f d d d f f a s f a f a d d f d a g 5 : a 6 # U R.VXxX:X6.G G O.@.O.3.O.3.3.,.,.6.6.Y.6.Y.9.0.0.b.n.0.q.N.n.n.U.B.Z.Z.U.Z.U.I.E.R.R.R.I.R.R.R.=X,X,X<X,X{. X,X XM.X.L N N M L M N g N k u e 9 r = L .X.X;XH.8.1.1.1.1.<.<.=.=.=.%.;...| X.%.M B t i t f u N x M c v G H G P o.o.j fX9.$ 4 o.n 4 M g g g N N N u z 9 u u y 9 k r r 9 r r r 4 4 w 4 r   v 1XiX:X1X8X3X6X9XiXpXpXkXkXkXfXfXjXzXzXUXcXcXBXBXBXVXCXZXZXZXZXFXFXFXFXHXHXJXJXJXJXLXLXLXLXKXLXLXKXKXLXKXKXKXKXKXKXKXKXLXKXLXKXLX].OXXXXX'.].].).F.).x.v.v.v.f.v.r.r.r.:.-.:.&.' ' ) _ z = B N 2 . B.zX6X7X7X>X>X>X>X-X>X&X-X^.&X~.~.!.!.!.Z.~.!.Z.n.q.Z.~.I.o.@   . * < # 4 + > 4 + * @.{.D.S.A.l.l.l.Y.i.d.a.i.1.u.e.u.<.:.>.} 1X8X:X2X8XcXQ.# # + . @.Q.K.B.9.n.B.B.B.C.B.B.B.Z.Z.I.Z.I.n.Z.~.-Xb.a X   o o $ 2 % % % = @ & * = 2 = 0 2 = . m.1XQ.L..X.XG.[.].A.A.A.S.S.G.|.|.[.{.{.{.,XwX XU.3.+.#.+.T 3.#.#.#.#.+.+.+.+.+.+.+.+.Y Y I +.I +.P I P U U D U U U P U U P c h c j c x c g v L L P ! ! ! ~ m n ! / / ../ i i i u u N x d b r >.J.J.M.n.m.b.8.8.8.D.I.L L o.o.X.@.>.1.,.9.b.n.U.N.Y. XlXVXIXAXBXIXIXjXjXBXBXmXBXBXZXHXKXKXLXLXKXKXKXKXKXKXKXKXKXLXIXgXuXnXyXbXyXyXuXuXrXrXeXwXwXwX,X+X,XoXoXOX'.{.'.].[.].G.F.F.S.x.m.l.l.p.p.p.u.;.;.;.&.*...' ' _ ( ( Q ! z y 4 = B r B * r 0 r 1 r t t i t t t t u t t d p u d d p N d d d f d x h x x c c c c c m H v G C T.T.c | T.1 0 0 < < < * < < 0 w B 4 9 9 N 9 i r 9 9 9 7 7 7 8 p p p 8 8 p 8 8 8 8 8 8 6 >X9X:X;X;X;X;X;X*X;XQ.Q.Q.Q.Q.Q.Q.Q.n.V.V.V.V.n.V.n.8.8.V.n.8.8.8.8.,.",
"}.{.+X+X+X@XwX5XN.T.U 5.R D F U m.Q.OX}.).F.z.z.y.t.:._ j 8 8 A 8 s 8 K K 8 K K s V V V V 8 V V Z c f c h Z c Z c f f C c f c f d h g f f f g f d f N d f d d d f a f d a g f d p f a a d p a a a 9 < > a > # 5 Z.0XcX0X9.| | 4.O.3.3.3.3.3.3.3.6.2.6.6.Y.6.0.9.0.N.n.n.q.n.B.n.B.B.Z.U.U.Z.U.I.K.I.K.R.P.P.R.=X5X,X{. X,X XN.T.N M m m v x g x N u y y 9 e 9 $ h.;X.X<XH.1.h.8.1.1.<.<.<.%.=.%.%.O.*. .O.T.B B y u p N d x c M v v G T.I P o.P v x v u 9 n L 9 g N g N 9 u u 9 u u y y y 9 9 y 9 B 4 w r 4 4 4 + v Q.9X2X;X9X2X9X9XpXpXpXfXfXkXfXfXjXUXzXUXBXBXBXBXVXAXCXCXZXZXZXFXFXFXFXHXHXPXJXJXLXLXLXLXKXKXKXLXKXKXKXKXKXKXKXKXKXKXKXKXLXKXKXKXLXXXOX'.oX}.'.].].).x.x.z.z.v.f.f.r.r.r.:.w.-.[ $.' ' ..b 0 i 2 t o p -XfX7X6X6X2X2X2X>X>X>X:X-X^.~.^.~.~.~.~.E.Z.R.R.Z.Z.B.R.!.B.g . X + 9 % < @ < t . = m.S.S.S.z.m.g.g.i.d.u.f.u.u.<.;.<.:.:...1XqX:X2XdX6X9 X 4 4 I ;XB.N.B.K.B.C.B.C.C.U.Z.U.Z.U.Z.I.R.&XU.n.&X6XR.G O . o o = $ $ = % = % * 2 2 $ $ % 4 X N Q.OX.X]..X].L.[.H.A.A.F.H.G.G.I.[.{.{.{.oX X3.+.Y #.0.5.#.+.+.+.+.+.+.+.+.I o.I T o.Y Y I I I P U I P I I U U P D c h h h v m m v m } / } / } / / )  . . .../ _ ..$.$...b i N N d N i N N 0 b.%XV.b.m.N.8.8.8.d.C.P.n L ..X.X.@.3.,.2.Y.9.U.0.Y. XdXZXZXcXAXZXIXHXBXgXnXcXBXBXBXcXCXLXLXLXKXKXKXKXKXKXKXKXKXLXKXKXNXyXbXbXuXbXyXyXuXrXwXrXwXwXwX,X,X+XoXoXoXOX'.'.'.].].G.S.F.x.l.z.z.l.f.f.u.u.u.e.;.;.;.[ ' ' ' _ ( ~ ! n N r * * B B B B r r r t r r t t t t y t d u i p u p u N f f N d d N h h c h c c c c c m c c H c T.H H | T.2 2 2 B * 0 < * 0 < B * w 9 z 9 9 9 9 6 9 6 9 7 8 7 p 7 7 p p 8 8 8 8 7 s s : B.iX5X;X;X;X&X*X*XQ.;XQ.Q.Q.Q.Q.Q.Q.V.V.Q.V.V.V.n.V.n.n.8.8.8.8.8.8.8.",
"oX+X+X+X#X@X5XeXT.F T R U R R A 9 ..Q.XX].x.F.z.[ r...9 s V V s V K 8 8 8 K 8 3 8 8 8 V V V 7 8 f f c f h f c f f c c c f c f f f h h h d d f d h f f f d f f a g d d f d f d f d a a d a f a d p % 4 4 > j 7 > O +.2XvXfX&X>.c O.O.O.#.3.3.6.3.,.6.2.6.6.Y.Y.9.Y.0.0.N.N.n.n.B.M.B.B.B.Z.U.E.U.E.Z.Z.E.R.K.K. X,X,X,XwX{.<.b x P L v M M g z N N z 9 i w 9 = $ Q.8XQ.<XH.h.h.8.1.a.<.<.<.<.;.%.*.*.O. .X.T.B 2 y u f N x c c c v v | P o.P o.>.v y g P M 9 z M x g 9 N N 9 u N y i y i r r i r w B 9 9 4 w 4 4 $ Q.pX1X8X6X:XqXiX9XsXpXkXfXkXfXjXjXUXzXUXUXBXBXBXVXCXCXCXZXZXZXIXFXFXHXHXHXPXPXJXJXLXLXLXLXLXKXLXKXKXLXKXKXKXLXKXKXKXKXKXKXKXKXKXKXLX].'.oXXX}.'.].].`.F.F.x.v.v.v.v.r.t.r.w.w.-.' ' ' $.*.! B 0 B y u O f 0XzX0X6X6X7X2X2X2X7X>X:X:X:X~.~.&X~.~.~.~.!.R.R.R.K.Z.Z.R.R.@.+ . # % < & @ & < = = S.F.S.z.m.g.N.i.d.d.i.a.u.u.1.r.1.4.:.2XpX2XpXxX9 . + & n.~.#.Q.B.Z.I.I.Z.K.Z.Z.I.R.R.I.R.I.R.R.R.&XR.I.R.:X&XZ.. . o $ $ % % % < = $ & * = 2 B 4 $ - 8.;X.X[.[.G..X[.F.A.A.F.F.].|.|.[.{.{..X X<.G 7.6.E R +.#.+.+.+.Y +.+.I Y I Y +.I I I I I P I I U P U H H v v v Z U U P G ..} .._ } ) / /  ./ .._ } ) ) ) ../ ' $...' ../ w t i N p p u p r n.%XV.b.V.h.2.1.8.8.Q.J.M P o.O.X.>.>.,.2.9.9.3.Y.5XzXAXcXcXCXCXIXZXIXZXjXjXBXcXBXAXBXZXPXLXJXLXKXKXKXKXKXKXKXLXLXKXLXPXnXrXbXbXuXyXtXuXuXrXeXrXwX+XwX+XwX+X,XOXoX{.OX[.].].|.|.`.z.S.A.l.g.f.g.u.u.r.u.;.-.&.-.$.[ ` ` ) ~ Q L M i B & & B 4 r B B r B r t t t t t t t y t p u u p d N p u f h x f N d x x x c c c c c c v m c T.H c | C - 2 * 2 2 B * < 0 2 B * w N n 9 w 9 r 9 r t 5 6 7 7 8 7 7 8 7 8 8 8 V 7 j s # @.0X:X1X;X;X;XQ.*X~..X!.Q.Q.Q.V.Q.V.Q.V.V.V.V.V.V.V.8.8.n.n.8.8.8.8.,.",
"oX+X@X#XXXrX<X@.T T R R F F F Y U 9 j 9..X`.x.v.<.H K K V 8 8 K V V V 8 V V V V 8 V 8 8 V 8 V 8 V 8 8 s f Z Z c c f c f f d f d f g h h f d d f f a a d d f f d a f f a d f d p p d g a p d d a * < 4 4 t p p 7 1 O t B.zXBX6Xn.H | 3.3.>.>.>.>.Y.3.6.3.6.6.6.3.0.Y.6.Y.Y.q.0.n.n.B.B.B.B.B.Z.U.U.E.U.I.I.R.I.R.Q.2X~.8.L M } L v m M M x x g x N u N 9 z w $ ..8X.X.XeXA.g.i.a.i.i.a.1.<.<.=.:.%.%.%.X.*.X.b = i u u N f c c c H c G G G | o.O.x g v g x g 9 M x 9 g u u z 9 k y y y i r r r r w r & B N 4 + $ 1X2X2X2X2X8X9X9XiXpXaXaXdXfXjXjXjXzXUXUXcXBXBXBXBXCXAXCXZXZXZXSXSXFXFXHXPXGXJXJXLXLXLXLXKXKXLXKXKXKXKXKXKXKXKXKXKXKXKXKXKXKXKXKXLXKXLXXXXXXXXXXXXX'.].).H.`.x.x.x.v.k.f.s.t.t.:.-.-.:.[ ` $.~ b r B * t d O G BXxX6XqX0X7X6X6X7X7X2X>X7X>X>X-X-X~.&X~.~.~.~.R.R.E.Q.Z.E.&XQ.v . # % % @ 2 0 2 - 2 N.=Xm.a.S.A.a.l.d.d.u.d.u.1.e.a.%.>.fX;XqXjXn.  # L V.~.Z.V.Z.J.Z.Z.Q.K.K.K.Q.K.R.K.R.R.R.R.!.R.!.!.!.~.&X&X-X&Xd   o B o o t % $ $ 0 < 2 = B > t $ w {.<XG.oX{.[.[.[.|.S.S.S.].|.|.[.oX%Xm.o.#.T +.E E #.#.+.+.+.+.I o.Y Y Y R U U R U R U D F G F G G G } T. .o. . . . ... .} _ ......) } ........ ...........$.:.:.%.$._ / Q u B i t r u c r T.*XN.N.N.b.2.,.i.Y.L.n.n T.X.X.4.O.@.,.2.2.>.N.3XBXUXjXmXBXMXBXZXZXIXSXAXjXBXzXBXBXAXBXZXPXPXKXKXKXKXKXKXKXKXKXKXLXKXKXAXwXnXyXbXyXbXuXrXyXrXrXwXwXwXwX+X{.}.oXoX}.{.}.'.|.[.].F.S.S.z.z.l.l.f.f.p.u.r.e.:.:.$.$.' ..[ _ _ ( l Q n N 0 = B 4 < 4 4 4 4 r r r r r i r p i t t i u N u N p N N d N d h x f h x c x h c c c c v c G x G P t * & 0 * * % * < r 0 & 6 g g g 9 i 9 9 6 5 7 7 7 7 8 7 7 8 7 8 8 8 8 8 K 6 Z 6 6 6X:X;X;X;X;XQ.*X.XQ.Q.Q.Z.Q.Q.Q.V.Q.V.V.V.V.n.n.V.n.n.b.8.8.8.,.,.>.",
"}.oX+X@XrXtXJ.Z R J J R R F F J R U A D o.H.OXh.H C 3 3 8 C C K 8 s s V s 8 V 8 V 8 V 8 V 8 8 V 8 8 V V f f f f N f f b c f f f h j f d g f f g f g f f a d p p d f d f a a a d p d a p a a f a > < < 6 7 p 7 5 V 8 @ ; 5.dXzXdX X3.H T.3.O.>.,.3.3.3.3.3.3.Y.n.6.0.Y.Y.N.n.N.n.n.n.n.B.B.U.B.B.E.U.I.E.E.I.R.I.Q.Q.,.L v v L L L v v M M x N g z 9 z 4 9 4 $ h.<X.X<X<Xm.g.Y.i.i.u.u.2.1.<.:.>.%.%.%.....X.T.= t i u N N c b b H M G P G } | o.v g g x x g x M N N g N u 9 i 9 9 i y i 9 r r 9 9 r & 9 9 . & n.2X2X2X2X8X8X9X9XpXpXdXkXkXfXjXjXzXUXUXvXBXBXBXCXCXCXCXZXZXZXFXFXFXFXHXHXPXPXPXJXLXLXLXKXLXKXKXKXKXKXKXKXKXKXKXKXKXKXKXKXKXKXKXKXKXKXLXXXoXoXoXXX}.'.}.).).).).x.x.v.v.k.f.t.t.:.w.:.*.$.$.$.! b 0 t t t d 2 2 0.cXdX0XqXqX7X7X7X6X7X>X7X>X>X>X-X-X-X-X~.^.%XR.R.~.!.K.Z.K.E.Z.0.X X % 1 1 o = i - k Y.{.A.g.S.S.g.g.u.d.u.u.u.1.i.n V.aX;XVX;XX + } Q.!.Z.q.Z.Q.Q.Z.Z.K.Z.Q.!.Z.R.R.R.R.!.!.!.~.!.~.~.~.&X&X&X-X6X5X6..   $ r . t = = 2 - $ 0 $ % * o - i.eX=X'.{.{.[.[.U.S.|.[.[.L.{.,XJ.1.o.#.#.#.#.+.+.+.+.O.I Y T Y Y Y I U U U L U U P P P T.| } }  .o.}  ... ...$.$...$.*................. .....$... .....$.=.:.:.*...) / ! z i i t i t u B m R.U.b.N.d.,.2.b.Y.P.n.m G X.O.X.@.9.2.@.2.J.sXjXjXjXjXUXBXBXBXAXAXZXSXZXjXjXBXMXBXVXBXAXPXPXKXKXKXKXKXKXKXKXKXKXKXKXKXIXnXuXbXbXuXuXuXrXyXrXrXwXwXwXwX,XwX+XoX{.oX'.OX'.].|.].F.F.x.S.z.l.k.h.f.p.r.r.e.;.-.$.-.$..._ _ ( L W ! / z i B & B 4 < 4 < < 4 r r t r t t i p i p p u p u p k u f d d N d d x h x h x c c c c c c v G c G m t & % 2 B * * * = 0 < * 5 g g g 9 9 9 r 9 t 7 7 7 7 8 7 8 7 7 8 7 p 7 8 8 6 j 6 > ~.8X;X~.;X*X*X*X~.Q.Q.Q.Q.Q.V.V.V.V.V.V.V.V.V.8.8.n.b.8.8.,.8.8.,.>.",
"+XwX+XoXeX.X+.D R J R Y R F J F j U A K 9 +.>.v 3 C K K V C 8 8 V s V 8 V 8 s 8 8 V 8 8 8 8 8 8 8 8 V 8 f f V f f f c f f N d f f g g f f f f f g f f d d a d f f d d a d p p a p f p a p a a y 6 & < 5 t 7 7 6 1 j f 2 O c R.VXzX-X3.| O.O.O.O.O.>.3.Y.6.O.3.2.6.Y.Y.0.0.Y.0.n.B.n.B.n.B.B.B.B.Z.Z.U.Z.U.U.E.R.Q.b.v x } L L M n L M M x z x N 9 k 9 w e * w ;X;X.X<X4Xm.d.i.g.i.i.a.u.1.1.:.<.%.%.X. .*.%.T.0 r i u N N c b c v v T.T.G P o.| x x g M g g 9 9 N g u 9 9 N u u u y y 9 i y r r B r 9 r = = >.pX2X2X6X8X8X9XiXpXaXdXkXfXfXjXjXzXUXcXmXBXBXVXVXCXAXCXZXSXFXIXFXHXHXHXHXPXPXJXJXLXLXLXLXKXKXKXKXLXKXKXKXKXKXKXKXKXKXKXKXKXKXKXKXKXKXKXKX'.+XoX+XXXOX].].].`.).F.x.x.v.k.v.f.f.t.r.:.:.-.[ ` ` ) T.= B u B f p % 2 -XvXdX0XfXqX0X0X6X6X6X7X7X2X7X>X>X>X-X-X-X^.-X^.~.~.~.E.K.Q.~.&XB.| O   o t < . 2 . b U.L.g.g.l.g.h.d.d.i.a.u.u.;.=.8.sXBX2X& X #.Q.~.Q.B.Q.Q.Q.Z.Q.Q.Q.!.!.!.!.!.~.%X~.~.~.&X%X&X&X&X&X&X&X-X-X%X0XdXB.r   X < $ o 2 B 0 2 2 2 > * * . k {.4X[.{..X{.{.|.U.`.|.]..X.XU.3.| Y #.+.T +.+.T Y o.I Y R Y Y Y I I | } I o.} } } } ....X...%.%.%.%.%.%.%.&.%.$.*.*.*.=.$.4.$.%.$.$.%.%.%.%.%.%.%.%.%.=.;.u.=.&.$._ ..! Q u i i t t y r u M.C.b.2.Y.>.,.d.b.K.N.m m X.o.@.1.O.o.2.%XsXjXjXgXhXUXUXUXBXBXBXAXZXIXIXBXaXnXBXzXVXVXBXIXHXKXKXKXKXKXKXKXKXKXKXKXKXKXKXIXwXbXbXyXbXyXrXuXuXrXwXwXwX+X+X,X+XoXoXoXoX'.'.{.].].`.F.F.x.A.l.l.f.f.f.u.p.r.:.:.-.$.$...' _ _ / ( Q Q n z i B $ < 4 4 < < < B r r r r r r i i t p u p u N u N k d d d N N h N h x h x c c c c c c G x G v 4 < & = * * * & B B * 4 a g c g 9 r r r 9 t 5 5 7 7 7 7 7 7 8 7 8 8 7 8 8 9 8 9 ; 0.0X;XQ.;X*XQ.*X;XQ.Q.Q.Q.Q.Z.Q.Q.V.V.V.V.V.V.V.n.V.8.8.8.8.1.,.,.,.",
"XX+X@XuXeXb.c T Y Y F I U F F F D U A F j t n >.2 3 8 K K 8 8 8 8 s 8 s 9 s 8 V 8 8 V 8 8 V s 8 8 7 8 8 s 8 8 V f c f f c f f N g f f g f d g a f d a d f a d a a a a a p d a a y a a p p y p p * 6 6 5 7 p 7 7 p 3 a Z 3 O p 6.xXcXfXU.T.T.#.,.O.O.O.3.6.Y.6.3.6.Y.0.Y.Y.0.N.0.N.0.n.n.n.B.B.B.B.Z.U.Z.U.R.U.I.Q.n.L L 4.} L L v v M M x x g N i 9 z 9 w $ _ 8X;X;X<X4Xl.d.g.g.g.i.i.a.1.1.:.<.<.%.*.%.O.%. .i t i p N N N c c v v G G P | | P x g g g g x M z u u g u g i y u i y y i r r 9 r B y y + + >.8X9X2X2X8X9X9X9XqXkXpXdXfXjXjXjXUXUXcXUXvXBXBXVXAXCXCXZXZXZXSXFXFXHXHXHXPXPXJXLXLXLXLXKXKXLXKXKXKXKXKXKXKXKXKXKXKXKXKXKXKXKXKXKXKXKXKXKXKXXXoXXXXXXX}.OX}.].`.`.).x.x.x.v.v.j.s.t.y.w.:.-.&.' ..)  .0 0 t 1 0 u i 2 8 fXVXqX0XqXdXqX0X0X6X0X6X6X6X6X7X>X>X>X>X-X-X&X^.&X&X&X~.E.E.K.2XR.@.> X o < < r o . N U.{.N.l.m.l.d.d.d.u.a.1.1.1.8.BXUXg   Z.~.!.Z.Z.Q.!.!.!.~.!.!.!.!.!.~.~.~.&X%X&X&X&X&X&X&X-X-X-X-X-X:X:X5X-X2XfX:XG X   < B - . % w 2 0 B % u =   <.eX5X.X.X{. X|.S.U.|.{.{.m.4.+.#.+.R Y T Y Y I Y Y U I P | | | | o.o.4.....=.=.$.=.:.&.%.;.&.%.&.%.;.=.*.%.%.%.*.%.;.=.=.*.=.=.%.=.=.%.;.%.;.%.&.%.;.u.u.u.:.*.$..._ / ! b t r r r r i B 3.J.b.1.b.>.1.b.N.P.N.b } o.X.4.X.o.8.&XaXhXlXsXaXjXzXnXjXUXAXAXAXZXZXHXZXfXzXBXBXBXVXBXVXSXKXKXKXKXKXKXKXKXKXKXKXKXKXKXPXyXbXbXbXuXbXyXuXyXrXwXwXwXwXwXwX+X+XoXoX{.oXOX'.'.|.].F.H.F.x.z.l.v.h.f.p.u.r.r.:.:.-.-.$.' _ _ _ _ Q ! ! n N r = * * < 4 < * < r 1 r r t t p i t t i i p p u p u u f d d d N f N h N h h x c c c c v c G c < & & * * & * * B B & t a j c u 9 r 9 r 4 5 6 5 7 7 7 7 7 7 7 7 7 a 7 8 3 8 8 9 , D 0X;X*X*X;XQ.Q.~.Q.Q.Q.Q.Q.Q.V.Q.V.V.V.V.m.n.8.8.8.n.8.8.8.8.,.1.>.",
"bXyXwX,XJ.| Z +.U R U U D F F F F A A D N l 1.z.<.H 7 3 8 K 8 V V 8 V 8 8 V 8 8 8 V 8 V 8 V 8 V 8 8 8 8 8 8 8 8 8 f f f f d d f g a f f f a d f a f d a a a a a d a a a a a y p a a t a p p p 4 , 6 6 5 7 6 7 5 8 5 6 a f p : @ | >XVXxX X5.| G 3.6.3.O.>.6.Y.3.3.2.6.Y.6.Y.6.Y.q.N.N.0.n.B.n.n.B.B.B.B.B.Z.C.C.Q.V.o.P o.v L L L M M M x x g g e 9 w M * $ H.8XOXOX<X8Xg.d.m.m.g.i.d.a.2.1.1.<.<.%.%.%.*.<. .b r i p u N d c M v v m G G | | m g g g g x N N x 9 u u u 9 u i y r i r y r 9 r r r 4 $ $ I 1XkX-X8X6X8X9X9XpXpXkXdXfXjXjXzXjXcXcXmXvXvXBXVXAXZXAXZXZXSXSXFXFXFXHXPXPXJXJXJXLXLXLXLXKXKXKXKXKXKXKXKXKXKXKXKXKXKXKXKXKXKXKXKXKXKXKXKXKXLXXXoX+X+XXXOX}.XX].].].).).x.x.c.v.v.t.t.t.y.:.w.-.] $.` *.z 0 i i B t u f X #.zXVXdXqXqXqXqXqXqXqXqX0X6X7X6X2X7X7X>X-X>X-X>X&X^.&X&X^.Q.K.E.R.>XR.F O   2 2 r + o ! D.U.m.l.l.h.d.d.i.i.u.d.Q *XBXX.* n.~.!.Q.Q.~.~.Q.Q.~.~.!.~.~.~.&X~.&X&X&X&X-X&X-X-X-X:X:X:X>X:X-X:X:X6X2X-X>XpXlXY.%   o t B - $ * * < O u r   u I.eX,XOX{.{.|.I.|..X{.8.| Y +.T F T Y | Y | o.| o.| ....=...%.%.=.=.%.%.;.=.:.:.:.:.&.;.=.%.;.;.%.;.=.%.%.=.%.%.<.%.;.<.%.<.;.=.;.=.%.;.<.%.;.=.;.<.g.a.u.:.&.*.$.' / ) ! x r B r r y * T.U.b.1.8.>.,.d.N.P.8.M } o.4.P X.V.2X9X8X8XsXgXkXkXjXnXnXBXBXBXZXAXAXIXIXBXjXBXBXnXVXBXAXZXKXKXKXKXKXKXKXKXKXKXKXKXLXKXKXIXrXbXbXbXuXbXuXrXuXrXwXwXwXwX+X,X+XoXoXoXOX}.{.}.].[.F.F.F.A.x.z.z.z.f.f.u.u.r.r.;.-.$.-..._ _ _ ) Q n n n n u r = = < 4 B < 0 r 2 r 1 t r r r t i t t t i u p u u f y d u d d N N x d x c d c x j v c v g & & & * * * * B B * * d f x h 9 4 4 9 9 9 4 6 5 7 7 7 7 7 7 8 7 8 7 p 8 3 9 8 f 6 5 >X;X.X;X~.~.Q..XQ.C.Q.Z.Q.V.V.V.V.V.V.n.n.n.n.b.b.b.8.8.8.2.,.>.>.",
"*.` d 2 8 F T R U U U U F F F A j A U u z Q.yXF.l.a.| f 7 7 8 K 8 8 8 8 8 8 V 8 8 8 8 8 8 8 8 8 8 8 8 8 8 8 8 8 8 f f f f f d d f d d a d d p a d a f a d a a a p d p a p a a p p t 7 t y p p 1 > , 6 5 5 7 6 7 6 8 s 6 1 p p p X 3 q.xXVXqXn.G T.O.3.3.O.@.O.3.3.5.5.3.6.Y.6.Y.Y.Y.0.n.Y.q.n.n.q.B.U.B.B.C.C.Z.Q.Q.3.M L L L L M M v x g x N N 9 z w M $ 9 ;X;X;X;X<X8Xm.g.m.g.i.g.g.i.a.1.1.1.<.%.<.*.O.O.*.T.r i u u N c c M v v G P G | | v g g N N N 9 N N N N N 9 i y y y 9 y y 9 r r r r y + . o.2XpX1X3X8X8X9X9XpXpXpXkXfXfXjXjXjXcXUXcXBXBXAXVXCXCXZXZXZXSXIXFXFXHXHXHXJXJXJXLXLXLXLXKXKXLXKXLXLXKXKXKXKXKXKXKXKXKXKXKXKXKXKXKXKXKXKXKXKXKXLXXX+XOX+XXXOXOX}.].'.].).F.x.x.c.v.v.v.t.r.u.y.:.-.&.*.$.*.! 0 2 p t t t u t   B.CXvXxXfXdXqXdXqXqXqXqXqX0X0X0X2X7X7X2X7X7X>X;X&X^.^.;X^./.~.R.R.-X~.6.t X X 2 i + X T.M.D.m.m.b.h.g.g.f.a.<. .lX%Xg C.2X!.Q.!.!.~.!.!.~.~.~.~.&X~.&X;X&X&X&X-X-X-X:X:X:X-X:X>X>X2X>X2X>X2X-X9X9X:X>XaXdX-Xr   . d 2 o * < B . < t $ - ! <X.X.XoX.X{.[.I.I.+.Y Y Y T T T | +.X.%.=.=.=.:.=.:.r.:.:.;.e.;.e.;.;.;.;.:.:.=.=.%.<.>.;.%.>.<.<.;.<.<.<.<.<.<.%.<.<.;.>.:.<.<.;.<.<.;.<.<.<.a.a.g.u.r.:.;.&.$.../  ./ n k r r r i * N D.N.1.2.>.2.b.m.K.8.x } X.m >.K.;X2X2X3X8XlXaXsXgXjXjXUXUXMXBXVXAXBXSXSXZXgXjXBXBXBXZXBXVXPXKXKXKXKXKXKXKXKXKXKXKXLXKXKXLXbXyXbXbXuXbXyXrXuXuXrXeXwXwXwX+X,X,XoXoXoX{.'.{.'.].].F.F.F.x.z.z.h.h.f.f.u.r.r.;.;.=.:.$.' ' .._ ( Q Q n n l k 0 = * 0 r B > B r 1 0 r 1 r r r t r t i p p i u y y y d f d d d d g h d d c g h g c c m y & & * $ $ * B B * B r g h j g 9 9 r 9 4 r 9 6 6 7 7 7 7 7 5 5 7 t 8 p 8 8 8 3 9 8 ; Z.2X~.Q.;X!.Q.!.Q.Q.Q.Q.Q.V.Q.V.Q.V.n.V.n.b.n.b.b.8.8.8.8.2.3.>.>.",
"2 2 2 3 R 7.+.A R F R A S F S A A U x W v.bXAXbXS.k.a. .g 7 3 K 8 8 8 s 8 8 8 8 8 8 8 8 8 8 8 8 V 3 8 8 3 8 7 8 8 f 8 f f f f N a f d p a a d a d f d p p a a d p y p p p a y y a p t p a p 5 1 > 6 5 7 6 6 6 7 a 6 , 6 8 p p f f : 2 7.6XcXdX5XO.I T.+.3.3.>.6.3.3.3.2.6.2.Y.0.Y.0.0.N.N.q.N.n.n.B.n.B.B.B.C.C.J.!.8.v L L L L v M M x x x 9 z z 9 9 9 * :.8X.X<X<X<XtXm.m.A.g.d.m.d.i.1.1.1.1.<.<.<.*.%.%.%.| w t t N N d b c c v G G P | P x g N g N g N u 9 u u i 9 y y y r y i r r r r r r B & G &XkX6X1XpX8X9XpXpXpXkXkXfXfXjXUXzXUXcXBXBXmXVXAXCXAXCXZXSXDXIXFXFXHXHXHXPXJXJXLXLXLXLXLXKXLXKXKXKXKXKXKXLXKXKXKXKXKXKXKXKXKXKXKXKXKXKXKXKXKXKXLXOXoX@X+X+XOXXXOX].'.].`.`.F.x.z.v.v.t.t.t.p.w.{ :.&.&.*. . .0 0 r u u i t v O 7 -XvXcXdXxXxXqXdXdXqXqXqXqX0X0X7X0X6X6X7X>X>X/.7X>X>X&X&X&X&X^.R.R.-X>XB.Y $ O $ & . * =.G.m.m.g.g.d.i.a.a.<.i.&X8.V.2XQ.~.~.~.!.Q.~.-X-X~.&X&X-X-X-X-X-X:X>X:X>X:X>X:X>X>X:X>X2X2X2X2X2X2X0X6X2X6X0X9X0XjXfXO.X   0 B 2 $ < * * < r X r 5X%X,X,X,X,XG.d.<.v #.@.O.o.>.<.4.>.<.:.<.:.:.r.r.:.r.e.r.e.<.;.;.;.<.<.e.1.<.:.<.;.<.<.<.<.<.<.<.<.<.<.<.<.<.<.;.<.a.a.a.a.1.a.a.<.a.<.a.a.i.p.m.l.a.u.r.;.;...' ) / ~ ! b i r r i < * N.b.3.1.>.i.b.n.K.1.x } X.X.J.2X;X.X;X8X8X4XeXiXsXhXmXjXUXBXMXBXAXZXZXIXIXBXjXzXzXBXBXBXAXIXKXKXLXKXKXKXKXKXKXKXKXKXLXKXKXIXbXuXbXbXbXuXuXuXeXrXrXwXwXwXwXwXoXoXoXoXoXOX{.'.'.].].`.F.F.z.z.h.h.f.f.p.u.r.e.:.:.*.$.' ' _ / / ! ! Q n n x i * = * B < 2 < 0 2 r 0 0 t 1 t r t r t i t i t y y y u y d u d d d g g x h g c g c c v r + * & & * * B * * w d j j 9 u 9 9 4 4 4 4 4 4 5 5 5 7 5 7 7 7 p 7 7 7 8 8 8 7 7 s ; +.8X;XQ.;XQ.Q.Q.Q.Q.Q.Q.V.Q.B.V.V.V.V.m.n.n.b.8.b.8.8.,.,.1.3.>.>.",
"p C 8 V F R U Y U F F F D F D D j v k v.mXnXtXnXnXwXc.l.,.Z 3 8 8 8 8 8 8 8 8 8 V 8 8 8 V 8 8 8 8 K 8 8 8 8 8 3 8 7 p f d p d f d f a f d a p a a a a d d a p p a a y p p t a p t a 5 t y a 5 > , , 5 7 7 6 6 7 > 7 7 7 5 p 7 3 p Z 2 O f ^.xXxXlXn.T.| >.O.O.3.3.5.3.3.3.6.6.6.Y.Y.Y.0.Y.Y.n.0.n.n.B.B.C.B.V.C.n.!.b.o.P L L M L M M x x x N N 9 e 9 * * H.8X;X<X<X<X8XM.l.N.m.d.g.g.d.i.a.u.1.<.<.<.<.O.%.%.*.B i t u N x c c v v G m P | I g N g N N N 9 N N y 9 d i y y y i 9 r i 9 r 4 9 4 . y ~.jX1X;XpX3XpX9X9XpXpXdXfXfXjXjXjXUXcXcXBXBXVXVXCXCXZXZXSXZXFXFXFXHXHXPXPXJXJXLXLXLXLXKXKXLXKXKXLXLXKXKXKXKXKXKXKXKXKXKXKXKXKXKXKXKXKXKXKXKXKXKXKX.X+XoXOX$XOXOXOX}.'.].].).F.x.x.v.v.v.f.t.f.w.-.{ w.*.`  .*.i 0 r 2 t i p > +.X 9 xXDXxXxXxXxXdXxXfXdXdXqXqXqX0X0X0X6X6X7X8X7X7X>X;X/./.;X-X-X&X-X~. X-X6X,.>   * y . + >.A.m.l.d.g.g.g.a.m.*.I.;X!.!.~.~.~.~.~.-X~.;X~.;X:X-X:X-X-X:X:X:X>X5X>X2X>X2X2X2X>X2X2X6X6X2X6X6X3X6X9X9X9X9X9X9XpXVXZ.    2 % * $ y + + a o i hXeXwXoX{.[.g.<...8.=.;.r.p.t.r.p.u.a.1.<.3.1.>.>.1.<.<.<.<.<.<.<.2.a.<.1.1.1.1.<.<.2.<.<.<.i.1.a.a.2.e.r.e.a.a.a.<.a.<.a.a.a.1.a.a.a.a.i.a.a.g.m.g.u.u.r.e.;.$.$.' Q ! / m N r 0 r r = 9.N.>.>.>.2.b.M.I.@.x X.o.;X&X.X&X1X4X4X1XiXsXsXgXkXkXhXBXBXjXBXBXZXAXZXHXAXjXzXBXzXAXVXAXBXLXKXKXKXKXLXKXKXKXKXKXKXKXKXKXLXbXuXnXbXuXrXbXuXuXuXwXwXwXwX,XwX+XoXoXoXoXoX'.{.'.G.`.G.F.F.A.z.z.v.f.f.p.u.u.r.e.;.=.$.$.....( / ( ( n l z n z w $ = * * 0 1 B r 1 0 1 1 0 r r r t i t t t p y y y t d d u f d d d f x d g h g g c G 9 + & * $ & * B * & 4 g c c g y 9 w 9 4 9 9 4 6 5 5 7 7 7 5 t 7 7 t 7 7 3 8 3 3 6 Z > h 8X;X~..XQ.Q.Q.Q.Q.V.V.Q.V.Q.V.V.n.V.V.V.m.b.b.b.8.8.8.,.,.3.>.>.",
"p f 3 p J T J | D +.R h U U Z v L e h.hXmXbXhXhXuXhXuXH.:.h.[ 9 9 9 3 3 8 K 8 8 8 8 8 8 8 8 8 8 8 3 3 8 K 8 8 8 7 8 p p f 8 a a a a a a y a a p p f p u p p p p i i p p p t p p t p i 1 p p 2 2 5 1 7 1 7 1 p 1 7 1 p 7 5 p 7 p 8 3 7 8 ; ; 0.fXVXdXI.G H O.3.X.O.3.O.3.3.Y.6.#.6.6.Y.Y.6.0.0.Y.n.N.n.n.n.B.B.B.0.R.B.@.H T.} c L v 9 g L 9 y N y i n . 9 8X<X;X<X<XtX<XH.V.h.H.g.N.l.Y.a.Y.i.u.<.1.<.:.=.;.=.>.N t u u N x N c c c T.T.G | P u g g g g u y g u 9 u u 9 u i y y r 9 i * 4 y * & * Q.pX8X2X8X8X9XsXpXpXdXfXfXjXUXjXjXcXcXcXBXBXVXVXCXCXZXZXZXFXFXFXFXHXGXPXPXJXLXLXKXKXLXLXKXLXKXKXKXKXKXKXKXKXKXKXKXKXKXKXKXKXKXKXKXKXKXKXKXKXKXKXKXLX+X#X@X+XoXXX+XXXXX.X).).].).).x.x.x.k.k.f.t.r.e.w.;.&.$.' ' b = i y B t r N u x . @.CXVXzXxXzXdXxXxXdXxXqXqXqXqXqXqXqXqX7X0X7X7X7X7X>X>X>X>X-X-X-X&X~.^.R.lXR.F X   1 < X i.I.m.i.A.a.<.U.<.m *X&XR.*X&X*X*X-X-X-X-X-X:X-X5X>X>X1X>X1X1X>X2X6X2X2X2X6X6X2X6X6X6X9X9XlX9XlX9X0X0XpXpXpXqXpX9XjXCX2X9   + 4 & + B = N   y DXqX3.a M k Q 1.d.;.u.u.1.u.<.:.u.u.1.u.u.1.u.1.a.1.u.1.u.u.u.1.a.1.u.u.1.u.u.a.1.a.a.u.u.u.i.u.u.i.f.1.i.i.i.a.u.d.2.a.u.u.u.i.u.i.g.i.u.f.A.A.m.f.f.u.u.;.:.=.*.../ Q Q ! l u w 0 r * L h.>.o.1.8.8.Q.Q.L L Q.Q.P.!.=X&X;X5X4X4X3XlXiXsXaXhXjXjXzXBXBXBXVXAXZXZXHXBXgXzXBXBXBXAXBXFXKXKXKXKXKXKXKXKXKXKXKXKXKXKXLXIXyXyXbXbXnXrXyXrXrXrXrXeXwX+X,XwXoXoX,XoXXX'.'.'.'.].|.G.F.S.F.z.z.h.v.h.p.r.r.:.:.:.:.$.' ' _ _ Q ~ Q Q l b z N r % $ 2 < 1 * < B B 1 B t r 1 t t 1 r i t t t i p p u u u u N N N N k f b f b f b C 2 = $ $ * B * = < t d f f f g a 4 r 9 4 4 * 9 # 6 4 6 6 7 3 7 7 7 3 7 p 7 7 7 p p p 3 > Q.2XQ.Q.;XQ.Q.Q.Q.K.J.Q.V.V.V.n.Q.n.n.b.8.n.8.8.8.8.8.,.,.,.4.:.",
"p f 3 p H T J F #.9 j R D A D v k v.hXMXhXuXyXhXbXhXhXhX$Xh.[ :.9 9 8 9 K ; ; K 8 8 8 8 8 8 8 8 3 K 3 K 3 3 8 8 7 8 7 8 p p 8 a a a a a a a p p N p p p p u i p p p i p p i t t p i p t p i 2 2 6 1 1 7 1 7 1 7 5 7 7 5 7 7 p 1 7 7 7 a > # : Z -XxXVX6Xn.T.| 3.3.3.3.3.3.3.a.6.3.Y.,.2.Y.Y.n.Y.n.0.0.n.n.U.B.U.U.R.U.+.u c | m L x M x 9 n n r i 9 k - :.8X<X<X<X<XtXtXh.H.h.h.m.g.N.g.g.a.u.i.1.<.>.:.:.>.>.%.b B r N N f N H H b H T.G | G N g g g d g N 9 u u u u i y y y r y * i y r r * $ Q.pXpX1X2X9X9XpXpXqXkXkXfXjXjXzXUXcXcXBXBXBXVXAXAXCXZXZXSXZXFXFXHXGXHXPXPXJXJXLXLXLXLXKXKXKXKXKXKXKXKXKXKXKXKXKXKXKXKXKXKXKXKXKXKXKXKXKXKXKXKXKXKXKXLXoX+X+X@X+XOXOXOXXXXXXX].].).F.x.x.v.v.k.f.t.r.r.:.-.-.[ ' $.~ w B i t t t i d d t % n.FXVXvXzXxXxXxXxXqXxXxXqXqXqXqXqXqXqX0X0X0X8X7X7X7X>X7X>X>X-X-X-X-X-XR.>X-Xn.p   X < $ <.L.b.<.m.m.a.! z -X:X%X-X-X:X-X-X-X-X:X:X>X-X>X>X1X>X2X>X6X2X6X2X2X6X6X6X6X9X9X9X9XiX9X0X0X0X0XpXiXpXiXpXpXpXfX9XpXBXBXn.#   B w u $ $ 0 0.zX+.0 r Q ^ { p.-.g.1.<.r.1.A.A.=.a.a.a.1.1.a.u.1.u.i.u.u.a.i.u.u.u.i.u.i.i.i.u.a.i.i.i.a.d.u.i.u.i.a.i.f.a.a.i.a.d.d.i.i.h.d.d.d.g.p.a.g.m.D.H.m.l.f.u.u.r.:.&.*.$._ / ( ( n k i 0 r = z 8.,.4.,.8.8.V.Q.>.>.V.Q.K.P..X&X*X;X1X4X3X8XiXsXaXfXhXjXnXnXBXBXAXAXAXZXIXVXjXjXBXBXBXBXBXAXLXKXKXKXKXKXKXKXKXKXKXKXKXKXLXPXnXyXbXbXbXrXyXyXyXrXrXwXwXwXwX+XwXoXoXoXoXoXoX'.'.].G.|.`.x.A.z.v.v.f.p.h.r.u.r.:.w.*.-.$.' ' ' ) ) ~ Q b W b z i 0 = 2 < r < B 2 B B B B B B B r r r t i t t i i t t u p u N p f u f N f N b N T.f = 2 = 2 * 0 * * < t g f f j d a 9 9 r 9 * 9 & 9 6 9 6 6 7 5 5 7 5 p 1 7 7 7 p 3 8 8 7 > 8.>XQ.Q.Q.Q.Q.Q.I.J.Z.J.Z.V.V.V.9.n.V.b.V.8.8.8.6.8.,.,.,.8.4.L ",
"p p p p F T G J R A U R j v M z h.hXMXnXhXbXyXuXhXuXuXhXhX<XH.:.:.L 9 4 8 K 8 3 8 8 3 8 8 3 8 3 3 8 3 3 8 8 8 8 7 7 7 7 8 p p p a a 9 a a a y a p p p p p p p p u p p p t p t p 1 p t t p 1 2 0 1 6 1 6 5 6 3 5 7 5 1 p 1 p 7 7 5 6 7 s s p 3 : 3 B.fXVX0XB.| G +.7.<.3.3.3.#.6.6.3.6.6.6.Y.Y.Y.0.N.N.n.q.n.n.B.Y.q.U.U.>.g g P x x L L i 9 z n 9 x = w H.tX<X<X8X<XtX8XV.h.H.V.m.m.m.g.g.i.i.i.u.1.1.:.;.%.;.%. .r t N u N x b c c H T.G | G u g N g N 9 z N u u u i 9 y y y i 9 4 * 9 9 . < C.fXpX2X2X9XiXsXpXdXkXfXfXjXjXjXzXcXUXcXBXBXCXCXAXCXCXZXZXFXFXFXIXHXHXPXPXJXJXLXLXLXKXKXKXKXKXKXKXKXKXKXKXKXKXKXKXKXKXKXKXKXKXKXKXKXKXKXKXKXKXKXKXLXLXLXOX@X@X#XoXoX+XXXXX.X].].).`.).F.x.x.v.k.k.u.t.r.w.w.&.-.' $.$.u 0 t t p t r x < M * o 7XPXzXxXvXvXxXxXxXxXfXfXfXdXfXqXqXqX0XqXqX0X7X8X7X2X7X>X>X7X>X>X-X-X^.-X>X6XR.| &   . i 1.D.U.S.*.w c Q 1X3X-X:X&X-X>X:X:X>X2X>X2X2X2X2X2X2X6X2X2X6X2X6X6X9X9X9XlX9XiX9X0X0X0XpXiXpXdXdXdXfXfXfXkXfXpXkXfXfXcXBX!.B .   r B . $ 6.I.* k ;.t.^ ] v.z.a.1.h.m.a.1.i.d.i.i.i.a.d.a.f.f.p.d.d.i.i.i.g.i.d.d.g.d.d.d.h.d.p.d.g.g.d.h.d.d.d.d.d.g.g.g.g.g.g.d.g.g.g.d.g.g.m.p.f.A.F.].S.l.h.f.a.u.1.;.&.*.$._ ) / ( n l N B 4 - y ,.,.4.>.8.8.m.Q.m.V.V.Q.L.P..X%X=X;X1X4X4X8XlXtXaXkXhXjXzXBXBXMXBXAXZXZXZXSXBXjXjXBXBXBXAXAXHXKXKXKXKXKXKXKXKXKXKXKXKXKXLXLXIXrXbXnXrXbXyXyXyXeXeXrXwXwXwX@X+X,XoXoXoX}.'.'.'.].].F.F.F.x.z.z.z.z.h.p.r.u.r.r.:.-.*.$.$...) ) ) ~ ~ Q W b b l t 0 $ 2 B < 0 B < B B r B r r r r r r 1 i i p i p u i p u u u u u d d d N C d T.i - 2 = 2 * * * = 4 y g f a s d 9 9 4 4 9 9 & 9 4 6 5 6 t 7 3 3 7 7 3 7 7 7 7 3 7 7 p 7 1 U Q.~.Q.Q.Q.Q.Q.J.Q.K.J.V.V.V.V.V.V.n.b.0.8.8.8.8.,.#.:.8.8._ 9 ",
"i p p p G T F F 9 R U D D x n r.bXMXnXtXbXhXhXhXuXhXuXtXuXhXuXOXt.:._ 9 6 3 K 8 3 3 8 8 8 8 3 8 8 8 8 8 3 8 3 3 3 7 7 7 7 7 7 8 a a a 8 p y p a u p p u u p p p p i p p t p t p i p t 1 p t 2 2 1 1 7 5 1 7 5 7 1 7 1 7 p 3 t t 7 a 7 5 p 8 f 8 O 3 +.-XBXzX&X#.T.T.+.3.3.O.3.3.3.3.3.6.6.Y.6.0.Y.Y.0.0.n.N.n.q.B.Y.R.6X-X>.g i L n 9 9 L n i 9 9 x - v <X8X;X8X8X<XtXtXh.H.V.H.A.m.g.N.Y.i.g.a.u.u.1.>.;.<.<.>.%.r B N u u c c c c G H P G v N N g N N N u u 9 9 y y y i y r 9 w r r r & # ,.UX8X1X2XpXpXpXiXpXkXkXjXfXjXUXzXUXcXBXBXBXBXVXCXZXZXZXZXFXFXFXFXHXGXPXJXJXJXLXLXLXLXLXKXKXKXKXKXKXKXKXKXKXKXKXKXKXKXKXKXKXKXKXKXKXKXKXKXKXKXKXKXKXKXKXLX$X@X@X@X+X+XoXOXOX}.].}.].`.).).x.x.v.v.k.f.t.r.r.e.-.-.&.` *.l * i i t u i N p x c % c jXSXVXzXVXvXzXvXxXxXxXxXxXfXfXfXqXqXqXqXqXqX0XqX7X6X6X6X7X>X7X>X>X2X^.R.-XqX6X9.6 o   r U.I./ i l T.%.3X2X-X:X5X:X2X2X2X2X2X2X2X3X6X6X6X6X6X9X9X9X9X9X9XiXpX0X0XpXpXpXpXpXaXdXdXdXpXpXpXaXdXfXfXfXxXdXzXxXpXcXCXjXm X   t r % ! N ( ] ] W e ^ :.' m.l.a.a.d.a.u.A.g.i.g.g.g.d.d.d.g.d.g.g.g.d.g.p.g.g.g.g.g.m.g.g.m.d.g.g.l.g.m.g.l.m.g.g.g.m.d.g.l.m.d.m.m.l.m.g.l.g.A.S.[.G.A.l.m.l.d.u.1.r.:.=.$.../ / / ! n z i w - w _ ,.:.@.8.8.8.1.b.V.V.V.J.L.P..X=X*X;X1X4X4XlXiXsXaXfXhXjXnXzXBXBXAXAXZXZXHXZXjXgXBXBXBXAXcXZXPXKXKXKXKXKXKXKXKXKXKXKXKXLXLXPXnXbXbXbXbXbXrXrXyXrXwXwXrXwXwX,X+X+X,XoXoXoX'.{.'.].].`.`.F.x.z.z.h.v.f.p.t.r.r.:.*.-.-.$.' ' ) ) ) Q Q Q b b b N r = $ 2 * 2 * * < B < B r < 1 B 1 r r t t r p i t p u u p f u u d k d d k f b p $ - 2 = 0 * & 1 t f f a s j d a w 9 4 4 * 9 & 4 6 6 6 6 5 3 6 6 1 7 7 7 1 7 7 1 7 p p 7 9 Q.1XQ.Q.Q.Q.Q.K.K.J.J.C.V.V.V.b.n.m.b.8.8.8.,.8.#.,.8.8._ z e ",
"p f t 7 D Y F F U 9 9 U L z r.hXmXnXhXhXbXhXyXhXhXtXyXhXuXwXtXhXOX).h._ 9 * 9 9 8 3 3 8 8 3 8 8 3 6 8 7 8 7 7 3 3 7 7 3 7 6 7 7 7 a p t a y y a p u p p t t p p p p p i p p 1 i t t 1 t t B 2 2 1 6 1 3 1 1 1 7 5 3 7 5 7 7 7 7 5 5 5 8 3 3 3 7 Z > # Z ~.zXcX0XN.O.T.+.3.3.3.O.3.3.3.3.6.2.6.6.Y.6.0.N.0.N.n.n.B.n.K.>X9X1Xb.g 9 n v x N M x r e z $ 1.sX8X;X<X8X8XtXtXh.H.H.V.m.A.m.g.h.d.h.8.2.a.2.1.<.<.;.<.3.d < d d u c x c M c G T.T.c a 9 N 9 u u u y 9 y y y r r r r r 4 r g & . ,.dX9X8X2X9XpXpXpXpXkXkXfXjXjXUXUXUXBXcXBXBXVXAXCXCXZXZXZXFXFXIXHXHXHXGXPXJXJXLXLXLXLXKXKXKXKXKXKXKXKXKXKXKXKXKXKXKXKXKXKXKXKXKXKXKXKXKXKXKXKXKXKXKXKXKXLXLX@X@X@XwX+X@XoXoXOXXXXX].].XXF.F.F.x.c.v.v.p.p.t.r.e.e.&.&.' ;.! 0 0 u r y f 0 H i y d 2 H FXGXxXcXDXxXvXxXxXzXxXxXxXxXxXxXqXfXqXqXqXqXqXqX0X0X7X6X7X7X7X>X-X7X>X-X&X7X1X-X .X   u  .z k ;.! %.6X5X>X2X2X2X2X2X2X6X6X6X6X6X6X6X9X9XlX9X9X0X0X0XpXpXpXpXpXpXpXpXdXdXfXfXfXkXfXdXfXfXfXfXfXxXfXUXxXUXcXfXfXCXVXK.+   - u ( W ] W e W XXgXsXV.>.g.H.S.m.m.A.d.g.g.d.l.m.g.m.g.m.g.l.m.g.m.g.m.l.m.l.m.l.m.l.m.m.l.m.g.m.g.m.m.m.l.m.m.l.m.m.l.N.A.A.m.m.m.A.l.l.A.S.[.[.F.A.A.z.l.d.u.u.r.;.&.$..._ / Q n n l z r = $ M >.1.>.8.8.,.1.b.m.m.Q.J.K.P..X=X=X;X<X4X4X8XtXiXaXkXfXjXnXzXBXBXBXAXVXAXHXZXzXjXBXBXBXVXBXBXHXKXKXKXKXKXKXKXKXKXKXKXKXKXKXKXIXyXyXbXbXbXyXrXyXrXeXrXeXwX+X,X+X+X,XoXoXoX{.{.}.'.].].G.F.F.x.z.z.z.f.h.r.r.u.1.:.:.&.:.$.) ` ) ) ~ ! Q b l b b N B $ $ & * * 2 0 2 B < r 1 B i r r r r t t r t y r i u i u i u u d d d u a c r $ % * * * = 0 r u d d f s f a a t 5 4 9 4 6 4 6 6 6 4 6 7 , 3 3 6 7 3 6 7 7 7 1 3 p p 7 & 6.:X~.Q.Q.Q.Q.I.I.J.J.C.V.V.V.n.n.b.b.8.8.8.8.8.#.,.8.:.n e z ",
"p p 1 p F Y F F R 9 v L W h.uXNXnXhXnXnXhXyXyXhXyXtXuXtXhXtXtXuXhXwXH.h.:.L w 9 3 8 8 8 8 3 8 3 8 7 3 3 3 8 7 8 7 3 1 7 3 7 7 7 7 t 7 p p p t p p p t p t p t p p i p i t 1 t t t t t t t 2 2 B 1 6 1 6 7 7 1 1 3 t 5 1 p 1 t 3 p 6 7 p f p p 8 7 8 , O 6 #.7XVXfX-X,.G T.+.3.3.#.3.3.3.,.,.,.2.6.Y.Y.6.Y.0.n.N.6.n.!.&X-X*X!.C.v 4 N L y y x N 9 4 i Q.tX<X8X<X<XtXtX8Xh.H.H.H.A.M.m.A.b.h.d.d.u.i.a.1.<.<.%.>.a.c B i N N b c c G c G T.G x N N N N N u y u u i 9 y i 9 9 r 9 r 9 $ + @.8XkX;X8X9XsX9XiXpXfXkXfXfXUXxXzXUXvXmXBXBXBXCXCXZXZXZXZXZXFXFXFXFXHXHXJXJXJXLXLXLXKXKXKXKXKXKXKXKXKXKXKXKXKXKXKXKXKXKXKXKXKXKXKXKXKXKXKXKXKXKXKXKXKXKXKXKXLXoXwX@X@X@X@XoXoXoXOXXXXX].].).`.).).x.v.v.k.k.p.t.t.w.w.w.] *. .w 0 i t u f t y u N Z u o U.GXGXcXvXvXvXvXcXzXvXxXxXxXxXxXxXxXxXfXfXqXqXqXqX0X0X0X0X6X6X7X7X6X6X>X~.^.7X9X6XB.t   $ b  . .Q <.3X2X2X6X6X6X2X6X9X6X6X9X9X9XlX9XiX0XlX0X0XpXdXaXpXpXdXdXdXaXfXfXfXfXfXfXfXfXfXjXxXfXjXfXfXfXdXcXcXfXjXcXcXfXVXDX&Xg   k &.-.l w.OXgXAXPXPXZXD.*.;.m.u.f.S.m.m.m.m.m.l.N.l.m.m.m.m.m.m.m.m.A.m.A.m.m.m.m.m.m.A.M.m.m.m.A.m.m.A.m.A.A.m.A.m.A.S.S.S.S.A.A.S.S.m.G.{.{.G.F.S.F.m.l.g.u.1.r.:.;.$...) ) ! Q n n b u B - r X.>.>.4.1.>.,.b.m.b.V.J.L.K.!.%X=X;X;X;X4X3X8XtXsXaXkXjXjXzXnXMXBXVXAXAXHXIXBXjXjXzXBXAXBXAXZXLXKXKXKXKXKXKXKXKXKXKXKXKXKXKXLXnXyXnXbXbXyXyXrXuXuXrXrXwXwXwX+X,X+XoXoXoXXXOX{.[.|.].|.F.F.F.x.z.h.v.f.h.h.r.u.:.w.-.*.$.$.$.) ) ~ Q Q Q l z b l i 0 $ * & * * * * 2 B 0 B 2 2 1 r 1 r r t t i t y y t i p p i u u u d u N g * - 2 & * * 2 0 t f f f a f a 9 y 9 6 4 4 * 4 < 6 4 6 6 6 , 6 1 7 3 6 7 6 1 7 p 3 1 8 7 7 6 U ~.-XQ.Q.Q.m.I.I.J.C.V.M.M.m.n.m.n.n.h.8.8.8.8.:.1.8._ e z Q ",
"p p p p F Y A Z L L _ _ :.uXNXmXhXhXbXhXbXhXhXyXuXhXhXtXtXtXuXtXuXtXtXOXH.:._ 9 8 6 8 3 3 3 8 6 3 3 3 8 3 7 7 3 3 7 3 7 7 7 7 3 5 5 5 7 t p p t p t p p p t t t i p i 1 t 1 p p t 5 1 t 1 2 % 1 1 , 1 6 1 1 1 7 5 1 5 7 1 7 5 p 8 7 , 1 6 7 7 7 ; s j 6 # > T ~.zXfX5Xn.+.T.+.3.3.O.>.3.3.,.5.6.6.6.6.Y.0.Y.N.0.9.C.;X:XQ.C.&X8X4X4.B 9 n x u t k = _ 8X8X;XtX<XtXtXkX<XV.H.V.H.A.S.m.A.m.h.d.h.d.u.i.a.a.<.<.%.a.| r t x d x c c c c m | G f a N N z y y 9 i 9 y i 9 y r r r r y 4 X L 8XpX1XpX8X0XsXpXkXfXkXfXfXUXUXUXcXcXvXBXBXBXCXAXCXZXZXZXFXFXFXHXHXHXPXPXJXLXLXLXLXKXKXKXKXKXKXKXKXKXKXKXKXKXKXKXKXKXKXKXKXKXKXKXKXKXKXKXKXKXKXKXKXKXKXKXKXLXLX+X@X@XwX@X+XoXoXOXXXOX.X}..X`.`.F.F.x.c.x.k.f.p.t.t.y.{ -.&.*.*.z * u y r p N 2 u T.p d x 2 5XGXSXvXDXvXvXvXvXvXzXcXzXxXcXxXxXxXxXfXfXqXfXqXqXqXqX0X7X0X6X0X7X-X7X0X2X-X^.6X6X&XO.B x <.<.! g.aXlX3X2X6X6XiX0X9X9XiXiXpX0XpX0X0XpXpXpXpXpXdXaXfXdXfXkXfXfXfXkXfXfXjXfXxXjXfXfXjXjXxXxXzXUXvXxXUXvXcXBXSXVXvXLXLXcX<..._ / oXmXKXLXPXFXHXLXKXhXS.m.D.G.D.S.A.A.m.M.m.A.A.m.A.S.M.A.A.A.A.m.A.S.M.S.S.S.A.A.S.S.S.S.S.S.S.S.S.S.A.S.A.A.S.M.S.S.S.S.S.S.S.S.|.[.{.{.].G.F.A.z.l.d.f.u.1.;.=.$.$..._ ( Q n n x N N $ 0 } 4.X.4.>.,.8.8.b.n.V.V.J.L.P.!.%X=X;X5X<X4X3XlXiXaXaXgXnXjXzXBXBXBXVXAXZXFXSXBXjXzXBXBXVXBXAXHXKXKXKXKXKXKXKXKXKXKXKXKXKXKXKXHXbXbXbXbXyXyXyXeXrXrXrXwXwXwX,X+XoXoXoXoX}.{.}.].[.].].F.F.F.A.z.z.z.f.f.f.r.r.r.:.-.;.&.$.` ) ) ( ! ~ W b l b x z w 0 = % * 2 * * * * 2 B r r 1 r r r r r t t r i t u i p i p p u p u u u u & $ * = * 0 0 r d N f a f f a a y r r 4 9 4 6 6 < 6 1 6 1 3 , 6 3 6 3 6 6 3 7 p 7 7 7 7 7 9 7 n.-XQ.V.Q.Q.I.J.J.C.V.V.V.V.n.V.8.8.8.8.8.,.@.8.,._ l z z W ",
"p p 3 7 H Y A D 9 L L :.uXAXMXuXbXnXhXbXnXyXuXhXhXuXuXtXuXwXuXtX<X<XtXtX$XH.:.:.6 6 3 8 3 8 3 8 6 8 3 3 7 7 3 7 7 7 7 3 7 3 3 7 5 7 5 5 7 5 t 7 i p p t p t t t p 1 p p t t i 1 t t B t t 2 $ 1 , 1 1 3 1 6 6 6 1 7 3 5 1 7 7 1 , 7 7 7 7 p p 6 a 6 6 9 j , O #  XdXVXfXU.O.| O.O.>.#.3.3.3.,.,.6.2.2.2.Y.0.0.N.n.R.~.Z.V.2XjXjXVXBXm.= r g r x z . ,.kX<X;XkX8XtXtXtX8Xh.H.H.V.M.A.A.m.m.b.h.h.d.d.i.a.,.a.<.%.>.%.r r x N N c c c c G | G g u u u 9 u u i i u y i r r y r r w i X x 8XfX2X8X9X0XkXdXqXkXfXkXzXjXzXzXUXUXvXmXvXVXCXCXCXZXZXSXFXIXFXFXHXHXPXPXJXJXLXLXKXLXKXKXKXKXKXKXKXKXKXKXKXKXKXKXKXKXKXKXKXKXKXKXKXKXKXKXKXKXKXKXKXKXKXKXKXKXLXLX@XwXwXwX@X+X+X+XOXOXXXOX`.}.).`.).F.x.x.c.v.j.t.t.t.r.w.-.-.*.*.b 0 u u r w p N N t u x f 3 3 vXGXvXDXvXDXvXvXvXvXvXvXxXvXxXzXxXxXxXfXxXqXfXxXqXqXqXqXqX0X6X0X6XlX2X>X7X6X>X~.qX9XY. .*.*.) U.fX6X6X7XlXpX0X0XpX0X0XpXpXpXpXpXpXpXdXdXdXdXfXfXfXfXfXfXjXfXfXfXjXfXfXfXjXfXvXcXvXVXCXCXCXDXvXSXCXvXVXvXdX0X:X0.Z.Q.v / P =.X.o.| X.8.b.J.Q.=XnX4Xg.S.G.g.H.S.S.S.S.S.S.S.D.S.S.S.S.S.S.S.D.D.S.S.S.D.S.S.S.S.D.D.S.S.S.D.D.D.D.D.D.G.D.D.G.|.U.G.U.|.G.U.|.[..X{.|.G.[.G.z.z.l.g.d.u.u.r.:.%.....) / / n z z x x = * L ..} 4.4.:.,.8.8.m.V.V.D.I.P..X=X=X*X;X1X4X3XlXsXsXaXdXjXzXnXnXBXBXAXZXBXSXHXBXgXzXBXUXAXAXBXZXKXKXLXKXKXKXKXKXKXKXKXKXKXPXLXPXnXrXbXbXbXyXyXyXyXuXrXwXwXwX+XwX+X,XoXoXoX.XOX'.'.].G.F.F.F.z.z.z.h.v.p.p.r.u.r.:.:.-.*.*.$.$.` ) ) ~ Q Q b l N l N i = % % * & 2 < * < B 2 1 0 0 r 1 r r r t t y t t p t p i i u u u u u u $ $ < * * = 2 r N f d p f p a a p 6 4 4 4 4 4 4 6 , 1 1 5 , , 6 6 6 3 6 6 1 8 7 7 7 7 7 1 j # 0.;XV.Q.Q.H.J.J.J.U.V.V.m.V.m.b.n.h.8.8.8.,.@.8.:.z e W W W ",
"i u p 2 H T Z G %._ ( tXNXhXmXnXbXhXhXbXyXhXhXuXuXtXkXuXtXtXuXtXtX<X<X<XuXtXOX:.[ L i 4 9 9 9 9 8 3 8 6 6 6 3 8 3 3 6 3 6 3 6 6 7 3 7 6 5 5 p p r t 4 t 1 p t 5 t t t 1 t 1 1 t 1 t t 1 2 2 B < 6 > 6 > 6 1 6 < 6 1 5 6 1 5 1 5 6 6 7 6 7 6 7 7 7 7 7 7 p 7 9 p O T 6XcXxX6Xn.f | %.3.3.O.O.3.3.>.0.3.6.2.6.B.>.9.C.5XaXjXjXjXfXiXhXBX;Xi - N n 9 w ;XtX<X4X8XeXtXhXyX;XH.h.H.H.H.V.V.h.m.m.h.b.d.d.i.i.u.1.<.=.=.1.M r g u d x c c G G G c g u g 9 N d y y d y r 4 r r r r y y   m 1XfX3X2XaX0XpXpXdXkXfXjXjXjXUXzXzXcXvXBXVXAXCXAXZXZXZXSXFXFXFXFXHXPXJXJXJXJXLXKXKXKXKXKXKXKXKXKXKXKXKXKXKXKXKXKXKXKXKXKXKXKXKXKXKXKXKXKXKXKXKXKXKXKXKXKXKXKXKXKXKX@X@XuX@X@X@XoX+X+XoXXXOXXX}.].].].H.x.F.x.v.l.p.p.u.r.e.-.-.] ;.) i 0 u t u t u u N d d d G O h SXKXcXVXSXDXvXvXvXvXvXvXvXvXxXzXxXxXxXxXxXxXqXqXqXqXqXqXqX0X0X0X6X0X6X7X2X7X7X9X XN = ! %.! %XaXlX0XdXqX9X0XpXpXpXqXpXpXpXdXdXdXdXdXaXdXfXaXfXfXjXzXzXzXzXVXVXVXCXCXZXZXCXBXzXfX0X2X-XK.B.,.@.X.o.U v D v n _ _ L.8.k o.P I P P U v v v G c G | O.,.b.n.D.U.D.D.S.A.S.G.G.I.U.G.D.S.G.G.].G.G.G.G.G.|.G.G.G.G.G.G.G.G.U.].G.G.G.G.|.U.U.|.I.G.S.G.G.].G.].oXoX.X{.].`.F.F.z.z.h.f.f.r.r.:.;.$.$._ ) / Q Q b b N w u ) } } X.4.4.3.2.9.b.N.M.D.J.L.P.!.%X&X5X5X5X5XlXlXiXsXgXjXjXzXnXzXBXBXZXAXZXHXIXzXgXBXcXBXVXBXBXHXLXKXKXKXKXKXKXKXKXKXKXLXKXJXKXPXyXbXbXbXyXuXyXuXyXrXwXrXwXwXwX+X+X+XoXoX{.'.'.'.].]..Xx.F.F.x.z.v.h.f.f.f.p.r.e.;.;.&.*.*.' .._ _ Q ~ ! Q b l z z N * + o o . # $ o . o O $ o % $ % # $ $ % % & * < * 1 < & < r r y r ! N o + * & > < 5 9 g 9 d a a 9 i 9 w w 9 & 4 4 6 & 6 4 6 & 6 6 > 6 6 6 6 6 6 7 6 1 7 7 3 3 7 9 > f ~.*XC.Q.L.J.J.J.V.V.n.V.n.8.n.9.8.8.,.4.8.8.:.( e e W W ( ",
"3 3 f C F F v ! W w.wXNXnXhXMXhXhXbXhXhXhXhXuXtXhXuXuXuXtXuXtXwX<XtXuX<X<XwX<XOXz.:._ 9 & & 9 9 3 3 7 3 3 6 3 7 3 3 3 3 6 3 7 6 , 3 6 6 5 5 t 5 t t t t t t t t t t t t 1 t t t 1 t t < % 2 < < > , > 1 < , , 1 1 1 1 1 6 1 7 6 6 7 7 6 5 7 7 5 5 7 7 5 7 7 7 7 8 O s E.zXzXlXR.O.|  .O.,.,.3.3.3.3.3.#.6.Y.3.2.9XiXkXjXjXhXsXsXaX8XiXaX:XX.* $ - L tX8X1XtXtXtX8XkXkX<X.XH.H.V.V.H.V.H.A.m.m.d.d.d.i.u.2.a.1.<.=.1.Q t i u g d c c v } } M a a N u y N y y y y B z N 4 4 9 4 X t &XfX2X2XsX0XiXdXkXkXfXfXfXjXzXzXUXcXBXmXVXVXVXCXCXZXZXSXFXIXFXFXHXHXPXPXJXLXJXLXKXKXKXKXKXKXKXKXKXKXKXKXKXKXKXKXKXKXKXKXKXKXKXKXKXKXKXKXKXKXKXKXKXKXKXKXKXLXKXKXLXKX@X@XrX@XrX@X@X+XoX+XOXXXOX'.XX].).).).x.v.v.k.p.p.u.r.e.-.-.$.-...u B r t y t u u N N N d d N t Z.GXJXvXSXDXDXDXDXvXvXvXvXvXvXvXvXvXvXxXxXxXxXxXxXxXqXqXfXqXqXqX0XqX0X0X6X7XqX%X<.T.i t n G 5XcXsX>X9XdXqXpXpXpXdXdXdXdXdXjXjXzXzXcXcXcXBXCXVXVXBXzXzXzXzX2X>X-XR.Z.b.6.,.o.| G H H G Z Z R o.R o.o.X.@.>.h.:.H.eXQ.L m X.o.Y o.o.O.o.+.@.O.O.O.O.3.,.,.2.m.D.I.[.[.L.D.A.G.G.G.G.G.G.H.G.L.G.G.G.G.I.G.U.[.[.|.G.[.[.G.|.L.|.[.G.[.[.|.{.[.[.[.[.G.[.{..XoX.XOX'..X`.].F.S.A.l.l.f.u.1.:.:.*...' / / Q n b z k i z T.T.| X.X.@.3.,.8.b.m.n.V.J.I.P..X=X=X X5X5XeXeXlXsXsXjXgXjXnXzXBXBXBXVXAXAXIXIXBXjXjXcXBXBXBXAXZXLXKXKXKXKXKXKXKXKXKXLXKXKXKXKXKXmXuXbXbXbXrXuXyXuXuXrXwXwXwX,X,XwX,XoXoXOXOXoX'.].].`.`.F.x.A.x.z.z.f.f.p.u.r.r.;.;.:.&.-.$.' ` ) ( ~ ! Q W l z z N i i N x N b n x b ! b T.T.T.T. ...4.=.=.%.;.;.<.<.i.a.i.h.b.m.A.P.N.m * 6 4 < 4 > 5 d a a a a y 9 9 9 9 9 * 9 4 4 4 4 > > 6 4 6 6 > 6 > 6 > 6 6 6 6 3 6 5 5 7 5 8 6 9 B.*XI.P.V.H.V.V.V.V.n.m.n.n.0.8.8.8.8.8.8.h...W e W ( W W ",
"2 2 1 f f G Q *.{ rXNXAXbXhXbXmXnXhXbXhXyXhXuXhXtXuXtXtXtXuXwXtXwXtXtX<X<X<XuXuXOXQ.h._ 9 9 9 9 3 3 7 3 3 3 , 6 6 6 8 6 3 6 3 6 6 3 6 3 6 6 1 1 t t t t p t t t 1 t t t 1 t r 1 t t t 1 2 < < 2 6 > > 6 , 1 , < 1 6 1 4 5 1 5 5 6 1 6 7 6 7 7 6 5 7 7 5 7 7 7 p s 3 2 2 #.pXvXdX~.6.T.I @.,.3.O.6.O.,.3.Y.6.X.K.BXjXjXhXaXsXlX8XsX3X4XiXhX5X>.i . V.hX8X8XtXeX3X<X<X<X<X<X;XQ.H.m.H.h.V.z.A.m.H.m.d.d.i.i.1.1.a.=.i.} i r d x g c c v G G x u d d d y y u y y u y 9 r r y w $ $ Q.pXiX1XpXdX8XdXfXkXfXfXfXUXzXUXUXcXBXBXBXAXAXCXCXZXZXFXSXFXFXHXHXHXPXJXJXLXLXLXKXKXKXKXKXKXKXKXKXKXKXKXKXKXKXKXKXKXKXKXKXKXKXKXKXKXKXKXKXKXKXKXKXKXKXKXKXKXKXKXKXLXLX@X@XrX@XrX@X@X+X+XOXXXXXXXXX].).].).H.).v.l.v.k.p.r.u.e.e.w.&.-.&.z B r y y u p u p N d d p T.t % 7XLXGXCXDXDXDXDXDXDXvXvXvXvXvXvXvXzXxXxXxXxXxXxXxXxXxXfXfXqXqXqXqXqX6X0XdX3X2.} ..N & y 4 C.jXzXpXfXjXfXzXzXcXzXcXcXBXBXzXzXjXfXpXlXlX6XU.U.n.6.@.o.T.G x c c v H G G G O.o.| | +.#.#.#.o.o.@.@.=.:.h.h.f.:.OXwX.X1.y o.P o.o.o.O.O.@.>.O.@.3.@.@.@.>.>.4.3.i.M.U.[.{. X[.|.[.G.].[.{.{.].[.L.[.I.I.L.[.[.|.'.[.|.[.[.].].[.].[.[.].'.'.[.{.{.[.G.[.OX<X,XoX.X{..X).F.F.S.A.m.f.d.u.u.u.&.=.$..._ ) ( n Q z z i b  .T.T.o.o.4.>.1.2.b.b.m.M.V.I.L.Q..X%X5X5X5X5X3XlXiXsXlXjXjXjXzXzXMXBXAXAXAXZXSXZXnXjXcXmXBXVXBXBXFXKXLXKXKXKXKXLXKXKXKXKXKXKXKXKXLXyXyXbXbXbXuXuXyXrXrXrXwXwX@XwX+X+XoXoXoXoXOX'.'.'.].).`.F.F.x.z.z.h.v.h.u.u.e.:.:.:.-.$.$.$.) _ _ ! ~ Q n l l z z k z ! ) ) ..$...*.;.%.<.=.<.a.a.u.u.d.h.p.g.g.m.A.l.z.H.H.D.H.H.,XX.= % < < * 6 & 7 9 a d a p a 9 9 w 9 * * 9 4 4 & 6 4 < > 6 < 6 6 6 ; 6 6 6 6 1 6 7 6 3 7 3 7 8 7 , #.&XR.J.J.J.J.C.V.n.n.m.n.V.8.8.8.6.8.8.8.:.n e z ^ ( W W ",
"F c f k M / / e.uXNXMXnXMXmXhXhXhXbXhXyXhXyXhXhXuXhXtXuXuXtXwXtXtX<XwX<X<XOX<X<XwX<XH.h...z 9 9 3 3 3 3 8 6 3 6 6 3 6 6 6 6 3 3 6 , , , , 1 1 , 5 5 t 5 1 t t t 1 t 1 t t 1 1 t 1 r 1 2 * 2 1 2 > > , > > 6 > 6 , 1 6 1 1 6 1 6 7 7 6 1 6 7 5 7 7 5 7 7 5 p 7 7 3 p 7 ; @ F ~.zXBXlXB.| G | O.3.3.O.3.,.Y.%.6.lXfXaXsXlXlXiXtXlX8X4X4X;X&XiX8Xm.z ;XsX<X;X;X*X*X;X;XQ.;X;X;X<X<XQ.Q.H.h.m.m.h.h.m.m.h.d.d.d.1.1.<.i.X.u r u c g v c v G G g u a d y d y y y y y y r * 9 9 . 4 Q.fX8X2X0XkXsXiXdXfXfXfXjXzXzXUXUXcXcXBXBXVXCXCXCXCXZXZXSXIXFXHXHXHXPXPXJXLXLXLXLXLXKXKXKXKXKXKXKXKXKXKXKXKXKXKXKXKXKXKXKXKXKXKXKXKXKXKXKXKXKXKXKXKXKXKXKXKXKXKXKXLXKXLXrX@XbX@XwXwX@X@XoX+XOXOXXXXX'.'.].).).F.x.c.c.k.f.p.p.r.e.r.-.;.;.! w B u t y i u f N N x M d c % y xXLXSXDXDXDXDXDXDXDXvXvXDXvXvXvXvXvXvXvXxXvXxXxXxXxXxXxXqXfXqXqXqXqXqXjXJ...*.4.u * p @ c ~.cXBXjXzXjXiX0X3X5X~. XE.B.O.+.o.P H c c d H H G G I | o.| +.O.O.+.O.O.4.O.#.O.O.o.O.O.| O.o.1.>.:.1.u.u.r.-.Q.<XQ.oX.Xn } L U I P I P I o.o.+.+.O.@.@.3.5.,.,.>.3.,.Y.M.I.{.{.{.'.[.[.|.[.{.'.'.{.'.[.{.{.{.{.{.'.{.{.{.{.{.{.{.{.{.{.{.{.[.{.{.|.'.OXoX<XoX,X}.oX.X.XH.Q.F.z.z.z.f.u.r.r.:.&.*.' ) _ Q Q Q b z k T.T.M T.} o.4.@.3.,.8.b.N.M.D.J.I.Q.!.%X X5X5X5X5XlXlXiXgXdXgXjXnXnXBXBXBXAXZXAXIXFXZXjXUXBXcXBXAXBXZXKXKXKXKXKXKXKXKXLXKXKXKXKXKXKXKXAXyXyXbXbXbXrXyXrXuXwXwXwXwX+X,X+XoXoXoXoX'.OX{.'.]..XF.F.F.x.z.z.z.h.f.p.p.r.r.r.:.-.*.$.$.$._ _ ) ~ Q Q b b z z k k !  .) / ..}  . ...*.%.*.%.;.=.:.:.:.2.a.1.d.d.i.d.m.g.d.m.A.M.y . % < < > > > p d a a y p y y i 9 9 * 9 & 4 & 4 & 6 > 6 > 6 ; 6 6 6 > 6 ; 6 7 , 1 5 3 5 7 1 7 9 ; D R.%XD.J.D.V.V.V.V.n.m.n.8.8.n.b.,.,.8.1.L z z W W W W [ ",
"eX,X|.a.l.&.w q mXIXnXnXnXhXMXhXnXhXbXhXhXyXyXuXtXuXtXuXtXwXtXwXtX<X<X<X<X<X<X<X<X<X@X.XH.h.9 9 6 , , , , 6 6 8 6 3 6 , 6 , 3 3 , , , ; 3 , 3 , 6 4 1 1 t r t 1 t t r 5 1 r 1 1 r 1 r < 2 < < 2 > , > , > 1 6 > 1 < 6 1 1 6 1 4 , , 7 1 7 7 6 7 7 5 5 7 7 5 7 p p 3 p C 1 X f n.fXzXdX X@.| | O.O.6.O.6.@.| K.UXsXiXlX3X8XtX8X2X8X;X1X<XQ.=X8X<XQ.8XQ.Q.{.P.%X=X;X&X&X;X;XQ.;X;X;X;X.XQ.H.m.u.1.d.g.g.b.d.i.1.1.<.i.>.x B g c g M c n G v g u u u a u u y y t y r * 9 y o $ N.jX9X3XpXpX8XpXjXaXfXfXfXzXUXUXcXcXBXBXvXVXVXAXZXZXSXZXFXIXHXHXHXGXJXJXLXLXLXLXLXKXKXKXKXKXKXKXKXKXKXKXKXKXKXKXKXKXKXKXKXKXKXKXKXKXKXKXKXKXKXKXKXKXKXKXKXKXKXKXKXKXKXLXKXuX@XbXrX@X@X@X@X@XOXOXXXOXOX'.}.].].H.).v.c.x.l.k.f.p.t.r.w.w.-.;.) i * u i u y u N N d d c d H c # O.CXLXGXGXDXDXDXDXDXDXDXDXDXvXvXvXvXvXvXcXvXvXxXxXxXxXxXfXxXfXqXfXxXzX;X&._ r...u 4 a a ; H n.n.@.o.T.c c c c c h x f P P U I | +.o.+.O.o.+.o.O.o.| | o.o.o.| | | | I Y | I |  .| *. .*.e.e.;.f.f.1.u.z.wXwXQ.OX<Xh.N P P I o.o.P o.o.o.+.+.O.@.@.@.3.3.,.,.6.3.3.@.>.N.m.G.{..X=X{.'.}.{.{.'.{.{.'.{.{.{.oX{.}.{.{.{.{.{.OX{. X{.{.{.[.{..XOXOX+X@X+X+XoXXX'.].].`.F.A.A.z.f.f.u.r.r.:.&.$.$.' ) Q ! b l k i m ..v / P o...@.>.3.2.8.b.N.M.D.L.I.Q..X X5X5X5X5XlXlXlXlXgXgXjXjXzXnXBXBXAXBXBXIXHXIXjXjXBXcXBXCXAXCXHXKXKXKXLXKXKXKXKXKXKXLXKXKXLXKXLXbXyXyXbXbXyXyXrXuXuXwXwXwX@XwX,XoX+XoXoXoXOX'.'.`.XXF.F.F.F.x.x.z.z.f.h.t.u.r.r.r.:.&.*.*.$.' / ~ / ~ Q Q l l l k N n / L L _ _ } ......*.%.%.=.:.:.8.1.1.8.u.d.g.d.m.m.h.A.Q.Q.x % @ 5 5 < 6 > 6 t 9 a a y a a y 9 t r * 4 & 4 * < < > > < > 6 > 6 > 6 , 6 6 , , 6 7 , 3 7 1 7 7 8 > p n.&XJ.J.D.V.V.V.n.n.m.n.8.8.n.9.8.8.8._ e W W W W ^ W [ ",
"rXrX@X+X,X{.l   Q.AXMXnXmXhXMXhXhXbXhXbXyXhXhXuXtXtXuXtXwXtXwXtXwX<XtXwX<X<X@X<XOX<X<X<XOXH.h.:.N 9 6 > ; 6 3 3 6 6 , 6 , 3 , 3 , , , , , , 3 ; 1 1 1 1 r 1 t t t 1 r 1 t 1 1 r 1 < 1 > * 2 < < > > , > , > , 1 1 , 1 , 6 < 6 1 6 6 1 6 6 , 6 7 7 6 7 6 7 7 5 7 p f p p a 8 ; # Y ~.cXcX2Xn.%.T.| 3.O.3.O.>.3XjX8XlX3XlX8X4X4X;X;X;X*X*X1XQ.Q.;X;XQ.Q.Q.%X%X=X%XQ.Q.Q.Q.Q.Q.Q.Q.;XOX&X.XQ.Q.Q.z.d.d.d.i.d.d.i.u.1.2.i.! r u x d c c v G c g t d u y y p t t t t y r i $ . b.fX0X4XpXpX9XaXfXfXaXjXjXjXzXUXcXBXcXvXBXAXCXCXCXZXZXSXFXFXHXHXGXPXPXJXJXLXLXLXLXKXLXKXKXKXKXKXKXKXKXKXKXKXKXKXKXKXKXKXKXKXKXKXKXKXKXKXKXKXKXKXKXKXKXKXKXKXKXKXKXKXKXKXKXLXbX+XuXuXrXrX@X@X@X$X$XOXOXXX'.'.).].).).F.(.c.c.k.f.p.t.r.r.w.&.-.*.N 0 t u t y u p x N d t T.N T.v + q.KXGXGXGXGXGXGXDXDXDXDXDXDXDXvXDXvXvXvXvXvXvXcXcXvXvXxXzXxXdXfXxXpX:.$.w.:.-.M 5 t a , p G H G G v | | | +.X.O.| O.o.| o.o.| o.o.o.P | | | | | | | O.+.+.o.o.o.| | P G P }  .*.*.e.;.e.w.a.f.u.a.p.OX<XOXOX.X.XQ.N L P P I I o.o.o.+.o.X.O.+.O.O.@.O.#.3.,.6.5.6.6.3.,.Y.N.U.{.{.,X=X.XoXoXoXOXOXoXoX{.{.,X,X{.,XoXOX.X.X.XoXoX{.oX.X{.{.oX<XwX<X+X+XXXXX.XXX].`.F.x.z.z.f.f.t.r.:.;.&.$.' ) _ ~ Q l b N i / ..L L L } X.X.@.3.2.8.b.b.M.V.J.I.P.Q. X X X5X5X5X5XlXlXgXlXgXgXzXnXBXBXBXAXAXZXFXIXBXjXmXzXcXBXCXCXAXLXKXKXKXLXKXKXKXLXKXKXKXKXKXKXKXAXbXyXbXbXuXyXyXtXrXeXrXwXwX+XwX<X@X,XoXoXXX'.{..XF.H.F.F.F.F.A.z.f.h.f.f.u.u.r.r.;.;.&.&.$...' ) ) ! ~ Q b b l k k n / / / _ ....$.$.=.%.%.=.<.=.:.:.u.u.u.u.a.u.d.z.m.h.H.H.u.. X @ 4 & ; 5 6 > 9 a a y p p a 9 r 9 t 9 4 4 4 & > > > > , > < 6 > 6 > 6 , , , 6 , 3 1 6 6 7 3 7 8 7 , @.!.I.C.C.D.V.M.V.b.m.b.9.8.8.8.8.h.=.z e e W W W [ ( ^ ",
"oX,XrXwX+X,X*.. 0 mXAXhXmXhXbXnXhXbXhXbXhXuXhXtXuXuXuXtXuXtXwXtXwXtXwX<X<X<X<X<X;XOXOX<X<XOXH.H.$./ N 4 , , , ; ; , 6 , , 1 , , , 3 3 , , , 2 3 3 , , 1 1 1 r r r 5 5 1 1 r 1 1 r 1 < > > 1 < > > , , > > 6 > , > 1 > 6 1 6 1 1 3 6 6 6 6 3 6 6 6 7 6 7 6 7 7 7 p 1 ; 7 f s 1 7 O Z E.dXzX0XI.,.O.T.O.@.T.I.fXiX2X2X4X4X1X,X;X*X=X;X=XQ.;X1XQ.;X;XQ.Q.Q.P.=XK.K.Q.H.Q.Q.Q.Q.Q.Q.Q.Q.Q.Q..X&XQ.Q.U.S.m.d.i.d.i.i.a.1.d.o.i u d g c c G G c a t u p u y t t y t t 9 i + $ @.dXjX1XiXpX8XpXjXjXpXjXjXjXUXzXcXcXBXBXBXBXAXCXZXZXSXZXIXFXFXHXHXPXPXJXJXJXLXLXLXLXLXKXKXKXKXKXKXKXKXKXKXKXKXKXKXKXKXKXKXKXKXKXKXKXKXKXKXKXKXKXKXKXKXKXKXKXKXKXKXKXKXKXKXKXLXNXrXrXrXrXrXwX@X@X@XOX$XOXOXXXOX].].).).H.F.x.z.v.k.f.t.t.t.e.[ ;.;.m B t y y y u u N N N i M x h o.< y :XJXGXGXGXGXGXGXDXGXDXDXDXDXDXDXCXvXvXvXvXvXvXvXvXvXxXjXxXcXvXpXC._ r.r.' :./ 4 4 t c | | P o.>.o.o.| | | | I | | I | | P I | P | I | | I | | | I G G G P P G G P |  ...$.*.*.;.e.a.a.e.a.p.a.a.G.wX<XOX<XOX.XOXh.v v P P P o.o.P  .o.X.+.X.O.+.@.3.3.3.3.3.5.6.6.0.N.6.6.6.Y.n.U.=X X X X X X X=X=X X X=X X=X X X=X X=X,X X X=X X=X X%X,X<XwX<XoXOXXXOX}.F.`.F.F.x.z.z.f.f.u.r.:.-.-.' ' _ ( Q Q b b z i / %.L P L L I ..4.>.,.2.8.b.N.V.V.I.K.Q. X5X X5X5XlXlXlXlXxXgXjXgXjXzXzXBXmXVXAXAXZXHXZXjXjXBXBXBXBXVXBXPXLXKXKXKXKXKXKXKXKXKXKXKXKXKXLXLXnXrXbXbXyXyXuXuXuXuXrXwXwX<X@X@X+XoXoXoXoXOX'.`.XX.X`.F.F.F.x.z.h.z.f.f.p.p.a.;.;.;.;.&.*.$._ ) ) ! ~ n l b b z k z _ / _ _ .._ $...$.$.=.=.=.1.r.r.u.u.d.d.g.d.h.z.h.h.Q.h.k + & 6 > ; > > ; , 9 y 9 a y a u r 9 r t 4 & 4 4 < < & > > > > > > , > 6 > , , 6 1 , 6 6 6 3 1 7 8 3 8 ; H K.R.U.D.V.V.M.n.m.n.m.n.8.,.8.h.1.( e W W W W ^ [ ^ ^ ",
"5XoXyXwX|.oXU.0   ,XIXnXbXnXhXnXbXhXyXhXyXhXuXhXuXtXtXwXtXwXtXwXwXwX<X<XwX<X<X<X<XOXOXOXOX;XOX;Xh.:.Q y 6 6 3 3 6 , ; 6 , , , , , , , , , , 3 ; > , 2 1 1 1 r B 1 t 5 r r 1 r r 1 < < > > < < 2 > > > , > > 1 > , , < 6 1 1 6 6 6 1 3 6 7 1 6 7 7 6 6 7 7 6 5 7 1 f V 3 7 7 8 s f @ % 6.pXcXfX4X3.H ,.O.| 1XjX*X4X4X1X;X*X*X*X*X1X.X*X<X;X;X4X1X;X.X.XQ.M.P.D.P.Q.Q.H.Q.Q.Q.Q.H.Q.Q.Q.Q.Q.Q.Q.;X%X{.S.b.i.a.d.i.2.<.b.X.t u g g x c v G c u y d y y i y y t i t 4 y X x dXjX-XkX9XfXkXpXsXdXfXzXUXzXcXUXcXvXBXBXCXCXCXZXZXZXFXFXFXFXHXHXHXPXPXJXJXLXLXLXKXKXLXKXKXKXKXKXKXKXKXKXKXKXKXKXKXKXKXKXKXKXKXKXKXKXKXKXKXKXKXKXKXKXKXKXKXKXKXKXKXKXKXKXKXLXLXLXbX@XrXrXwXwX@X@X@X@XOXOXOX'.XX].].].].).).x.c.v.k.f.f.t.y.t.-.-.e./ i r y y u y d d N f T.B T.h t o.y o JXGXGXGXGXGXGXDXGXGXSXDXDXDXDXDXvXDXvXvXvXvXvXvXvXzXzXvXDXSX8X} 1.:.w.-.../ i t < v +.Y D D F | P F T.I T.| T.| P G P P P P P P G P G G G P G I P G P G P U G } ) $.&.:.;.;.;.-.-.a.e.a.l.r.x.,XOXwXOXOXOX.XQ.Q.v v L } P P P P | o.o.X.O.O.4.O.O.#.#.#.#.3.,.6.5.5.6.6.Y.0.9.Y.%X X~.~.&X~.~.R.~.~.~. X~.~.~.~.~. X^.R.^. X^.^.*X!. X=X,X<XoXoXoXOXOX]..X).F.F.F.z.z.f.f.p.r.e.-.$.$._ _ ( ~ ~ z Q z w T.>.} } G } o.X.4.>.1.2.8.b.m.V.V.J.L.P. X X X5X5X5XlXlXlXlXgXlXjXjXzXnXmXBXBXZXAXAXIXHXzXjXzXBXBXBXAXVXSXPXKXKXKXKXKXKXKXKXKXKXKXKXLXLXLXNXrXbXbXbXuXbXuXuXtXrXwXwXwXwXwX,XoXoXoXoX{.OX.XXX`.`..XG.F.A.z.z.z.v.p.p.u.a.u.e.;.;.:.*.$.' ! ) ! ! Q b b l b k z ..../ .._ ....4...=.=.:.:.>.:.8.1.8.u.d.d.g.m.M.h.h.Q.=.  $ 6 & # > 5 , ; 6 7 a a p y a p t y 9 4 4 4 & 4 & & < > : > , > , > , > , , , 6 3 6 , 6 3 1 3 6 3 3 A ; 5 J. XV.V.V.V.n.b.b.b.b.0.8.8.9.h.[ e e [ W W ^ [ W W [ ",
"oX<XwXwX).XXoX*.X 9 mXAXbXnXmXbXhXhXhXbXuXhXuXtXhXuXtXuXtXwXtXwXtXwX<X<X<X<X<X<XOX<XOXOXQ.OXOXOXoX[.d...z r B & 3 3 3 3 3 ; 6 6 , , , > , : , : , : , , , , , , 1 1 1 1 4 < 6 4 < & ; & > > & > < > > < > > < > 6 1 4 , < 6 1 < 1 1 < 6 1 6 1 5 1 5 1 5 5 5 5 5 5 7 7 5 7 7 7 7 6 s , X V 7XzXdXpX~.T.t V.sX4X;X;X*X,X1X4X4X1X;X<X1X5X;X1X4X4X<X1X*X=X=XP.L.J.V.J.V.L.J.L.Q.Q.J.C.Q.Q.D.V.Q.V.Q.Q.Q.Q.Q.Q.b.8.:.2.;.N.Y.N B g g c c g f y y a a N * g d 4 g r B y   L 9XfX9XsXpXiXpXkXfXfXjXjXjXUXUXUXvXmXVXVXVXAXCXZXZXSXZXFXFXFXFXHXGXPXJXJXJXLXKXKXKXKXLXKXKXKXKXKXKXKXKXKXKXKXKXKXKXKXKXKXKXKXKXKXKXKXKXKXKXKXKXKXKXKXKXKXKXKXKXKXKXLXKXKXKXKXKXKXKXNX@X@XuXrX$XrX$X@X$X@XOXOXOXXX}.].].).).z.).x.v.v.f.f.t.f.w.:.:.:...e 4 r y a u g d g g d h x h c c c c u HXLXSXJXLXvXJXGXGXGXGXDXGXSXDXDXDXDXDXVXvXvXDXCXGXJXVX>X3.G O.z.f.[ :.[ _ u * u m U P I G G G G G G G G G G G G G H m G G G G | G G H H G G G H m m T./ / } ..$.$.*.-.;.e.e.a.f.:.f.h.r.f.OXwXoX<X<XOXQ.OXQ.Q.h.z 9 4.L P 4.U | | | o.o.X.O.O.O.O.O.#.3.3.3.3.6.,.6.6.2.6.Y.Y.E. XR.R. XR.~. XR.R. XR. XR.R. XR. XR.R.R.R. XR.^.R.R. X=X<XwXoXXXOXOX'.].].).F.z.z.v.h.f.r.r.:.[ :.' .._ _ Q Q n z z i n :.o.o.T.} } o.X.4.>.<.8.8.b.m.m.V.P.L.Q.Q.=X=X;X<X4X3X8X8XtXaXaXhXjXjXmXUXBXAXAXCXIXZXIXjXjXBXmXBXBXZXBXFXKXKXKXKXKXKXKXKXKXKXKXKXLXKXKXKXhXrXnXbXbXrXyXuXuXrXrXwXeXwX+XwX,X,XoXoXoX|.oX|.|.|.|.|.|.S.x.x.g.k.l.a.p.p.a.e.e.;.-.&.$.$.$.` _ Q Q Q Q b z z z n _ _ _ _ 4...[ 4.:.4.:.:.1.1.1.u.h.h.u.h.h.h.A.u.Q.u.- $ & # & # > 4 & 6 y y p 9 p t t p t p t 6 4 4 * & & 4 # # 6 # > 4 > ; ; > > > 6 > > , , > 6 1 , 6 6 5 9 p # I -Xn.V.n.Q.n.b.m.b.n.9.,.8.b.[ l z W W ^ W ^ [ ^ [ [ ",
"wXwXwX@X}.XXoXA.= $ ;XAXmXyXnXhXhXbXbXhXhXuXhXuXuXtXuXtXuXtXuXtXwX<X<XwX<X<X<X<X<XOX<XOXOXOXQ.OX.X.X.XA.:.n r 4 ; ; ; 3 3 3 6 3 2 , 2 , , , , , : , 2 , 2 , > , 1 1 r 1 6 < 4 6 6 > > > > > > > > > > 6 < 6 6 > < > 1 < < 6 < 6 , 6 1 1 5 1 6 4 5 6 5 7 5 5 7 7 6 7 6 7 7 7 p 7 s s f 8 O # 0.xXzXBXlXB.%XpX2X:X1X2X4X;X;X4X4X;X4X1X1X4X4X4X4X4X;X;X&X.XQ.L.J.D.V.V.V.C.V.D.V.V.D.D.V.Q.H.Q.V.Q.V.V.n.Q.Q.Q.V.V.i.%.>.1.! g x x g u t i x c g r r g * i y B y 9   P 2XkX9X8XpXiXpXkXkXfXfXjXjXcXcXUXvXmXVXBXBXAXCXZXZXZXIXSXHXFXHXHXGXPXPXJXLXLXKXKXKXKXKXKXKXKXKXKXKXKXKXKXKXKXKXKXKXKXKXKXKXKXKXKXKXKXKXKXKXKXKXKXKXKXKXKXKXKXKXKXKXKXKXKXKXKXKXKXKXKXPXuX$XbXuX$X$XrX+X+XOX$XOXOXXX}.}.].].).).F.x.v.v.v.v.j.t.w.w.:.:.:.z 4 y y y u y u d g N c N c h x c c < n.FXLXGXGXJXGXGXGXDXDXDXDXGXGXGXDXvXvXSXJXJXGXFXqX6.5 X X X % n -.:.h.4...i 4 } | v g G | G v G G G G G G G m c G P P G v v v d c G T.G G c c M v m ! / ) ) $.*.&.*.-.e.<.e.a.1.f.f.p.r.H.<X<X<XOXOXOXOXQ.].OXQ.L z L U P P U T.I | o.| o.+.O.O.O.@.3.#.#.3.,.3.,.3.,.6.6.6.Y.n.-X XR.R.R.R.R. XR.R.R.R.R.R.R.R.~. X~. XR.R.R.R.R.R.R.=XoX<X+XOXOXOX'.].].H.).x.z.v.f.f.r.:.r.:.:...' _ _ Q Q n W z e _ :...o.} T.}  .X.4.>.3.1.8.b.N.V.V.J.P.P.Q.=X=X*X;X1X4X8XlXsXsXaXfXjXjXUXBXBXBXVXZXZXZXFXmXgXUXBXBXBXAXBXSXLXLXKXKXKXKXKXKXKXKXKXKXKXKXKXKXIXyXbXbXyXbXyXuXyXrXwXrXwXwXwX@X+X+X+XoXoX}.oX{.oX|.|.|.|.|.F.x.A.l.l.l.p.p.u.u.e.;.;.&.$.$.` ) ) / ! Q Q W x z k l .._ _ 4.....4...:.:.:.:.:.1.1.u.1.h.h.h.A.h.h.J.A.l X * & 6 & 6 > > > > t p p t t 5 9 t p t t 4 4 4 & 4 4 # & 4 & 4 > > > 6 ; 6 6 > > 6 6 > > 6 > 1 1 < 7 7 7 p ; D !.C.n.n.h.m.n.b.0.9.8.8.8.1.W W W W ( W ^ W W [ [ [ ",
"wXwXwXwXXX).OXOXW   _ hXMXbXhXnXbXhXhXbXuXhXtXuXtXhXuXtXtXtX<XtX<XtXwX<X$X$X;XOXOX<X;XOXQ.OXQ.OX.X.XOX.XG.1./ N , , , , , , , ; , , , , , : , , , , , ; , , , , < 1 1 1 < 6 < < & > & & > > > ; < > > > > > 6 > < 6 > 6 < 1 < 6 < 6 6 1 1 6 1 6 1 6 5 5 7 5 5 5 7 7 7 7 7 5 5 7 s , 1 s 8 : , Z :X*Xn.| J.pX8X1X;X2X3X3X4X4X3X4XeX4X4X4X4X3X3X4X1X:X&X=XQ.P.J.J.V.V.V.M.M.V.V.V.V.V.V.V.V.V.V.V.m.V.V.Q.m.Q.Q.L.{.M.m.2.T.r r c p t y y d d g d r N r y 4 B N . i -XzX9X3XpXkXpXkXfXfXjXjXUXUXcXvXUXBXVXVXVXCXZXZXZXZXFXFXFXHXHXHXGXPXJXJXLXLXLXKXLXKXKXKXKXKXKXKXKXKXKXKXKXKXKXKXKXKXKXKXKXKXKXKXKXKXKXKXKXKXKXKXKXKXKXKXKXKXKXKXKXKXKXKXKXKXKXKXKXKXKXKXNX+XuXrXrXrXrX@X@XOX+XOXOXXXOX'.].].).H.).z.x.v.v.t.f.v.-.r.w.:.:.L q i t y a p u d g d d h d x c c c c < ~.KXLXDXJXJXGXGXJXLXJXGXGXDXvXGXJXJXLXDX>X6.@ X     2 t 5 t . 0 r ! } >.M i m | P c v v M v v v v c v v c v v c x x x c v v m T.G d t u c T.m ! T.) ) ..$.$.&.;.;.;.e.a.a.a.r.z.h.u.v.oXwXoX+XOXOXOXOXQ.Q.Q..X:.9 n o.D v o.I } | | | +.X.| O.O.O.O.@.@.#.3.3.3.,.Y.2.Y.6.Y.Y.R. XR.R.R.R.R.R.R.R.R.R.R. XR. XR.R.R. XR.R.R.R.R.P.K..XOX<X+XOXOXOX].'.`.`.F.x.z.v.f.h.r.r.r.:.[ :.[ _ _ Q Q W l z e L >.=.o.o.} T. .o.X.>.3.1.8.9.N.V.V.D.L.P.Q.%X=X*X;X1X4X8X8X9XsXaXhXfXhXUXcXBXBXAXAXZXZXHXVXjXjXBXBXBXBXVXZXPXLXKXKXKXKXKXKXKXKXKXKXKXKXKXLXKXnXrXbXbXbXuXuXuXuXrXwXwXwX5X@X@X+X,XoXoXoX}.}.{.{.|.|.S.|.z.S.S.l.l.l.a.a.u.r.e.;.;.-.;.$.$.) ) ) ! ! Q b z n z x _ .._ ......:.:.@.:.:.,.1.:.1.1.8.h.h.h.m.f.m.Q.... - = # & & > > > > 4 t 9 y t t 9 t t t t 5 5 & 9 & 4 & 6 6 & # > > > > 6 ; > > > > 6 > , , , , 1 1 6 6 7 5 9 6 p 0.K.V.n.m.m.n.8.9.9.,.V.8._ W e W W W ^ ( ^ ^ ^ [ { ",
"oX@XrXwXXX}.XXoXh.. . OXAXmXbXnXhXhXyXhXhXhXuXhXuXtXtXuXwXuX<XuXwXtX<X<X8X<X<X<X<XOX;XOXOXOXOXOX.X.X[..XOXG.u.:.z 9 6 ; ; ; ; , ; : ; , : , : , ; : : , > 2 > , > > 1 > < < 6 6 > > ; & ; > > & > : 6 > > > < < > > < < 6 < 1 < 1 , 1 1 1 1 6 6 5 1 1 5 1 5 1 7 7 6 6 7 5 7 7 7 , a 7 > 8 V 6 O I } v u P N.!.fXsX3X1X4XlX8X8XlX8X8X8X8XtX9X8X8X1X<X*X=X%XP.L.J.V.V.m.b.b.b.n.m.m.n.n.m.n.m.V.V.V.V.V.n.n.h.V.D.D.U.L.U.3.g + + B t u d u y t y y 4 g 4 B y $ * 2XpX9X2XpXfXpXdXfXfXfXjXjXjXcXUXBXvXBXVXAXCXCXDXZXSXZXFXFXHXGXHXPXJXPXJXLXLXKXLXKXKXKXKXKXKXKXKXKXKXKXKXKXKXKXKXKXKXKXKXKXKXKXKXKXKXKXKXKXKXKXKXKXKXKXKXKXKXKXKXKXKXKXKXKXKXKXKXKXKXKXKXKXIXuX@XrXrXrX$X@X@X@XOXOXOXXX}.}.}.].].).F.F.z.v.v.v.f.v.w.r.:.$.1.$.i r y y u u u d g N c N x c c c x } 4 a dXLXLXGXJXLXLXGXDXDXGXGXLXLXLXDX0X0.a O   @ < p f y : o $ & $ X - r L t u p g c c g g g M x g g x g g x g c g p g h c x g u N r B z 4.<.%.! ! )  .) ' $.*.;.;.e.e.e.a.a.a.p.z.h.u..XwXeXoXOX<XOX<XOXOXOX].Q.Q._ z v L v U I G G | | o.+.| +.O.O.O.O.3.3.@.3.3.3.3.6.3.6.6.6.R. XE.E.R.R.R.R.R.R.I.R.R.R.R.R.R.R.R.R.R.R.R.R.R.R.K.P.=X,XoX$XOXXX'.OXH.).F.z.z.v.h.t.f.r.:.:.:..._ _ _ Q Q z z z k L :.=.X.X...| | } ..O.%.3.1.8.b.b.V.V.J.L.P.Q.=X=X;X;X1X4X4XlXsXsXkXjXjXjXjXmXmXVXAXAXAXIXIXcXjXzXBXcXBXBXBXZXLXKXKXKXKXKXKXKXKXKXKXKXKXKXKXKXIXuXbXbXbXyXyXuXuXuXrXrXwXwX@XwX5X+X,XoXoXoX{.}.|.|.|.|.|.|.x.x.l.k.l.l.p.p.p.e.e.e.;.&.%.$.$.) ) ) ^ Q Q l z z l L _ .._ :.....:.4.:.:.:.1.1.u.u.r.h.d.h.h.h.H.h.= . y # & & & # & 6 > > p p t p p 5 t t p 7 5 4 * 4 & & & & # & > > > > > ; > > > , > > > 6 > > > 6 > , 6 6 6 p 5 & I !.V.n.V.m.n.8.9.8.8.h.:.z e W W ^ W [ [ [ [ ^ [ [ ",
"oXwXtX@XXXXX}.}.Q.k   =.mXAXbXhXhXbXhXbXuXhXkXuXtXtXuXtXuXtX<XwXwX<XwXwX$X<X<X<XOX;X;XOXOXOXOXQ.OX`.F.Q..X.XF.z.$.m u * # & 6 6 3 , ; , , 2 , , , : , : , : ; 2 > > 2 < > 4 > 4 > & > # & # < > > > > > < > 6 > < > > < , 6 < 1 > < , 1 6 1 1 1 1 6 1 5 7 5 1 5 6 7 6 7 7 5 7 7 , 8 a 8 7 ; 7 j o.X.@.o.L v X.Q.aXsX8X3X8XsXlX8XlXlX8XlXiXlXlXlX4X1X;X*X%X.XP.I.V.V.b.b.b.b.b.d.b.b.b.n.m.n.m.n.b.b.m.n.h.n.V.m.m.A.N.D.P.U.o.c r < & < u g g u 9 w * 0 g $ . Q.jXpX2XpXjXpXiXfXfXjXjXjXcXcXcXBXBXVXBXCXCXAXZXZXSXZXFXIXHXHXHXPXJXJXLXLXLXLXKXLXKXKXKXKXKXKXKXKXKXKXKXKXKXKXKXKXKXKXKXKXKXKXKXKXKXKXKXKXKXKXKXKXKXKXKXKXKXKXKXKXKXKXKXKXKXKXKXKXKXKXKXKXKXLXMXXXrXrXrXrX@X@X+X@X$XOXOXXXXX].].].].F.F.x.v.v.v.v.t.t.t.y.[ r.:.N i t u a y u d g d c N c c x x H v G & P FXLXJXJXGXJXJXLXKXLXLXHX0XZ.d X   X 1 j t t < & 2 < 1 t 1 < % % X % * O.M y 4 t x x x g g u u g N N u g u g x c M g i t 1 r z ..M.I.<.Q !  .` $.` *.&.:.e.*.*.a.a.a.p.l.z.h.h.H.<XwX@X<X<XOXOXOXOX].OXH.H.OX8.9 9 P L L G G } | | | | o.O.O.O.O.O.@.#.3.#.3.3.#.3.Y.Y.6.3.U.R.R.U.R.U.R.I.R.R.R.R.R.Z.R.R.R.R.U.R.R.U.R.R.R.R.R.Z.Q..X<XOXOXOX'.Q.x.x.F.H.h.v.h.h.t.r.:.:.[ .._ _ _ _ Q l z z z Q 1.=.=.O.%. . .|  .X.O.3.1.2.b.b.M.V.V.I.P.Q.!.=X*X;X5X4X2X8XtXpXaXhXfXjXjXcXBXBXAXCXZXZXHXZXjXjXcXcXmXVXBXAXPXKXKXKXKXKXKXKXKXKXKXKXKXKXKXKXPXMXuXbXbXbXyXyXuXuXuXeXwXwXwX5X+X5X+XoXoX+X{.}.{.{.|.|.|.F.F.S.l.l.l.l.a.p.u.u.r.e.;.;.&.$.$.' ) ) ~ ! Q n l z z L _ _ :.:.....4.:.:.,.:.1.1.1.8.i.g.i.g.u.L.J.k X * * # # & & > > > < 4 t t 9 t 5 p 5 p & 9 & 9 4 & & & & # & & # > # > ; > ; > , > , > , > > , , , , < 6 6 6 7 5 & j Q.n.m.n.b.b.b.9.8.n.1.W z W W W W ( ( ( [ [ [ [ [ ",
"wXwXuXOXXXXX}.].OX:.X 0 .XAXhXhXbXhXhXyXhXuXuXuXuXuXtXuXtXwXtXwXwX<X<X<X;X<XOXOX<XOXOXOX;XOXQ.OXQ..X.X`.F..X`..XA.u./ k B = # ; : > , 2 , ; : : : , , ; ; , ; , > > > > > > < , > ; & & > > > > & > > > > > > < > 1 < 6 < < 6 < , 6 > 1 < 1 6 1 1 6 6 1 1 5 5 5 5 6 6 5 5 7 7 5 p 6 , a j , 6 D ,.| o.o.@.X.m M N.1XjXfXtXlXsXsXsXsXsXsXsXsXsXlX3X4X5X,X&X!.P.L.V.D.V.b.b.8.8.8.8.8.d.d.8.8.8.8.8.b.8.8.b.b.d.b.V.M.Y.N.I.%X!.K.,.o.f < & < t u u 9 * 9 $ $ n.UX9X8XpXkXpXdXkXfXfXjXjXUXUXcXBXBXVXBXAXCXCXCXZXZXSXFXFXHXHXHXPXJXLXLXLXLXLXKXKXKXKXKXKXKXKXKXKXKXKXKXKXKXKXKXKXKXKXKXKXKXKXKXKXKXKXKXKXKXKXKXKXKXKXKXKXKXKXKXKXKXKXKXKXKXKXKXLXKXKXKXKXKXKXKXIX+XrXrXrXrXwX@X@X@X$XOX$XOXOXXX}.].].).x.).F.z.v.h.f.t.t.w.-.r.r._ r t t y u a a g d c d c x c c c G P P & 6.GXLXLXKXLXLXLXCX5X7.t O   X > f f 4 < % & 2 > t 1 % % @ @ % > o o < U.8.o.x d 4 r i r g u N g u u N N y N g i 4 r u x  .O.Y.U.A.%.n b ) ` $.$.*.*.&.;.e.e.a.a.a.a.a.g.z.r.v.OXtX<XOXwXOX;XOX;XL.OXOXL.H..XH.L 9 v U v G G G G I | } | | | | O.O.O.O.O.#.O.3.5.3.3.3.6.3.0.R.R.R.R.U.R.E.R.I.R.Z.I.R.R.E.R.R.R.E.R.R.R.R.I.U.R.Q.Q.Q.OXOXOXOX'.XX`.].x.v.v.v.t.t.r.r.:.:.:.:._ _ _ n n l z l z L 1.2.=.>.4.| |  .X...X.@.>.2.8.d.b.M.V.J.I.P..X.X&X,X;X1X4X3XlXiXsXaXhXnXjXUXmXBXBXAXZXAXHXIXcXjXjXBXBXBXBXCXHXKXKXKXKXKXKXKXKXKXKXKXKXKXKXKXKXIXuXbXbXbXyXyXuXuXuXrXwXwXwX@X@X+X+X,XoXoX+X{.}.|.{.[.|.|.F.S.x.S.x.l.l.g.a.u.r.r.;.;.&.&.*...)  .^ ! ~ n n z z _ ......_ ..:.:.:.:.:.1.1.r.u.u.i.d.g.g.g.L.=.  $ w . * # & > # & > > > t t p t t t t 5 9 4 9 * & * * & & 4 & & > > > 6 > > > > ; > > , > , , > > > < 6 , , 7 6 9 4 5 N.Q.0.n.h.b.9.8.8.8._ e l ( ( W [ ( ( ( ( [ [ [ { ",
"wXwXuXOX'.XX}.XX.XH.N   ..mXUXbXhXyXhXyXuXhXuXhXtXuXtXtXtXwXwXwXtX<X<X<X<X<XOX<XOXOX;XOXOXOXQ.OXQ.XX.XQ.F.H.H.Q.].H.h.=.n 9 = + > ; : , ; , , 2 : , : ; : : : ; & : > > < > , * > & # > > < > > > > > > > > > > > < , > > > 6 1 > 6 6 > 6 6 1 1 1 6 1 5 1 6 5 1 6 6 5 7 6 7 7 7 8 a 6 , , , a +.| m P P } @.X.4.M 9.1XkXkXaXsXkXsXaXaXaXaXaXsXlX3X4X<X;X=X.XP.P.L.C.m.b.d.8.8.2.2.2.8.2.,.8.8.8.8.8.8.8.8.8.2.2.,.i.M.U.C.C.I.I.-X~.n.O.g 4 < < i y 9 0 # 8.UXqX8XpXpXpXpXkXjXjXjXjXcXUXcXcXBXBXAXCXCXCXZXZXZXIXFXFXHXHXHXGXJXLXLXLXLXKXLXKXKXKXKXKXKXKXKXKXKXKXKXKXKXKXKXKXKXKXKXKXKXKXKXKXKXKXKXKXKXKXKXKXKXKXKXKXKXKXKXKXKXKXKXKXKXKXKXKXKXKXKXKXKXKXKXKXLXbXrXrXrXrX@X@X@X@XOX+XOXOXXX}.}.}.].).F.).v.v.h.v.t.v.r.t.r.w.:.-.r t t u a u N a x d N f c c M c m f | g & -XKXLXKXHXlX6.5 X o @ a t a t < 2 > & t t 2 % o % 2 B % @ + 2 % * * <.V.d.,.X.x r y y i u u u u u i u i y r 4 r N } @.2.n.U.N. .N W ;.$.$.$.&.&.&.:.;.a.a.a.p.a.g.l.l.z.h.Q.wXwX<X<X<X<XOXOXOXOXOX].H.H.H.Q.r.n z L L G G G G G | T.| O.| | O.O.O.O.O.3.3.O.3.#.3.6.6.3.6.R.R.E.R.E. XR.U.R.I.I.R.R.I.U.I.R.R.I.U.R.R.I.R.R.R.Q.V.Q.OXOXOX}.OX].`.`.F.H.v.v.h.f.h.r.:.:.[ [ [ _ _ Q W W k W b L 1.1.>.>.4.4.X.| X.| X.=.>.2.2.b.n.m.V.J.L.P.P..X=X*X*X<X4X4XlXiXsXaXkXjXjXjXcXmXBXAXAXAXZXFXZXjXjXcXBXBXVXBXAXPXKXKXKXKXKXKXKXKXKXKXKXKXKXKXKXKXMXuXbXbXuXyXyXyXuXuXwXrXwXwXwXwX+X,X+XoXoXoX{.'.'.|.[.|.S.x.S.x.l.l.l.g.g.p.u.u.e.:.&.&.$.$.' ) ) ! ~ Q n z z n _ .._ 4.:.:.4.:.:.:.1.1.u.u.i.i.d.b.m.D.d.0 . 4 % . * > # # < > > > > p 4 7 t 5 5 t t 4 4 & * & $ & & & # # > & ; 4 & > ; ; , > > > ; > > > > 6 > > , , 6 a > 6 6 & 4.Q.b.b.h.b.b.9.d...W z W W ( ^ ^ [ ( [ [ [ [ [ [ ",
"wX<XuXwXXXXXXXXX]..X..  = hXmXnXbXhXyXhXhXuXuXtXtXtXuXtXwXuX<XtXwX8X<X$X<X<X<X<XOX<XOX;XOXQ.OXQ.].Q.].].Q.Q.H.H.H.].H.z.:.( 9 9 , , ; : : , : , ; 2 , ; > : ; ; : : % > > < & 6 > # & # > # > > : > > > > > > < > > < > < 1 < > , > 1 , > 1 , 6 1 1 1 1 6 1 5 1 6 7 6 6 6 7 5 5 , 7 7 7 p 5 s +.+.L o.o.P X.o.4.>.M m .XjXjXkXsXaXaXaXkXaXgXaXsX8X4X4X;X*X=X!.P.J.V.V.m.b.8.>.>.>.1.,.>.1.,.1.,.8.8.,.,.,.1.8.d.S.p.M.P.K.I.K.K.C.I.R.%XR.N.G t $ B & X >.zXkX2XpXkXpXjXjXfXfXzXjXUXcXcXBXBXBXVXCXCXCXZXZXSXSXFXFXFXHXPXPXJXJXJXLXLXLXLXKXLXKXKXKXKXKXKXKXKXKXKXKXKXKXKXKXKXKXKXKXKXKXKXKXKXKXKXKXKXKXKXKXKXKXKXKXKXKXKXKXKXKXKXKXKXKXKXKXKXKXKXKXKXLXKXKXKXKXIXrXrX$XrXrXrX@X@X@XOXOXOXOXQ.].].].].`.z.F.v.v.v.t.v.t.t.t.{ r.:.i t t u t u u g d d x c x c c c v g G O.t G pXVXd 2 X X 2 p d p 6 t < > 2 r 4 2 % 2 1 2 < 2 @ @ ; % % $ - 0 + %.V.8.8.8.2.4.n y t i r r r t y r r r r x ..,.b.2.2.B.N. .! ! ..! ) $.&.*.:.=.;.u.a.e.a.p.p.g.g.g.h.z.OXtXwXwXwXOXOX<XOXOX].OX].OXOXz.H.Q.L 9 9 n H G G P G | I | | | | o.O.O.O.O.O.O.3.O.3.3.3.3.6.3.U.R.U.U.U.R.Z.R.U.I.E.U.I.Z.R.E.I.U.I.R.R.U.P.U.U.E.V.Q.Q.Q.OXOX}.'..X].F.F.H.v.v.f.f.r.r.:.:.:..._ _ _ _ Q l z l l L 1.8.>.>.>.4.X.O. .X. .4.>.1.2.8.b.M.V.V.J.L.Q.!.=X=X*X;X4X4X3X8XsXaXaXhXjXjXUXBXBXBXAXZXAXIXZXmXfXzXBXBXVXBXBXHXKXKXKXKXKXKXKXKXKXKXKXKXKXLXKXKXPXyXbXbXbXyXyXuXyXwXuXwXwXwX@XwX,X+XoX,XoX{.oX}.{.|.|.|.|.F.x.S.A.l.l.f.p.p.p.r.u.;.;.;.*...' ..) ) ~ n Q n z Q ....:.....4.:.@.:.:.1.1.1.u.i.a.m.h.l.I.Q   * & . 9 # # & # & & > & < t 9 7 t t t t 1 4 9 9 & 9 9 & & 4 & & & # > # & ; > & , ; > > , > > , , > > , , , , 9 ; 4 9 # 9 V.Q.n.8.b.b.b.8.i z Q ( W W [ ^ [ [ [ -.r.{ [ W ",
"wXwXuXOXOXOXXX}.`.}.G.u   2.AXhXhXhXuXhXhXtXhXuXuXtXtXuXtX8XwXtXwX<XwX$X<X<XOX<X;XOX;XOXOXOXOXOXOXQ.Q.].H.H.H.H.H.H.H.H.H.1._ 9 * % @ > , , ; ; > : & > > & % ; ; : > ; ; & & ; # > ; & ; # > > > & : > > > > > > > > > > < > < < > < , < 1 1 1 < 1 1 6 1 4 1 t 6 6 6 5 5 7 6 3 8 , 8 7 ; a Y X.T.} } | | o.X.X.X.>...} Y.2XjXBXjXaXjXzXlXeXnXlXlX3X2X5X5X=X=X{.P.L.V.M.N.b.8.1.>.4.4.4.=.>.4.1.=.>.>.1.>.1.8.8.m.M.V.L.I.P.P.Q.{.R.R.U.Z.R.%X!.,.z . 1.jXdX:XpXpXfXjXjXfXkXjXUXUXUXUXvXBXBXVXCXCXCXZXZXFXZXFXFXFXHXGXPXJXJXLXLXLXKXKXKXKXKXKXKXKXKXKXKXKXKXKXKXKXKXKXKXKXKXKXKXKXKXKXKXKXKXKXKXKXKXKXKXKXKXKXKXKXKXKXKXKXKXKXKXKXKXKXKXKXKXKXKXKXKXKXKXKXKXKXKXyX@XuXrX$XrX#XrX@XOXOX$XOXOX'.OX].].).).H.x.z.v.j.j.t.f.r.r.y.:.~ r i f p d u u N N x c x c c c v v v G G f 2 X 2 5 f d p p 2 1 1 t t 1 B < < < 2 > > % * % % % 2 + - % % % * i U.N.2.3.2.3.X.3.x i 0 2 B t 0 2 i v @.,.2.Y.Y.Y.U.i.! ~ ) )  .$.*.*.*.e.<.e.e.a.e.a.l.p.p.l.S.x.e.,XtXwX<XwX@XOX<XOXOXOXOXOXL..X].H.H.H.h.9 9 L v v v G G } P P I } | | | o.+.X.O.O.O.@.O.O.#.3.3.3.B.R.U.U.R.U.I.Z.I.Z.U.Z.I.Z.U.Z.U.Z.Z.U.Z.I.U.I.Z.Z.Z.I.I.U..X.XoX}.].`.F.z.v.z.v.h.y.:.y.:.:.:.[ [ _ Q n W l l W ( z d.8.1.>.>.>.@.4.O.X.....4.>.,.8.d.b.m.V.D.I.L.Q..X&X&X;X;X4X3X8XsXsXsXjXjXgXBXzXnXBXAXZXAXFXIXBXnXzXcXmXBXAXAXVXPXKXLXKXKXKXKXKXKXKXKXKXKXKXLXKXKXMXrXbXbXbXuXrXbXyXrXwXrXwXwX+X@X+X,XoX+X}.,X'.{.'.'.|.|.H.S.x.S.l.l.f.f.p.p.u.r.r.:.;.&.$.$.' ) ) ) W _ Q W z n :.$.:.:.:.:.:.1.1.1.u.u.h.:.m.m.:.P.=.= $ B $ $ % % # * & @ > % : 4 t t t t t 1 1 t 4 4 * 4 * * * & $ & $ & & & # & > & ; > > > % ; < > > > > 6 > > , 6 7 6 7 3 , 2 q.C.2.M.>.N.m.N W ~ W W W ^ ^ ( [ { ;...i & > p ",
"wXwXuX@XOXOXXX].}.XX[.!   N lXMXyXhXhXhXuXtXuXtXuXtXtXuXuXwXuX<X<X<X<X<X<X<X<XOXOX;XOXOXQ.OXQ.H.'.Q.'.Q.Q.].H.Q.H.H.h.H.H.h.:.4.b t > % @ ; ; , ; % % % ; % ; ; > ; ; ; ; ; ; ; ; & > # # > > # ; & > : ; & > > > > < > > > 1 > > 1 2 , 1 > 1 > 1 1 1 1 1 1 5 5 6 6 5 6 1 5 5 7 7 3 7 1 > f | | P }  .| ....X.X.%.@.@.o.} >.*XUXmXzXnXaX,X5XjXsXlX3X4X5X*X*X=X XQ.I.J.D.m.b.8.,.,.4.X.4.4.4.4.4.4.=.>.>.,.8.8.b.M.M.J.I.P.Q.!..XR.P.K.R.R.R.R.P.;XQ.m.Q.kXcXcXfXpXsXaXpXfXjXUXzXvXBXvXmXvXBXAXCXAXZXZXZXSXFXFXHXHXHXPXJXJXJXLXLXKXKXKXKXKXKXKXKXKXKXKXKXKXKXKXKXKXKXKXKXKXKXKXKXKXKXKXKXKXKXKXKXKXKXKXKXKXKXKXKXKXKXKXKXKXKXKXKXKXKXKXKXKXKXKXKXKXKXKXKXKXKXKXKXMXrXrXuXrXrX@X@X@X<X$XOXXXXXXX'.].}.].).).).).v.v.v.t.t.r.t.r.w. .r t N y u f N N x d x c c H x c c v P T.G f t 2 t d t i 1 t p 1 r 1 2 1 < 2 < 2 < & * % % % % $ + o % % * * r Y.N.i.1.1.3.O.>.O.X.T.u 0 0 N G O.>.,.2.>.>.1.N.i.*.Q ! )  .) $.*.*.e.*.e.e.a.a.a.g.l.p.l.S.S.p.`.wXtXwXwXwX<X<XOX<XOX.XOXH.OXH.H.H.H.H.V.L 9 n v v G G G G P P } I | | o.o.o.X.O.O.O.O.3.3.3.3.3.O.Y.R.B.E.R.Z.I.Z.Z.I.I.Z.I.Z.Z.I.Z.I.I.Z.J.J.E.U.U.I.Z.Z.Z.I.{.OXOX'.}.].H.F.v.z.v.h.h.r.:.:.:.[ :._ _ _ W Q l W W n b h.h.8.1.3.1.>.>.4.X.X.X.4.@.1.8.b.b.b.V.V.J.K.P.%X=X=X;X5X1X4X3XlXsXsXgXgXjXjXBXBXBXBXAXZXZXIXIXcXjXBXmXBXVXBXBXHXKXKXKXKXKXKXKXKXKXKXKXKXKXLXKXKXIXbXbXbXyXbXbXuXrXyXrXeX5X@X5XwXwX+X+X{.oX}.oX'.'.'.].].F.F.S.x.l.l.l.l.f.p.t.r.e.;.;.&.&.$.$.' _ ) Q Q L W z _ .._ :...4.:.4.:.1.:.1.u.u.d.d.d.V.m.w . & 0 + $ + $ % > ; % > % > 4 t t t 1 t t t t 4 6 4 & * * & & $ & & & # & # 6 & ; ; & : > > > > > 6 > > < < > > 6 6 7 3 , , > Y J.8.M.m.b.$.z W W W ~ ] [ { { ( W k * * 1 8 V ",
"wXwXuX@XXXXXXX}.XX'.'.f.=   g.AXhXyXhXuXhXuXuXkXtXtXtXtXtXwX<XuXtX<X<X<X<X<XOX<XOX;XOX.XOX.X.X.XQ.'.].H.].H.].H.H.H.H.H.H.H.h.h.;.! u = o # ; , ; ; ; : @ @ ; > ; : ; % % % & % & ; & & ; # # > > > > : > & ; > > > > > > , < , > 2 < < 2 , 2 1 , 1 < 1 4 1 5 1 4 4 6 4 5 5 6 7 6 7 , , p G I | } } T. .X.X...O.o.X.,.N.3.T...N.lXgXjXlX{.,XgXgXiX8X3X1X5X*X=X=XQ.L.I.V.V.N.8.8.>.=.4.......o...4.4.4.>.,.8.b.V.M.C.I.P..X%X%X=X%X XR.=X&XR.K. X=XQ.:.u 0 @.6XjXBXcXjXjXzXUXcXcXUXvXAXVXVXVXAXCXZXZXFXFXFXHXHXHXHXHXJXJXLXLXLXLXKXKXKXKXKXKXKXKXKXKXKXKXKXKXKXKXKXKXKXKXKXKXKXKXKXKXKXKXKXKXKXKXKXKXKXKXKXKXKXKXKXKXKXKXKXKXKXKXKXKXKXKXKXKXKXKXKXKXKXKXKXKXKXKXLXbX$XbXrX$XuX@X@X@X+XOXOXXXXX}.'.].].].F.F.z.v.v.v.v.t.t.t.r.:.*.i r i u f d d d x x c h c c c v v v G G f u f p t t 1 t 1 r p 1 1 B < < 2 < 2 * 2 * & % % % $ % o $ & * * * < %.Y.N.i.3.3.3.O.%.O. .G m G  .3.>.@.@.@.2.N.M.N. .Q ! ^ $...$.*.*.;.e.e.e.a.p.p.a.l.p.a.S.S.l.Y.wXeXtXwXwX<X<XwX;XOX;XOX.X.XOX.XH.OXH.H.H.8.z z n v v m G G G P P } } | | o.o.+.O.+.O.O.O.O.3.3.3.O.0.Z.B.Z.U.B.Z.U.Z.U.I.U.Z.U.I.Z.U.Z.Z.C.C.Z.U.U.Z.U.Z.Z.U.I.I.[..XXX'.].`.F.v.h.h.t.h.y.y.:.:.:._ _ _ Q n W n W Q Q n d.d.8.8.1.1.>.<.>.>.4.X...4.>.,.8.b.b.M.V.D.L.P.!.=X=X*X,X5X4XeX8XsXsXaXjXjXjXnXBXBXBXBXZXAXZXHXAXjXnXBXBXBXBXBXZXPXKXKXKXKXKXKXKXKXKXKXKXKXKXLXLXLXMXuXyXbXbXbXrXrXbXrXeXrXwXwX+X5X+X,X+X,X}.oX'.'.{.].].`.F.F.S.x.l.l.l.p.p.p.r.u.;.e.&.*.*.$.) _ ) _ Q Q n z Q ..:.:.:.:.:.:.:.1.1.1.u.1.z.8.h.I./   - * & + & % & + & # % : % > r t 1 t 1 1 t 1 1 6 4 4 & * & & & $ & $ & 6 # & & ; & & ; & : > > > > & > > > > < ; , 6 , 6 6 , : 9 K.d.8.V.-.k l W ^ [ ] ] ( W z e = $ % , 8 s 8 ",
"wXwXuX<XXXOXOX}.'.].'.`.!   k kXmXuXhXuXhXhXtXuXtXuXuXtXwXtXtX<X<XwX<X<X<XOX<XOX<XOX;XOXOX.XOX.X'.Q.Q.].Q.Q.H.H.H.H.h.h.h.H.h.H.m.u.) N * % @ ; ; , ; ; ; @ % ; % ; ; % ; % & ; # & # > & & ; & ; % : : > > > > > > > > < > > > , 2 > , < < , < < 1 1 1 1 1 1 1 6 6 4 6 1 1 7 1 7 8 , > j I P P G } |  ...| X.X.>.%...>.1.3.4.X.Y. XeXgX X{.lXjXsXtX3X4X1X5X=X=XQ.P.I.V.V.n.d.8.,.=.4.4.o.o.L o.X.4.>.>.8.8.b.V.D.J.L.P.!.%X=X=X%X=X&X%X XP.%X,XQ.u.:...0   % v 2XfXVXVXzXfXjXBXBXBXvXVXAXZXZXSXDXSXFXIXFXHXHXHXJXJXLXLXLXLXLXKXKXKXKXKXKXKXKXKXKXKXKXKXKXKXKXKXKXKXKXKXKXKXKXKXKXKXKXKXKXKXKXKXKXKXKXKXKXKXKXKXKXKXKXKXKXKXKXKXKXKXKXKXKXKXKXKXKXKXKXKXKXKXKXKXKXMX+XuXbX$XrX$X@X@X+X+XOX$XOXXX'.}.].).).).x.).v.v.f.f.t.t.y.:.<.b w u d u y x N x d c c c c c G v G v f r 1 p p p 1 1 1 t 1 1 2 r 1 B 2 < & > 2 & % % % % + % + + % & < < * *  .2.N.N.1.>.,.O.%.%.X.X.X.X.O.| @.>.<.<.N.U.i. .! ! ~ ) $.*.*.;.;.;.*.e.a.a.a.a.l.S.l.l.`.l.l.|.eXuXeXwXwX<X@X<X<XOX.XOXOXOXH.H.H.H.v.H.H.H._ 9 c c c v v v G G P G P P | | o.o.| O.O.O.%.7.O.#.3.+.,.U.U.B.B.U.C.U.Z.U.B.C.Z.C.B.C.C.B.C.C.C.C.Z.U.Z.B.C.C.B.C.M.G..X'.].].F.x.v.v.v.h.t.h.:.:.[ :...[ _ _ _ _ z W W ( l 8.h.8.2.8.,.,.3.>.>.%.X.4.4.=.>.8.8.b.N.M.V.J.I.P..X=X&X,X;X4X4X8XiXsXaXgXgXjXjXzXBXnXBXAXAXZXHXZXcXjXcXBXmXBXAXBXFXKXKXKXKXKXKXKXKXKXLXKXKXKXLXKXLXPXyXyXbXbXyXyXbXrXrXrXrXwXwXwX@X+X+X,XoXoXoXXX{.}.[.].].F.F.x.S.l.l.l.k.p.f.u.u.e.:.;.-.*.$.$.` ) _ n _ n W n _ .._ :.4.:.1.:.1.1.:.d.d.d.u.V.8.- - & & + % * $ @ % % % % > : : 5 t 1 t t 5 1 r 1 6 4 4 & * & & $ $ $ & & & # # & % ; & > > ; & : > > > > , < > > , 6 6 , 6 7 6 > 4 0.M.8.u._ e ( ^ ^ ( Q z w * $ = = * 4 8 V 8 8 ",
"wXtXyXoXXXXXXXXX].XX`..Xh.- . h.mXuXuXhXtXhXuXtXuXtXtXwXtX<XuX<XwX<X<X<X<X<X<XOXOXOXOX;XOX.X.XOX.X.XH.OXH.Q.H.H.h.H.H.H.H.h.h.h.z.m.u...n y & # @ ; : ; 2 @ : @ ; @ ; % # % % # % & & # & & % ; & ; & : > : > > > : > > > > > < 2 , > 2 , 1 > 1 1 < 1 1 1 1 1 6 6 > 6 4 1 5 5 3 6 8 > 1 G | P G } } } } | X.X.O.4.>.4.X.4.1.Y.2. .3.I.lX4XL.5XhXaXsX8X3X4X5X*X=X.XQ.I.V.V.m.b.9.8.>.>.4...} / P =.@.>.2.8.8.m.V.J.J.P.Q.%X=X*X*X*X*X*X%X%X*X*X,Xd.' *.m.d.u . + X a U.fXFXFXCXzXUXBXBXCXCXZXZXCXZXFXFXFXHXHXPXPXJXLXLXLXKXLXLXKXKXKXKXKXKXKXKXKXKXKXKXKXKXKXKXKXKXKXKXKXKXKXKXKXKXKXKXKXKXKXKXKXKXKXKXKXKXKXKXKXKXKXKXKXKXKXKXKXKXKXKXKXKXKXKXKXKXKXKXKXKXKXKXKXLXPXrX@XuXrXrX@X<X@X@XOX$XOXOXXXOX].}.).H.).F.v.v.v.v.f.t.t.y.r.<.! r i N d d N N d N c c c c c v v P v g 5 t f p p i 1 p 1 r 2 r 1 B 2 2 2 * 2 % % % % + + % + + + & & < 1 * * } 4.2.M.Y.>.3.>.3.%. .T. .| O.O.>.2.Y.N.A.Y. .k ~ T. .$.*.*.*.e.;.;.e.a.a.a.p.a.l.l.l.|.S.p.|.wXyXuXwX<XwXwXoXoXOXOXOX.X.X.X.X].].H.H.v.H.H.h.9 x c c c v v G m G G P } P | | | | O.| O.O.O.O.@.3.O.3.0.E.U.n.Z.B.B.B.B.U.B.B.B.B.B.U.U.U.B.B.B.B.U.M.U.B.B.B.B.U.U.[..X'.`.`.z.H.v.h.h.y.r.r.:.:.[ _ _ _ _ n W l W W _ b 8.M.h.8.8.2.,.1.3.>.>.X.X.4.4.>.,.8.d.b.n.V.C.L.P..X!.=X*X,X1X5XlXlXlXlXgXjXjXnXzXBXBXAXAXAXZXIXFXZXaXUXBXBXBXVXBXZXLXKXKXKXKXKXKXKXKXKXKXKXKXKXKXKXKXMXyXbXbXyXyXbXrXyXrXrXrXeXwXwX@X,X+XoXoXoXoX.X{.].'.G.`.F.F.S.S.z.l.l.f.f.u.r.r.e.;.&.&.*.$...' _ _ _ Q W n _ :.:.:.:.:.1.1.1.1.:.d.h.<.Q.h.r . & & + $ & $ @ @ @ % @ % & % > t t 1 1 r 1 r 4 4 r 4 & * & & & & $ & $ & & & & & % ; % : ; > & ; : > & > > > > , & 6 6 , 3 3 6 , % P V.m._ W W _ Q z i 0 = $ & * r 1 5 5 a p f f ",
"wXwXuXwXXXOXXXXX`.XX].].F.z . 9 mXmXhXyXhXuXhXuXtXuXtXtXwXtXtXwX<XwX<X$X<X<XOX;XOX;XOXOXL.OX.XH.H..XL.L.].H.H.H.H.V.H.h.H.h.H.h.h.h.m.d.:./ i = $ @ @ @ ; : : @ @ : : % % % % % % & # % & # % % & ; ; & & & ; : : < > : > > > > 2 > > , > 2 < > , < 1 2 1 1 < 1 6 6 1 6 t 1 1 4 5 7 < d P | m / } } }  . .X.X.X. .4.3.2.3.>.4.3.2.4.<. XeX.X=XlXdXsXiX3X4X1X,X*X%XQ.P.L.D.M.b.d.8.2.>.4.X.} o.X.>.>.8.8.8.m.m.V.J.L.P..X%X;X;X5X-X*X%X*X1X4X%XS.r.:.*.' ..Q r r 1 o   : @.:XVXJXDXCXCXCXCXZXIXFXFXFXFXHXHXHXPXPXJXLXLXLXLXLXKXLXKXKXKXKXKXKXKXKXKXKXKXKXKXKXKXKXKXKXKXKXKXKXKXKXKXKXKXKXKXKXKXKXKXKXKXKXKXKXKXKXKXKXKXKXKXKXKXKXKXKXKXKXKXKXKXKXKXKXKXKXKXKXKXKXLXLXMX@XrXrXrXrX@X@X@X@XOX$XOXOXXXXX].].).].F.).).v.v.f.f.t.r.:.e.*.k t N t u h f c f c Z c c c v v v c d p t a t t 1 r i 1 2 2 2 2 2 0 & 2 % % % % % % % + @ o @ % & & * B * * n X.%.d.N.>.3.3.O.X. .| | O.a.Y.3.2.d.D.a./ Q  .) *.*.*.*.*.*.&.e.a.a.a.a.a.l.l.l.l.l.|.S.l.{.bXuXeXwXwXwX<X<XoX<XOXOX.X.X.XOXH.].H.H.H.v.H.h.L x g x c M v v G G G G P P } I | | | | O.O.O.O.O.3.O.O.6.Z.U.N.Z.B.B.n.B.B.B.M.B.B.B.B.B.B.B.M.B.B.B.B.U.B.U.B.B.C.U.L.[.[.|.F.x.v.v.v.h.h.r.:.:.:.:.:._ _ _ W _ l ( W _ l u.V.h.b.8.8.2.2.,.<.<.@.=.4.4.4.1.2.8.b.m.M.D.J.I.Q.Q.%X=X*X;X5X5XlXlXlXfXgXaXjXjXzXBXBXBXAXZXVXHXIXjXjXUXcXBXVXBXVXIXKXKXKXKXKXKXKXKXKXKXKXKXKXKXKXKXPXgXeXnXbXyXbXuXyXrXrXrXrXwX@X5XwX,X,XoXoX}.}.{.{.'.[.].|.F.`.z.S.z.l.f.f.f.u.u.u.;.;.;.*.$.' ' _ _ Q Q n n Q :.:.4.:.:.:.1.:.8.8.2.d.d.V.... $ $ = + & * o + $ O : % % 2 % 2 t 5 r r 1 1 1 1 6 < 4 4 & * $ $ $ $ $ & $ & # & # ; & ; & % & > : & > > > > > > < > , 6 6 , 6 6 6 # y I.b.n k n e 0 * & $ # & 4 4 < < < 4 a f 8 3 ",
"wXwXtX@XXXXXXXXXXXXX].).].:.$ + H.mXhXuXhXuXtXtXtXuXtXuXuXwX<XwX<X<X<X<XOX<XOXOXOXOXOX;X.X.X.X.XOXL.L.H.L.H.H.H.H.H.H.H.h.H.H.h.h.b.h.h.d.1._ n B 2 @ @ @ 2 2 @ @ % @ @ % @ + % # $ $ & % % % % % ; : & ; : > & > ; > > > > > > > > > > > > , 2 2 1 > 1 < 1 < 1 6 > 6 < 5 1 5 1 7 2 6 c P P m G / } }  .o.X.X.X.4.|  .O.>.3.2.Y.N.1.%.U.eX,X%X,XhXaXiX9X3X4X5X*X&X%XQ.I.J.D.n.b.8.1.1.@.X.} ..4.>.1.1.8.b.b.V.V.P.P..X%X*X;X5X4X5X-X-X5X2X,XD.u.$.f.A.r.=.%.u - a h a %   o L C.SXFXHXSXCXCXZXIXFXHXHXHXPXPXPXJXLXLXLXLXKXLXKXKXKXKXKXKXKXKXKXKXKXKXKXKXKXKXKXKXKXKXKXKXKXKXKXKXKXKXKXKXKXKXKXKXKXKXKXKXKXKXKXKXKXKXKXKXKXKXKXKXKXKXKXKXKXKXKXKXKXKXKXKXKXKXKXKXKXKXIXuX$XuX@XrX@X@X@X+X$XOXXXOX'.'.].].].).).F.x.z.v.f.f.t.t.r.e.:.N w N i f d N x d c x c x c v v c a t t r 1 t t 1 1 1 1 1 2 2 1 2 2 & & % % % % % o @ + + o + $ & & > B < = x >.X.1.n.2.,.3.O.%.@.>.%.3.3.3.Y.m.N.i. .b W *.^ *.*.*.*.;.-.;.e.a.a.t.l.l.l.l.l.x.S.S.l.|.eXgXeXwXwXwXwX@X<XoXOXOXOXOXH..XH.].H.H.H.H.h.H.H.:.N d x h c c v c G v G P G | | | | | | O.O.O.O.O.O.3.O.3.B.B.n.B.n.U.M.B.n.B.B.M.B.n.B.n.U.B.B.B.M.B.M.M.V.B.M.B.B.n.n.G.[.`.|.F.H.v.h.v.r.r.:.y.:._ [ .._ _ n W W _ W _ Q 8.A.b.b.b.9.8.i.2.2.3.>.=.4.4.4.>.2.2.b.b.n.V.C.L.P.Q.%X%X=X5X5X3XlXlXaXaXaXjXgXjXnXzXMXBXAXZXAXIXZXAXgXzXmXBXBXBXVXAXLXLXKXKXKXKXKXKXKXKXLXKXKXKXKXKXLXNXyXbXbXbXrXuXyXrXyXrXwXwXwX@X+X+X+XoX,XoX{.oX'.'.{.].G.F.F.F.x.z.l.l.f.f.f.u.r.e.:.:.-.:.$.' _ _ _ _ Q z n :.4.4.:.:.:.1.1.h.h.:.h.m.:.* . * + # # & + O $ % @ % @ % 2 & > t 4 1 1 r < r 4 < < < & & & = $ $ $ $ & & # # & # % % % ; ; & : : ; ; < : > > > > > 6 6 > , , , , % 9 8.n r B B $ + $ = & 4 4 < & % < 6 a V s 7 3 ",
"wXuXuX@XXX+XXXXXXX].).'.OXr.9 & 9 mXhXwXhXtXuXuXtXtXtXwX8X<XtXwXwX<XwX<X<XOX;XOX;X;XOXOXOX.X.XOX].L.H.OXL.].H.H.H.H.h.h.H.h.h.h.8.8.u.u.h.h.u.$.z r 2 @ @ @ @ O % @ @ @ % % # $ & & & # % % & ; & ; % ; % > ; & > % > : > > > > 2 > > 2 1 > , < , < 1 1 > 1 1 1 6 6 1 6 1 t 1 5 p > 4 G | m n ! P } | |  .o.X.%.O.<.>.4.>.1.3.4.2.Y.<.D.4X4X%X{.fXaXsX8X3X4X<X*X=X%XQ.L.J.V.V.N.8.8.,.4.4...X.@.=.,.8.b.n.m.V.Q.P.P.%X%X*X5X4X4X4X:X5X3X<XL.d.-.h.e.w.' ;.i.} r 4 4 4 a g 9 & . . @.kXPXLXPXFXZXFXHXHXPXPXJXJXJXLXLXKXKXLXKXKXKXKXKXKXKXKXKXKXKXKXKXKXKXKXKXKXKXKXKXKXKXKXKXKXKXKXKXKXKXKXKXKXKXKXKXKXKXKXKXKXKXKXKXKXKXKXKXKXKXKXKXKXKXKXKXKXKXKXKXKXKXKXKXKXKXKXKXLXnX$XbXrXrXrX@X@X<XOX$XXXXXXXOX'.].].].).v.).v.v.v.v.t.r.r.e.<.z i N u u N N h x h h c c c P P j 4 4 f f < 1 t 1 1 2 1 1 r < 2 < 2 2 : % % 2 % % % + + + o + & & & * < B = N 3. .4.N.Y.2.3.>.>.O.4.O.3.a.Y.Y.U.i.! b ~ $.$.$.*.*.;.;.a.a.e.a.a.a.a.a.l.l.l.S.S.|.S.l.wXbXtXrXeXwXeXwX<X@XoXOX<XOXOXOX.X.XH.H.OX).v.v.H.v.H.N g d x M c c c v G m G G P T.T.| | | | | +.O.O.O.O.O.O.n.B.n.B.B.n.n.n.n.n.n.B.n.B.n.B.n.B.n.n.B.n.n.U.M.n.n.B.B.b.Y.A.H.].`.`.v.h.v.h.h.y.:.:.[ :..._ _ _ n W l ( Q _ n 1.D.m.m.b.b.b.b.2.2.1.1.>.4.4.4.@.1.2.h.b.m.V.D.J.P.Q. X=X=X5X5X4XlXlXlXlXlXgXjXjXzXzXBXBXBXAXZXZXIXHXjXUXcXBXcXAXCXBXPXLXKXKXKXKXKXKXKXKXKXKXLXKXKXKXKXPXbXwXbXnXyXbXyXrXrXrXwXrXwXwXwX,X,X+XoXoXoX}.{.'.].].].G.F.z.S.z.z.k.l.f.p.u.u.r.;.:.-.*.*.' .._ / Q L z z :.:.:.:.:.1.1.:.1.h.u.u.V.x X & & $ # . + o o 1 o @ % % % & % > t 1 r 1 < 1 1 > 4 6 B & & & $ & & $ & $ & # & & & % ; ; % & ; ; & > & : > > > > ; > ; > , ; , > > # 5 c   . & $ = * * & * & & * < * 4 t 7 8 8 8 8 ",
"wXwXuX@XXX$XXXXXXXXX`.`.].[.' - X U.AXtXuXhXwXtXtXtXtXuXwXtX<XwX<XtX<X<X<XOX<XOX;XOX.X.XOX.XQ.OX].Q.H.H.H.].Q.H.H.H.h.H.m.h.h.m.h.h.h.8.:.h.:.h.:.L 9 = $ $ # # # # # ; : O $ % * $ $ & $ & & & # & & @ & % ; ; % ; > & ; > ; > > & > > > > > > < > , < > 6 < < > > , , 6 > 6 < 6 % h  .G m T.! } } } }  .| X.X.O.4.4.4.>.>.3.<.2.Y.>.,.5XlX{.,X<XgXaXiXiX4X5X<X*X=X.XP.L.J.M.m.b.8.2.>.4...4.@.,.,.8.m.m.M.J.I.L.Q.=X*X*X5X4XeX3X=X8XsX.Xr.f.f.p.t.r.e.;.;.*.*.+ 5 4 5 a a 5 d a @ X f ~.ZXKXLXJXGXFXGXLXKXLXPXKXLXKXKXKXKXKXKXKXKXKXKXKXKXKXKXKXKXKXKXKXKXKXKXKXKXKXKXKXKXKXKXKXKXKXKXKXKXKXKXKXKXKXKXKXKXKXKXKXKXKXKXKXKXKXKXKXKXKXKXKXKXKXKXKXKXKXKXKXKXKXKXKXKXKXIX#X@XuX$XrX$X$X@X+X+X+XoX}.}.'.'.'.].).).x.x.c.v.v.j.t.r.e.a.*.r i h p f p x c x b x c c G h t r t t r r < < r < < 2 < < < 2 2 2 % % % % % o o % $ $ - X = * B * B B < * i 4.%. .<.b.8.,.>.@.>.>.>.Y.Y.Y.L.<.m Q ) ) $.$.*.&.&.;.;.e.a.e.p.a.a.l.l.l.l.l.v.].H.h.OXhXuXtXtXuX<X<X8X$XOX<XOX.XOX.X.X].OXH.H.H.H.H.H.z.z.h.g.N r x x g c c c v v v m T.P P P } } | | o.o.o.O.X.@.+.2.B.N.n.n.N.0.N.n.n.n.n.n.n.n.n.n.n.n.N.n.n.q.N.B.B.N.B.B.0.5.5.6.N.G.|.v.h.h.h.f.h.r.[ *.$.....) Q W W W ) ~ ~ Q ;.[.N.n.m.b.b.b.i.2.,.,.2.3.>.>.>.>.1.Y.b.N.n.D.C.I.P.{.{.%X*X;X<X4X3X8XiXsXsXhXjXjXjXBXBXMXAXAXZXIXSXAXjXjXBXBXBXAXBXVXHXLXLXLXKXKXKXKXKXKXKXKXKXKXKXLXLXIXuXbXbXrXbXyXuXuXuXwXrXwXwXwX@XwXoXwXoX.XOX'.'.{.].|.G.`.F.x.x.l.l.l.f.p.p.u.r.:.:.e.&.$.$.` _ ' ) ! W Q ' r...1.u.:.1.1.1.f.1.L.%.X $ 4 + $ + $ + $ + $ $ # # % ; % : 2 r 4 < 4 4 < 4 4 < 9 & * & & & = $ $ - o @ @ @ $ 2 & & > % % & % : ; & 2 % @ % : : ; 6 6 & # * u u w ,X.X  - i o * * * = * * * & 6 > 5 t 8 s p 8 7 ",
"uXuXuX@XXXOXXXXXXX].].).`.[.p.= .  .hXnXtXuXyXtXtXuXtXtXtXtXwX<X<X<X@X<X<XOXOX<X;XOXOXOXQ.OXOXH.OXQ.Q.].Q.H.H.H.H.H.H.z.H.h.v.m.h.8.8.h.h.1.1.:.:.:...9 w & $ # # # @ @ @ @ $ 2 + $ $ $ # $ % % & & & : & & % & & > > ; ; > > : > > ; > > > > < > > > > > > > 6 > , , 1 , 6 > 6 < 1 c T.G G T.T.m } } } o.o.X.X.X.X.4.>.>.>.<.3.3.Y.,.,.%XeX=X*X=XsXhXiX8XlX4X1X*X=X%XP.P.J.V.M.N.b.2.1.@.X.4.:.>.8.h.b.V.V.L.I.Q.%X&X;X;X4X3X8X2XsXtX=Xh.f.l.t.p.t.a.r.e.;.-.%.i < 4 5 5 5 p a 5 N x * o t n.6XLXLXKXLXFXSXJXKXPXKXKXLXKXKXKXPXKXKXKXKXKXKXKXKXKXKXKXKXKXKXKXKXKXKXKXKXKXKXKXKXKXKXKXKXKXKXKXKXKXKXKXKXKXKXKXKXKXKXKXKXKXKXKXKXKXKXKXKXKXKXKXKXKXKXKXKXKXKXKXKXKXKXKXPXhX@XbXrXrXrX@XrX,X+XoX+XXXoXXX'.'.].`.).x.x.x.v.v.j.t.f.e.a.*.i t x t x d d d h f c c c c f t t 1 1 t 1 1 1 1 < 1 < < > B 2 o % 2 B & % o $ 2 = o . - = % & = 2 * r 1 B r %.<. .=.d.8.2.2.,.>.O.>.Y.m.N.<. .n ! ..$.` *.%.&.;.;.e.u.a.a.l.a.l.l.S.l.S.S.H.v.H.H.$XyXtXuXuX<XuXtX<X<X<XOX<XOXOX].OXOXH.].`.H.H.z.z.z.m.m.m.m r x c h c c c c v H m m m L P P } I | | o.+.+.O.X.O.6.V.0.B.n.n.n.n.0.n.N.N.q.n.q.n.n.n.n.q.0.n.B.B.N.N.U.N.q.q.7.5.7.Y.m.S.z.v.v.t.r.r.:.:.:.$..._ ) Q Q Q Q ` ( ' ^ ;.[.N.V.n.m.b.b.b.d.2.8.2.3.>.>.>.>.3.2.b.N.N.V.U.I.K.P.%X%X&X;X5X4XeX8XlXsXsXkXfXjXUXzXBXBXVXAXAXZXZXZXzXgXBXBXBXBXAXAXHXLXLXLXKXKXKXKXKXKXKXKXKXKXKXKXLXPXnXyXnXyXbXyXuXuXeXuXrXwXwXwXwX,X+XoXoXoXoXoXOX'.].].|.`.F.F.F.x.l.k.l.f.p.u.r.r.:.;.-.-.$.' ' ' ) ( W Q / 1...1.=.:.d.a.d.:.H.<.* - = * $ + % $ $ - + $ # + % @ % % : < 1 6 4 4 < 4 < < < * * & & = $ $ $ % @ % @ % @ @ @ O # # % # @ @ : % : 2 1 1 , 2 2 # # * 9 N x n M z 8X8X= . B $ * & * * & * * * < 6 5 p 8 p 8 8 8 ",
"wXrXuX@X+X+XXXXXXX).XXF.F.{.F.z o $ =XmXyX<XhXtXtXuXuXwXtX<X<X<X<X<X<X<X<X<XOX;XOXOXOXQ.Q.OXQ.OXQ.].].Q.H.H.H.H.H.H.z.m.H.h.h.h.h.h.h.1.h.:.h.:.1.8.1.4.9 w = $ # # % # @ o @ % $ $ $ & % % & @ @ & & @ # & # & ; ; & % ; & ; > ; > & > > > > > < > < > 6 < > < > , , 1 , , > 6 < f v G G m T.T.} } } |  ...X...X.%.4.>.>.3.1.3.3.a.a.3.U.3XeX X{.eXhXaX8XtXtX:X;X*X%XP.P.I.D.M.m.b.8.2.>.4.@.1.8.8.n.m.V.V.P.Q.Q.=X=X<X;X4X3XiXlXkX<Xm.f.l.f.k.f.p.p.r.e.;.:.*./ 4 & t < 4 a p y d N f 5 < > > @.&XCXLXKXKXLXFXKXKXKXKXKXKXKXKXKXKXKXKXKXKXKXKXKXKXKXKXKXKXKXKXKXKXKXKXKXKXKXKXKXKXKXKXKXKXKXKXKXKXKXKXKXKXKXKXKXKXKXKXKXKXKXKXKXKXKXKXKXKXKXKXKXKXKXKXKXKXKXKXKXKXKXLXIX#XrXuXrX@XrX@XwX+X+X+XoXXXOX'..X`.`.).F.x.x.c.v.j.t.r.e.a.e.c r N f d d x x d N H c T.u p 1 1 1 1 1 1 r 1 < 1 < > > > % < < < 2 $ o o $ % - X   X - % = * = $ % < r 4 % ..2. .} 8.d.b.Y.<.>.>.Y.U.N.2.! Q ! ..$...*.&.&.;.;.;.r.u.a.a.p.a.a.l.l.l.S.S.OXv.H.OXkXhXuX<X<XuX$X<X$X<XOX<XOXOX.XOX.X].OXH.H.].H.z.H.h.z.h.A.X.z u g c j j c c c v m G G P G } P I | | | | X.O.O.X.,.n.N.n.n.0.n.n.N.n.N.N.n.0.N.N.N.n.0.N.n.n.n.N.N.B.N.U.Y.6.7.#.7.7.,.,.H.h.v.h.t.y.:.w.-.' _ ..) ( Q Q Q W W &.) %.[.U.V.M.m.N.m.m.b.i.8.2.3.3.>.>.>.>.2.i.b.N.M.U.J.J.P.{.%X=X*X;X4X4X3X8XsXsXkXfXjXjXzXMXMXBXBXAXZXIXHXBXjXzXBXBXBXAXBXZXPXJXKXKXKXKXKXKXKXKXKXKXKXKXKXLXLXIXrXnXbXyXyXuXuXrXuXwXrXwXwX@X+X,X+X,XoXoXOX'.OX].].].G.`.F.z.z.z.l.f.f.p.p.r.r.r.;.-.&.$.$._ ) ) _ Q n ( :.:.:.$.:.d.u.d.u.Q.u X B & $ # $ # # $ + + $ + + @ @ % % > < 1 < 4 < 4 > > 4 < * * & $ $ & $ # o @ o % % % 2 o # # ; @ > ; 2 2 O @ @ o O O O . p & * 9 x N N e b 1XjXP . $ < $ = * = % & 4 & > t 7 7 7 7 8 8 8 ",
"wXuXuX<XXXOXXXXXXXXX.X).x.|.|.e.0   ;.nXmX@XhXuXtXtXtXtXwXtXwXwXwX<X@X<XOX<X<XOX;XOX;XOXOXQ.OXH.].Q.H.].H.H.H.H.H.H.h.H.h.h.H.m.h.h.h.1.h.:.:.:.:.:.:.:.:._ 9 & + + # $ % @ % o # $ $ $ % $ % & & & @ & % % & % % & ; > ; ; ; & % > : > > > > > > > , > > > < 6 , > , > 4 , , 6 < c G v m G n T.m } } } o.o.X.X.O.O.4.4.>.<.3.3.3.6.Y.3.Y.5XeX,X X5XaXhX9XlXiX1X5X;X=X.XQ.L.J.V.V.N.8.2.3.=.>.,.8.8.n.V.V.V.P.Q.=X=X;X;X4X4XlXsXhX4XD.p.z.x.f.z.f.p.a.e.e.e.;.;.=.N B B < < t t y 3 t u c v g 4 O % D K.jXJXKXKXKXJXPXKXKXKXKXKXKXKXKXKXKXKXKXKXKXKXKXKXKXKXKXKXKXKXKXKXKXKXKXKXKXKXKXKXKXKXKXKXKXKXKXKXKXKXKXKXKXKXKXKXKXKXKXKXKXKXKXKXKXKXKXKXKXKXKXKXKXKXKXKXKXKXKXLXLXyX@XuXrXrXrX@X@X,X+XoX+X}.'.'.].XX`.`.).x.F.x.v.f.f.j.y.a.a.^ w p x d N f x f N b M c t t r t 1 t r < 1 < < > 2 * * > % & % o + $ % < o . X X = t 2 - = 2 0 * & 4 t 4 % ! i. ./ =.8.m.2.3.>.Y.N.N.%.T.! ! ! ` $.$.&.;.;.;.e.e.u.a.a.p.Y.l.l.l.S.S.S.S.H.v.OXuXhXuXwXtXuX<XtXwX<X<X<X<X;XOXOX.XOX.X].Q.H.H.H.H.z.z.h.m.l.i.} t y c c g x c c c v m v G G G G P } | | | | O.| | @.9.N.0.n.Y.0.b.0.N.0.0.N.n.Y.n.0.N.n.N.0.n.Y.0.N.Y.N.0.6.5.7.7.7.+.O.O.h.h.h.h.r.r.w.:.-...' ' _ ! Q Q ( ( ` -.) ;.%XI.V.M.m.N.m.N.b.N.8.8.8.1.3.1.>.>.2.2.Y.b.N.V.U.J.K.P.%X%X*X*X5X4X4X8XlXsXsXhXhXjXjXjXBXBXBXZXZXZXHXZXjXjXBXcXBXBXVXAXHXPXKXKXKXKXKXKXKXKXKXKXKXKXKXKXLXLXnXrXbXbXyXyXyXuXuXuXeXwXwXwXwX@X,X+XoXoX{.oX'.{.[.].|.G.`.x.F.l.z.l.k.p.p.r.u.e.e.;.;.$.$.' ..) _ ( Q l %.u.<.=.1.1.;.i.Q...- $ & + $ $ $ + $ + + + # # # % @ % % > 2 r < 6 4 < 4 < < < 4 & & # = # $ # % o @ O @ % @ $ @ # @ # O O o : < > % 2 B r x G m.L i N N z u 9 * D.UXm.+ X t $ & * = * & * > > a 9 t p 7 7 7 8 ",
"uXuXyX@XOXOXXX$X}.XXXX).|.`.`.|.k   i =XmXtXtXyXuXwXtXwXtX<XwXtX<X<X<X<XOX<XOX<XOXOXOXQ.OXQ.OXH.].Q.].H.Q.H.H.z.m.H.m.z.m.h.h.h.8.h.h.1.:.:.:.h.:.=...4.:.:.L 9 * $ + o + % % o $ % $ $ % % % $ @ & % % % % & # & & ; & & > > ; > : > > > & > > > > > > > , < > > > > 6 > 6 , < r H G c m m m  ./ } }  .o.o.X.X.%.O.4.4.>.3.3.1.3.a.Y.3.<.=XsX,X=X,XlXhXsX8X8X4X4X,X&X=X!.P.J.J.M.N.b.8.1.>.1.8.8.b.n.V.D.Q.Q.Q.=X=X5X5X4X8XtXaXhXL.g.A.z.S.p.x.p.p.u.r.e.;.;.-.:...N = * r r 4 5 y y y 6 4 g G D j : O : O.9XSXLXKXKXKXJXLXKXKXKXKXKXKXKXKXKXKXKXKXKXKXKXKXKXKXKXKXKXKXKXKXKXKXKXKXKXKXKXKXKXKXKXKXKXKXKXKXKXKXKXKXKXKXKXKXKXKXKXKXKXKXKXKXKXKXKXKXKXKXKXKXKXKXKXKXKXKXLXIXoXuXuXrX$XrX$X#X+X+XOXXXXX].XXXXF.F.).F.x.x.v.v.f.k.t.r.p.;.u i c d f x f N c c x N 1 1 t 1 t 1 1 1 > > < > * : 2 > % % % > < > o   X o * g | O.T.y o - * r > > r 4 * x <.<...*.>.m.i.3.Y.U.N.>.Q Q $. ...) *.&.&.;.e.;.r.u.a.p.g.f.g.l.m.S.S.S.G.S.H.H.<XhXuXtXuXuXwX<X$X<X<X$X<XOXOXOX.X.XOX].].].].H.F.F.z.z.h.h.a.m.;.u 0 g x d h x c c c m v G G G G } P } } | | o.| | O.6.b.0.Y.Y.0.0.Y.0.0.Y.Y.Y.0.Y.N.0.0.n.0.q.0.Y.Y.N.N.q.#.5.7.7.7.E E +.4.1.h.h.h.r.:.{ &.$._ _ ) Q Q ~ ) ` _ &.~ $.[.I.J.C.V.m.m.m.N.N.b.b.Y.2.,.1.>.>.3.2.2.b.N.n.D.U.I.L.Q.=X%X*X;X4X4X3XlXtXsXaXkXhXjXnXBXBXBXAXZXAXIXIXBXgXzXBXBXBXAXBXZXLXKXKXKXKXKXKXKXKXKXKXKXKXKXKXKXLXIXrXyXbXbXbXrXuXuXuXwXwXwXwX,X@X+X,XoXoXoXXX{.'.'.'.].].`.F.x.A.z.l.l.l.f.a.u.1.r.;.:.&.$.$.' ' _ _ Q l $.1.:.1.d.:.1.m.z.= + * $ $ $ $ $ $ + $ - . + + o @ % ; % > 2 r 6 < * < > 4 & < & # # & $ $ $ $ 2 $ o o o O o o # + % % % < r t i i x ! ..i.M.G.Q.} w i u k N M + @.jX;X4   4 $ % * * * * & * > 5 p 9 p 8 7 7 7 ",
"wXuXuX@XOX$XOXXX}.XX}.].}.x.c.{. .2 . ..jXhXwXyXtXtXtXwX8XwX<XwXwX<XwX<X<XOX;XOX;XOX;XOXH.OXOXQ.].Q.H.Q.H.H.H.Q.H.z.H.m.H.h.h.h.8.h.h.1.:.h.1.:.:.:.:.:.:.:.:.[ b i $ . . + % % + $ $ & # $ @ & & + % % $ % % # # # & & & # ; & & ; % ; ; > > ; & > > > > < > , > 6 , > < > < 6 d G v M m m m T.G } } }  ...o.X.%.X.4.>.>.<.<.3.3.3.Y.3.>.{.lX<X<X%X;XgXaXlX4X3X4X1X*X*X%X.XP.J.V.m.b.8.1.3.2.d.8.m.V.V.V.Q.Q..X=X;X<X4X4X8XsXkXtXl.z.].l.l.k.l.l.p.a.r.e.e.-.&.*.:.n B 4 r 6 4 d p p a g j a 5 a c D c t : > t &XBXKXKXKXKXKXKXKXKXKXKXKXKXKXKXKXKXKXKXKXKXKXKXKXKXKXKXKXKXKXKXKXKXKXKXKXKXKXKXKXKXKXKXKXKXKXKXKXKXKXKXKXKXKXKXKXKXKXKXKXKXKXKXKXKXKXKXKXKXKXKXKXKXKXLXKXLXyXrXrXrXrXrXrX@X@X+XOXOXXX.XXX`.].`.F.).x.x.x.v.k.f.k.e.a.e.k t x d N N d N x c f p 1 r r t r 1 < < * 2 2 * > : % % & > * % O   X . u m X.@.@.4.4.X.$ . $ r > * 4 4 < t %.<...$.%.i.Y.Y.N.M.<.! n  . ...' *.;.;.;.;.e.e.u.i.f.d.g.f.l.A.l.S.S.S.|.|.v.$XyXbXtXuXtXuXwXtX<XtX<X<XOX<XOXOX.XOXQ.].].H.H.H.H.z.H.v.h.h.r.A.g.! r u g u x d d c c c c c G m G G G P | P } o.| | | @.b.9.0.9.Y.b.0.Y.Y.0.0.0.0.Y.N.Y.Y.0.n.Y.Y.Y.0.Y.6.6.#.#.#.#.#.#.+.T U o.4.1.8.1.:.:.-.' _ [ ) ~ Q ~ Q ` ( ` ) $.L.{.L.J.V.M.M.N.M.N.N.b.b.2.2.2.,.,.<.3.2.b.N.N.V.U.L.I.P.Q.=X=X;X;X4X4X8XlXsXaXkXjXzXnXBXBXAXBXAXZXZXFXZXjXjXBXBXBXAXBXAXPXKXKXKXKXKXKXKXKXKXKXKXKXKXKXLXKXLXnXyXnXbXbXbXyXuXtXuXwXwXwXwXwXwXoX+XoXoXoX{.oX{.'.'.].`.`.S.x.z.z.l.k.f.f.p.r.r.r.;.&.$.$...' ) ' _ l $.1.:.1.1.1.l.m.x X $ & + * # # - + $ + $ . + + % @ @ % % : 2 4 < < < < & * > < 9 $ & $ $ + $ # o . o o o % = 2 * r i u x b b b n ) ;.i.g.A.A.M.D.n * w k 9 i z w L pXpXP   & & * * % * > * 2 : 1 4 7 t 7 5 7 7 ",
"rXuXuX@XOXOXOXXXXX}.}.}.}.).x.].g.N . & <XnXtXuXuXuXwXtX<XwX<X<X<X<X<XOX<XOX<XOXOXQ.Q.OXH.OXH.OXQ.H.H.Q.H.H.H.z.H.H.h.m.h.H.h.h.h.h.h.h.8.1.1.1.1.:.:.4...=.=.=...m u & . + % % # $ % # $ $ % + + % % & # & # & & # & # & ; & # & : % > & > > & ; > > > > > > > > > , > , 6 > < H v c v v m ! T.} T.} }  .O.X.X.X.4.4.4.>.>.3.3.,.3.Y.6.>.U.eX5X<X=X=X8XfXsX3X8X4X1X;X&X%X%XP.J.V.V.N.b.2.,.8.b.m.n.V.J.L.Q.Q.=X*X;X4X4X2XlXaXhXwXl.|.].k.(.l.k.a.a.a.u.a.e.;.-.*.:...z 0 < 4 r 4 5 4 4 5 p g j j p p f H D g t X 2 3.pXPXKXKXKXKXKXKXKXKXKXKXKXKXKXKXKXKXKXKXKXKXKXKXKXKXKXKXKXKXKXKXKXKXKXKXKXKXKXKXKXKXKXKXKXKXKXKXKXKXKXKXKXKXKXKXKXKXKXKXKXKXKXKXKXKXKXKXKXKXKXKXKXKXLXNX@XuXrXrXrXrX@X@X@X+XOXOXXXXXXX}.]..Xx.).x.x.v.k.k.k.t.p.p.! 0 N d d d c x c x d r 1 r 5 1 < < < < > * > & > % % % & $ .     % G ,.,.,.2.@...| %.>.c & + < < * 4 6 4 0 >.a.;.*.*.4.Y.n.Y.%.T.Q ! *.^ *.$.&.&.;.r.;.a.a.a.p.a.g.l.m.l.S.S.S.`.|.|.G.).uXhXbXtXuXuXwXuX8X$X<X$X<X<X<XOX.XOX.XQ.}.Q.H.H.H.z.H.H.h.h.h.a.f.h.=.N t d d d x d x c c c m v v G G G P P | P o.| | | O.b.0.9.9.0.Y.Y.Y.6.Y.Y.Y.0.Y.Y.6.Y.Y.Y.Y.Y.Y.Y.Y.7.7.E +.+.+.O.+.+.+.R U o.@.@.:.:.:.:.' ' _ ) ~ Q ~ ) &._ e.u.*.S.;XQ.P.L.V.V.V.M.M.N.N.b.b.Y.2.2.2.>.<.,.Y.b.N.M.M.C.L.I.Q.=X=X*X;X;X4X8XlXiXaXaXhXjXjXnXBXBXBXVXZXZXHXSXBXjXzXBXBXAXVXBXZXKXKXKXKXKXKXKXKXKXKXKXKXKXKXKXKXLXIXyXbXbXbXuXyXuXuXuXuXwXrXwX+XwX+X,XoXoXoXoX'.{.'.{.].].G.F.F.x.A.l.l.f.f.p.r.u.e.e.;.$.$.$._ ) ) ) Q _ 1.r.<.<.d.N.%.. $ + + # & + $ $ + + + + + + + @ @ @ % % > < 4 < < < & 4 & > & & & $ $ $ $ + - . $ 0 B r i i N b b b x z b b ! i.d.m.A.m.m.i.a.J.} i u z 9 k u g i *XjXm.. = & * % & & % & > * : > , 6 6 6 7 7 ",
"uXuXuX$XOX$XOXXXOX}.|.XX).|.).v.[.M $   M.mXbXeXtXtX8X<XtX<XwXtX<XwX<X<XOX<XOX;X;XOXOX.XOXOXQ.H.].Q.].H.H.H.z.Q.h.H.H.h.h.h.h.h.h.:.1.1.1.1.:.1.1.:.:.:.......=...$./ i $ + + % $ # + + % % % & & $ + # & $ + # # & & # ; > # > ; & ; ; & > > > > > & > > > < > > > > , > > < < P v c m m m m ! T.} T.|  .o.o.X.O.%.O.4.>.>.3.1.Y.3.a.Y.3.M.<X4X,X,X.X1XhXhX8X8X3X4X;X*X=X.XP.L.C.V.m.b.8.8.8.b.n.V.Q.D.Q.Q.Q.=X;X;X4X4X8XsXkXhX<Xl.S.x.l.|.l.l.l.f.f.a.e.<.;.;.-.$.-...r = 4 5 6 t p p y a a a p s c j f f h H F h & O h %XCXKXKXKXKXKXKXKXKXKXKXKXKXKXKXKXKXKXKXKXKXKXKXKXKXKXKXKXKXKXKXKXKXKXKXKXKXKXKXKXKXKXKXKXKXKXKXKXKXKXKXKXKXKXKXKXKXKXKXKXKXKXKXKXKXKXKXLXKXKXLXLXPX+XuXrXrXrX@X@XrX#XOX+XXXXX.X}.].].`.`.).F.x.v.k.k.v.t.t.g. .0 u x d x d x c x t < 1 1 r 1 < < > > > 2 2 & % ; % @ X X o d @.0.Y.>.,.X.o.X.>.>.>.@.2.i + B < < 4 < B 4 <.<.*.<. . .n.N.>.! b  .*. .*.&.;.%.&.;.u.f.u.u.a.p.g.g.l.l.l.S.S.S.S.G.[.[.$XmXhXuXuXuXtXtXwX<X$XtX<X<XOXOXOXOX.XOXOX'.].`.F.H.H.v.z.z.m.v.z.;.p.d.m r i g d d x x x c c c v v v G G } P P G o.I o.G | b.9.6.Y.Y.0.Y.6.Y.Y.Y.0.Y.0.0.Y.Y.0.Y.Y.Y.Y.0.Y.5.+.#.7.+.O.O.+.| Y R R U U o.:.:.:.$.$._ [ ) ~ ~ ( ) ' Q w.;.l %.L.%XQ.L.V.S.U.D.M.N.N.N.b.b.b.d.2.@.<.,.2.Y.N.M.M.V.I.L.Q..X%X*X;X<X4X4XlXlXpXaXaXgXjXzXmXBXBXBXAXAXZXHXZXjXjXBXBXBXAXBXVXLXKXKXKXKXKXKXKXKXKXKXKXKXKXKXLXLXJXbXbXbXbXbXyXyXuXwXwXrXwXwX,X,XwX+XoXoXoXOXoXOX'.].'.|.`.F.F.z.l.l.l.l.f.p.u.u.u.;.;.:.-.:.' ) ' ) / ! :.1.1.=.g.d.k X 4 + $ # . $ + $ $ + + + + + + o @ @ : % : < 5 > < > 4 & > * > & & & $ $ $ $ - * r N z N k N z b k N l ! %.d.A.m.N.g.b.d.g.m.m.L...y r 9 i y u y $ C.UX=X* = = $ * * & > * > : % : ; ; > , 6 7 ",
"rXbXyX+XoX+X+XoXXX}.'.|.|.).).`.XXf.* + $ 4XmXrXuXtXtXtXtX<X<XwX<X<X<X<X;XOX;XOXOXOXOXQ.OXH.OXH.Q.].H.H.H.H.H.z.H.A.A.z.l.m.h.h.h.h.8.h.h.1.1.1.:.>.=...:.......) / ....k o X = * o . $ * % + + # $ % $ % & + & & % % & + % & % # ; & & & ; & ; & ; > & & > > > > 1 2 < 2 % 2 m x c b n m G ! G } P } }  .o.X.X.O.4.O.%.>.>.3.1.Y.3.6.Y.3.,. XsX;X4X,X{.gXjXlXiX3X4X1X;X*X.XP.K.L.V.V.b.8.8.8.b.M.D.I.P. X X=X*X5X;X3X9X8XaXhXaXG.`.`.`.z.z.x.l.l.l.p.p.e.a.e.-.:.' ' :./ w = r B 6 5 9 5 5 t g 9 a a d j g h h c f H T.h 2 1 G ZXJXKXKXKXKXKXKXKXKXKXKXKXKXKXKXKXKXKXKXKXKXKXKXKXKXKXKXKXKXKXKXKXKXKXKXKXKXKXKXKXKXKXKXKXKXKXKXKXKXKXKXKXKXKXKXKXKXKXKXKXKXKXKXLXKXKXKXKXKXLXNXoXrXuX#X@XrX$X@X@XOX+XXXXXOX'.].}.].).).x.x.x.k.k.r.r.h.:.z i N N u b c x N 5 1 B 1 4 > < & < 4 % < < < + X X X 4 P 2.M.9.,.>.,.3.,.>.>.>.>.3.>.1.>.r X r t $ t 4 *  .Y.*.<. .$.%.*.) ! ^  . .*.*.*.*.;.e.e.r.r.a.f.g.g.l.l.S.S.l.|.S.S.{.|.z.'.mXhXbXuXuXuXuXtXtX<XwXwXOX<X<XOXOXOXOX.XL.OXH.H.].H.H.z.m.z.h.h.f.h.u.1.:.N * x N N a g f c c c c M v v G m G G G | } | | | @.N.6.6.,.6.6.6.,.6.6.2.6.6.Y.6.a.6.0.6.,.6.6.#.7.+.+.+.+.+.+.| T +.o.R R D U U o.X.:.$._ ' ../ n _ _ $.=./ N * % % 5.K.-X!.C.J.I.D.V.M.M.N.b.2.2.b.2.2.3.<.2.b.N.D.D.J.J.P.Q.!.=X*X1X4X4X8XlXtXaXkXfXjXjXUXmXBXBXAXCXAXFXZXmXjXBXzXVXVXBXBXSXKXKXKXKXKXKXKXKXKXKXLXKXLXKXLXKXKXIXuXbXbXbXbXyXuXuXuXuXwXwXwXwX+X,X+X,X+XoXOX'.OX'.].].].H.F.x.F.z.z.v.k.p.p.r.r.r.;.;.;.&.*.*.` ) / Q $.h.=.8.V./ X * * % + - + $ = $ . $ $ . . $ + o @ $ @ $ & < & < < < < < > & > & $ $ 9 $ + + = i k N z N k i N i x $.1.b.g.d.i.d.N.m.d.m.N.d.m.H.1.= i 9 y x e z B o.kX0Xo.  4 < > % : 2 < > * < < * > < 6 > & ",
"rXyXuX+XXX+XoXXXXX'.}.'.}.`.).(.`.x.M X & b.nXtXtXuX<XwXwXwXwXwX<XOX<XOXOX;XOX;XOXQ.Q.OXQ.OXOXQ.].].Q.H.H.H.H.H.A.A.m.m.m.g.m.b.h.h.:.8.:.1.:.:.:.:.=.:...:.....$.....! / / i   X & < o X $ & % $ % + $ + + & & $ % % % & & % & % & & ; ; & > & & & ; > > > & > > < < 1 < 2 i c x x c M m m G ! ! } } } o.o.X.X.X.4.%.O.>.<.3.3.<.3.3.Y.Y.a.I.gX,XeX,X=XeXhXgXlX8X4X1X;X*X=X.XP.I.V.V.N.b.8.d.V.S.U.I.P. X=X=X;X*X2X3X3X8XhXsX4XG.F.F.F.|.x.l.l.p.p.p.p.a.e.;.;.:.$.$.=._ k B & 4 4 6 4 6 r y u y y a g g j g h H h c H c d f H : G R.CXKXKXKXKXLXKXKXKXKXKXKXKXKXKXKXKXKXKXKXKXKXKXKXKXKXKXKXKXKXKXKXKXKXKXKXKXKXKXKXKXKXKXKXKXKXKXKXKXKXKXKXKXKXKXKXKXKXKXKXKXKXKXKXKXLXKXKXIXwXrXuXrX@XuX@X@X+X+X+XOXXXXX'.'.].).`.).).x.x.v.h.p.r.h.:.n r N c p t N N t t t t 1 > > > 6 & & t : X   X t G +.M.n.n.b.Y.9.2.9.,.2.2.,.,.,.3.3.,.2.| * o < t * r * / N.*.<.$.*.*.) ) )  .*.*.*.;.;.;.e.e.r.a.a.a.f.p.f.l.l.S.S.x.|.|.|.|.F.].wXhXbXhXyXhXuXtXuXuXwXwX<X$X<XOX<X;XOXOXL.OXH.].].F.F.H.v.m.z.h.h.u.d.1.u.:.n r y y g f g x x x x c c v v v G G G G P P | | P @.0.6.a.6.a.6.,.6.Y.2.2.6.,.6.,.6.6.6.,.6.6.6.O.O.+.+.+.+.Y T | +.Y U o.U U j U U o.=.$.$._ ~ Q ' ' $./ N r r 4 5 r + y >.Q.=XP.M.M.M.M.N.N.N.n.N.,.i.2.2.3.,.b.N.M.V.V.I.P.P..X=X=X;X1X4X3XlXiXsXsXkXhXhXUXmXcXBXAXAXZXIXHXAXjXgXVXUXBXAXAXZXHXKXKXJXLXKXKXKXKXKXKXKXKXLXKXKXKXLXMXyXbXbXuXuXuXuXuXuXrXwXwXwXwX+X,XoXoXOXOXOX'.'.'.|.`.`.F.F.x.z.l.l.l.f.p.f.r.r.;.*.$.$... ...) _ / =.=.=.m.@.+ X + $ $ $ $ $ + - $ + - . X = & o $ % % o @ & < & < & > & & & & * 9 & $ $ $ $ q 9 x z N i u k Q ! <.a.i.i.d.d.d.d.d.d.g.d.d.m.g.m.H.u.0 9 u k x 9 N B o.fXvXZ.X . < > % @ % > > > > : % & & & : % ",
"eXbXuX@X+X+XXXXXoXoX'.'.|.|.|.(.x.`.1.+ $ u eXhXtXuXwXwXwXtXtX<X<X<X<X<X;XOXQ.OX;XOXOXQ.H.OXH.Q.`.Q.H.F.H.H.H.H.A.A.A.m.g.m.h.h.h.:.h.:.1.:.1.:.:.:.4.....:.....) ..$.b b <.>.u . o # + % + + % $ $ % $ & $ & + & % % & & % % & ; & ; # & > & ; > ; < > > & > > > > 1 > 2 2 d M b x c v m m ! T.} P } }  ...X...X.X.4.4.>.>.3.<.3.Y.,.Y.Y.>.m.lX4X<X<X{.,XgXjXlXiX3X4X;X;X*X.XP.L.I.V.V.b.b.b.V.V.U.P.{.%X=X*X5X:X9X8X4XsXhXtX.X`.].`.F.S.S.l.x.l.f.f.a.a.r.e.e.:.-.:.$.$./ k # 4 4 5 6 5 t p t y y a d a g j h h c h h H G F H f 6 < d Y.iXHXKXKXKXKXKXKXKXKXKXKXKXKXKXKXKXKXKXKXKXKXKXKXKXKXKXKXKXKXKXKXKXKXKXKXKXKXKXKXKXKXKXKXKXKXKXKXKXKXKXKXKXKXKXKXKXKXKXKXKXKXKXLXKXLXLXnX@XrXuX@XrX@X@X+X+X+XXXXXXX].}.XX`.`.).F.x.x.v.j.f.t.t.f./ i u x N d b N r 2 2 : : > > 4 4 & @ X X % d o.9.C.K.n.b.2.,.9.b.9.9.9.9.9.2.,.2.2.,.,.b.N.} . + d 2 r * b d.%.;.*.*. . ./ ^  .*.*.;.;.;.;.<.a.a.a.p.f.f.g.l.l.S.S.A.|.U.S.{.].|.wXnXbXbXyXyXuXuXuXwXtX<X<X<X<X<X$XOXOX;X.XOXOXH.H.OXH.H.H.z.m.h.h.h.d.u.u.u.1.=.x * y u N g f N N N M x c M v G G m G } P P I | O.Y.,.6.6.,.3.Y.3.,.6.6.6.a.,.6.,.6.6.,.,.6.7.O.+.+.+.+.+.Y Y Y I I U U U U A v v v I $.$._ ( ] ' _ M y * < 4 p p 1 4 $ % x 9.Q.!.K.U.M.M.J.V.Y.Y.n.Y.Y.2.2.,.Y.b.N.M.V.J.L.P.!.%X&X;X;X4X2X3X8XsXsXaXjXjXnXUXBXBXAXZXAXBXIXPXBXgXUXBXBXVXBXzXjXZXLXKXKXKXKXKXLXKXKXKXKXKXKXKXKXKXPXyXyXbXbXuXbXrXuXwXrXeXwXwXwXwX+X@XoXoXoX}.{.'.'.|.].`.F.F.F.z.z.l.l.l.p.p.u.u.r.r.:.:.&.*.$...' _ ' 4.b.h.z   4 $ $ % % & + + # . o O X . X X + o % @ $ @ & < & > & & & & > < & $ $ & $ $ 4 9 z k i k N !  .<.a.N.N.g.i.i.i.d.b.i.d.N.d.m.d.m.m.Q.1.* i k y z i x 9 y 4.Z.K.u X   X @ > r 1 % + < < > 2 % ; & > ",
"rXyXuX+XoX+X+X+X}.}.'.}.|.|.).`.x.H.z.i - . g.nX<XwXtXtXwXwX<XwX<X<XOX;XOX;XOX;XOXQ.Q.OXOXQ.OXH.Q.`.Q.Q.H.H.H.H.A.V.m.l.m.g.h.d.h.h.h.:.h.1.1.1.>.=.4.:.:....... .)  .b r } b.2.v &   o < & + + $ + $ $ + % # $ + % $ % % % % % # % & & & # ; & ; & # > & ; > & > ; 2 2 $ t c x c x b n m m G m ! } } } o.o.X.X.X.4.4.4.>.>.<.3.3.Y.3.Y.Y.<.i.5XtX4X5X,X[.eXjXlXiXtX4X;X;X*X%X%XL.I.V.V.m.b.V.V.J.L.{. X=X=X*X5X4X8XlXiXgXgX;X{.G.G.|.`.F.x.S.l.l.l.p.p.u.u.e.e.-.:.-._ ..=.b B & B 4 4 4 p y r y p a a a j g j d f Z f c H G H +.#.U f : a #.U.LXKXKXKXKXLXLXKXKXKXKXKXKXKXKXKXKXKXKXKXKXKXKXKXKXKXKXKXKXKXKXKXKXKXKXKXKXKXKXKXKXKXKXKXKXKXKXKXKXKXKXKXKXKXKXKXKXKXKXKXKXLXKXLXIXwX#XbXrX#XrX@X@X@X+XOXXXXXXX.X].XX`.`.).x.x.c.f.v.t.p.l.$.u u p c c c t < 2 B < r t t & # X X r v 6.I.R.K.U.N.N.n.n.M.n.N.b.b.9.b.b.b.b.9.9.Y.2.2.n.b.d + * t r 1 u Y.<.<.&.e./ ^  .*.*.*.-.-.;.e.e.r.a.a.l.a.g.l.l.m.S.F.S.G.S.|.|.|.G.OXyXMXbXhXhXuXtXtXuXtXwXuXwX$X<XOX;XOXOXOXOX.XQ.OXH.H.H.H.H.H.z.z.h.h.f.u.u.:.1.1._ B i y i a x N d d g c c c c v v G G G G P } P | ,.,.,.,.6.,.,.6.3.,.,.3.6.,.3.6.,.3.6.6.#.+.+.Y +.Y +.| Y Y I I U P U U L D A D j v L _ ..' _ b u & < 4 5 t t 6 < d 9 4 + $ L n.%X%XL.M.N.U.D.M.N.b.Y.i.2.2.2.b.b.m.M.J.J.L.Q..X%X*X*X<X4X3X8XiXsXaXaXhXjXzXUXmXBXBXIXZXZXIXVXjXzXBXBXjXfXlX3XlXzXKXKXKXKXKXKXKXKXKXKXKXKXKXKXKXLXMXuXbXbXyXbXuXyXuXuXwXrXwXwXwX,X,X+XoXoXoXOX{.'.].].].].F.F.x.z.z.l.l.f.f.p.u.r.r.:.&.*.$.' _ ) _ n h.A.L . . * % + o O   X X X   X + 4 4 X   B o o % @ & & < < & % & & & & & & $ $ $ $ * w z z u x / %.<.a.Y.N.;.<.2.i.u.i.b.g.g.m.d.m.m.g.N.m.m.h.w i i i N y 4 v 4 X @ 3.V.:Xh 4 o     O : 1 @ % & > > & % % ",
"uXbXuXwX+X+X}.,XoX}.XX'.}.|.).).x.x.Q.:.- . 9 hXtXtXwXtXwX<X<X<X<X;X<XOX;XOXOXOXOXOXOXQ.Q.Q.OXH.Q.F.`.H.H.H.A.H.A.A.A.m.m.h.h.h.8.h.1.8.8.:.:.:.:.:.:...$.......$./ / m i m >.<.,.+.y . X % < + $ $ # $ % $ % % # % % $ $ % % & & # & & & ; # & & & ; & & ; > > > ; < > 2 u H N x M M c m m ! T.} G } |  .| X.X.X.X.%.%.>.>.3.3.3.Y.3.Y.N.3.a. XgXeX<X<X X5XgXgXiX8X3X4X;X*X%X.XQ.I.V.D.m.N.M.V.L.P.Q.%X=X,X1X4X3X2XiXhXfX<X.X,X|.|.G.G.S.x.x.l.l.l.k.p.p.a.a.e.&.;.;.' ..$._ N = * 4 4 5 5 t t t y t y a f g d f h c c h h c H 5 h | +.T H f 4 p B.BXKXLXKXKXKXPXLXKXKXKXKXKXKXKXKXKXKXKXKXKXKXKXKXKXKXKXKXKXKXKXKXKXKXKXKXKXKXKXKXKXKXKXKXKXKXKXKXKXKXKXKXKXKXKXKXKXKXKXKXKXKXLXhX+XuXrXrXrX@X@XoXoX+XOXOXXXXXXX`.F.).F.x.x.c.k.v.t.r.l.r.x y p x N 0 * 1 t t t < @ X X & v O.K.R.K.I.V.M.V.V.C.C.C.D.N.N.n.M.n.N.n.N.b.b.N.b.i.i.Y.n.6.t O t r r r a.2.e.e.<.) ` *. .*.%.;.;.e.e.<.a.a.f.f.g.l.l.z.A.S.F.S.|.S.{.|.|.|.eXnXnXhXuXhXuXuXuXtXuXtXwX<X<X<X<XOX<XOXOXOXOXOXQ.].].H.F.z.z.h.v.f.h.f.u.u.r.:.:.4.i r r t u d N N x d c x c c v v v v G v G P G } @.5.3.3.3.3.3.3.3.3.3.3.3.3.3.3.,.3.6.6.#.+.Y Y Y Y F I I I U U U D G D P D D 9 A j c v / n N 4 4 & 6 6 1 , , 6 r < < 9 g 4 o 4 o.N. X=XM.Y.V.U.N.b.b.Y.2.2.Y.2.b.n.M.D.J.I.P..X%X&X;X;X4X4X8XlXsXgXaXfXjXjXzXzXMXBXAXAXVXFXHXVXjXaXlXlX7XlXlXlXlXdXSXKXKXKXLXKXKXKXKXKXKXKXKXKXLXPXrXuXnXuXbXuXuXuXuXuXwXwXwXwX+XoX+X,XoXoX'.oX'.'.'.].`.F.F.S.x.x.l.l.p.f.f.u.u.r.e.e.-.&.*.$.' / l h.1.$   $ X     X o * t f c ,.6.9.n.0.g X X O @ % % % % < > & & & & & > & & r $ . $ r 9 n L ..=.1.d.8.8.:.=.1.1.i.d.d.d.d.d.Y.g.d.d.m.d.m.m.H.b.0 i i i N N f y % t H 2.%XSXDXcX7XC.| 5 X X O o % 2 < < < 6 ",
"uXyXuX+XoX+X+X}.XXXX'.'.|.|.).).).v.v.v.w = . .XUXuX<XwXtX<XwXwX<X$X<X;XOX;X;XOXQ.Q.OXOXOXH.OXH.).Q.Q.F.H.H.H.A.A.A.z.m.h.h.h.h.:.h.h.:.:.1.:.1.4.:...:...:..._ ) ) ) b i n @.3.,.2.3.c %   X % + $ $ $ + % $ % $ % + % % % $ % & # # ; # & & ; # < & ; ; & & > ; ; % > B f c N x c b n m m G m ! } }  .|  .X.X.X.O.4.>.>.>.3.<.<.Y.3.2.N.2.3.U.sX5X<X4X=X=XlXjXiXtX3X4X1X;X&X=XQ.P.I.V.M.m.V.J.I.P.%X=X*X5X4X3XlX4XsXhXsX,X.X,X[.].].].|.`.S.x.l.l.l.f.p.a.a.e.:.;.&.$.' $.../ B * 4 4 4 4 4 t t 4 9 p y a a f h f f c H h f H +.U Z h H U Y Y H , O Y 0XJXLXKXKXKXKXKXKXKXKXKXKXKXKXKXKXKXKXKXKXKXKXKXKXKXKXKXKXKXKXKXKXKXKXKXKXKXKXKXKXKXKXKXKXKXKXKXKXKXKXKXKXKXLXLXKXKXKXKXKXNXrXrXrXrX$X@X@XwX@X+X+X+XOXXX}..XXX).).).).x.v.x.j.f.f.u./ i b f f 1 1 t 2 @ X O o < G 9.R.-X%XP.J.B.V.Z.J.I.M.n.n.n.n.U.C.U.B.M.B.n.M.n.n.N.N.n.b.N.Z.| = % r i 2 <.i.<.e.*. . .*.;.*.*.;.;.e.e.a.a.a.a.l.g.l.A.z.z.F.|.G.|.|.{.'.|.oXhXnXhXbXhXuXuXuXtXuXtXwXwXwX<X@XOX<XOXOXQ.OXQ.].H.].H.H.F.H.z.z.h.h.h.f.u.u.1.=.:.:./ w r i t u N N N x d g h x c c v v v v G G G G O.3.3.3.3.3.3.3.3.3.3.3.3.3.3.#.3.3.,.3.+.| Y +.| F I I U U D D U D G v D v D D A j c x M i % + 6 6 4 < < 1 4 1 1 t * & 4 y r & # r o.J.%XP.M.n.D.n.N.N.N.b.Y.Y.i.b.m.V.C.J.L.P.!.=X,X;X1X4X8X9XtXlXaXgXjXjXnXcXBXBXBXZXIXIXZXjX5X5X6X2X2XlXpXdXlX1XiXVXLXKXKXKXKXKXKXKXKXKXKXKXLXLXMXyXbXbXuXbXuXuXuXeXuXrXwXwXwXwXoXoXoXoXoXoX{..X'.[.].].`.F.x.F.A.l.l.f.p.u.u.u.r.e.;.*.$.' ) _ L ..y   $ * & | +.,.b.Z.R.!.&Xn.n.9.0.C.,.y   . + + % % > * > > & > & & % & & + . $ 9 n _ ..=.8.u.1.1.:.1.1.8.d.d.d.d.d.2.d.h.i.g.d.m.d.m.d.d.V.m.w i u u g 9 t & < <.G.m.b.hX0XfXvXDXDXxX7XR.t ; X     . % & ",
"uXyXuXwX+X+X+XoXoX}.'.}.}.|.|.).F.c.x.H._ * $ 9 hXuXwXwXwXeXwX<X<X<XOX;X;XOXOX;XOXQ.Q.H.OXH.H.Q.Q.F.H.H.H.V.V.H.A.A.m.m.h.h.h.h.:.h.:.h.1.:.:.:.:.:.:...=......./ ../ k i x X.N.O.@.,.9.| & X + $ + # $ + $ # # $ $ $ % % % # $ > # & # & # ; & & ; & ; & > & ; > : % > y h N h x x b v m m / m T.} T.| o.X.X.X.X.4.4.O.>.>.3.<.3.Y.2.Y.i.Y.2.Y.eXeX<X<X,X X,XjXsXiX8X3X1X5X=X=XQ.P.L.J.V.V.V.I.K.Q.=X=X,X1X<X3XtX8XkXkX<XOX,XoX].].].G.|.S.S.S.A.l.g.l.p.p.a.e.r.;.;.*.$.' ' ..z r = 4 4 1 1 t 5 9 t a a a d d f d f h c c Z c f c G F F F H Z +.5.+.s ; A E.jXKXKXKXLXLXKXKXKXKXKXKXKXKXKXKXKXKXKXKXKXKXKXKXKXKXKXKXKXKXKXKXKXKXKXKXKXKXKXKXKXKXKXKXKXKXKXKXKXKXKXKXLXKXKXKXKXKXLXbX#XuXrX#XwXwX@X@XoXOXOXOXOXXXXXF.].`.F.F.x.x.v.v.j.p.p...i b f u t B % @ % * c 6.P.-X&X!.I.I.I.P.R.R.P.J.M.K.J.K.K.K.K.C.V.C.J.C.U.C.V.B.V.M.C.B.N.B.U. .% 1 u = %.2.<.<.*. .*.*.;.;.;.;.e.u.a.p.p.l.l.l.l.z.z.F.F.F.|.G.G.|.'.|.{.yXnXnXyXyXhXuXhXuXuXtXwXwXwX@X<X<XOXOXOXOXOXOX].OXQ.H.].H.H.H.z.z.h.h.h.u.u.r.r.:.$.=.4.u i t i t u N N d x d x c c c v v v v G P v G | O.3.#.>.3.7.#.3.3.3.3.#.@.3.3.3.3.3.#.| Y +.Y Y | I F F P D P D D D v c v v 9 j x g l l N r B & B & < r r r < * 5 g d & % 5 9 y B $ r >.P. XU.N.n.m.N.N.b.i.Y.9.b.N.m.V.J.L.P.Q.=X*X;X;X4X4X3XlXaXsXgXjXjXnXzXBXBXZXHXCXaX*X X-X5XlX6X6XlXlXlXlXaX3X4XjXHXKXKXKXKXKXKXKXKXKXKXKXLXPXbXyXbXbXyXyXyXuXuXrXwXwXwXwXoXwX,XoXoXoXoX}.'.'.].].].`.F.F.z.S.l.l.l.f.u.r.;.;.&.&.' $..._ =._ X.>.n.~.:X0X=X&X~.R.I.B.n.6.B.B.9.6.0.B.o.& O o @ + % * > & & & & & % & % $ . r v } =.,.1.1.>.>.:.:.>.8.8.d.u.2.i.2.2.i.d.d.N.m.m.d.m.N.m.m.Q.V.w r N u y 6 . L 8.H.A.f.a.eXcXxXqXfXfXxXzXvXFXVX6XZ.+.6 X X ",
"rXbXuX+XoX+X+XoXoX}.}.}.|.|.).`.x.).x.z.h.= & $ <XtXtXwX<XwX<X<X<X<X<XOXOX;XOXOXQ.OXOXQ.OXQ.OXH.Q.F.Q.H.H.H.D.A.A.A.z.h.h.h.8.h.h.h.8.:.1.,.:.:.:.4...:......._ $. .z N n b G 2.3.@.@.@.9.,.g X + + + $ & $ $ $ $ + % # $ % % & # & # & # & & & # & # & ; & > & ; > % : f c u N b c c n m m m } } T.} |  ...X.X.X.4.O.%.>.<.3.,.2.3.Y.3.Y.N.Y.;.4XeXeX5X1X{.=XkXsXsXlX3X4X<X;X=X%XQ.I.L.J.V.J.I.Q..X=X*X5X5X3X3XtXsXhXlX{.,X<X[.].[.].|.|.`.F.x.l.l.l.f.p.p.a.e.a.:.&.-.*.' _ ....u + > t 4 < t 5 t t y y a a a f d h h f f c c c G G H H Z F Y F J F T +.F f > } lXLXKXKXKXKXLXKXKXKXKXKXKXKXKXKXKXKXKXKXKXKXKXKXKXKXKXKXKXKXKXKXKXKXKXKXKXKXKXKXKXKXKXKXKXKXKXLXKXKXLXKXKXKXLXKXKXMX#XrXrXrXrXwX@X+X+X+X+XOXXXXX`.].`.`.).F.c.x.c.v.k.t.f.=.i c u 2 2 O X & H &X-X5X-X~.R.P.!.P.!.!.{.P.I.Q.!.P.P.K.J.J.I.K.K.J.J.J.J.C.C.C.C.J.m.C.B.Y.R.B.* 2 N $ X.a.a.e.*. .*.%.;.;.;.a.r.p.a.f.a.a.m.l.l.z.A.A.F.F.G.].].{.|.|.<XnXMXbXnXyXbXhXuXtXuXtXuXtXwX<X<X@X<X;XOXOX.XOXQ.].].].H.H.H.z.H.m.h.h.h.u.u.u.:.:.=.=.:.k u u i i t i u d d d g x c c M v v v m G v v | 3.>.3.3.3.>.>.3.#.O.3.>.#.3.O.3.@.#.+.I T.Y Y J F U U G D D Z D F A Z v 9 D v g g z W ( [ _ u - & B r * > > r t * & * 4 t t 6 > B r = - u N.%XP.M.M.N.N.b.b.9.2.b.N.M.V.J.J.P.P..X=X*X;X1X4XeX8XlXlXaXgXjXzXzXMXAXBXlXU.R.&X5X5X>X2X5XlX6X2XlXqXlXfXaX1X4XBXJXKXKXKXKXKXKXKXKXLXLXLXMXrXbXbXbXyXyXyXeXrXrXwXwXwXwXwX@X+X,XoXoX{..X'.'.].].G.F.S.F.x.x.l.f.u.r.e.;.;.<.u.d.m.M.m.V.,.Q.>X>X^.!.Q.K.E.K.I.Z.K.I.Z.B.B.B.N.9.n.B.6.X o o @ % & & & & > & % % # # + 9 ..8.1.>.1.:.:.:.1.2.1.8.:.:.1.<.i.d.g.d.d.i.d.d.d.d.d.g.m.m.b.8.m.w i N u 4 $ U m.h.l.k.F.p.{.vXcXxXfXxXxXxXzXqXfXzXCXCXcX9X~.",
"yXbXuX+X+XwXoXXXXXXX'.}.'.'.).).).(.v.v.x._ X < N jXyX<XwX<XtXwX<XOX<XOX;XOX;XOXOXQ.OXQ.OXH.Q.H.H.Q.H.H.H.H.H.H.H.h.m.z.h.h.8.h.h.8.h.:.8.:.:.:.:.:...4.:._ L _ 4...z 9 W n n :.Y.9.6.#.O.5.5.O.$ . . # * % + & + % % % + + % & % % & + & & % % % ; % % ; ; ; > > @ % r x x x z x z c M m m m / L } } } | o.o...*.4.4.%.>.>.3.<.3.Y.3.Y.Y.Y.Y.Y.{.gX4X4XeX X,X=XhXgX3XlXeX;X1X=X.X!.Q.D.V.V.H.Q.Q.!.%X;X4X:X8XiX3XjXhX<X.X,X<X{.}.'.{.|.|.`.S.x.x.l.l.l.p.l.p.a.r.e.;.-.*.%.$.` ) ) i $ * < > 4 4 6 t t t p p y a d a g d j j h h c Z v D D D D U U U U I Y o.Y Z f s q.VXLXKXKXKXKXKXKXKXKXKXKXKXKXKXKXKXKXKXKXKXKXKXKXKXKXKXKXKXKXKXKXKXKXKXKXKXKXKXKXKXKXKXKXKXPXKXKXLXLXKXKXHXKXLXbXrXyXuXrX@X@X@X+X+XoXoX}.}.{.|.|.|.`.(.(.x.x.z.v.t.s.f.W d 2   X c J.3X6X&X&X=X!.!.!.!.!.!.!.Q.!.!.!.Q.Q.Q.K.Q.Q.K.I.K.K.K.K.J.K.J.C.K.J.J.B.Z.J.C.Z.J.Z.% > * T.S.<.a.` *.;.;.e.e.e.a.p.p.p.l.f.l.x.S.x.v.Q.`.).H.OXH.].OXv.OXbXMXbXhXbXhXyXyXuXuXtXuX$XtX<XwX<X<X<XOX;X;XOXOXOX].H.].H.H.F.z.H.z.h.h.h.h.1.u.:.:.$.=.$.:.N w w 9 i y i u u a g g x d x c c c v v G m G O.3.@.O.3.3.>.@.3.>.O.3.O.@.@.@.#.+.+.| I U U U P U P U D D D D A A h h x x z l b W Q ( ( ! ! W $ & 4 4 & < 4 > > 6 4 < > 4 4 4 5 4 4 t & o g 9.%XI.n.b.N.m.b.b.8.d.N.M.M.V.L.Q.=X=X=X;X;X4X4X3XiXsXiXpXfXBXBXjX X%X%X%X&X&X&X5X-X-X5X>X2X3X2X6X0X0XlXpXpX6XaXFXLXKXKXKXKXLXKXKXKXKXLXbXwXbXbXuXbXrXrXbXrXrXwX@XwX5X+X+X,X+X}.'.OXXX}.].`.`.S.l.p.a.i.l.A.H.G.G.=X%X!.K.J.J.M.n.b.2.,.%X2X&XR.R.~.!.Q.Q.Q.E.Z.Q.0.B.Q.9.9.9.n.J.| X + $ + r $ 2 * $ . . & 9 o.4.:.=.=.:.>.:.>.1.:.1.1.1.1.1.1.1.u.8.d.i.d.d.d.d.i.i.d.m.g.i.m.m.z.Q.B M 9 * r =.S.A.p.S.x.a.A.,X4X4X3X8X9XaXfXfXUXxXxXxXxXzXvXvX",
"uXbXuX@X@X+X+XoXoXXXXX'.'.|.}.|.|.(.c.c.z.*.& % %  XgXwXwXwX<X@X<X<X<XOXOX;XOXOXOXQ.Q.OXOXQ.OXH.OXH.Q.H.H.H.H.H.h.H.m.h.m.h.h.h.h.:.8.:.:.:.8.:.4.:.:._ :.o.:..._ L W 9 W n n _ b.Y.3.3.3.3.@.@.@.g + . . # % + + % % = & % + % % % % @ @ @ % # : % % 2 ; % : : : % & t g x x x x M v M m m L L P / } }  .o.X.X.X.O.4.O.>.>.3.<.6.3.6.Y.Y.Y.Y.Y.U.lXeX5XeX,X,X,XaXaXiXtX8X<X<X*X=X.XQ.Q.V.H.L.Q.!.!.*X:X4X4X3X9XsXkXtX.X.X,XwXoX{.'.'.'.|.`.`.F.x.l.l.l.l.p.p.a.u.e.e.*.&.*.$.$.) ) z * = 4 6 4 4 4 4 t t a a y a a g a j h h h c c c H c D D U D P U U I Y Y Y T Y 7.x p 5XLXLXPXKXKXKXKXKXKXKXKXKXKXKXKXKXKXKXKXKXKXKXKXKXKXKXKXKXKXKXKXKXKXKXKXKXKXKXKXKXKXKXKXKXKXKXKXKXKXPXKXKXAXwX,XwXwXwXrXrX@X@X@X+X+X+X+X}.'.}.|.|.`.(.`.(.v.k.j.v.l.)   t 3.*XiX2X1X=X-X-X&X&X&X&X&X~.&X=X=X~.!.!.~.%X!.!.!.Q.!.Q.Q.Q.K.K.Q.K.K.K.K.J.I.I.I.J.I.I.K.I.O.- * N 2.d.;.*.*.;.;.e.e.a.a.f.p.l.l.l.l.S.x.S.x.H.].].OX].].OXOX].uXMXnXhXbXhXbXbXuXhXuXtXtXtX<XuX<X<X<X$XOXOXOX.XQ.].OXQ.H.].H.F.z.h.m.z.h.h.u.u.1.:.:.=.$..._ Q B B i u r y p u u a g d x h c c c c v v G v o.@.@.O.@.@.>.>.3.O.O.O.>.O.@.#.+.Y Y F G G U U D D Z D D H c D Z c h h x n z b l W Q ) ) ^ ~ Q N w & & < 4 4 & 4 > < 4 4 < 4 4 4 4 5 t 4 & % < P 2.I.P.S.2.2.b.1.b.N.V.V.P.I.V.Q..X=X;X;X1X4X4X2X2XsXjXjXsX;XI.R.!.R.%X~.&X&X=X5X5X>X>X5X>X2XlX6X0XlXlXdXlX6XqXZXKXKXKXKXKXKXKXPXKXKXNXyXbXbXbXbXrXrXlXrXrXwXwXrXwXwXwX+X,X,X+X`.].G.|.].[.].[.<X<X<X<X;X5X;X;X.XP.P.P.J.V.n.N.b.2.,.P.>X&X^.-X~.~.~.~.Q.Q.Z.Q.Q.n.B.Z.Z.Z.V.0.!.c   O < < o + . $ 9 M 4.:.:.....=.:...:.>.:.>.1.>.>.1.1.1.1.8.2.u.1.d.d.i.d.d.m.d.h.d.m.d.N.A.h.Q.w * * x X.V.m.l.l.(.l.l.[.eX1X;X;X;X;X1X:X:X8X8X8X0XqXdXfXjX",
"uXbXuX@X+X+X+XoXXXXXXX'.}.|.).).(.(.x.c.z.g.N - . T.sXyXoXtXoX<X$X<XOX;XOXQ.;XOXQ.OXOXH.Q.H.H.Q.H.Q.H.H.H.H.h.H.H.h.m.h.h.h.h.h.8.h.:.:.:.,.:.:.4.:.:..._ :.L L _ _ 9 z n n n L Y.N.6.,.6.3.O.,.8.3.v < X . + % + + + + $ % $ + % @ & & % @ @ & @ ; % 2 % > % : % > < u N x N x b M M c m m m L m m  .}  .| o.X.X.X.O.4.>.>.3.3.<.3.a.2.Y.Y.Y.Y.Y.4XlXeX<X,X,X{.4XkXaX8X8X4X<X*X=X=XQ.L.J.L.Q.Q.%X&X;X4X3X4X8XiXjXsX;X{.oX<X,X{.}.}.{.|.|.|.S.(.x.S.l.l.p.p.p.a.e.r.;.;.&.&.$.` ) ../ i = * 4 < 4 4 4 t t y p y a a a a a j j h h c c c D D D D D U U U I I Y | 7.H Y 7.C c 2XLXKXKXKXKXKXKXKXKXKXKXKXKXKXKXKXKXKXKXKXKXKXKXKXKXKXKXKXKXKXKXKXKXKXKXKXKXKXKXKXKXKXKXKXKXKXKXKXKXLXCX2X~.^.^.&X-X,X,X,X,X,X+XoX+X}.}.}.}.}.|.|.}.(.).x.S.S.l.a.$.{.4X9XsX3X&X&X:X-X*X&X*X&X*X&X*X&X&X&X&X&X&X~.&X!.~.~.%X!.!.Q.!.!.!.!.!.!.K.Q.Q.K.K.K.K.K.K.R.K.R.c % 0 2.S.$.%.*.e.e.e.a.a.a.a.l.l.f.l.x.z.z.S.`.F.].Q.H.].OXOXH.@XnXmXnXbXbXbXyXhXyXyXuXwXuXuXwX$X8X<X<X<X<XOX.XOXOXQ.].Q.H.H.H.z.H.h.h.h.h.r.u.1.1.:.:.:.$.$.....i $ i 9 4 9 y t u a u g d N x c c c v v v v I 4.4.X.O.@.O.O.O.O.O.O.#.>.O.O.Y I I G F G D D D A D Z Z h v h h c z x l n n W Q W ( '  .^ / ! L z * $ & * 4 < > 4 & 4 4 4 4 4 % > < < 4 p 4 & o r X.U.!.K.b.1.b.8.b.b.N.V.L.Q.I.P.=X&X;X1X4XeXsXaXaX8X=XC.V.C.K.P.P.P.%X&X~.&X&X-X5X-X7X5X>X2X2XlX7X2XpXpXlXlX1XzXPXKXKXKXKXKXKXKXLXPXbXrXbXbXbXbXyXyXlXrXrXrX+X@XoX}.|.}.'.|.,X;X<X8XiXaXkXhXiXlX4X4X1X,X*X%XQ.P.P.U.C.n.b.b.b.b.2.J.>X7X-X^.^.~.~.~.~.Q.Q.E.^.Q.Q.q.B.Z.B.B.C.n.t   X o % > 9 ..@.8.8.:._ n ..4.4.=.>.:.>.:.1.1.:.1.1.1.1.u.u.8.1.d.d.1.d.d.d.d.b.m.m.m.m.m.h.V.w w z ,.h.S.f.p.x.x.g.|.3XlX4X4X4X4X4X1X4X1X;X1X;X1X1X2X8X2X",
"yXbXuX@X@X+X+X+XoXXXoX}.'.].|.).(.F.F.l.v.S.$.= $ & ,XhX<XwX<X<X;X;X<XOX;XOX;XOXOXOXQ.Q.H.OXOXH.H.H.H.H.H.H.h.H.m.H.h.h.h.h.h.h.8.:.h.8.8.:.:.:.:.:.4.:.4._ _ :.4.9 W L n n Q 9 2.N.9.,.9.,.O.6.@.#.,.o.9 . X $ % % + + + + % + $ % @ $ % & @ @ % % % @ ; % ; % @ > t d N N N z x x c v m m L L } } } } | X...X.X.O.%.4.>.>.3.<.3.6.2.Y.Y.a.Y.Y.;.5XgXeX5X<X4X=X,XaXkXlXeX8X4X;X*X&X.XQ.Q.L.Q.Q.=X*X1X4X4X3XsXaXjXeX{.{.<X<X,X}.{.}.'.'.|.|.|.S.x.S.l.l.l.p.p.p.u.r.e.-.;.&.*.` ' ) _ m r % 4 < < 4 4 4 4 t t p y a a a s d j j j j c Z Z c D D D D D U U I I Y H +.| 3.0.H H 2XLXKXLXLXKXKXKXKXKXKXKXKXKXKXKXKXKXKXKXKXKXKXKXKXKXKXKXKXKXKXKXKXKXKXKXKXKXKXKXKXKXLXKXKXLXLXKXKXcX>X!.^.7XR.R.&XR.R.R.R.R.R. X{.{.{.}.}.}.|.|.|._.).F.z.1.) Q m pXpX1X>X4X5X2X2X>X1X:X;X:X;X:X:X-X;X-X*X*X-X*X&X&X&X&X&X&X~.&X~.!.!.!.!.!.!.!.!.!.K.!.!.P.R.R.R.%XK.r = Y.l.%.&.e.<.e.a.a.a.p.f.l.l.l.l.z.S.`.|..XF.H.].].OXOXOXOXyXMXnXnXnXhXbXhXyXhXuXtXuXtX<XtX<X<X$X$XOX;XOXOXOX].OX].].].H.H.H.z.H.z.h.h.h.u.u.:.:.:.=.=.....=.n 0 B w r B t u t u d g d d d c x c c v v v G O.O.+.O.@.O.O.O.O.%.O.O.O.O.O.| F F G F F F F Z D D Z Z j j g b z Q l l W W W ( ~ _ ' ^  .^ ! L L z w = = & 4 < & < & & 4 > 4 6 4 4 & < t t 4 t & o r X.V.P.P.n.8.2.m.V.n.m.J.K.Q..X%X*X;X4X4XiX1XP.b.b.C.I.K.I.K.P.R.R. X X X~.&X-X-X-X5X5X>X7XlXlX5X6XlXpXfX9X3XiXCXKXKXKXKXLXKXKXKXIXbXbXbXrXbXrXrXrX+X+X5X5XwXlXlXgXjXBXBXBXBXjXjXfXaXsXiX3X3X4X5X*X&X!.!.P.P.L.U.M.N.9.9.b.n.2.V.>X6X-X>X;X;X;X~.^.~.^.!.Z.E.!.Q.Z.Z.B.q.6.-XB.i % p | O.>.8.8.1.:..._ _ ..:.4.=.:.>.:.4.>.1.1.1.1.1.1.8.2.u.i.d.i.d.d.d.i.i.m.d.d.m.N.m.Q.h.z L 3.A.g.f.k.x.z.h.A. XlX3X4X4X4X4X4X2X2X3X4X2X2X<X;X;X;X;X",
"yXbXuX+X@X+X+XoXoXXXXX'.}.|.|.).(.F.(.l.v.F.u.r > X <.tXtX<XwX<XOX;X;XOXOXOXQ.OXQ.OXQ.OXOXH.OXH.H.Q.H.H.H.H.H.V.H.h.h.H.h.h.h.h.h.1.8.:.:.:.,.:.:...:...:.L :._ _ n z n W n _ z %.n.n.,.6.Y.3.,.,.@.@.,.@.c & X + % & % % % + + @ $ $ @ + + % @ @ % % % : % @ : @ < y d d N N z x x c n m G m P T.T.} } o.o...X.X.%.4.>.>.>.3.3.3.6.,.2.2.Y.Y.Y.3.{.iXlX5X5XeX,X.X8XkXsX8XtX1X1X*X,X.XQ.L.L..X%X=X:X5X4X3XlXsXhXsX,X{.,XwXeX,X,X{.}.'.'.|.|.F.F.`.S.l.l.l.l.p.p.a.e.;.;.;.-.*.*.&.~ ) ) k % * B < 4 6 4 t 4 t t 9 t a a a d f s j c h c c Z D D D D D U U U U I H 7.+.H T.7.T.p zXKXKXLXKXKXKXKXKXKXKXKXKXKXKXKXKXKXKXKXKXKXKXKXKXKXKXKXKXKXKXKXKXKXKXKXKXKXKXKXLXKXKXKXKXKXKXcX&XK.R.7X-X^.^.R.R.R.E.E.E.E.Z.Z.R.E.U.U.U.S.U.S.[.v.1.I x u k ) =XsX3X1X3X3X4X*X2X6X3X2X2X1X1X;X;X:X:X-X;X:X;X:X*X-X*X-X&X&X-X&X&X&X&X~.&X%X%X~.~.%X!.!.!.!.~.!.K.6X>.0  .d.;.&.e.e.a.a.a.p.g.g.l.l.A.x.S.S.|.S.].`..X`.].OXOXH.uXMXMXhXnXbXnXbXbXyXuXhXuXuXwXuXuXwX8X$X<X<XOX;XOX.X.X].].H.H.).F.z.h.z.h.h.h.h.u.u.1.:.:.=.$.$.......9 = 4 9 B t t t y u d d g h x d c c c c c G o.O.X.O.O.o.O.O.O.O.O.O.| | | U F G D D D F D Z j Z v j h c x b l l Q W W ~ ~ W Q ' .. .) ^ ~ n L _ n w * = & & & < & < & 4 & 4 4 4 4 < & & & r r < + # d @.J.Q.V.8.8.m.V.V.J.Q.Q..X%X=X,X1X4X,.2.9.n.C.C.C.J.I.I.K.P.R. X X~.~.&X&X-X-X-X5X-X-X5X6X6X6XlX2XlXdXpX2X2XBXPXKXKXKXKXKXKXLXnXgXbXrXyXlXrXbXnXnXBXIXIXIXZXAXVXCXAXjXjXfXaXpXsX9X3X4X4X5X;X*X&X=X.XP.L.J.U.n.N.b.9.b.V.Y.n.5X0X7X>X>X>X;X^.^.&X~.^.~.E.!.E.Z.!.!.!.P.I.I.| v 2.2.Y.:.>.1.:.[ ..:._ ..:.=.=.:.4.>.1.1.<.>.1.1.8.u.1.u.2.d.2.i.d.d.i.i.m.m.m.d.m.m.m.D.m.%.i.l.l.p.p.z.F.v.f.Q.8X8X;X1X4X1X4X4X4X1X:X4X4X4X2X8X<X1X;X",
"yXbXyX@X@X@X+X+XoXXXXX'.}.}.|.|.).(.c.S.v.x.l.! = X i %XyX<XwX<X<XOX;X;X;XOXOXQ.OXQ.OXH.Q.Q.H.Q.H.H.H.H.H.h.H.h.m.m.m.h.h.h.h.:.1.h.1.8.:.:.:.:.4.:...:._ :.L .._ n z n W n _ n ! b.U.Y.Y.0.Y.6.6.6.@.O.3.,.P r X X o + % % $ + $ $ % % % % % % % @ @ % @ @ : : % 4 u g u N N z c b b c m m m T./ T.} }  .o.o.X.X.X.4.4.>.<.<.<.<.3.a.6.Y.Y.Y.N.a.U.lXtXeXeX<X<X.X1XsXsXiXiX4X4X;X=X%XQ.P.P.%X*X*X5X4X4XlXsXkXfX<X X X,X5XwXoXoXoX'.'.'.|.G.|.F.(.l.l.l.l.l.a.p.a.a.e.e.-.*.&.$.$.~ ) ..Q 0 * B & < * 4 6 r 7 t t t t 9 a d a j g j j c j c c D h P A D D U U U 3.F J +.T T #.Y | zXKXKXKXKXKXKXKXKXKXKXKXKXKXKXKXKXKXKXKXKXKXKXKXKXKXKXKXKXKXKXKXKXKXKXKXKXKXKXLXLXKXKXKXKXjXR.~.&X-X7X~.~.&XR.~.R.~.R.I.E.Z.Z.Z.B.B.B.n.B.N.N.b.U h s a M  .%.D.sXdX9X2X1X8X8X2X2X2X2X2X2X2X2X1X2X1X2X2X:X1X:X1X>X:X:X:X;X*X:X:X&X;X-X&X-X&X&X&X&X&X&X%X%X%X%X!.*X*XT.t l.&.;.e.a.a.a.p.a.l.g.A.A.x.S.F.|.G.|.).OXOX.XOXOXH.OXmXmXMXbXnXbXbXhXbXhXuXhXuXtXtXuX<X<X<X<X<XOXOXOXOXOX]..XOXOXH.H.F.H.H.z.H.h.r.h.u.1.:.1.:.$.$....._ =.Q = = r B t r t t y y u a g d g x x c b c c | O.+.X.O.O.O.X.X.| *.O.| | T.F G F D D D D Z h v v 9 x x x z W W l W W ~ ( ( ( ( ` -.` ) ` ! W W ( n n i 0 $ & & & & & < & < B % % < 4 6 4 4 % < y p & & 4 9 1.V.P.m.1.b.I.P.I.K.Q.!.*X;X4XlXm.,.,.M.C.b.N.J.J.J.J.K.P.R.R. X XR.~.~.&X-X-X5X5X-X5X6X6X3X>X6X:X0XaX8X4XpXZXKXLXKXPXDXUX<XeXjXAXAXAXAXIXPXPXPXZXAXZXAXBXmXjXjXjXhXhXkXsXsXiX3X4X4X<X*X%X.XQ.L.K.L.C.D.n.n.b.b.N.U.n.Y.&XpX6X6X>X2X>X>X>X>X^.^.^.^.~.!.!.!.Q.Q.M.%.1.i r d.Y.4.8.8.1.=.4._ _ _ ..:.=.=.:.:.:.:.<.<.1.1.1.1.8.1.8.u.u.d.d.i.d.d.d.h.d.d.N.S.D.S. .%.u.f.u.f.f.x.v.H.h.m.<XsX2X;X2X2X8X8X4X4X4X4X1X1X4X4X1X1X8X8X",
"uXbXuX@X+X+X+XoXXXXXOX}.}.|.}._.F.x.c.(.v.j.A.u.B $ X 1.tXtXoX<X<XOXOXOXOX;X;XOXOXOXOXH.H.OXOXH.Q.H.H.H.H.h.H.h.H.h.h.h.h.h.h.h.1.h.:.:.:.@.:.4.:...:...:.L _ _ _ z z W Q Q n _ m <.B.n.9.b.b.9.3.9.,.O.O.6.,.@.t & O . o % % % % % % $ % % % @ @ @ % % @ % @ % & 5 N u t N N z x x b c m G G ! G } } }  .o...X.X.O.4.O.>.>.3.3.,.,.2.2.2.Y.d.N.N.a.5XlXeXeX5X5X*X!.8XhXsXtXeX4X<X;X=X.XQ..X=X*X5X5X4XeXlXgXaXsX X,X,XwXwXeX,X}.{.}.{.'.].].`.F.S.S.l.l.l.k.p.p.a.r.e.;.;.&.*.$.` ` ` ! / c 0 % < < < 4 4 r 5 9 t t 5 p a a a g g g j h c c Z Z v Z Z D D D U P T.J Y +.7.J Y #.7 6.zXKXKXKXKXKXKXKXKXKXKXKXKXKXKXKXKXKXKXKXKXKXKXKXKXKXKXKXKXKXKXKXKXKXKXKXKXKXKXKXLXKXJXfX~.R.-X7X-X^. X&X~.P.R.P.R.K.I.I.B.Z.B.B.B.B.N.q.0.0.9.c V Z g  .;.&.m.iXjXxXcXfXpXsX8X8X9X9X8X6X2X2X2X2X2X2X2X2X2X2X4X2X2X1X>X1X1X>X:X>X:X;X-X*X-X*X&X*X&X*X-X&X&X&X-XR.3XI.! i.%.a.a.a.p.a.g.l.l.S.x.A.S.`.F.S.|.|.F.OX'..XOXOXOXuXMXMXnXnXnXbXbXhXbXhXuXuXuXtXuX<XwXwX<X<X<XOXOX;XOX.X.X].H.H.H.].F.H.z.h.h.v.h.h.h.u.1.:.=.:.$.=._ / _ } y * B B r r t t y u y u d g g d c d c c d T.O.O.o.X.o.o.O.O.| O.| | G G D D D Z D Z j v j g h x z z l l W ~ W ~ ~ ~ ( ( ( ( [ &.' _ ` ) ( ( W ( W n i B * & * & & & > & t < & & < & < 4 t * & & 4 4 & + $ L n.J.V.V.m.N.V.I.Q.%X;X4XlXiXjX=X2.3.N.C.V.n.U.C.C.J.I.R.K.R.R. X~.=X-X~.&X-X-X-X-X5X>X6XlXlXiX3XlXaXsX3XlXzXvXdX6X^.R.~.-XpXCXGXHXSXHXHXSXIXZXAXAXAXBXBXnXnXjXhXaXaXsXtX8X8X3X4X;X,X&X%XQ.P.I.J.C.V.M.n.b.b.N.U.U.6.R.pX0X7X7X2X>X2X>X>X>X&X~.^.;X:X^.Q.8.=.$.$.=.*   ! d.2.8.2.=..._ :.[ _ ..4.:.=.:.>.:.>.:.1.1.1.1.1.1.1.u.2.u.8.d.i.d.d.b.i.i.m.S.D.d.$.l Q u.f.p.f.l.S.h.h.H..X8X8X1X8X;X1X;X2X1X1X:X:X1X2X1X1X;X1X;X4X",
"yXbXyX@X@XwX+X+X+XoX'.}.}.|.|.|.).).k.|.c.t.z.D.u r X N wXtX.XwX;X<X;X;XOXOXQ.OXQ.OXQ.Q.OXH.H.H.H.H.H.H.H.H.V.H.h.V.h.h.h.h.h.1.8.:.8.:.8.:.:.:.:.:...:.........z z z n _ n n _ n %.M.J.n.9.Y.Y.Y.6.9.,.,.3.@.@.9.P * o o $ $ + @ $ % $ + + @ % @ % @ o % ; % % * t u u u N N x x b c c G ! ! G G / } } o.o.X.X.X.4.4.4.>.>.<.3.3.2.2.2.2.i.N.N.N.;.,XgXeX4X,X<X*XQ.8XkXsXtX8X8X1X;X&X=XQ.%X=X;X:X4X3XlXaXaXsXeX X X,X5X5XwXeX}.{.oX'.|.[.|.|.F.`.(.S.l.l.l.l.p.a.a.e.e.;.&.&.&.` &.) ~ *./ t - & & < 4 4 4 6 4 t p p a 9 a a a a j g h j Z Z c v D D Z U D U D J H Y O.J +.+.+.5.1 n.JXKXLXKXKXKXKXKXKXKXKXKXKXKXKXKXKXKXKXKXKXKXKXKXKXKXKXKXKXKXKXKXKXKXKXKXKXKXKXKXKXaXI.R.6X-XR.R.R.^. XR. XE.R.Z.I.U.Z.B.U.U.M.B.n.N.0.0.0.n.H D c i ) p.k.w z 4 A q.>X6XqXxXjXjXkXpX9X6X2X3X6X3X3X2X3X2X2X2X2X2X2X2X2X1X2X1X1X1X1X4X:X:X-X:X;X:X-X*X-X&X-X&X*X;XiXU.<.$.g.a.g.a.l.a.g.l.l.S.x.x.S.`.|.|.[.|.OX'.'.OX].<XMXMXnXnXnXhXbXbXbXyXyXuXyXtXuX<XuXwX<X<X$X<X<XOXOX.X.XOXOXH.OXH.H.z.z.H.h.h.h.h.h.1.u.u.:.:.:.$..._ _ L L M 4 $ 4 r 4 r t t y y a u d x d d x h x d T.o.| o.|  .| | X.X.| | | T.H D D D Z D Z h g 9 g g x z W W W Q Q Q Q ~ ! ( _ ( _ &.-.' ` ` ` [ ( Q l W n z u & = & & & & 6 # # & < > & < & < & < 6 4 6 < 6 4 B - * } n.J.V.V.L.P..X;X<X1X4X4X3XaX9XJ.>.2.n.V.B.U.C.C.I.I.I.R.R.R.R. X X~.~.&X&X5X>X>X>X5X7X5X2XiXlXlXiXpXlX0X^.E.^.7X/.7X/.R. XjXZXSXHXFXZXSXZXAXBXBXBXnXzXjXjXhXkXsXtX8X8X4X1X5X;X&X%X!.P.K.J.J.D.M.m.N.N.n.n.U.U.Y.R.pXpX7X0X6X6X7X>X/.>X;X6X2X;XQ.b.=.$.$...1.=.k   X X.I.1.:.:.....:._ _ ..:.4.=.>.:.@.:.1.>.:.1.1.1.8.u.8.u.2.i.i.d.d.d.m.m.d.m.D.N.n - f.) p.f.f.l.k.l.z.r.Q.tX8X<X1X1X2X2X2X2X4X4X4X1X4X1X1X1X1X4X;X8X",
"bXbXyX@X@X@X+X+XoX+X}.}.{.}.}.|.).`.x.x.(.l.k.p.l.. 0 X >.UX.X<X<XOX<XOXOX;XOXOXQ.OXQ.OXH.H.Q.OXH.H.H.H.H.H.h.H.V.h.H.h.h.h.1.h.h.h.:.:.:.:.:.:.:.:.4...:._ 4.L z W n n Q _ Q _ _ n h.Q.Y.B.n.0.9.9.9.6.6.3.3.@.@.6.@.c O   o < $ o o o + % * % % % @ % % @ % % y u u u N N N g x M M M m m T.m } / } } | } o.o.%.X.4.@.4.>.3.3.,.,.,.2.Y.Y.9.9.Y.Y.M.sXgX,XeX,X<X*X.XtXjXtXsX8X4X<X;X=X=X=X*X;X4X4X8XiXaXjXtX|.,X,X,XwXeXwX+X{.+X}.'.'.'.|.|.|.S.x.S.x.l.l.k.p.p.a.t.e.e.;.*.*.*.*.^ $.^ ! l i $ & 4 < & > 4 r 4 5 r p t y 9 p d 9 d j g h j c j Z D v Z D U U Y G I I Y Y Y Y +.7.7 Y.LXKXLXKXKXKXKXKXKXKXKXLXKXKXKXKXKXKXKXKXKXKXKXKXKXKXKXKXKXKXKXKXKXKXKXKXJXKXJX2XR.>X>X~.&X~.~.~.R.R.R.P.I.K.Z.I.Z.Z.B.B.n.n.N.n.N.6.Y.6.0.Z f z Q a.<.c f 8 7 3 3 ; ; 3 R 5.Z.-X0XfXcXcXfXdXpXlX8X3X8X3X3X6X8X9X9X9X6X2X3X3X2X1X>X:X:X4X;X1X1X2X1X5X;X1X5X:X&X6X X/ ;.m.g.a.p.g.f.A.|.m.l.U.|.{.|.|.}.{.|.oX{.+X}.}.nXIXnXMXnXyXhXnXhXbXhXuXuXuXuXuXuXwXtX$X<X$X<X<XOXOXOX.XOXH.].H.).H.H.z.F.m.h.h.u.h.u.1.:.:.:.:...' ....b n ..i $ i w r 4 r r t i u t u u u g x d d c v P o.X.o.| o.|  .o.| P U U D v j Z v j c c h x x b n Q W W W Q ~ ~ ~ ( ( ` ( [ { w.-.[ $._ _ ( ( ( Q W W l n i w $ $ & * & & & & > * & < * < 4 & 4 & & 4 4 4 , 4 & $ & m b.Q.K.P.!.~.=X=X;X1X4X1XiXkX;Xb.3.9.N.N.B.Z.U.B.U.R.I.R. XR. X X~. X=X-X5X5X-X5X>X2X5X7X6X6XlXlX0XqX>X-X/.-X^.-X/.^.^.E.xXPXPXSXIXAXAXAXAXAXmXcXmXgXhXfXaXsXiXlX4X4X<X5X;X=X=X.XP.L.P.G.V.N.N.n.n.V.D.M.D.J.C.>XxX0X0X7X7X7XqXqX8X8XQ.H.r.:.:.:.:.' :...1.- - - . &.:.r.:.:.[ [ _ _ :.#.@.:.:.:.:.,.1.1.1.1.,.1.8.1.u.1.8.h.h.8.u.d.S.<.Y.I.<.$ w a.;.' r.z.p.f.z.l.u.G.<X3X<X8X2X2X;X1X1X1X;X2X;X8X;X8X;X4X<X2X;X1X",
"yXbXuX@X@X@X+X+X+XoXoX}.}.}.|.|.`.).).x.c.l.k.p.A.w 2 . x 5XtXoXOX<XOX;XQ.OXOXQ.OXQ.OXQ.OXQ.H.H.Q.H.H.H.H.h.H.h.h.h.h.h.h.h.h.1.1.1.1.8.,.:.:.@.:.o...:.L :._ _ z 9 W n n Q _ _ _ L 8.H.n.U.M.N.N.0.9.Y.6.,.,.3.@.,.,.@.T.r o   o % % $ o % % o + + @ % & @ % > y i i u N N N k x b M M m m m } / P P } ..} o...X.X.X.=.>.>.<.>.<.,.,.2.2.0.9.Y.N.Y.N.eXgX5X5XeX<X,X.X4XhXaX3XlX4X4X;X=X=X=X,X5X4X2X3XtXgXgXwX X,X5X,X5XeXwX'.+X}.,X}.{.'.'.|.|.|.F.x.l.S.l.l.k.p.p.a.e.e.&.&.&.*.*.$.)  .^ W b * & & & 6 > < 6 4 r t r t t a p d a d d j j c c h h h D D D D D G G G Y I Y Y Y Y 7.+.h 0.GXKXJXKXKXKXKXKXKXKXKXKXKXKXKXKXKXKXKXKXKXKXKXKXKXKXKXKXLXKXKXKXLXKXKXKXDX2X~.^.&X&X~.~.~.~.!.R.R.K.E.K.K.I.Z.B.B.B.B.n.q.0.0.0.Y.Y.6.0.H r b %.<.m c C V V s s s 8 8 6 ; # ; 6 Z +.0.0XdXfXzXzXjXaX0X9X8X6X2X2X2X2X8X2X3X6X8X8X6X3X3X4X4X7X2X2X2X4X5X>X-X-XlXG.z *.g.p.a.l.S.g.l.l.U.S.|.|.|.{.}.{.{.oXOX'.'.{.bXNXnXnXMXMXMXmXbXhXyXyXhXuXtXtXtXwXtX8X<X<X;X<XOX;XOXL.OXH.OXOXH.H.H.H.H.z.m.h.h.d.u.u.r.1.:.:.:.$...) .. .! n x 0 X 4 B r i i r 4 B t u g g N g d x g c P P } | }  . .} | o.P U v Z D A v v j j g x x l l l n W ~ W ( ~ ( ( ( ` ( ] [ w.:.[ $.[ [ $._ _ ( n Q W l l z i 0 = $ & & & & & & < > * & & & 4 * 4 & # & 4 5 4 & $ * x >.V.P.I.Q.Q.&X=X.X;X;X4X2X8X9X2XQ.,.b.M.n.N.B.K.K.N.U.R.R.R.R. X X~.&X&X~.5X5X-X-X5X2X5XlX6X6XlX0XqX-X^.-X-X-X^.-X^.5XE.R.xXGXFXVXIXZXAXBXjXBXmXjXUXhXkXaXsXiXlXeX4X1X;X*X=X%XP.P.L.J.V.m.N.N.m.M.D.D.D.I.J.B.-XfXqXqXqXfXqX0X;XQ.H.h.f.1.1.h.h.:.:.$.=.:.. + . X &.:.:.:.[ :._ _ _ :.:.:.@.@.4.,.:.>.1.1.1.8.1.1.1.8.u.1.8.8.8.d.m.i.I.U.T.% t ^ e.*.$.r.l.l.l.z.l.A..X4X3X4X2X2X1X2X1X4X1X8X;X4X;X4X;X;X2X8X;X1X1X",
"bXnXuX@X@X@X@X+X+XoX}.}.}.}.}.|.`.`.x.x.c.c.v.f.A.*.= $ $ 3.hX,XOX;X;XOXOX;XOXQ.OXH.H.Q.OXH.H.Q.H.H.H.H.H.H.H.h.H.h.h.h.h.h.1.8.:.8.1.:.:.:.:.:.:...:._ _ _ _ _ z z n n _ n _ _ _ _ :.Q.P.B.B.n.n.n.b.0.Y.9.6.6.,.3.@.3.,.+.u % X o % % + o @ $ @ @ @ $ # % & r y y u u N N N N x x M M m m ! G } m } } | o...o.X.X.4.4.>.>.<.3.<.,.2.2.2.Y.9.b.N.Y.Y.5XhXlX<X4X<X5X=X=XaXhX3XiX8X4X1X*X=X*X5X4X4X9X8XsXnXlX X,X,X5X5XwXwX<X{.+X+X{.oX'.'.'.|.|.`.`.F.S.l.l.k.l.p.p.a.r.<.;.;.&.*.] ) ^ ) ) ~ ! i * & & 4 4 < < 4 t 4 t 7 9 t a y a d d f g h h v Z c D D D D D G F G F I G Y Y +.J 7.| 1 I.JXKXLXLXKXKXKXKXKXKXKXKXKXKXKXKXKXKXKXKXKXKXKXKXKXKXKXKXKXKXLXKXKXKXDX2XK.~.:X~.~.-X~.~.~.R.R.R.R.K.I.Z.U.C.B.B.n.n.n.n.0.b.Y.6.Y.6.6.f u  .3.T.3 C f V V s V j K V A A Z V 8 6 , ; @ : 8 F 0.&XqXzXzXUXjXjXfXpX9X8XiX9XiX8X2X3X3XiX0X9X7X>X2X2X2X3X6X-X2XlXm.i ! a.l.l.l.S.`.l.l.`.|.|.|.|.|.{.}.oX{.|.,XwX,XMXIXMXMXbXnXnXuXnXMXyXhXuXtXuXuXtXwXwX<X<X<X$XOX;XOXOXOX.X].OXH.].H.H.z.H.z.h.m.h.h.u.u.1.:.:.:.:.......~  .! n 1.2.M $ & * B r t y u r t u u u N x c g c v P } } } } P | U P P v c j j h j 9 h c z z l l W W W W Q W ( ( ( ` ] ] ` [ ' r.:.-.[ [ ...._ _ Q _ Q W l n n z i w $ $ $ * < & & & & * & & & & & & 4 4 & & + + 4 n L ..:.m.L.P.V.P..X~.Q.;X&X1X:X;X3XpX8X%X3.,.N.U.n.N.B.R.Z.Z.I.I.R. XR.R. X~.~.&X-X-X-X5X>X5X5X6X6XlX0X6X-X-X^.^./.^.R./.E.^.^.U.lXSXPXBXBXAXAXBXmXzXUXjXfXaXaXiXtX8X2X4X5X;X=X=X%XQ.L.I.D.V.M.m.n.n.V.C.M.D.K.K.C.-XzXxXUXkX8X;XQ.m.1.:.:.r.f.r.r.:.:.:...:...  - . . -.:.:.:.:.[ [ _ _ 4.4.:.:.:.,.,.:.1.1.1.1.1.1.8.1.1.8.d.d.d.d.d.h.m.N. .o -  .r.` &.&.r.k.A.l.l.g..X<X<X3X1X2X2X;X1X1X1X1X;X4X;X4X;X8X1X1X1X2X;X8X",
"bXbXyX@X@XwX+X+X+XwX}.oX}.}.|.|.|.).x.x.x.v.j.f.a.l.w 0 X i tX<X;XOXOX;XOXOXQ.OXQ.OXQ.OXH.OXH.H.H.Q.H.H.H.h.V.H.h.h.V.h.h.h.h.h.h.1.h.1.:.:.4.:.:.:...4.:._ _ W 9 n W n n _ _ _ _ ' n 8. XU.B.B.B.n.n.b.Y.Y.6.6.6.3.O.O.3.@.O.I < . X $ % % o * $ % % $ + $ & r i i i N N g z N x M M M m m m L } } T.}  . .o.o.X.O.4.4.>.>.>.3.,.,.<.6.6.Y.9.9.N.N.i. XgXgX5XeX<X<X;X{.3XjXtXtX8X4X1X;X*X,X4X4X3X8XiXhXgX,X{.,X5X,XeXeXeXwXoXoXoXoXoX}.'.|.{.|.`.`.x.x.(.l.l.k.p.p.a.r.e.e.&.&.*.*.$. .$. ./ ~ n r - & 4 4 & & 4 4 4 4 t t p 9 p y a d f g g h j j h Z c Z D D F G U U J | Y Y +.T.I 5.+.p K.KXKXLXKXKXKXKXKXKXKXKXKXKXKXKXKXKXKXKXKXKXKXKXKXKXKXKXKXLXLXKXLXCX~.!.-X>X&X~.&X~.~.!.R.R.K.E.Z.Z.Z.Z.Z.B.B.n.B.n.0.n.b.6.6.6.6.6.,.d H >.H a 8 V 8 8 8 a s s s 8 3 9 8 V V V V j V V 8 3 ; , , 1 5.n.Q.^.pXfXcXcXdXaXpXiXiX8X3X9X2X2X6X0XpX0X6X2X2X>XpXeXa.u x } A.S.l.p.S.`.`.|.U.|.{.|.{.{.{.,XoXoXwX,Xu.|.NXIXMXbXMXMXnXbXbXbXhXyXuXtXuXwXuX<XuX$X<X<X<XOX;XOX.XOX.X].L.H.H.H.H.z.H.z.h.h.h.u.u.1.:.:.$.:...' %.Q m ! n X.2.X.N y B * & B r y i i i y t t a x g g c P o.P P } } P P D P c c f j 9 c g x z l b W W W W ~ ~ ~ ~ ( ( ( ( ` ` ` ] -.r.r.[ :.:.$.$.[ ( ( _ ( n ( W l n n z r = $ $ & & & & : % > : & & & * < & & = w u L :.1.:.=.=.H.Q.J.V.Q.Q.Q.&XQ.;X;X;X;X4XiXkX2XC.>.Y.n.n.N.U.U.U.I.R.I.I.R.R.~. X X&X X-X-X5X5X>X>X6X5X7X6X6X^.^.^.^.R.^.R.R.^.R.^.E.U.7XVXHXCXnXBXAXnXjXcXgXgXaXsXiX8X4X4X1X;X*X=X=XQ.P.I.J.M.m.M.M.m.V.D.C.J.L.L.K.J.-XfXjX8X=XQ.h.h.h.h.H.v.h.f.f.:.:.:.:.' 1.L   = X . :.:.:.:._ 4._ _ _ :.:.@.:.@.:.:.,.:.,.>.1.1.1.8.1.2.d.b.i.d.h.h.m.2.y X % T.e.-.` &.e.u.f.A.f.g.A.<X<X8X4X1X2X1X1X1X1X1X4X2X4X4X;X1X;X1X1X1X1X1X;X",
"uXbXuX@X@XrX+X+XoX+XXX}.}.}.}.|.).`.x.x.x.z.v.j.w.].b B o $ N.gX<XOXOX;XOXQ.Q.OXOXQ.H.OXH.H.OXH.OXH.H.H.V.H.H.h.V.h.h.h.h.h.h.:.:.h.:.1.:.:.:.4.4...:.:.L _ _ z W W z _ n _ _ _ ....n d.Q.Q.Z.Z.B.B.n.n.n.Y.6.Y.6.6.3.3.3.3.3.O.| t . X @ % % + $ % & $ # + & y y i u u N N N x x M M c m m L T.! P T.}  .| ..o.X.X.4.4.>.>.<.>.a.3.,.6.2.Y.9.b.Y.N.Y.G.sXgX<XeX3X,X4X.X*XkXkXiX8XeX4X;X;X5X<XlX8X8XkXjXeX{. X<X5XwX,XwXjXyX'.wXoX{.}.{.}.}.'.|.|.S.x.F.S.l.l.l.l.p.p.t.e.;.;.&.-.*.` ` ` ^ ! ~ / u = $ & < 4 < 4 4 4 4 4 t t t u y p g g d j j h h h Z Z D Z D H D D P F Y G Y J 5.I F 6.U H Z.LXKXLXKXKXLXKXKXKXKXKXKXKXKXKXKXKXKXKXKXKXKXKXKXKXKXJXKXKXKXBX&X~.&X>X&X!.~.-XZ.R.R.R.R.E.I.Z.C.B.U.B.U.B.n.n.n.Y.0.0.Y.9.5.,.5.3.c G I p 8 s 8 8 8 8 9 s s s 8 V V j s 8 V V Z 8 s C Z A j s 8 O O ; 3 j +.0.q.0XqXjXzXzXcXcXfXaXsX9X6X3X3XlX9X6X3XhX=X*.! h x <.S.S.l.S.|.|.|.|.|.{.{.{.{.}.}.OX<X<Xg.k i g.hXAXNXhXnXMXbXuXbXbXhXuXuXtXwXwXtX8X$X<X<X$X;XOXOXOX'.].Q.].H.F.H.H.z.z.h.h.h.d.u.u.r.:.=.:.$.$.....!  . .L L L L ..} v 9 r * & = i t u u u u u f g g g H P P } P P P L v c c h c g g x x l l W W W ^ ^ ^ ^ ! ~ ( ( _ ] _ _ ..' ' $.r.r.:.$.-.[ :._ ' _ _ ( W W ( l l l n z w = - $ & @ & % % > > $ 4 B * . $ w 9 ....:.:.:.:.=...8.L.Q.L.J.J.Q.Q.Q.Q.;X;X1X;X5X3XfX3X%Xb.,.N.V.n.U.B.Z.U.I.R.I.R. XR. X~.&X X=X-X-X-X5X-X5X7X6X6X^. X^.^.R.^.R.^. X^.R.E. Xq.U.ZXHXBXjXBXUXjXjXjXkXsXsXiX3X3X1X1X;X*X%X%XQ.P.J.C.m.M.M.M.D.C.J.L.L.P.I.L.L.{.5X;Xz.v.h.H.F.H.z.h.h.h.f.:.r.:.:.:.' 1.z   = X q r.:.:.[ :.:.[ _ _ 4.4.:.:.:.,.:.:.,.1.1.1.1.1.8.1.8.2.1.1.b.S.b.@.t X . / u.$.( r.;.-.r.l.A.p.m..X8X4X4X4X1X1X1X1X1X2X4X<X2X1X4X2X1X1X1X1X1X1X8X;X",
"bXbXyX@X@X@X@X+X+XXXoXXXoX}.}.|.|.).F.x.x.c.v.f.r.z.&.B 2 o N eX<X;X;XOX;XOXOXQ.Q.OXQ.OXH.OXH.H.H.H.H.H.H.V.h.H.H.h.h.h.h.8.h.h.1.1.8.:.:.:.:.4.:.......L :._ z z n n n n _ _ _ ....L 1.J.Q.I.Z.U.Z.B.B.n.q.N.6.Y.6.6.,.,.3.3.@.3.>.c % X . + % $ + $ $ $ $ 4 r y y u u N N N N x x M n m m m T.T.} } } |  .o...X.X.4.4.>.>.3.<.3.3.,.a.6.Y.Y.Y.N.N.Y.Y.4XgXeXeX4X,X4X,X{.lXhXlXlX3X4X;X;X<X4X8XlXsXhXkX=X[.,XwX5XyX,X5XIXAX'.oX,X+XoXoXoX{.'.'.|.|.`.x.x.x.l.l.a.p.p.p.e.;.;.;.-.&. .`  ./ ~ Q ) l i = = & & 6 6 > 4 4 4 t 5 t t y p a a a d j j j h h h D D Z H H D F F G Y Y F +.| J T #.U a -XKXLXLXKXKXKXKXKXKXKXKXKXKXKXKXKXKXKXKXKXKXKXKXKXJXKXKXLXjX&XR.>X~.~.~.~.!.~.~.R.R.R.Z.I.Z.C.Z.B.B.B.q.n.0.N.0.9.6.2.6.,.,.,.3.>.P c t 9 A 7 8 K V V s a f 8 9 3 8 s V j s s s H C f 8 8 s V A S S V 8 6 6 ; , # , Z #.B.^.6XqXcXUXzXjXkXaXpXiXpXpXjXG.! 4.h f M Y.|.U.S.|.|.'.{.|.|.{.'.{.,X,X,X.Xi.! } v g  .tXMXMXbXbXnXhXuXyXuXuXuXuXtXwXwX<X<XwXOX;XOXOXOXOXQ..X].Q.F.H.H.z.H.z.m.h.h.u.u.1.1.<.;.:.$..._ ! %.%. ...X.P ..X.X.....L x y B = 2 r y u d f i g N g n } L G L P L G v c h h c x b l l l Q W W W ~ W ^ ~ ^ ` ) _ ( _ _ _ ......$.r.r.:.:.-.:.' [ _ [ _ ( ( ( W W l z z z i w & $ $ + & % * % * & $ + $ w z L .._ ...._ _ :.:.u.=.V..XQ.Q.J.I.C.Q.Q.=X;X*X;X;X1X*XsXfX2XC.3.2.V.n.n.U.U.Z.U.R.U.U.R.R. X X&X X&X~.5X-X-X>X5X5X6X^.^.^.^.^.E.R.E.E.^.R.E.E. XE.E.dXZXVXjXUXjXgXhXaXsXlX8X3X4X1X;X*X=X%X.XP.L.J.U.n.n.M.V.C.U.L.I.I.P.P.=X.XP.[.A.F.F.].H.F.z.h.h.h.t.r.r.r.r.w.:.$.u.u   0   0 h.:.:.:.[ ....[ _ :.4.:.@.@.:.,.:.:.:.,.1.1.8.1.8.i.2.2.m.V.b.m <   = n -.*.[ $.;.r.-.p.z.m.g.|.5X4X4X1X1X1X1X1X2X1X1X1X4X1X1X4X;X;X1X1X4X1X1X;X1X",
"bXbXyX@X@X@X@X+X+X+X}.oX}.}.}.|.|.).).x.x.x.k.j.j.t.h.x = @ o U.8X<XOX;XOXOXQ.OXOXQ.H.H.Q.H.H.Q.H.H.H.H.h.h.V.h.h.H.h.h.h.h.h.:.8.:.1.1.:.:.:.:.:.4..._ :...L z z z _ _ _ _ _ _ _ ......b.!.K.R.Z.I.B.C.B.n.n.n.Y.6.Y.6.,.,.,.5.3.6.6.T.B o o % % $ + $ $ & & r i u u u k N N N x x n c m m ! m L / } }  .| } o.X.X.X.4.>.>.>.3.a.,.6.,.Y.Y.Y.Y.Y.N.M.2. XgXlXeX4X<X5X,X%X<XkXaXlX8X4X1X1X4X3XlXlXhXkX5X{.=X5X<XwXeX,XbXKXPXXXoX+X+X{.{.}.'.'.'.|.|.S.F.F.x.x.l.l.p.p.a.r.;.;.-.*.&.*.`  .` ^ ^ ! Q l w $ & & > < > < 6 4 5 r t t p p y a g d j j j h h v j v Z H H D D G F F G | H Y 5.Y Y +.U g pXLXKXLXKXKXKXKXKXKXKXKXKXKXKXKXKXKXKXKXKXKXKXLXKXKXJXxX^.R.-X~.~.~.&X~.!.K.~.R.R.Z.Z.Z.C.U.B.B.B.n.n.n.N.0.Y.Y.6.6.,.,.3.3.#.@.Z 7 5 9 V 8 8 8 8 8 s 8 K 8 8 A A V 8 8 s V A 8 s V C A V s s 8 8 V A A A A V A V 7 , ; ; 3 6 R 5.~.6XfXzXcXzXdXfXhXf._ a.c h N *.N.[.|.S.|.'.}.{.{.}.}.,XoX,XwXb.v f +.#.G N 9 ].MXMXbXbXhXhXyXhXhXuXuXwXuX<XuX$X<X<XOX;XOX;XQ.XXOX'.].).H.H.z.H.z.m.h.h.f.1.u.;.:.=.;.*...$.) %.4./ X.....o.L o.X.4.@.X.| } t r B B t u N u N y y v G L G v m G c j g g j x z l l W Q W ( ~ Q ( ~ ~ ) ^ ) ) _ / / } ..........:.u.:.r.w.[ -.[ ' [ [ ( ( ( W W W l z z e i i $ & $ $ % $ $ $ * $ - 9 n _ .._ _ ' =...$.:.:.:.=.1.L.=XQ.Q.Q.J.V.Q.Q.Q.Q.&X;X4X1X1X3XsXlX%XY.>.Y.q.B.U.U.B.U.U.U.R.R.R.R. X~.~.~.&X-X5X5X5X>X7XR.E.^.E.^.R.E.E.^.q.Z.^.E.E.E.Y.q.dXAXzXjXjXkXaXsXsXiX8X3X4X5X;X&X=X%XQ.L.I.C.V.n.n.V.V.G.L.K.L.K.P.{.&X=X.X].H.Q.).H.v.v.z.z.H.h.h.h.1.u.:.&.=.$.:.w   =   k h.:.:.:.[ _ [ _ _ :.@.:.@.@.1.,.:.1.,.1.1.:.8.1.8.1.i.m.N.>.c % X + b $.' ] ;.;.$.;.-.g.m.f.S.*X3X4X4X1X:X2X1X1X1X1X1X1X1X1X1X1X4X4X;X2X;X;X;X8X1X",
"bXbXbX$X@XrX#X@X+XoXoX}.oX'.|.}.|.).).x.z.v.v.j.v.[ H.$.r = X T.tXOXOXOX;XOXOXQ.H.OXOXQ.H.OXH.H.H.H.H.H.H.H.h.H.h.h.h.h.h.8.:.h.:.h.1.:.8.:.4.:.:._ ..:.L _ L 9 n n n n n _ _ _ _ ..:.o.8.%X!.Z.K.I.Z.U.U.B.n.n.Y.n.n.Y.6.,.3.3.6.| X.6.,.d X   % $ + $ $ & * * y i i u u N N N x M M M m m m } } G } } o. .X.o.%.O.4.4.>.>.>.3.3.3.3.Y.6.Y.Y.0.Y.N.U.a.{.gXlXeX<XtX<X1X%X=XsXhXiXtX8X4X1X4XlXlX8XUXsX.X{.,XwX5X5X5XlXAXKXLXrXXX+X{.+X}.oX{.'.'.|.|.G.F.S.x.l.l.l.p.p.a.a.e.;.;.;.*.$.$.*.` ! ! l _ / i $ % & < > < < 4 4 t t t t t y y a a 9 d d d j j j D j Z H D D F G G G | J Y Y Y Y T T +.P g jXKXKXKXKXKXKXKXKXKXKXKXKXKXKXKXKXKXKXKXKXKXLXKXJXpXE.R.7X-X!.>X-XE.!.~.R.Z.R.R.K.Z.Z.Z.Z.B.q.n.B.n.0.0.Y.0.6.6.,.,.,.#.@.3.#., 6 j 8 6 9 8 8 9 s V 8 9 9 K 8 8 8 8 8 8 8 8 s s s s 8 j V V Z Z f s 9 9 s V V V V A A A 9 K 6 3 ; ; 3 F 6.E.pXhXmXf.{ l.x h H M <.G.[.|.|.}.{.}.{.,XoXoXwXwXf.x G +.H F U | _ e :.hXMXhXuXhXyXuXtXuXtXuXwXtX<X<X;X$X;XOXOXOXOXOXQ.].Q.H.H.H.H.m.z.z.h.d.u.u.u.1.;.;.=.=.....<.=...=.@.4.4.4.@.@.o.X.o.%.@.@.3. .u 0 2 r t u u y y v v L v m v v g g g g g N l W W W Q W W / ! ! / ~ ) } } _ P } } } } P o.X./ :.r.:.:.:.-.[ [ _ [ ( ( [ ( ( W W W l l z k i = & = % + + + - = w L o._ _ _ L .._ :.:.r.-.:.u.u...b..XQ.Q.Q.Q.Q.L.D.Q.=X=X%X=X;X1X5X;XiXfX4XB.Y.Y.N.q.U.U.B.R.R.U.I.R.R.R. X~. X~.&X&X^.-X5X>XR. XR.E.E.E.R.E.Z.E.W.Z.E.U.W. XY.Y.lXAXBXaXjXkXsXsXtX8X4X<X5X;X&X%X.XQ.L.I.D.D.n.V.V.J.I.I.L.K.P.%XP.=X=X[.'..X].F.H.H.F.H.v.:.h.h.h.r.:.u.:.:.=.:.0   =   l h.:.:.[ :....._ _ 4.:.@.:.:.@.:.:.,.:.1.1.8.1.1.1.i.d.m.>.t X X 6 g / [ &.[ [ *.;.-.w.l.l.g.{.eX3X4X<X1X2X1X:X1X2X1X4X1X1X1X1X4X1X;X4X;X1X1X1X;X;X",
"bXnXuX#XrXrXwX#X+X+XXX+X}.}.'.|.].`.F.).x.x.v.k.s.k.t.p.k . 1 X Q.tXOX<X<XH.<XQ.L..XQ.Q.H.H.H.].H.H.H.H.H.m.H.m.h.h.h.h.h.8.h.1.:.:.8.:.:.:.:...:.4..._ :._ z W n Q Q _ _ _ _ _ _ $.$.$.$.D.2XC.R.Z.I.U.U.Z.B.n.n.n.n.Y.9.Y.2.6.#.,.,.#.#.,.L 4 X . * * $ & * * = r u u u u N N x c b c n m T.T.} G T.}  .| X.X.X.X.4.>.>.3.>.<.1.3.2.2.9.Y.Y.Y.n.Y.U.Y.U.lXgXeXeX4X,X<X<X X,XjX8XiX8X1X1X3X9X9XsXjX,X[.<X<XwX,XeXOXNXPXPXPXmXH.}.,X}.,X}.'.}.|.|.`.F.`.(.S.l.l.v.f.p.p.r.u.e.;.;.&.&.$.$.` ) ) Q W ~ b i - - < & > > < < t t r 4 t t 9 y a a a d d d j j h c c v H c H H G G F I | U Y Y +.+.T 7.V H xXKXKXKXKXKXKXKXKXKXKXKXLXKXKXKXLXKXKXLXKXKXLX0XZ.~.7X~.~.-XR.&XR.R.R.R.Z.Z.R.U.Z.B.B.B.B.n.0.n.Y.N.Y.0.6.3.6.+.6.<. .Y.N.p p p 8 8 8 a s 8 a 8 a 8 s 8 8 s 8 s 8 s 8 s s s s s s s 9 s s s s V 8 V V 9 s V s s 9 V V V s A A V V 9 3 3 ; ; K D @.d.<.G v v c v N..X[.|.|.}.}.XXoX{.wX5Xa.c H O.| T.T.G H | c t  .,XAXMXtXyXgXyXyXuXuXtXwX<X<X<X+XOX<XOXOX.XL.].H..XH.H.H.v.v.v.v.m.f.f.u.u.1.=.=.=.=.=.>.>.>.>.>.>.O.4.>.4.@.>.%.4.4.4.4.>.>.<.4.T.x 1 $ g u N x v v c G g x g z z z z z n n n M n n m n m m v v L L L P L L } o.L ..o.o.....:.:.h.w.{ w.-.' [ ' ' _ ( Q Q Q n l l z k k k w 0 . X $ 0 i n L Q _ _ _ .._ ..$.=.=.=.:.:.1.>.u.:.m.;X;XQ.Q.P.P.P.L.K.P.%X=X*X*X;X5X1X8XtXsXP.d.>.b.C.n.n.L.J.J.K.I.K.K.R.R.%X%X=X&X&X-X5X&XE.E.E.E.R.R.Z.E.Z.Z.Z.E.Z.q.q.W.Z.q.6.^.zXUXpXkXpXsX8X4X1X1X<X=X=X%X%XP.P.U.C.U.B.V.C.K.K.R.R. X X%X%X.XOX.XF.F.).H.].v.H.v.h.h.v.h.r.r.:.:.:.:.:.:.. . $ X _ f.-.:.$.:.' _ _ $.:.>.:.@.>.1.1.1.:.1.1.8.8.h.1.:.d.I.} O o % + i ` ) $.*.&.-.w.w.y.r.r.h.Q.<XtX1X1X8X;X;X;X2X;X2X1X1X1X1X1X1X1X1X1X1X1X1X1X1X1X1X",
"bXbXuXrXrX@X+X+X+XoX+XXXoX}.}.}.].).).x.x.v.v.k.p.t.t.A.~ = 2 o :.<X;XOXOXOXOXOXOX].OXH.Q.Q.].].H.H.m.H.H.m.z.h.m.h.h.h.h.h.1.h.8.8.:.:.:.:.4.:.:.:._ .._ _ z z W n Q Q _ _ .._ $.$.*.*...V.-XQ.I.R.R.R.E.U.B.M.U.n.0.n.b.0.Y.2.#.,.3.@.@.8.#.o.9 = X . & w * = 0 B r i N c z N z b v n c c m T.! T.} }  .|  .o.X.X.4.O.%.>.>.3.3.3.1.2.Y.Y.Y.b.0.Y.U.Y.l.lXgXeXeXeX5X4X4X.X=XgXkXsX8X2X4X2XlXsXnXeX{.=X,X,X4XeX.XyXIXLXPXLXIX].,XwXoX}.,X{.oX{.|.|.`.S.S.(.S.l.k.f.p.u.u.r.e.;.;.&.$.$.$.` ) ) ^ Q Q b k 0 $ @ & 6 > < > 1 4 < 4 t 5 r y y y a a 9 d j j j Z j Z c H H H H F F I F F Y Y Y Y +.+.Y J #.zXKXKXJXKXKXKXKXLXKXKXKXKXKXKXKXLXLXKXLXHX2XQ.-X>X&X&X~.R. XR.R.R.R.R.R.U.Z.Z.B.B.B.B.B.q.n.Y.0.Y.6.6.6.O.6.6.>.O.>.Y.>.3 p 7 p a 8 a 8 8 8 8 a a 8 8 a 8 s 9 s s a 8 8 9 8 8 s 8 s 8 s 8 V s V s s s V s V V s s V 9 V V V V V V V K A K 8 d L :.g.%.N G I c X.D.=X5XwXwXoX'.oXwXwXl.! T.T.T.H F | | G P U v N x g.yXAXyXuXuXbXyXwX@XtXwXwX<X<X<XOXOX.XOXOX.X].].H.H.).H.H.h.H.h.h.u.u.1.:.:.:.=.=.<.<.>.<.>.>.>.<.3.<.>.>.>.>.=.>.@.>.@.>.3.<.3.o.T.T.t 4 & 4 c I P c x x x x z n n n z n n n n L v L L n L L L L L P } } _ L _ o.........:.1.r.w.{ w.&.-.' ' _ _ ( ( ( Q Q W l z l k k k w * * w N z n n L Q L _ _ .._ ..$.$.:.:.:.1.1.1.u.8.Q..X.XQ.!..XQ.P.{.P.P.P..X%X*X;X1X4X3XlXdX*XN.2.b.V.V.8.C.M.C.K.J.C.I. XR.R.%X=X X-X&X&XE.R.E.U.E.E.E.B.Z.Z.q.Z.Z.E.Z.B.Z.q.0.0.Q.qXcXsX8X8X8X8X4X;X*X*X%X%X XP.K.U.U.U.J.I.C.J.I.P.R. X.X=X,X=X.X[.Q.XX].H.H.H.v.v.v.h.h.h.h.:.r.:.:.:.:.... . = X _ f.:.-.-.' :..._ ..4.4.>.>.>.:.@.,.8.:.8.8.:.=.1.V.N.t O ; ; o t ) $.` ' $.*.-.e.w.:.r.r.z.OX8X4X;X1X;X8X8X8X;X8X;X1X1X;X2X1X1X1X1X1X1X1X1X1X1X1X1X",
"bXnXrX#X#XwXwX+X+XoX+X}.XX}.}.|.).`.F.c.x.c.v.k.k.t.s.g.<.i % 2 $ L.tXH..X;XH.OX.XL.Q.OX'.H.].Q.H.H.H.H.z.h.z.m.m.h.h.h.h.:.h.:.:.8.8.:.:.4.:......._ :.:.L z n n Q ( ( ( _ _ ....$.-.=...d.Q.*XR.R.P.I.P.I.Z.B.B.B.n.n.n.n.0.0.8.9.6.#.@.3.,.#.1.M * $ $ $ 0 r * * * B u z x x x c c n n m T.M P ! } } | o...X.X.X.%.%.>.>.>.3.2.3.2.2.Y.Y.b.Y.Y.N.n.N.Y. XjXlXtXtX4X<X<X=X=X4XhXsX8XtX3X3XiXhXjX X{.,X,X5X<X<X;XAXLXPXIXLXLX+XoX,X}.+X,X}.'.}.|.|.|.S.`.S.x.l.h.l.f.p.r.r.;.e.;.-.&.$.$.) ) ) T.~ W ! b u 0 . & & > > % > 4 r 5 r r t t y a a a a g d f h j h v Z c H v H D D I F F | | +.Y | +.J +.f O.ZXKXLXKXKXKXKXKXLXKXKXKXLXKXKXLXKXKXSX:XI.!.>X~.~.>XR.R.R.R.R.R.I.I.I.U.Z.B.B.B.n.n.q.0.N.0.Y.2.6.6.3.3.6.Y.|  .U.6.c p 7 8 7 8 p 8 8 a a 8 8 8 a a 8 8 9 9 8 8 9 8 9 8 s 9 8 s s s s V s s s s V 8 V s V V s V 9 V V 8 9 9 V V V K A K K 9 a ! p.e.N c F H c G  .3.<.{.,X,X4X5XY.x T.| | T.T.G } G F P U P M r N d.<XmXbXtXuXuXrXwXwX@XwX<XoX<XOXoX.X.XL.H.OXH.].H.H.H.H.H.h.h.f.u.u.:.1.1.1.<.2.2.i.2.2.3.,.2.,.3.3.1.1.1.,.1.,.1.,.>.3.,.2.Y.6.Y.2.4.} 9 & y v v g N g g z z M z n M M M M n n n L L L L L L P } L } L } o...o.o.........:.r.t.w.[ -.-.[ $.[ ' _ _ ( Q Q Q l l k z k k k i u b L n Q n n _ _ _ _ ' _ $.=.:.:.:.:.1.h.u.h.h.h..XeX.X=X=X%X.X!.Q.L.K.P..X=X=X*X;X5X4XiXsX3XQ.8.2.8.V.U.n.n.M.J.K.I.J.R.R.R.%X X&X-X~.Z.E.E.E.B.E.B.B.Z.B.q.B.q.B.q.q.B.q.n.6.,.Q.6XjXsX8X8X4X4X;X*X=X%X%X{.P.I.J.U.U.C.C.J.I.P. X%X%X=X,X=X.X'.].).].H.H.H.H.H.z.h.h.h.h.h.:.:.:.:.:.:._ . + = X _ h.:.:.:.-.[ _ _ ..:.>.>.@.>.,.:.,.1.8.8.:.:.8.8.,.d O O 1 + < ~ ..' ' ] &.&.:.-.e.y.:.:.H.8X8X;X8X8X;X8X;X;X8X;X8X1X1X1X1X1X1X1X1X1X1X1X:X:X1X1X1X",
"bXbXrXwXrX#X+XwX+X+XXX+XoX}.}.|.].].).).F.x.v.k.k.t.s.a.l.T.- 2 . :.8X;XOXOXH.OX.X.X].Q.Q.].H.].H.H.H.m.H.H.H.m.m.h.h.h.h.h.1.h.8.:.:.:.4.:.4.:.:..._ :.[ 9 z z Q Q Q _ _ _ _ } $.$.:.:.$.<.Q.1XR. XR.R.R.R.R.I.Z.B.B.M.n.q.n.Y.n.9.8.8.,.@.@.@.2.>.o.L r + $ * r * * 0 r y N b x b v b v n M m ! P T.|  ...o.X.O.X.O.O.>.>.<.3.2.<.2.,.Y.Y.Y.Y.0.N.Y.N.a.{.gXaXtXiXeX4X<X,X{.,XhXkXtXlX8XsXpXjXeX{.,X<X,XeX<X,XhXPXLXPXIXLXKXnX'.+X,X}.,X}.'.{.[.|.|.`.(.S.S.l.l.k.f.p.p.p.r.;.e.-.*.$.$.$.` ) ~ ~ ~ b m b t - % & * > * * < < 4 4 5 4 t t y 9 a a a d f j j h f c Z v H H D D G F F Y F J +.Y +.Y +.+.f 6.SXKXLXKXKXKXKXKXLXKXKXKXLXLXKXKXVX-XZ.*X2X~.R.^.&X~.R.R.R.R.R.E.U.E.Z.U.B.B.n.n.N.n.Y.Y.Y.6.2.6.3.3.3.O.>.*.Y. X| 2 8 7 8 p 8 9 p 8 8 8 8 a p 8 9 8 s 8 8 s s 8 s 8 9 8 s s 8 9 8 a s 9 8 V 9 s 8 V s V 8 9 s s s s K K V 8 s 9 8 8 K 9 9 s d X.3.G H C h Z f p f c 1 c  .Y.B. .x %.+.| J T.G G G G U c D I I c u x <XhXhXuXwXtXuX<X<X<XoX<XoX<XoXoX.XOX.XH..XH.H.H.H.v.H.h.h.d.1.1.1.1.1.u.Y.i.i.2.2.i.i.2.2.2.i.2.,.2.2.2.8.2.,.2.d.2.2.2.1.1.2.2.8.8.=.x n v x M N N N x z z n n n M M M v v n v L L m / L L } L L } L } _ } } o.4.} ..:.r.r.r.w.:.-.*.[ ' [ _ _ ( Q ~ Q W l W k k k i i z x n z n L n Q L _ _ ..$...$.$.:.:.1.u.1.:.h.8.1.H.4X;X=X&X=X=X%X%X.X!.P.Q.%X=X=X*X;X;X=X3XkXpX&Xn.8.9.N.V.C.n.C.P.P.V.I.K. XR.R. X~.R.B.U.B.E.W.E.B.q.B.q.B.q.q.q.B.q.0.B.0.0.9.@.0.2XkXsX4X;X5X5X;X%X%X XK.I.U.U.J.I.J.J.K.Q.R.!.%X%X.X=X.XOXQ.Q.`.F.).H.H.v.H.v.h.v.t.r.h.:.:.:.:...:.z . $ - . $.f.:.:.[ $...' _ ..>.=.@.:.@.:.,.8.4.1.:.:.8.V.o.&   < 1 O < ! ..~ ' ' [ &.-.-.:.;.r.-.h.;XtX<X;X2X8X;X;X8X;X;X;X8X1X1X1X;X1X1X1X1X;X1X1X:X<X1X;X1X",
"bXbXuX$XrX#XwX+XoX+XoXXXoX}.}.}.].].).).x.x.v.v.k.t.k.w.p.a.0 $ + = Q.tX.XOXQ..X.X.XL.L.Q.F.H.H.H.H.H.H.z.h.H.h.h.m.h.h.h.8.:.:.:.:.:.:.:.:.4.:..._ 4..._ z z n n Q ( _ _ _ ..' _ ..-.:.:.=.m.4X&X~.!. XR.R.R.I.I.Z.U.B.B.B.n.N.9.8.,.9.8.,.,.,.X.X.X.@.} L * . * 0 r i r B t x x c n m m m m m P } } }  .o.o.X.X.X.%.>.>.>.>.<.3.2.2.2.Y.Y.Y.Y.N.B.i.U.Y.U.lXgXtXtXeXeX<X5X,X=XsXgXaX8XlXaXkXgX{.{.4X,X<XeXoX4XPXLXIXPXIXPXLXNX|.oXwX'.,XoX'.}.|.'.|.|.`.F.x.x.z.l.f.f.f.r.r.r.;.-.&.*.$.` ` ) ! ^ ~ n Q Q u * + - & * < & < 4 4 4 4 5 4 p t t y a a 9 f a j j h c h Z H c H H F F F F F Y Y Y H 5.Y #.#.7 n.PXKXLXKXKXKXKXLXKXKXLXKXKXKXBX-XK.-X>X^. X7X&XE.~.R.R.R.R.R.Z.Z.U.B.B.B.n.n.0.q.Y.0.Y.6.6.6.6.3.3.>.| O.<.P.U.p 1 7 7 8 7 9 7 8 p 8 p a 8 8 8 8 a 9 8 a 8 s 8 8 9 s 8 s 8 8 a s 8 s s V 8 s 8 V s s s V V 8 s V 8 8 K s f j V V Z s 8 A V 7 V Y F T.C f C H J F F +.t H Y.B.B.3.C D G } I } G P P P v c D G H h u k H.gXnXtXwXwXwX@X<X<XoX,X<XOX.XOX].].].].`.H.H.H.h.h.h.h.h.1.u.2.i.i.i.b.i.i.Y.Y.2.Y.2.8.8.9.8.b.8.8.8.8.2.8.1.8.8.8.1.3.<.2.2.8.8.m.8.d.v r u N 9 N x l x z M v x v M v L v n L m L n L / L _ } L o._ o.o.} ........4.:.r.r.:.w.-.&.&.$.' _ _ _ ( ( Q Q W W l z k e e k z x z n n _ L / ) ) ....$.=.:.:.=.r.1.u.u.d.h.u.h.Q.4X;X;X*X&X=X=X=X%X!..XQ.%X.X%X&X*X1X;X1X8XkX8XQ.,.,.N.V.M.n.M.J.K.I.K.P.R.P.R.R.R.B.B.B.W.B.W.B.q.n.q.q.B.n.q.q.0.6.q.0.5.n.0.,.,.5XlXlX4X;X;X*X%X!.R.I.J.C.C.I.I.Q.Q.P.R.%XP..X{..XOXQ.OXXXOX].].H.H.H.H.z.v.v.h.h.t.:.h.:.:.:.[ :.k   $ . - -.r.-.:.' $.$..._ $.=.4.:.@.:.,.,.:.,.:.:.m.8.L & + > , O $ ! ..) ` ' ] [ -.&.-.:.r.r.[ H.tX8X<X:X;X;X2X;X1X;X8X;X;X1X<X1X1X1X1X;X1X1X1X1X;X1X;X4X4X",
"bXMXuXrXrX@X@X#X+X+X+XoXXXXX}.|.].).).F.x.x.z.h.k.f.f.w.a.l.z - 9 . :.tXOXL.OX.XH.OX]..X`.Q.H.H.H.H.H.m.H.m.h.m.h.h.h.h.h.:.h.8.8.:.8.:.:...4._ :._ .._ _ z n n n L _ Q _ ........:.-.:.:.:.8.;X-X*X&XR. X XR.K.R.I.I.B.C.B.B.n.n.0.8.9.0.8.,.,.4.} P o.,.,.L 9 $ $ * r r 0 i u N x n v m M m T.} m } } |  ...o.X.X.O.4.>.>.3.3.<.,.,.2.Y.Y.Y.Y.Y.N.N.N.N.N.,XnXlXtXeXeX4X<X,X X;XsXkXtXeXjXkX3XP..X,X<XeX<X;XmXLXLXIXLXPXPXLXPX'.oXwXoX}.oX'.{.{.'.].S.F.F.S.x.z.l.l.f.f.u.u.r.e.;.;.*.$.$.` ) ! ) ! b b b x k $ $ $ & & < & 4 < 4 4 4 5 r 7 t p y p a a g f j h h c h c h H H H H F F F F Y Y Y +.+.F 5.| p Z.LXKXKXLXLXKXKXKXLXKXKXKXjXR.R.-X>X^. X-X-XR.R.~.R.R.Z.I.Z.U.Z.Z.B.B.n.n.n.n.n.Y.2.2.2.6.3.3.3.>.O.O.<.U.I.| > j p 7 p 7 8 7 7 9 p 8 8 8 8 a 7 8 8 8 8 8 8 a 8 8 8 9 8 9 s 8 8 8 8 s 8 s 8 s s 8 V 8 8 V V s s V K 9 s j j j j j f 9 A K 3 8 H D t p C f C H H Z T.f +.B.B.R.R.+.G v G P P G P G G G D Z Z H H T.r u <.<XhXyXwXwXwXwX<X<XOXoXOXOXOXQ.Q.].H.H.H.z.H.z.m.h.h.8.d.d.b.N.N.N.b.b.Y.Y.Y.N.b.b.b.b.b.b.b.b.b.b.d.8.8.d.8.8.8.8.N.N.m.M.m.m.Q.Q.J.} B t N z N N x x M M M x M M v n n L m n L L L / } L L P L o.} } o...o.o.....:.1.t.w.e.:.-.-.-.[ ' ' ( _ ~ ! Q W l l l z k e e z n n n Q L ( ) ) ..) ..=.$.:.:.:.1.1.u.r.p.h.m.r.h.<XeX4X1X,X=X=X=X=X%X!.Q..X!.P..X=X;X:X;X;X8XsXsX-XC.Y.,.N.M.n.M.J.C.Z.K.K.I.R.R.R.B.U.W.B.q.B.n.q.q.n.n.0.0.b.0.0.0.0.0.,.6.n.0.o.,.!.iXlX;X%X=X=X.XP.I.U.U.G.I.P.Q.Q.P..X.X%X=X*X1X<X.XQ.].].OXH.).H.).v.v.v.h.h.h.h.h.:.:.:.:.:.1.w   = . = h.r.:.-.$.' $._ ' =.:.@.@.:.@.:.:.1.:.8.9.>.9 # + & > O + M ) ) ( &.$.$.&.&.-.;.:.<.:.h.=XkX;X;X8X;X;X2X1X1X;X8X;X8X1X1X1X1X1X1X1X1X;X1X;X1X1X;X;X;X",
"bXbXuX$XrX@XwX@X+X+XoXXXXXXX'.}.].|.).).F.x.v.h.v.f.j.r.w.p.%.0 & . 4 Q.<X.XOX].]..XL.L.`.H.Q.H.H.H.H.H.m.z.z.m.h.h.h.h.h.1.:.h.8.:.:.:.:.4...:.:._ :...n z z Q n Q n _ _ _ ....$.$.$.-.u.:.$.Q.>X-X-X&X~.~.R.R.R.R.I.E.Z.B.C.B.C.V.n.9.8.,.:.4.4.o.o.o.4.@.1.8.N * $ = B i r r N N x M M ! G m m } T.}  .| X...X.X.X.%.>.>.>.<.,.<.<.Y.Y.Y.Y.Y.Y.N.N.N.N.N.|.nXgXlXlXeX4X<X5X*X%XtXhXsXlXhXsX X.X<X=X<X8XOXbXPXPXPXPXPXLXPXPXLXuX{.oX,XoXoXoX{.'.|.].|.|.F.F.x.z.l.k.f.f.p.a.e.e.;.&.&.$.$.$.) ) ) ! Q b Q b b 0 = + & & & < < < < 4 4 4 t t t p y p y a g f g d h h c Z c H H H H G F F F Y | +.A +.F Y 5.G f 2XFXLXKXKXKXKXKXKXKXLXjX~.R.-X>XR.^.^.^.E.R. XR.Z.I.Z.I.U.Z.B.B.B.q.n.n.0.Y.0.6.6.6.5.,.3.3.O.@.@.a.N.[.a.p 5 f 8 p p 7 7 8 7 7 8 p 9 7 8 7 p 8 8 a 8 8 8 9 8 8 8 s 9 8 s 9 8 9 8 V s 8 8 V 8 V s s s V s 8 s s 9 s V s s s 8 s f 9 8 V V c / *.p p T.H f c c H 7 +.Z.U.n.N.E.U.@.I v G G T.G G G H G G T.G c c X.y B ..=XtXuXwX<X@X<XOXoX*X.XOXOX].}.].].].H.H.v.H.h.h.h.b.m.b.m.m.N.M.N.N.N.N.N.N.N.N.N.b.b.b.b.b.N.b.b.N.N.b.m.m.V.V.H.J.J.D.Q.h.8.Q.J./ r n N x N x x x n x 9 L n M n v L v L L L L L } L o.} } _ L ....L o.o.o.....=.1.r.r.e.w.w.-.-.' ' ' _ ( ) ^ Q W W W l l z e e z n L Q L / / / ..) $.$.$.:.:.:.1.u.u.u.h.f.h.z.g.z.H.4X4X4X1X;X;X*X&X&X=X=X=X%XP..X%XQ.;X4X&X=X1XsXkX4XI.9.9.n.M.n.n.B.U.J.I.I.K.R.R.q.q.n.q.B.q.0.q.0.0.0.0.0.9.0.9.0.5.6.0.5.#.5.6.O.2.K.5X5X=X X=XP.P.L.J.L.J.I.K.I.P.Q.%X&X&X,X;X;X<XOX.X].H.H.].H.).H.H.H.h.v.h.t.r.h.:.r.:.:.[ 1.w   = X * z.:.:.-.:.$.$._ ' ..:.4.:.@.:.,.:.:.1.8.4.9 . + # 4 X # M ..! ~ $._ $.$.$.-.w.e.;.;.[ Q.<XtX;X2X2X;X;X8X1X1X<X;X;X<X1X1X1X1X;X4X1X1X;X1X1X<X1X1X1X;X",
"bXMXuXrXrXwX@X+X@X+X+XXXXXoX}.|.|.].).F.x.x.z.v.v.t.s.j.w.a.Y.k + # . h.tXL.;X.X.X.XOXH.Q.H.H.H.H.H.H.h.V.z.m.m.h.h.h.h.h.h.:.h.:.:.8.:.:.:.....:.L :...n z n n _ n _ _ _ ' ....:.:.$.-.h.:._ Q.1X5X-X&X%X~. X XR.R.I.I.K.I.C.B.n.n.V.9.8.1.#.o.o.o.X.=.4.o.4.8.N.} B = r i B 0 t u b c c ! M ! } m } } |  .X.X.X.X.O.>.%.>.3.3.<.3.2.2.Y.Y.Y.Y.Y.N.M.Y.U.Y.N.jXgXtXeXeXeX<X<X,X{.lXhXsXsXaX3X{.=X<X,XwX<XwXMXLXIXPXPXPXIXPXPXLXnXoX}.+XoXoX}.'.{.{.].].G.|.x.F.z.l.l.f.f.f.u.r.e.;.;.=.*.*.` `  .) ~ W W b l b i * + + @ & & & < < < 4 4 t 5 t t p a a a a a f j s h c j Z Z H H H H F F | F F H +.J +.| Y 5.| # >XJXKXLXKXKXKXLXKXfXB.&X2X^.~.-X~.R.R. XR.R.R.R.I.Z.Z.C.B.B.U.n.n.N.0.Y.0.Y.6.2.3.3.3.#.3.@.O.a.m.U.U.T.2 Z 7 7 7 8 7 p 7 7 7 9 7 7 8 p p 8 p 8 8 9 8 8 8 8 9 8 8 8 8 8 8 8 8 V 8 9 V 8 8 s 8 8 V 9 8 s V s s s s 9 s f V s 8 8 V s 8 c ) y.c.l.C p d C c f H f Y.n.6.B.0.Y.N.C.@.m H G G G H G v c m G c c G j P c 0 z S.tXgX<X<XoX<XoXoXOX.XOXQ.'.Q.H.H.z.H.H.h.h.m.m.m.m.V.n.n.N.n.n.M.n.n.N.m.n.n.m.n.m.m.N.N.N.m.V.V.V.V.L.J.J.L.L.V.D.V.V.m.h.V.m.m 0 b z x x N x x x x n n M v n n L n m L L L L L } L } L } } } o.o.o.} ........:.u.r.r.w.-.w.:.[ ' ' ` ` ( ~ Q W Q b l l l k u z n W n n ( / _ _ ......=.=.:.>.:.u.u.u.h.f.f.l.A.z.u.<X1X4X4X4X<X5X;X*X;X*X*X%X=X!.%X~..X&X;X1X;X-X:XpXsX;Xn.>.b.M.M.B.B.C.I.J.K.K.I.q.B.q.q.q.0.0.0.0.0.0.6.0.9.6.0.6.0.5.#.0.6.#.,.Y.}  .B.5X1X%X XP.P.I.I.I.L.L.P.K.%X*X;X1X,X=X{.H.H..XOXOX].].].H.H.).H.v.h.h.v.h.r.r.:.:.:.:.[ r.= X =   w H.-.:.:.' ' ..' _ 4.,.4.>.:.>.:.@.8.V.P $ . # 6 & # & t n ) ( ` ' / $.$.&.&.;.e.e.r...<XtX;X2X8X;X8X;X;X1X1X1X1X1X8X1X2X;X1X1X1X1X1X1X;X1X;X;X1X;X1X",
"bXMXuXrXrXrX$XrX+X+X+X+X}.XXXX}.}.].).`.x.x.x.z.k.k.p.s.t.e.e.&.. 4 X 4 ;X.XoX.XQ.].H.Q.].H.Q.).H.H.H.z.m.m.z.h.h.h.h.h.8.8.:.:.:.8.8.:.@.:.:.o.....:._ 9 W n n n _ _ _ _ ....$.$.$.:.:.r.:.u.:.5X2X-X-X-XR.-XR.R.%X%XI.Z.R.B.K.Q.9.b.b.8.1.@.4...o.4.4.4.:.:.,.2.M.8.N = & i i i 0 u M M T.m c m }  .|  .| } ..X.X.*.O.>.>.>.3.3.2.3.6.Y.Y.Y.Y.Y.N.B.N.U.Y.Y.lXgXsXlXyXeXeXwX5X=X,XeXUXhX<X,X X<X.XeXwX%XnXLXPXIXPXPXPXPXPXPXPXIX{.oXwX}.+X}.}.}.'.'.|.[.|.S.x.F.S.l.l.l.f.p.a.e.;.;.*.*.&.$.) ) / Q Q Q W l z z i $ + & $ $ 5 & 4 & & 6 t 4 t r t t t 9 a a a f g g j h h Z c c H c H H F G F J I I Y Y o.T T | Z &XLXKXPXLXKXLX6XZ.-X:X~.-X~. X~.R.R.R.E.K.Z.Z.I.Z.U.B.B.n.q.n.N.0.Y.Y.6.6.6.2.3.#.6.3.| *.<.U.U.U.a.a 6 a p 7 7 7 8 7 8 7 7 7 8 7 7 8 p 7 7 8 p 8 7 8 8 8 7 8 p 8 8 8 8 8 s 8 8 8 a a 8 8 8 a 8 8 a 8 s s 8 8 8 s s s V V K K 7 i ! { { y.w.H.:.b t d Z Z j #.8.8.n.8.V.8.8.9.n.6.U c v G v v v v m m G v v v v c G N & } eXtX@XOX@X<XOXOXOXOX.XH.H.H.H.H.H.m.m.z.V.V.n.V.n.M.B.U.M.Q.m.V.V.V.V.V.V.m.M.m.m.Q.H.H.Q.Q.Q.Q.H.J.H.H.D.V.D.V.H.h.n.m.Q.L . N u x N z n 9 n M x z z v M M n L n L M L L L L L L L L o.L } o.o.o.o.4.o.4.....r.h.y.w.:.:.-.-.-.[ ..[ _ ( ( Q Q Q W W e l k l l Q ! ! ! ( ) ......$.=.=.:.:.:.1.u.h.h.h.h.z.A.A.A.g.%XsXtX1X4X3X;X;X;X;X*X,X=X=X,X.XQ.Q.=X=X*X;X1X;X8XkXsXP.>.>.V.J.N.n.U.E.U.Z.B.Y.0.q.6.0.0.Y.0.6.6.5.5.0.5.,.,.5.,.5.5.#.#.#.#.5.,.+.I 0.%X-XR.P.J.J.L.I.I.{.:X2X;X!.V.,.| c d 9 1.;XOXQ.].].).H.H.H.v.v.v.h.h.h.r.h.r.:.=...:.=.X - -   Q h.-.-.-.[ $.$._ _ =.@.<.>.=.%.<.2.i.4 # + & # ; ; O n / Q / / ( ' _ ' ( :.:.[ u.r.$.Q.;X8X;X1X4X1X1X;X1X1X;X;X1X;X;X1X1X2X;X;X;X;X4X;X;X1X1X;X1X1X;X",
"MXbXuX$XrX$XrX$X#X+X+XXXoXXX}.}.}.|.].F.).x.x.c.k.k.p.p.t.t.e.;.u # # + b.<XOX.XOX'.Q.].H.].H.).H.H.H.H.m.z.m.m.h.h.h.8.h.:.8.8.8.:.:.:.:...:.:......._ n n W _ _ n L _ _ _ ..$.$.:.:.:.:.u.u.:.*X6X-X&X&X&X-X-X-XR.R. XR.R.Z.K.V.n.8.,.8.>.4...o.4.4.4.>.>.1.,.2.1.b.N.X.B $ B u B i c x x ! | m T.} } |  .o.X.X.X.4.4.4.>.>.>.,.3.a.6.a.6.6.Y.Y.N.N.N.U.N.Y.5XgXgXyXlXeX5XwX5X=X,XeXjXhX,X.X,X,XeX<X,XtXZXLXPXPXPXIXPXIXPXPXPXLX,X'.wX}.,XoX{.{.'.'.|.|.S.F.x.x.x.l.l.p.p.a.t.a.;.;.*.&.*.$.` ) ) / ( Q n n l z N B - $ * $ # & * < 4 4 * < 4 t t t t a a a g a g j g h c c Z H c H H H F T.F F F U Y Y Y Y +.+.V #.qXJXLXKXHX>X!.~.>X&X~.-X~.^.R.R.R.R.R.Z.K.I.Z.Z.B.B.n.n.n.0.n.0.Y.6.Y.,.5.3.3.3.O.| O.a.U.a.U.N.J t 7 8 8 7 7 6 6 6 6 7 7 7 7 7 9 7 7 7 7 7 p p 9 7 p p p p 8 a a s a 9 a 8 9 8 8 8 8 a 8 8 a 8 s a s a 8 8 8 8 s C V 8 3 3 g / ;.t.y.y.s.w.h.=.M j c f f q.n.0.8.8.8.0.0.9.n.b.3.| D v G G v v v c v c c c v c c v g i b Q.tXyX<XQ.OX<X.X.X.XOXH.H.H.z.H.A.A.V.V.Q.m.Q.Q.U.J.U.U.m.8.b.m.V.C.D.J.Q.Q.Q.Q.Q.Q.Q.Q.H.Q.H.Q.L.L.V.Q.D.D.V.V.Q.m.Q.8.9 $ N x N g x 9 n n 9 M v M M n x L v M L L L L L L L L o.} _ } } L o.} o.o.4.......:.h.r.r.r.w.w.[ [ [ [ [ _ ( ( ( W l W l l l k k l Q ! Q ( / / ' ' ..$.=.=.:.1.1.u.1.r.h.h.z.h.z.F.A.m.[.<XsXiX4X1X4X4X1X<X;X5X=X5X=X&X=X.X=X=X&X*X;X4X4X4XlXlX;XD.>.,.U.R.n.Y.B.R.B.0.0.0.0.0.0.0.6.6.6.6.6.,.5.5.#.5.#.,.@.@.#.#.#.+.>.#.o.U @.I.:XP.P.K.Q.*X-X!.V.o.P v g g g c c _ 9 1.=XOX].OX].H.).v.H.v.H.h.h.h.h.1.:.:.:.:.:.L X - - . / h.:.:.-.-.:._ _ ..=.%.<.>.%.i.N.X.t # & # # > # . 4 W Q ( ( ( _ ) ' ' [ r.-.-.u.;.:.Q.8X8X;X4X4X1X1X1X1X;X8X4X;X;X8X4X;X4X;X2X;X;X;X1X;X;X;X;X;X;X1X",
"bXbXuXrXrXrXrX$XwX+X+XoX+XoX}.}.}.}.).).).x.x.v.k.k.k.p.t.t.y.e.$.+ & . y <X.X.X'.Q.H.Q.Q.H.H.Q.H.H.z.m.H.z.h.m.h.h.h.8.h.8.:.:.:.8.:.:.:.....:.[ 4.[ _ z W L n n _ _ _ ....:.' :.$.:.r.r.1.r.:.G.6X2X-X>X5X-X-X!.R.&X=X%XR.I.U.V.n.8.1.>.=.X.o.o...=.@.=.>.,.1.2.2.b.D.V.1.x & r B B i d T.T.b m G } P } | o.%.X.X.O.O.>.>.>.<.,.a.3.3.Y.Y.Y.2.N.Y.N.N.B.N.N. XjXgXtXtXeXeX5XwX<X.X5XsXlX,X X<X,XtX,X,XNXPXPXPXPXIXPXPXPXIXPXPXLXgX}.,X+XoX+X}.{.}.{.|.|.|.S.S.x.S.k.l.k.f.p.p.e.e.e.*.-.*.*.` _ ) ) Q ( n l b b b r - . + & $ & & & 4 4 B * t 4 t 5 9 p y a a f d d h f c c c c Z H H H T.F G U P U I I Y Y +.#.F V O.lXLXHXlXK.~.>X&X~.^.~.K. XR.R.R.K.Z.Z.I.E.U.B.B.B.q.n.n.N.0.Y.6.6.6.3.3.@.>.@.O.O.a.l.U.l.U.a.p p f 7 8 6 8 7 7 7 7 7 6 7 7 7 7 7 7 9 7 8 8 9 8 8 9 8 8 7 8 7 8 8 p a 8 9 p p 8 7 a 8 8 a 8 a 8 a 8 8 s K 8 8 V s s 8 t x _ r.t.{ { { s.f.H.8.L a r H 5.8.0.8.8.8.8.8.0.9.9.n.9.,.| v c G G H M v c v M N c g d v v y r k 1.<XtXOXXXQ.OX].OXQ.H.H.H.H.V.Q.Q.D.J.n.Q.V.V.D.D.U.U.Q.Q.Q.Q.Q..X.XQ.Q..XQ.OXH.Q.Q.H.Q.H.Q.H.V.L.D.D.Q.V.V.H.m.V.Q.... = k x z g z z z z M x n L M n M n v n L L M L L L _ L L _ o.} o._ } o.o.X.......=.:.r.t.r.:.y.-.[ -.[ $.[ [ _ ( ( Q Q W l l l z k b Q / / / / ) ..$...=.=.:.:.:.1.u.u.h.f.h.h.m.A.A.A.H.A..XlXkX3X5XiX4X4X1X1X5X5X,X;X*X*X&X=X.X%X=X=X;X1X5X1XsXsX4XQ.3.2.N.n.n.B.U.n.0.0.6.6.6.Y.6.6.6.6.,.5.5.#.#.3.#.#.#.#.#.+.+.@.| +.#.@.o.| 3.N.=X!.J.b.<.X.M t g g g g c v P | L M z h.<XOXF.].H.H.H.v.z.z.h.h.f.r.1.r.:...=.:.n   $ - - ' z.:.[ :.[ $..._ ..:.:...%.i.2.} 4 O # # # # # . # n n Q ( _ _ ) $.$.' :.:.&.r.r.$.h.8X8X1X;X1X8X;X1X;X1X;X1X;X1X;X;X1X;X4X4X2X;X4X;X;X1X1X;X1X;X;X;X",
"bXMXuX$XrX@XrX@X+X+X+XXXXXXX}.}.].].).`.F.x.x.x.k.k.k.a.a.y.e.e.:.0 $ #   L.OXF.Q.].Q.F.].].H.H.H.H.H.z.m.m.z.h.h.h.h.h.:.h.h.:.:.:.:.:.:.:.......o._ L z n n n _ L _ _ _ ' ....$.:.:.:.1.r.r.h.1.5XiX2X5X7X-X^.R.2X1XP.I.P.C.n.n.8.8.1.>.4.} o.4.4.@.>.,.>.,.8.8.m.b.2.V.Q.M./ * r u r r u M | } / ! } }  .o.X.X.X.X.*.4.>.>.3.<.,.6.a.,.2.Y.Y.N.Y.N.N.N.B.N.Y.gXgXgXlXlXeX5X5X5X{. XwX5X.X.X5X<X<X,XgXPXLXPXIXPXIXPXIXPXPXPXPXLXMX{.+XwXXX<X}.}.{.}.}.].|.`.F.S.x.A.k.k.l.a.p.a.e.e.-.-.*.$.$.) ) ) Q Q Q n l b N i r % X o 6 < & $ & & 4 4 6 4 t 5 t t p a y p f d d h h h h c c Z H H H G G F F U U I Y Y T T 5.| f 7.lXdXE.>X>X~.!.&X-X~.!.R.R.R.E.K.I.Z.Z.U.B.B.n.n.n.Y.0.0.Y.6.6.,.3.3.3.,.>.O.O.a.l.U.S.|.U.T.2 9 s 6 9 6 6 8 6 7 6 8 6 7 7 7 7 7 7 7 7 7 7 7 7 7 7 7 7 7 p 8 a 7 8 8 8 8 8 a 8 8 a 8 9 8 8 a 8 8 s 9 s 8 s V 8 3 7 d ! *.r.y.{ { s.s.j.v.h.z.Q.>.u g ,.#.8.#.8.5.8.8.8.9.6.9.9.Y.,.T.h c v m H v c v v c n c g c a d T.* w ..OXtX<XOXOX].].XX].].H.H.Q.L.L.Q.D.Q.V.Q.Q.J.L.P.{.Q..X.XOX=X=X&X.X.XQ.Q.Q.Q.Q.Q.Q.H.Q.V.m.L.D.D.D.m.H.V.m.m.V.1.u $ * B N N x n 9 x M z M M 9 M M n v n L M M L L L L L L o.L _ } } o.o...L o...X...X.:.:.f.t.t.:.:.-.-.-.:.' _ ( [ ( ( Q W W W l z k z Q Q m ( _ ) ....$...$.:.1.:.r.1.u.h.h.h.h.z.z.A.F.H.A.H.;XgXsX3XlX3X3X2X4X4X4X4X4X;X;X;X&X=X=X=X=X.X;X<X;X;X8XsXsX%Xn.3.Y.M.U.n.6.6.6.0.5.7.6.7.6.5.,.5.#.5.3.#.#.+.4.@.#.@.@.O.O.6.O.I U G G G | @./ x z N t g G G m G P m P m v 9 o.9 n h..X].H.H.H.v.H.z.h.h.h.h.r.1.r.:.:.=.:.z . = - . _ h...1.:.[ $.:.=.$.:.%.>.i.2.m % X ; & # & & + 4 x Q n / _ _ _ ' ' $.-.:.&.&.p.:.&..XtX4X;X;X2X1X;X1X1X1X1X1X1X1X2X;X;X4X;X;X;X4X;X;X;X1X;X;X;X1X1X;X",
"bXbXuXrXrXrX$XwX#X+X+X+XXXoXXX}.}.|.|.`.(.x.x.x.k.k.k.s.t.t.r.w.r.n . 4   L .X.XQ.].Q.Q.F.H.z.Q.H.H.A.H.m.h.m.h.h.h.8.h.8.h.:.8.:.8.@.:.:.:.4.:.....L n z n n _ L _ _ _ ' $...:.:.:.:.:.r.1.r.h.;. XlXlX>X>X-X>X3X9XZ.@.8.Q.V.V.m.8.8.>.=.X.o.o.4.4.4.>.>.1.8.8.9.d.b.b.N.V.J.Q.3.b < t N B t T.} } }  .} | } X.X.X.%.O.%.>.<.3.3.3.6.3.Y.2.Y.Y.N.Y.N.n.Y.U.U.3.lXhXgXyXyXeX5X5X5X,X,X,X X,X,X5XtX.XyXNXLXLXIXPXIXPXPXPXPXPXPXIXLXIXoXoXwX}.+X'.{.}.{.'.].|.|.F.F.x.x.l.l.l.a.p.u.r.e.;.;.;.$.$...) ) ) / Q l n z u x X.} r X X & * < % & * 6 & 4 4 4 5 t t t 9 u a d f d f d h f Z H c H c H H F F F J I | I | F #.5.H H B.7X X~.-X~.~.^.R.K.~.R.R.K.Z.Z.Z.B.B.B.B.U.n.n.n.0.Y.Y.Y.6.6.,.3.3.@.3.O.O.3.N.S.S.U. XO.2 p C p 6 7 6 7 7 7 6 7 3 7 6 9 8 6 7 7 6 7 8 9 7 7 7 7 7 8 7 7 9 7 8 p 9 7 8 7 8 8 p 8 8 7 8 a p 8 8 a s a 8 p 8 8 7 d / *.y.s.{ { s.c.j.&.= $ z :.L L #.8.#.#.8.8.8.8.#.8.6.,.,.6.9.b.>.T.x c c v v v v v m c d c c d a c M y 4 n m.wX<XOXOXH.H.].Q.Q.Q.Q.J.J.I.P.Q..X.XQ.*X=X;X.X;X.X;X;X.X.X.XQ.Q..XQ.Q.Q.Q.].Q.m.Q.H.Q.H.m.Q.V.V.V.V.H.H.V.n = r B 0 u N N M N n M z x M z L n n L n n L n L L L L L L L } o._ o.} ....} ..o.X.X...4.:.h.t.r.r.-.:.[ -.$.$.[ ' _ [ ( Q ~ W l l z z z n / / / } ..$.$...=.=.:.:.1.1.u.u.h.h.h.m.h.A.A.H.H.H.A.G.4XgXaX3X8X6X3X8X3X4X4X4X1X<X;X;X*X=X=X*X=X&X=X;X;X4XeX3XaX4XQ.8.3.B.U.6.5.6.6.7.6.3.3.7.#.,.#.#.#.#.@.#.#.#.3.o.O.| | | H P | #.,.N.M.U.2.! u u x c c c j x c v c v M c L M P M 9 h.,XH.).H.H.z.h.v.h.h.h.h.:.:.:.$.=.:.w X = - q $.z.h.:.:.[ [ _ _ _ :.=.i.>.g o O @ @ > # # $ = z _ n W ( _ _ _ ' ' -.[ :.[ r.u.:.u.eX4X1X<X1X2X<X;X1X;X4X;X1X;X;X2X;X4X;X;X1X;X;X;X1X1X;X1X1X1X;X;X:X",
"MXMXuX$XuXrXrX@XwX+X+XoX+XoX}.}.}.}.`.`.`.x.x.x.k.k.p.k.t.t.r.r.:.:.- 4 . . H.<XQ.H.`.].Q.F.Q.A.A.A.H.z.z.m.m.h.h.h.h.:.:.:.h.:.:.:.:.:.4...:.L :..._ z n Q n L _ _ _ ..$...:.$.:.:.:.:.u.u.h.r.a.I.3XlX5X0X0XlX~.B.M P C.Q.b.m.8.8.,.>.=.4.X.4.4.4.1.>.,.8.,.8.b.b.N.V.V.N.M.L.*XM.! r r d k a m m P } }  .} o.X.X.X.O.O.>.>.>.3.a.3.a.a.6.Y.Y.N.N.n.n.n.n.U.Y. XjXgXlXgXeXeXeX5X,X,X X X,XwX,XeX.XnXPXPXIXPXPXPXPXPXPXPXPXPXPXLXLXeXoXwXoX,X}.+X{.}.{.[.|.|.|.S.S.x.l.l.l.l.a.u.u.e.;.;.&.*.$.' ) _ ( ( Q Q n z u n 8.n.>.9 X X + < * % & B & < 6 4 6 5 t 7 t t f a d f c f h c f C c H H H H F G T.F G Y Y I +.J +.+.I q.7X5X&X-X^.!.R.!.Z.Z.Z.R.Z.K.Z.B.B.B.n.n.n.q.0.6.Y.Y.6.6.6.3.3.3.7.>. .X.a.N.S.S.U.U.|.C 2 f V p 7 5 7 6 7 6 7 6 8 6 7 6 7 7 7 7 7 7 7 7 7 7 7 7 7 7 7 7 7 7 7 7 7 8 8 p 7 9 p 7 p p p 8 8 a a 8 8 a s 8 5 a b ` &.y.{ { { y.j.t.W - = $ = . & R K.8.8.8.8.R @.@.#.@.3.9.6.,.,.9.0.3.m v c x c v c c u d d b c c h d x N 9 $ 9 r..XOX].Q.H.Q.H.Q.Q.Q.%X%X=X=X;X;X<X<X<X<XOX;X;X;X.X=XQ..X.X~..XQ.Q..X].Q.Q.H.Q.H.Q.H.Q.Q.m.H.H.m.V.m.Q.8.= $ u = * u x N x z 9 z M M 9 M 9 n M M L L L L M L L L L L _ } o.L _ ....} ..o.......X.4.=.r.t.t.r.r.r.w.-.-.[ $.' _ _ _ ( ( W Q W l z l W W / _ _ ' ..$...=.:.=.:.:.u.u.r.h.h.h.h.z.A.A.F.F.H.H.H.{.sXfXiX9X9X9X8X9X8XlX3X4X4X4X4X<X;X;X;X*X=X%X*X;X;X;X5XlXsXiX=XN.6.9.6.3.3.7.3.3.7.3.3.#.#.#.@.@.+.+.o.@.o.o.I F | O.O.,.N.Z.U.R.{.U.i.d.a...n x c c c v x c x M v v v v 9 v L z L h.Q.H.H.).z.H.v.h.r.r.r.h.:.:.:.:.:.= X = . - _ :.:.:.:.:.:..._ _ :.2...t X O > < # # # # + u Q n Q W / _ _ ' ' ' [ -.-.' u.r.:.Q.tX<X;X2X2X1X;X;X1X1X1X4X;X1X2X;X4X;X1X1X;X;X1X;X;X;X;X;X;X;X;X1X;X",
"bXMXuXrXuX@X@X@X#X+X+XXXXXXXXX}.'.].|.`.`.x.x.c.l.c.k.f.t.t.r.w.-.u.z + &   / ,XXXQ.Q.].`.`.A.H.H.H.v.m.m.m.z.h.h.h.h.8.h.:.1.1.:.8.:.4...:.:.L :._ n z n Q n _ _ L .._ _ :...:.:.:.:.1.:.h.h.f.i.Y.5XaX0XlX-XR.3.v y 8.Q.Q.8.8.8.8.,.:.4...o.=.4.>.>.>.1.,.8.8.8.b.m.m.V.J.C.N.U.*X Xo.i r u z x n L }  . ...o.X.X.%.>.>.>.3.>.3.a.3.Y.2.Y.Y.Y.Y.U.Y.N.U.Y.U.n.S.jXgXlXgXeXeXeXeX5X5XoXoX5XeX5X<XtXIXPXPXPXPXIXIXPXPXPXPXIXPXPXPXLXnX'.@X,X+XoX{.}.'.'.'.|.|.S.(.S.z.S.l.p.l.p.p.u.e.e.;.-.*.-...' _ _ ( ( n n z n o.8.b.n.,.U & X + & & & < 4 > 4 < 4 5 4 t t p p d d d f d h h h h c Z v H H F F H J F Y F I #.G +.Y J B.7X X-X~.!.!.R.~.!.E.Z.K.K.B.Z.B.B.B.q.n.q.n.0.Y.6.6.6.6.3.3.3.7.O.O.o.a.M.U.S.U.U.|.T.p p C 7 3 p 5 6 6 6 6 8 6 6 6 7 7 7 7 6 7 7 7 7 7 7 7 7 7 9 7 6 7 7 7 7 8 9 7 p 8 p p 8 9 7 8 7 7 9 8 8 8 8 8 8 8 d b ] { y.{ { y.{ y.y.*.b * & 9 $ $ 9 h.E.8.0.0.8.#.8.#.8.R @.3.,.,.3.3.6.n.3.o.H c x c c d x H G N u N x x 9 g v g w 9 4.Q.Q.XXOXQ.OX.X.X;X4X1X4X<X<X<X<X<X,X,XOX;X.X,XOX=X=X&XQ..XQ.Q.Q.Q.Q.Q.Q.H.H.Q.H.Q.z.Q.Q.m.V.H.V.H.Q.u = * w B * u N N z g n n M z L M M M M L M 9 M M L L L L L L L } _ _ } _ ....o.} ..o.X.X.X...r.r.f.r.t.w.:.-.-.$.[ $.[ ' _ ( ( Q n Q l k l b _ ( / _ _ ..$.=.$.=.:.:.:.1.1.f.f.h.h.z.m.A.A.F.F.F.[.G.U.5XaXpXiX0X0X9X9X8XlX3X3X3X2X4X4X4X1X1X;X*X=X=X=X=X*X4X;X1XiXaX5XU.Y.#.3.#.3.#.3.O.7.O.+.+.@.+.+.o.o.+.P P o.@.,.Y.n.C.K.I.n.N.N.G.N.a.u.d.i...z y N H v v c x z x x c c G g x _ u z Q.H.H.H.H.v.h.h.h.r.h.:.:.:.$.:.:.= . $ .   $ - - n _ ..:.:...:.8.P > X # > % # % # % $ 4 n n l ( ( _ _ ` ' ' [ :.-.-.:.r.$.h.<XeX;X1X1X1X;X1X2X;X;X1X;X1X1X1X4X;X;X4X;X1X;X1X;X1X;X1X1X;X;X1X;X5X",
"MXbXuXrXrXrXrX#XwX+X+X+X+XoXXX}.].}.).`.`.F.x.x.l.k.k.s.p.r.r.r.&.w...X 4 X $ .XQ.Q.H.`.Q.H.Q.H.A.A.Q.z.z.h.m.h.h.h.8.h.:.h.:.8.:.:.:.:.:.:...:...[ n z n _ n L _ _ _ _ ....$.$.:.r.:.:.u.r.f.h.a.<.5XjXqX>XY.C v m >.Q.L.8.Q.8.8.1.4.4.4.o.o...=.4.1.,.1.8.8.b.8.N.n.n.m.D.I.P.P.U.M.U.Y.m B t u x m P | o...o.X.O.O.O.%.>.>.>.,.3.,.Y.2.2.6.Y.6.U.Y.Y.U.N.U.|.Y.gXnXlXgXeXlXeXeX5X,X,X,X5XeXwX.XAXPXPXIXIXPXPXPXIXPXPXPXPXLXLXIXLXAX{.+XwX}.oXoXoX}.'.'.'.|.|.S.`.z.l.l.l.l.p.a.a.e.e.;.;.&.$...' _ / / Q Q Q u P h.V.,.,.0.V.P & X & 4 # & & < * 4 4 5 5 5 7 y p t p d h f c f d h Z Z c H D G H F T.F I | Y J H 7.Y c B.7X^.^.!.~.~.!.Z.K.!.R.Z.Z.Z.B.n.n.q.n.n.n.Y.9.6.6.6.,.3.3.3.O.3.O.O.<.N.U.l.l.U.|.U.p 3 f p 3 p a t 7 7 3 7 3 6 7 6 8 3 7 6 7 7 7 6 7 7 7 7 7 9 7 7 7 7 7 7 7 7 7 7 7 7 7 8 7 7 7 8 8 p 8 8 8 a a 8 3 f m $.{ { { { { s.y.s.a.N.M.B.n.0.,.#.V.&XQ.K.Q.K.Q.E.E.V.8.0.3.+.O.>.,.3.,.6.B.,.T.c c c c x c f u N x b x g g d g 9 4 $ + * Q..X<X8X<X8X4X2X<X<X1X<X;XOX;X<X.X;X;X.X;XQ.%X%X.X.X.XQ.Q..X.XQ.Q.Q.H.Q.Q.m.Q.m.Q.m.V.V.H.V.V.m.m.- 0 u = 4 = 9 z n 9 x 9 x x M n z M n M n n L L L L L L L L L } } } } o..._ _ ....o.X.X.X.X...r.r.r.t.r.r.w.[ :.:.$.[ [ _ _ _ ( Q ~ l l z l W L _ _ _ ..$.$.$.=.=.:.1.u.1.u.u.h.h.h.z.A.z.F.A.H.z.{..Xm.P.sXfXiXpXiXiX9X9XtX9X8XtX8X8X3X4X1X<X5X1X<X;X,X&X=X=X1X;X1X6XpXdX&XO.3.#.#.O.7.7.O.O.+.+.+.o.R o.o.I 6.0.n.Z.I.I.Z.U.n.U.I.L.U.U.A.g.f.a.p.i.4.c d f d x c c c M c g c c M v v u 9 M H.F.F.z.z.h.h.r.h.r.:.r.:.:.=.:..   * $ - & - . . X - w n z z x X X @ & & @ # # & X & L n l Q Q ( _ ` ) ' $.-.{ -.:.r.:._ Q.tX*X<X2X2X;X1X1X8X;X1X1X1X1X1X;X;X4X;X;X1X;X1X;X;X;X;X1X;X;X1X;X:X5X",
"MXbXuXrXrX$XrXrX$X$X+X+X+XOXXXXXXX].).).).F.x.x.c.v.v.j.p.t.y.w.{ [ u.i - % O N 5X|.H.[.G.G.G.H.H.h.H.H.h.h.h.h.h.h.h.h.h.:.h.:.:.:.:.4...:._ _ 4.L W 9 W z _ _ } _ _ ..$.$.$.:.-.:.r.r.r.h.f.h.f.p.[.3XZ.v P +.o.g b.Q.V.m.b.2.8.1.4...o.4.@.@.:.>.,.8.8.8.8.b.M.N.b.M.C.D.V.L.%XA.a.A.G.S.-.e i N x ! T.| X.X.| X.X. .%.,.Y.<.3.a.3.6.6.Y.Y.Y.0.Y.N.N.N.N.U.U.Y.5XzXgXgXlXlXlX5XeX X,X,X,XwX5XsXIXKXIXPXPXPXPXPXPXPXPXPXPXPXPXPXPXPXuX}.@XOXoXoXXXOX}.'.'.|.|.`.`.x.S.l.l.k.a.f.p.t.e.e.;.-.*.` ' ' _ ( Q / l z 2.V.b.8.8.6.0.B.,.u   O < r o < < < 4 4 r r < t t t y y d a d f g j h h c v Z D D H G G G F F | J F #.j 0.>X~.!.!.!.R.R.Z.I.I.Z.U.B.B.B.B.n.n.0.N.0.9.6.6.5.,.,.#.@.,.O.*.| >.A.m.g.S.m.{. Xc f s 8 8 5 7 9 5 3 6 , 3 6 3 6 6 7 6 7 1 7 6 6 7 6 7 7 7 6 7 6 7 7 5 7 5 7 7 7 7 p p 7 7 3 8 8 3 3 8 8 s 8 7 3 1 b ( [ w.{ { { s.{ y.r.p.b.b.6.6.8.8.8.Q.;X&XQ.;X&X;X&XQ.;X&X&X;X~.K.n.#.o.v 9 9 L 4.@.L L L 9 L b N c v c 9 5 y % 2 * < d O.M. Xi.=XtXgXeX5XeXeX<X<X<X;X<X<X;X.X;X;X;X.X;XQ.Q.;XQ..X.XQ.Q.Q.].Q.H.H.Q.H.Q.H.V.Q.z.Q.V.m.Q.m.n.Q.w B 4 4 B & 4 4 9 z x N g x n x x M M M M L n M n L m m L } } L } L L o...o...} ..o.....o.4.:.4.o.:.h.h.:.r.v.:.y.-.[ :.' _ ' _ _ ( ( W W W l l ) ' ' _ ..$.$.$.:.:.=.1.1.r.h.h.h.h.h.z.m.H.F.F.Q.`.H.`.Q.`.OXhXhXpX8XkX0X0XsX9XiX0XiXlXlX3X3X3X3X4X<X;X;X;X,X*X,X=X;X4X1XlX9X,.O.@.3.@.+.O.+.X.G } ..>.2.N.n.U.U.J.J.U.J.J.J.J.Z.U.R. XU.l.a.S.l.p.a.a.a.<.Q t x x h x d h c c c c N c c c c x n V.L.z.h.z.v.r.r.u.:.:.:.:.:.' . . - = $ . . . + + + +   v <.r * + O X X # ; @ . w M l W Q ( Q ( ( _ ..' $.-.-.:.-.f.' u.<X8X<X1X1X1X1X2X;X;X;X;X1X;X1X;X;X1X;X1X;X1X;X1X;X1X;X;X;X;X;X5X;X;X;X",
"bXbXuXrXuXrXrX$X$XrX@XOXXXXXXXXX].XX].].).).x.x.x.v.j.f.t.t.w.y.r.[ r.n 2 % o $ P.,XH.H..XF.G.F.H.H.H.h.h.H.m.h.m.h.h.8.h.:.:.1.:.8.:.:.:.:.4.:.:.L z _ W _ [ 9 _ _ ..' ' =.:.$.:.:.:.f.r.h.f.h.f.A.g.u.X.P O.I L o.C.Q.n.V.b.8.8.,.4.o...4.4.=.>.,.1.1.8.8.8.h.m.n.n.V.V.D.L.P.L.m.i.g.A.U.G.m.Q w w b  . .T.O.X.4.O.@.O.%.%.O.3.<.3.a.Y.6.a.Y.Y.N.n.Y.N.U.N.U.a.5XMXgXgXyXyXlXrXlXeX,X,X5X5X,XZXLXLXPXPXPXIXPXPXIXIXPXPXIXPXIXPXLXPXbX.X+XoXoXoXoXOX'.'.|.|.|.`.S.x.x.x.l.k.l.p.p.a.e.;.e.;.&.$.$.' / ` _ W z ..V.V.n.n.0.9.n.n.n.,.G %   o y < & & 4 4 * 4 t 5 t t y y a a a g j j g h c Z c c Z c H D F G F Y G Y #.c 0.-X~.~.!.R.R.R.K.Z.Z.U.Z.B.B.B.B.n.q.b.9.b.9.6.,.,.,.#.#.@.@.X.O.a.N.A.l.S.A.G.{.Y.y a 9 7 8 9 7 6 5 6 6 6 6 6 6 , 6 1 7 6 7 6 7 7 6 7 6 6 7 6 7 7 1 7 5 7 7 5 7 7 5 7 7 7 7 8 7 8 7 3 8 s 8 6 p d b ) ] [ { { { { y.{ s.g.d.i.6.6.,.#.8.V.&X&XQ.Q.Q.Q.Q.Q.Q.Q.&XQ.Q.Q.!.;X;X!.V.V.#.L L 9 9 9 z 9 9 T.c t 1 & < t x O.6.I.3XfXaX=XS.S.l.G.,XeXeX<X,X1X<X1X<X1X.X&XOXOX.X;X;X.X;XOX.X%X.XQ..XQ.Q.Q.Q.Q.Q.H.Q.V.Q.Q.m.V.H.m.m.m.V.J.1.* 4 B B 4 & * * 9 z g z z x x M M M M M M M M L v M m L L L L / L } L o.L } ..} o...4.o.o.4...o.o.:.:.h.r.y.y.y.-.-.:.[ $.[ _ _ _ _ Q Q W l l l / _ .._ ..$.=.:.=.:.1.:.:.h.1.h.h.h.m.z.H.z.z.H.H.].].Q.].Q.Q.oXUXkXdXdXdXiX9X0X0X9X9X9X9X9X3X2X3X3X4X4X4X1X<X4X;X<X*X:X1XiX>XG O.O.+.I I | o.+.Y.b.N.M.D.J.I.I.U.I.J.J.I.I.I.J.U.[.U.R.U.S.l.Y.l.p.a.p.a.<. .! u d x h N x d x N N c f N b x x x / h.H.z.k.v.f.r.h.:.1.:.$.:._   $ = . - - + $ . $     X.IXjXM >.o.G g 4 % X   * z n n n ( ( _ Q _ _ ' ' -.' -.-.r.r.$.V.eX4X;X1X1X1X1X4X;X4X2X1X;X1X;X1X1X;X1X;X1X;X1X;X1X1X;X;X;X;X;X*X;X;X;X",
"MXMXuXrXuX$XuX$XrX@X@X+X+XXXXXXX'.].].).F.F.x.x.v.v.v.f.t.t.y.r.w.&.r.$.i % =    .<XL.H..XG.G.H.H.h.H.H.h.m.h.h.h.h.1.h.h.1.h.:.@.:.4.:.4.....:._ L 9 9 W W _ _ _ .._ ' $.' :.:.:.r.u.r.f.r.f.h.p.D.1.} | X.O.P g 9.Q.C.m.V.8.8.,.@.4.....4.4.@.@.>.,.8.8.8.b.b.b.M.C.D.C.J.I.{.g.g.m.m.N.S.[.{.U.;.N r N T.X.X.X.X.O.%.%.>.%.3.3.3.6.3.a.Y.Y.Y.N.Y.n.n.N.N.U.U.Y.5XAXjXgXlXlXlXeX5XeX,X5XeXeXgXLXPXIXIXIXPXIXPXPXIXPXIXPXPXPXPXPXLXLXMXOXOX@X+XoXoXOX'.|.'.|.[.|.S.F.x.l.l.l.f.p.a.p.t.e.;.-.*.*.*._ _ ' _ l z V.V.B.n.B.n.0.n.N.B.C.B.| & X + r * & & 4 < < 4 r r t y y y a d g a j j h h Z Z Z D H Z D F F G G J Y +.j q.-X~.R.R.R.Z.R.Z.Z.Z.Z.B.B.B.n.n.Y.n.9.9.9.9.,.,.#.#.@.@.@.X.X.<.Y.U.m.g.|.A.U.L.G t f a 7 9 7 6 7 6 3 6 6 6 6 6 3 6 6 6 , 7 1 7 6 6 1 7 6 1 7 1 6 7 7 7 5 7 p 7 7 7 7 7 7 6 7 7 7 7 8 8 7 3 t d ~ ^ $.{ { { y.y.y.y.y.p.N.Y.,.2.,.3.#.V.Q.;XQ.Q.Q.Q.Q.Q.Q.^.Q.Q.Q.Q.~.!.Q.Q.&X&X;X;X&XK.8.8.:.9 9 9 o 1 u c X.N.5XaXaXaXdXlX*XH.m.A.A.i.a.S.,XeXeX<X<X<X<X8X<X;X.X<X;X;X;X.X;X.X;XQ..X%X.XQ.OXQ.].Q.H.Q.Q.H.H.H.Q.m.Q.H.m.Q.m.D.L.y * 4 4 & 4 * * * i N M N n z M x z v M M n n M M n L m L L L / P o.} } } L ..o.} o.o.o.o.4.o.4.4.4.:.:.h.v.t.y.y.w.:.:.[ $...' .._ _ ( W W W l l ( ) ' ....$.=.*.:.:.:.r.r.1.h.u.h.h.h.z.v.H.H.F.H.H.].H.OX].H.Q.sXUXjXqXfXdX0XpXiX0X0XlXiX9X9X9X3X8X8X8XeX4X<X1X;X<X=X.X%X3X*XG P Y O.@.6.n.B.U.I.K.K.P.L.P.I.I.I.I.I.I.I.I.K.K.R.P.{.|.U.S.l.l.l.g.a.a.a.<.<.<.M N u u x h d u c f x c f b d x N r } S.A.h.r.h.f.f.r.u.:.:.:.l X + $ = = $ . . o   + P.FXKX*Xi =.*.....T.m z t 9 Q Q W W ( _ ( _ _ ' ' ' &.-.:.' f.[ :.oXeX1X<X1X1X;X1X;X4X;X;X;X1X;X1X1X;X1X1X;X;X;X;X;X1X;X;X;X;X;X;X;X;X5X;X",
"bXbXuXrXuX$XuXrX$X@X@X+X+X+XXXXXXX].XX].`.).x.x.x.v.k.k.s.t.r.y.w.-.' :.b = % o % L..XF.[.G.F.G.H.H.h.h.H.h.h.h.h.h.h.1.:.8.:.1.:.:.:.4.:...:._ _ L W W 9 _ 9 _ _ _ _ ..$.=.$.:.:.:.r.f.f.t.h.h.h.A.i.%.O.@.o.P P J.Q.h.h.b.3.2.:.=.o.o.o.4.=.>.1.1.,.8.8.8.b.n.b.V.D.C.V.L.L.J.a.i.g.A.S.A.A.m.{. Xg.Q r i T.X.%.O.%.O.O.3.Y.<.<.3.6.a.6.Y.Y.Y.Y.N.N.N.N.n.B.U.Y.5XNXnXbXgXyXlXeX5XwX5XwX,XeXIXPXPXHXLXPXPXLXPXPXPXPXPXPXIXPXPXPXIXLXIXOX.XwXoXoXoXXX{.{.{.|.|.F.|.(.S.x.l.l.l.f.s.a.a.e.e.;.-.*.&.` ` $.! n 4.Q.Q.B.V.B.Q.B.B.0.N.B.C.C.2.f   + & < 4 < 4 4 * 4 5 5 t p y y a a a g d j h h j h c c H H D D D F | Y | g q.&XR.R.R.R.K.K.Z.U.B.B.B.n.n.n.n.0.6.9.9.6.6.5.,.,.@.,.@.o.X.3.g.U.l.S.S.S.U.L.2.t a a 8 9 7 9 5 6 6 6 6 6 6 , , 6 6 6 7 6 , 7 , , 7 7 6 5 7 6 7 5 6 7 6 7 7 7 5 5 7 7 7 7 7 7 7 7 3 8 3 2 t x ^ ] ] &.[ { { { { y.r.p.i.,.6.Y.6.6.3.V.Q.&XQ.Q.Q./.Q.Q.Q.&XQ.Q.Q.&XQ.Q.Q.Q.E.Q.Q.!.!.;X;X;X;XQ.Q.8.R n.&XaXBXBXzXpX3X5X3X4X XA.l.x.|.g.S.A.a.l.{.eXeX<X<X;XOX1X;X<X;X;X.X.X;X&X.X.XQ.Q..X.XQ.Q.H.Q.Q.Q.Q.H.Q.Q.V.H.Q.H.8.Q.m.D.Q.>.$ B * * 4 * & * * y 9 z M 9 x x z 9 M M n M v L n M L L L L / P / L _ } } o.} } } ....4.4...4.4.....4.:.8.h.t.r.t.w.y.:.-.-.[ [ [ ( _ / ( Q ( Q l / ) ' $...$.=.$.=.:.1.1.1.1.u.h.h.v.z.z.H.z.F.H.).Q.H.].Q.OXQ.Q..XjXUXkXdXfXfXpXaXdXiXpX0XiXiX9X9X8X8X3X4X4X4X1X;X<XlXlX3X6X%XO.9.N.M.V.J.I.I.K.J.J.I.U.J.U.I.I.I.L.P.K.P.[.P.{. X X X|.S.U.S.l.l.l.a.a.<.e.<.<.%.! u i u x x u f k N N x d N x x k i $.H.z.u.r.r.f.:.:.$.:.:.u X . $ -   . 0 &   4 *XLXKXPXd.z $._ ' .. . .*.! z z W l W Q _ ( _ _ _ ' $.$.&.&.:.h._ Q.8X4X1X1X;X1X;X1X4X;X4X2X1X;X1X;X;X1X;X;X1X;X1X1X1X;X;X1X;X;X;X;X;X;X;X;X",
"NXbX$XuX$XuXrX$XwX@X+X+X+XXXXXXX.X).}.].`.F.x.x.x.v.k.k.f.t.r.r.:.w.' -.' * $ <   ..*X.XA.[.H.H.H.H.h.H.h.h.h.h.h.h.h.1.1.1.:.1.:.:.4.:.......:._ W z n [ W _ _ .._ ..' $.$.=.:.r.1.r.r.h.h.h.v.S.d.<.4.| | P P 2.Q.Q.b.n.8.>.>.@.4...4.@.4.>.>.1.8.8.8.8.8.n.h.m.M.V.V.J.L.L.m.N.g.l.l.A.S.S.G.A.[. X[.*.w r m T.O.O.O.O.<.3.O.3.3.3.Y.Y.Y.Y.Y.Y.N.N.N.N.N.U.U.Y.,XNXMXMXnXbXlXeXlX5X5X,X,XmXLXIXPXIXPXPXIXPXIXPXIXPXPXPXPXPXPXPXPXKXLXeX'.wX}.oXoXoX}.{.}.'.|.|.S.F.x.x.l.l.l.k.p.p.r.a.<.;.;.-.' ..$._ b _ D.Q.J.B.Z.Z.B.B.C.B.Z.B.n.C.I.9.G   o & 4 4 4 4 r 4 5 4 t t t y y a a g d d h V c Z v Z v c H H H F J | Y h B.~.K.E.K.K.Z.Z.U.B.B.B.B.n.n.0.N.0.Y.9.,.6.,.3.3.@.@.@.X.o.<.b.A.g.m.A.[.M.[.C.v t j s 8 8 p 6 5 6 9 3 , , 6 3 6 , 6 , 7 6 7 6 7 , 7 1 7 7 6 7 7 1 6 5 7 7 6 6 7 7 5 7 7 7 7 7 7 7 7 3 6 t b ^ { ] ] [ { { { { y.r.a.Y.,.#.6.,.3.6.m.&XQ.Q.Q.Q.Q.&XQ.&XQ.^.Q.Q.Q.^.Q.Q.!.Q.~.Q.Q.Q.K.K.K.Q.Q.Q.&X&X&X,.1.,.b.!.9XaXpXfXlX,X|.|.{.|.l.S.S.S.S.p.a.[.eX4X<X<X<X;X1X<X,X;X.X;X.X.X.X&X&X.X.XQ..XQ.Q.'.H.Q.H.Q.H.V.Q.Q.m.L.A.J.m.K.U.i = B 4 B * < * * < r y x x N z x M n M M M M v n v L v L L L L } P L P } o.} ..} ..4.o.o...o.o.:.4.4...:.:.h.t.y.r.t.y.:.:.-.[ $.[ ' _ _ ( Q ~ l l l _ ' $...$.=.=.:.:.r.u.8.r.u.h.h.h.h.v.z.H.H.H.H.].H.].H..X.X.XQ.1XUXUXkXfXzXdXdXdXaXpXpXpXiXlXsX9X9X3X3XlXiXsXaXlX3X,XI.n.b.@.K.R. XK.C.U.J.U.I.K.J.I.I.K.P.P.P.P.P.P. X X{. X X X{.G.S.S.S.l.l.l.l.a.r.;.;.;.<.*.m N t i N g u f u N k N N N N M i i %.m.m.a.r.r.w.:.-.:.:.q X - - - $ =     v fXKXHXBXLX{.b :.$._ / / / / b z z z n n Q / n _ _ [ ..$.-.-.:.u.:.=.OXtX;X1X:X1X1X4X;X4X;X4X;X;X;X1X;X;X1X;X;X;X;X1X;X;X;X;X;X;X;X;X;X;X;X;X;X",
"NXbXbX$XbX$XuXrX@X@X@X+XOX+XXXXXXX'.].).`.`.).x.x.v.k.k.t.t.y.r.-.:.' -.;.k o 2 o w Q..XA.].A.D.H.h.H.h.h.V.h.h.h.8.h.1.h.1.1.:.:.:.:.:...:...:._ z n W _ n L _ _ _ $.$.$.:.&.:.:.r.r.f.f.f.h.v.S.>.>.X.} X.| v J.Q.m.h.M.8.>.1.4.4.o.4.4.=.>.>.1.,.8.8.b.n.m.n.S.M.A.D.I.L.S.m.g.A.A.A.l.S.S.|.A.G.[.{.[.Y.! i x  .a.3.O.%.3.O.3.a.3.Y.3.Y.Y.Y.N.Y.N.N.N.U.U.U.Y.oXAXNXMXnXbXlXlXrXeXeX XyXLXPXIXIXPXHXIXPXPXPXPXPXPXLXPXLXLXLXKXKXKXLXAX,XwXoXoX+XoX}.oX}.}.|.|.`.`.F.S.x.l.l.f.p.a.p.e.e.e.-.$...$.$./ n 8.=XZ.Q.Z.Z.Z.Q.B.Z.C.U.B.B.n.B.C.Z.| 4 X o * < * 5 4 4 4 t t t t a y a a g f f h c h h h Z H Z H H F G J G c E.-XE.K.K.I.Z.Z.B.B.B.B.n.0.b.N.0.6.6.6.,.,.3.#.#.@.@.o.X.1.b.m.m.A.U.l.|.U. X9.t a s 8 a p t 9 6 5 6 6 6 1 6 6 , , 1 7 , 1 6 , 1 6 6 3 6 , 1 , 6 , 7 7 6 1 7 6 7 6 7 6 5 7 6 7 7 6 t , u Q  .] ] ] { [ { w.w.w.r.i.d.Y.,.,.,.@.>.N.{.&XQ.&XQ.Q.E.Q.Q.Q.Q.Q.Q.Q.Q.Q.Q.~.Q.Q.Q.E.Q.!.&XQ.Q.Q.Q.Q.E.Q.Q.1XD.} * $ g @.n.=X=X{.x.A.S.G.[.l.l.S.S.m.a.a.f.OX<X8X<X.XOX;X=X.X;X.X;X;X.XQ..XQ.%XQ.Q.Q.H.Q.Q.H.Q.H.Q.H.V.m.Q.V.D.I.m.I.1.. r B B 4 * * * < B B i x z x x x x n n M M n n L n M n n L L / L / o.L _ L } } o.L ..o...o.:.4.o.4.4.4.4.:.r.v.y.v.:.y.w.-.-.-.-.[ ' ' _ ( ( Q Q n n _ ' $.' =.:.$.:.:.1.r.1.h.u.h.z.h.z.H.H.z.z.H.].Q.OXQ.OXOXOX.XQ..XsXBXcXfXfXjXfXfXdXdXdXdX0XpX3X9XsXkXfXdXsX8X,XU.2.X.} T.} X.,.Y.C.I.P.R.[.I.P.P.P.P.{.R.R.{.!.{. X%X X~. X,X,X{.[.S.S.S.S.l.g.a.g.p.p.a.e.<.*.%.%.! N i r N u N u u d d N k g z x t i &.M.g.r.u.:.r.$.u.:.= . - . = =     X.ZXLXKXBXZXKXb.n ........ .} / n z l n Q / / _ _ _ ' ..[ [ :.:.:.r.[ h.4X8X;X1X;X;X;X;X;X;X2X;X;X1X1X;X1X1X;X;X1X;X:X;X;X;X;X1X;X;X;X;X;X;X-X;X;X",
"MXbXbXbXrXuX$X$X@X@X+X+X+X+XXXXX}.'.].].`.`.x.x.x.v.v.k.j.s.r.r.e.-.-.[ -...$ + & . =..XG.F.D.F.H.H.H.h.H.h.8.h.h.h.h.h.:.:.1.1.@.:.@.4.:.:....._ 9 W _ _ _ _ _ ...._ $.:.:.:.:.u.u.h.r.r.f.f.h.m.>.%.X.O.o.G 4.Q.Q.m.m.d.8.8.@.o...o.4.4.>.>.1.,.,.8.h.h.m.n.n.D.D.D.I.L.D.m.b.a.A.z.S.S.S.A.S.[.{.[.|. X,XU.^ N M | O.3.O.3.a.3.a.3.3.Y.Y.Y.Y.N.Y.N.N.N.N.B.U.Y.5XNXMXnXnXbXbXrXeXwXwXlXIXLXPXLXKXLXKXLXKXLXLXLXLXLXPXPXFXIXIXvXBXjXBXsX X,X<X,XoXoXoX{.}.'.'.|.`.F.F.S.x.l.l.l.p.p.u.a.e.e.&.*.-.=.' Q =.Q.=XQ.Q.Z.Q.Z.Z.Z.B.I.B.B.U.U.B.C.C.!.,.y + # & < < 4 4 4 4 r 5 t 9 a p y a d f f d h h h v c Z Z H H F | H F &X>XR.Z.K.Z.Z.C.B.B.n.n.0.n.0.Y.Y.Y.6.6.,.3.3.@.@.4.X.o.2.h.h.g.m.S.`.S.|.|.B.G 5 s s 8 9 7 9 6 t 5 6 , , , , , , 6 , , 6 6 , 7 , 1 6 6 6 6 7 , 7 6 7 7 6 7 6 7 1 7 1 t 3 7 7 3 7 r t k ~ ` ] ] ] ] { { w.y.r.u.u.i.2.,.,.3.3.3.Y.[. XQ.Q.&X&XQ.Q.Q.Q.E.Q.Q.Q.Q.Q.Q.Q.E.Q.Q.Q.Q.Q.K.V.K.Q.~.~.Q.Q.Q.Q.L.Q.%XJ.>.x y y i %.|.,X{.S.A.S.S.U.|.g.A.S.m.*.h.Q.;X<X1X;X,X=X;X;X;X.X.X&X&X.X.XQ..XQ.Q.Q.Q.H.Q.Q.H.D.Q.D.D.H.D.D.D.J.b.k = r B B < * & & * < * i x M 9 z x x n 9 M n n v L n L n L L L P / L L } L o.o.L o...o...4.o.o.o.4.o.o.4.4.:.h.v.h.j.r.y.r.r.:.{ [ -.$.' _ ( ( / Q Q z ( ..$.$.=.=.=.>.:.1.1.u.8.f.h.h.m.z.m.z.F.H.H.).H.].OXOX].OX.XOXQ.<XjXBXzXxXzXjXxXfXfXjXfXfXfXcXjXpX3X*XI.2.O. .m  .O.>.>.| @.o.>.2.U.P.%X XL.{.R.P. X X{. XR. X X X%X%X%X=X=X=X{.|.U.U.S.S.S.l.l.g.a.p.a.e.e.*.%.<.$.~ x t r p i f u u d d k u t x d r N %.a.h.r.:.:.$.1.... X $ = .   $ =XLXKXZXVXCXKXKX .X.=.........} _ n z z W _ _ ( _ _ ' [ $.:.[ :.w.w.:.:.Q.8X;X;X2X:X2X1X;X4X;X;X;X2X;X;X;X;X;X;X;X;X5X;X;X;X1X;X;X:X5X;X;X;X;X;X;X;X",
"MXbX$XbXuX$XbX$X@XrX@X+XXX+XoXXXXXXX|.].`.).).x.v.x.v.k.f.t.r.r.r.' y.[ ` r.t X *   i [..Xm.H.D.H.h.H.V.h.h.h.h.h.:.8.:.h.:.1.:.:.:.:.:........._ z 9 n _ 9 _ L _ ..$.$.$.:.:.:.:.u.r.h.h.h.h.h.d.%.o.o.O.v v J.Q.m.d.h.8.,.8...4.4...4.4.1.,.1.8.8.8.8.8.n.V.m.U.D.U.P.L.A.h.g.S.S.m.m.|.|.S.[.G.|.[.{.{. X X5X .x N  .a.3.O.<.3.3.2.2.3.Y.Y.Y.Y.N.N.N.N.n.n.U.Y.5XNXMXnXnXnXnXyXlX5X5XAXJXHXIXAXBXkXsXsX;XQ.Q.D.H.q.6.,.+.o.L T 5.G O.6.a.{.,X,XoXoX{.oX'.{.}.G.`.`.S.x.l.l.l.l.p.p.a.u.e.e.;.-.:.&._ L d.&X~.Q.Q.~.E.Q.Q.Q.Q.Z.R.K.I.Z.K.Z.C.C.!.Z.c X . * * < 4 4 4 5 t p 5 y a a d f s f f h j j Z c H H H H H F H F >X6X&XK.Z.C.B.B.B.n.n.0.N.Y.0.6.6.6.6.,.,.3.3.@.@.@.X.>.b.V.d.f.S.S.x.|.S. X>.& a C 8 8 8 p 5 t 7 4 6 , 6 6 3 , 6 , , 7 1 6 7 , 6 6 6 6 6 , 7 6 1 6 , 6 7 1 7 6 7 6 7 t t p 3 7 7 3 t ) ( ^ ] ] ] { { w.{ -.e.u.2.6.3.5.,.@.*.Y.[.,X{.Q.Q.Q.Q.Q.Q.Q.Q.Q.Q.Q.Q.Q.Q.Q.Q.Q.Q.Q.Q.Q.Q.Q.~.Q.K.Q.K.Q.Q.V.Q.Q.Q.{. XS.>.n x H d G m.,X{.`.S.|.(.l.S.A.l.l.S.:.r.Q.<X<X<X=X=X.X.X;XQ..X&X.XQ..XQ..XQ.Q.].Q.Q.H.D.Q.H.V.H.Q.m.m.L.m.=XX.- i * r * * % = * * < & y x x n N z x n M M M n v v v n v M L L / P } L _ _ } } ..} o...o.....o.....4.4.:...[ r.v.h.t.t.r.y.-.-.-.-.[ ' ' _ _ ( ( Q n l ( ..-.$...$.:.1.1.1.u.u.h.h.h.h.z.h.v.H.H.F.H.Q.H.H.Q.H.OXOXOXOX.XQ.8XUXBXUXxXxXjXzXzXjXzXcXjX:X!.9.O.X.4.>.4.2.>.,.%.O.%.| 3.3.O.X.>.d.P.=X X!.{.!. X%X%X%X%X%X%X%X=X=X&X=X=X X[.|.S.|.U.l.l.N.l.g.g.a.a.<.;.e.;.$.%.%. .N * u u i p k k k d g u t x N * t a.h.u.t.:.[ 1...  - - $   & hXKXFXZXZXLXFXZXLX@.! =......./ ) / W W W W W Q Q _ ' _ ' [ [ :.-.:.r.:.h.wX8X.X8X>X;X;X;X1X;X;X4X4X;X;X;X;X;X1X;X;X1X;X;X;X;X;X;X;X;X;X;X;X;X;X;X;X;X",
"IX{.}.nXbXrX#X+X#XwXrX+X+XXXXXXX}.}.`.).`.].`.x.x.x.l.k.k.a.t.a.r.w.w.w.[ &./ - % &   1.*XA.[.A.V.H.h.V.h.h.h.h.h.1.1.h.1.1.1.:.:.4.:.......:...z W W _ _ _ _ _ _ ..=.' :.:.:.1.u.:.t.h.f.f.z.m.@.o.@.P P o.4.Q.V.n.b.h.9.2.4.X...X.4.=.>.1.2.,.8.8.b.m.N.M.M.V.V.V.J..XI.g.a.g.m.A.A.S.H.S.|.[.|.I.{.{.{. XoX,XlXS.b z T.3.O.O.3.,.3.3.a.2.Y.Y.N.Y.Y.U.[.U.U.U.Y. XfXBXAXAXBXAXAXBXzX Xa.7.| 7.T T T 5.7.T T 5.5.6.5.q.0.n.n.n.B.B.q.q.q.0.0.n.K. X,X,XOX].].}.|.|.|.(.(.l.l.(.l.f.a.a.p.r.r.:.-.-.:.n 4.*X-XQ.&XR.%XR.R.R.R.R.R.P.K.K.Z.I.K.K.C.C.!.~.@.#   4 4 < t 6 * p N & t t t y p d d f 9 c c h h Z D Z c U c a q.>X^.^.-XR.Z.n.B.q.n.n.N.0.9.Y.,.,.,.6.6.3.O.#.@.P ..>.Y.S.S.U.m.U.U.|.U.5XY.c 8 7 H 3 a p 7 p 5 5 6 6 6 1 1 , 1 < , < , , , < , 1 > 6 6 4 6 6 6 6 , 6 6 7 1 r 4 6 6 1 3 p 7 , > r W ` ^ ^ { { ] { { { y.{ *.a.Y.6.#.5.6.%.<.g.|.{. X XQ.Q.Q.Q.Q.Q.Q.Q.Q.E.Q.Q.Q.K.Q.Q.Q.K.K.Q.K.K.Q.Q.Z.Q.Q.K.Q.K.Q.Q.Q.Q.Q.Q.Q.F.h.$.x c c f %.{.oX`.S.S.|.S.g.l.l.a.S.a.<.a.{.4X5X.X;X.XQ..X;XOX&XQ.Q.Q.Q.Q.Q.H.H.Q.H.Q.Q.V.Q.m.Q.h.P.8.=Xb.* * t * B * & & * * < * * r 9 x n n 9 z n M M M M n L n v n L L L L L L L ..L L L o..._ o...o...o.o.:.o.o.@.4.o.4.h.h.h.t.t.t.t.y.:.-.:.&.' ` ` ( ( _ ~ W ( _ $.=.=.:.:.:.:.1.u.h.h.h.z.z.m.H.z.H.F.H.H.Q.`.Q.OXQ.OXOXOXoX<X,X,XeXBXIXBXZXAXBXjXlX XM.6.3.1.,.2.2.2.1.,.@.>.>.@.X.| X.%.O.>.3.3.@.6.n.K.>X5X!. X=X5X=X X5X,X%X X5X5X5X=X{.|.[.|.U.S.S.A.l.l.Y.l.a.a.a.e.e.&.e.*.*. . .) 0 r r i u u t r r u y i a u u i =.d.=.:._ 1.l   & .   P SXKXZXFXFXFXPXZXLXHX! X.=...%..._ .._ n l n W ( _ ( ( ' _ $.-.-.r.w.-.u.' .X8X1X;X4X1X;X;X1X;X1X;X;X1X;X1X;X;X;X1X1X;X1X;X;X;X;X;X;X;X*X;X.X;X;X;X;X;X;X",
"%Xx B %.'.rXnXbX@X#XXX$XoXoXOXXXOX}.XX'.}.).x.x.x.x.c.l.p.s.t.t.r.&.-.-.$.-./ r . *   m {.H.H.A.h.H.H.h.h.h.h.8.h.h.h.:.1.8.:.1.:.:.:.:.:.:._ _ z n n z W _ _ _ ' ' $.:.$.:.:.:.u.r.f.v.f.h.z.h.X.o.@.@.L P 8.Q.V.n.h.8.8.>.4.4.4.4.@.>.>.,.1.8.8.8.b.b.m.m.M.V.V.V.P.L.A.i.g.A.m.A.S.S.G.G.I.|.|.{.{.{.}.{. XoX'.eX5X*.k T.Y.Y.>.>.3.Y.Y.2.2.Y.Y.U.Y.3.N.U.Y.Y.U.lXZXZXZXAXAXAXzXAXcXU.O.U.U.7.n.B.0.0.q.0.0.q.0.0.0.0.q.q.0.q.0.q.q.0.q.0.0.0.N.M.]..XoXoXXX}.|.`.`.S.|.|.x.l.l.l.f.f.u.r.y.w.w.:.' / V.:X*X~.&X&X&X~.~.!.~.!.R.R.R.R.R.K.Z.K.K.Z.I.Z.Z.9.g X + 4 & * 9 * % c t t p p u d d d j j h g j c c c D v j F Z.>XR.R.~.R.E.U.N.n.0.N.0.Y.Y.2.6.3.3.,.O.O.>.@.o.o.>.d.S.l.a.Y.S.|.G.G.m.{.T.1 s 8 f f 8 9 7 7 7 7 < 6 > , 6 > , , 1 , , < , , < , 6 > 6 6 6 6 6 6 6 3 1 5 t 3 3 6 7 7 3 3 2 1 N W ( ( ^ ^ ^ ] ] { { { { e.a.Y.,.5.#.3.4.<.Y.S.{. X{.R.Q.Q.Q.E.Q.Q.E.Q.Q.Q.Q.Q.K.Q.Q.Q.Q.Q.Q.K.Q.Q.Q.K.Q.Q.K.Q.K.Q.K.Q.J.Q.Q.J.Q.Q.H.d. .G H G H ! Y.,X{.l.a.S.|.l.S.S.S.l.a.a.Y.|.,X4X.X;X;X;XQ.Q.Q.;XOXQ.].Q.Q.Q.Q.Q.Q.V.H.Q.m.Q.m.Q.V.J.J.o.& B r B B * * & * & * < 4 r u g x 9 n M M M M M M n L M L L L L L L } L o.L L o...o.L o.o.o.o.4...o.o.4.o.@.:.4.:.:.h.v.t.t.t.t.w.:.-.-.&.] ] ` ` ( ( ( n ( _ $.$.:.:.:.1.1.u.u.u.h.h.h.h.z.z.z.z.H.F.].].].].'.Q.OXQ.OXoXoX{.oXeXmXVXcXlX5XP.N.a.3.6.a.2.,.i.2.2.3.3.>.@.>.@.%.X.X.| o.X.>.,.3.@.@.6.N.J.!.5X5X,X X,X5X=X5X5X5X,X4X5X,X{.'.G.|.S.|.S.S.S.l.l.a.g.a.a.e.<.<.<.*. .$.} ! z i r r t t i u y y t u i y i N i >.:.r.$.r./ X   . C.JXKXHXIXHXFXHXJXFXLXHXb %.=.%.%.........n l n Q Q ( ( _ ' ' $.$.' :.w.-.&.u.*XeX5X1X4X;X2X;X;X;X;X1X;X;X;X;X1X1X;X;X;X;X;X;X;X;X;X;X;X;X;X;X;X;X;X;X;X&X;X",
"A 8 a j g } V.OXbXuXrX#X$XXXOX+X'.}.}.|.).x.x.).x.c.c.k.k.t.t.a.t.*.-.-.[ *...n . * . $ Y..Xz.H.h.H.H.h.h.h.h.h.h.8.h.8.h.:.:.:.:.:.:........._ W n n _ _ _ _ _ $...$.:.:.:.:.:.1.u.h.t.f.z.h.u.o.@.o.@.v o.Q.Q.m.m.8.8.,.=.4...X.@.:.>.>.1.1.8.d.b.b.N.n.M.V.V.V.L.P.D.g.d.m.A.A.A.A.S.G.U.|.I.|.{.{.{. X XoXoX5X,XwX5XN.b b 3.2.,.3.2.Y.,.6.2.Y.U.Y.Y.N.6.Y. XBXIXSXBXBXBXBXBXnXZXAX5Xl.U.|.|.M.m.b.b.b.b.6.6.0.0.0.0.q.q.q.0.5.q.0.0.0.0.0.0.0.6.6.n.I..XXX{.{.|.|.(.|.(.S.l.l.f.f.a.a.t.u.:.:.e.! 2.4X4X&X:X&X-X&X&X~.%X~.~.!.~.!.R.R.R.R.R.Z.!.K.B.!.~.B.v X $ r & & t y < 4 t t t p f f u j j g f j c Z c H f H 5.R.&XR.R.R.R.E.E.B.0.0.0.Y.0.Y.6.,.,.3.#.O.>.O. .X.>.d.m.a.l.S.|.S.U.S.N.=X<XT.2 Z f 3 s p p p 7 6 3 6 6 , < < , , < > , , 1 < 6 1 , 1 > 1 6 6 > 6 > 6 6 , 6 7 5 6 6 6 6 , , r k W ] ] ^ ^ ] ^ ] ] { { y.*.Y.Y.a.3.3.7.%.X.a.G.{.{. XR.P.Q.Q.Q.Q.Q.Q.Q.Q.Q.Q.Q.E.Q.Q.Q.E.E.K.Q.Q.K.Q.K.Q.Z.Q.Q.V.Q.K.K.K.Q.Q.Q.Q.Q.Q.Q.H.{.i.! N N x T.%.{.{.{.S.S.S.A.l.l.l.Y.p.a.a.U.,X;XOXOX.X.X.X.XQ.Q.Q.Q.Q.].H.Q.H.H.Q.H.H.Q.h.Q.h.h..X1.4 * r 4 4 0 & * & & * * < * 4 i z M 9 9 n M n n M n L M M v n m L L L L / } L o...L o.L ..o.o.o.....4.4.o.o.4.4.4.:.:.h.h.f.t.j.r.w.w.w.-.&.' ' ` ` ( ( ( W Q _ $.=.:.:.:.r.1.1.h.h.h.h.z.H.m.H.H.F.H.H.].Q.].Q.OX}.OXOXOXoX,X,X,X,X5X XU.3.Y.Y.Y.N.N.Y.N.Y.Y.Y.2.1.<.>.>.@.<.%.o.X.X.| o.4.@.>.>.3.3.3.3.,.n.R.;X5X4X5X5X;X5X5X5X5X5X,X X{.{.|.[.|.S.S.S.l.l.g.g.a.a.a.a.e.<.*.*.*.*. .T.T.b t < B r y u t i t t p t i i 4 z =.1.>.d.k   B >XLXLXFXIXHXSXHXFXPXHXLXZXl >.=..........._ n l n Q _ ( _ ' _ ' :.&.[ :.t.:.$.[.4X4X;X1X;X;X1X;X;X;X;X;X;X;X;X;X;X;X1X1X;X;X1X;X;X;X;X;X;X;X;X;X;X;X;X;X;X;X;X",
"c F R D s p d 9 ;.F.@XuXrX$XXX}.+XXX'.'.].).`.x.x.x.c.k.l.s.t.t.t.-.-.&.' $.-...* - $   x .XH.A.H.V.h.h.V.h.h.h.h.:.:.h.1.1.1.:.:.>.:.....:._ L n W _ n L _ _ _ _ ..$.$.$.:.:.1.u.r.r.p.h.z.h.4.o.@.o.I L 8.Q.V.n.b.8.8.=.4.X.o.=.>.@.>.,.8.,.8.8.b.N.M.m.M.D.J.V.Q.L.m.u.m.S.l.A.S.S.S.|.|.[.|.{.|.{.oXoXoX X,X,XoX,XeXeX X*.b %.3.2.2.,.6.Y.Y.N.3.n.R.Y.*. XBXIXZXBXBXAXBXnXzXAXBXAXAXeXl.(. XF.G.A.h.m.m.N.Y.9.9.6.0.5.5.q.5.0.6.6.6.6.0.0.0.0.0.6.,.,.m.I..X{.{.|.|.|.l.x.x.l.l.g.p.f.p.r.e.;...( {.iX;X:X>X-X-X-X-X&X-X^.&X&X~.%X~.!.!.!.!.!.!.!.Z.K.!.!.!.X.# X 4 4 4 t & t 5 t t t y u f f g a j c v Z c a c @.B.Z.Z.E.R.R.R.R.R.U.q.N.6.6.Y.6.6.,.,.>.O.3.O.| | >.h.m.m.U.S.S.l.Y.|.*XeXgXzXY.2 Z Z 1 s p t p 7 6 6 6 6 > , , > , > , , > > , > > , > , 1 1 , 6 6 6 > 6 , 6 6 3 3 3 , 6 , t z ~ ^ ] ^ ] ] ] { ^ { { { e.a.2.6.3.#.3.O.*.i.M.[.[.{. X!.R.Q.E.Q.V.Q.E.Q.Q.K.Q.Q.K.Q.K.Q.Q.Q.Q.K.K.Q.K.K.K.Q.K.Q.Q.E.Q.Q.K.Q.Q.Q.V.J.Q.L.L.U.S.i.%.m d c c X.S. X|.g.A.|.l.l.l.l.S.a.<.a.a.Q.;X;XQ.Q.;XQ.L.Q.Q.H.Q.Q.Q.H.Q.Q.m.Q.V.m.Q.V.H.J.Q.v $ B B 4 4 * * & & & = < * 4 B 9 g n z x z 9 n M n 9 M M L L n L m m L L L L o.L L L ..o.o...o...o.o.4...4.4.o.4.4.4.:.:.m.f.v.t.t.y.r.:.-.-.&.] $.' _ / ( ( ( _ $.:.$.=.:.r.1.u.1.h.u.h.h.h.z.z.F.F.H.].H.].].].].OXQ.OXOXoXoX,XeX,X[.N.Y.U.n.U.N.U.N.Y.Y.Y.2.i.2.,.3.>.>.=.@.X.%.4.o. .4.X.O.@.>.3.3.6.,.6.6.Y.U.&X1X5X5X1X-X5X1X4XeX.X{.{.'.[.|.G.|.S.S.S.m.l.g.l.a.Y.a.e.e.;.*.*. . .)  .T.l i 0 r r y r r i t t t t i z & / / >.n   i AXLXLXZXFXHXFXJXJXGXPXHXKXCXl <.=.=...4...$._ / n Q Q Q _ _ _ $.' $.&.&.:.r.:.1.<X3X<X;X;X;X;X1X;X1X;X1X;X;X1X;X;X1X;X;X;X;X;X;X;X;X;X;X;X;X;X;X;X;X;X;X~.;X&X;X",
"H H h v U P 9 7 6 d X.A.+XrX@X#X}.}.'.'.}.|.|.S.x.x.l.k.f.s.p.t.e.e.w.-.$.` ' $.l . 4 X + n..XA.H.h.H.V.h.h.h.h.h.h.:.1.h.:.:.:.:.4.:.....:._ W n l n Q _ _ _ _ ..$.:.:.:.:.1.:.1.h.r.f.z.z.8.X.o.o.o.v @.Q.Q.n.m.b.8.,.>.4.X...@.=.>.>.1.,.8.b.b.b.n.V.V.V.D.V.J.L.D.a.a.S.S.A.S.S.S.G.U.I.|.{.|. X{.{.oX XoXoX}.wX,X,XeXbX5XY./ *.3.Y.Y.a.Y.n.N.6.Y.n.Y.U.jXHXBXBXnXMXBXBXBXZXSXBXBXZXAX5XU.l.G.].[.G.G.G.U.S.m.m.N.d.0.8.,.,.6.6.5.6.7.6.6.6.7.6.0.0.6.,.6.0.[.{.{.|.|.x.S.S.l.l.g.f.f.a.p.e.;.~ 2.iX9X&X6X-X-X>X5X-X-X-X&X&X&X&X&X&X~.~.~.!.~.!.!.~.!.K.K.!.:X9.& X 5 4 & 9 4 4 t t p a y p a a d j j c j g f | q.B.6.B. XE.E.R.Z.E.Z.B.n.Y.,.,.6.3.3.3.#.O.3.X.*.<.Y.S.m.l.l.S.l.U.*XeXkXhXsXBX!., 7 Z 8 f p 7 7 7 6 , 6 4 , > , > , > , > , > 6 > , > , , , , , 1 > 4 , > 6 6 3 6 ; 6 6 4 e W ( ^ ^ ^ ^ [ ] { { { { *.<.a.6.5.3.#.#.O.%.<.D.].'.G.[.!.!.P.E.Q.Q.Q.Q.Q.Q.Q.Q.Q.Q.E.K.K.Q.K.K.K.Q.K.K.K.K.Q.Q.Z.Q.Q.V.Q.Q.K.V.Q.Q.J.Z.Q.Z.Q.G.S.G.U.i.c f H b T.a.|.U.U.x.S.S.S.l.a.a.l.a.e.r.Q.;X;X.XL..X.XQ.].Q.H.Q.H.Q.H.H.Q.m.V.Q.m.V.V.Q.8.B * i * r 4 4 * & = % * & 4 * * 9 N M 9 n n n n M n L n n L L L m L L L L / ..L L o...L _ o.o._ o.4...o.4...4.4.4.4.4.4.:.h.f.v.t.t.t.y.-.w.-.&.&.' ' ' _ _ ( Q _ $.:.:.:.1.r.r.8.r.h.h.h.v.v.h.F.H.H.F.H.].`.].Q.Q..X.XOX*X,X.X<X<X=X[.U.I.C.V.N.N.i.i.,.2.Y.2.2.3.3.3.>.>.4.X.X.X.X.} } X.X.O.O.@.,.,.9.6.9.9.6.6.Y.Z.&X4X3X4X4XeX4X<X,X'.{.{.|.[.|.G.S.S.S.l.l.l.l.g.a.a.a.;.&.;.&.%. . . . .! b i r 4 r r r r r t 4 4 r B B w M m./ C.HXKXHXZXPXPXPXLXPXJXGXJXJXKXBXN 1.>.=.$.%....._ L W Q _ ( _ ( _ [ ' $.&.r.:.-.r.A.4X4X;X:X1X:X;X1X;X1X;X;X;X;X1X;X1X;X;X;X;X;X1X;X;X;X;X;X&X;X;X;X;X:X;X;X;X;X&X;X",
"Z H c H c j j U j 9 7 t m 1.{.wX,X}.}.|.|.`.(.`.x.x.c.c.f.s.s.t.y.e.e.-.*.' ` ` ) = & @   P [.A.h.V.h.h.h.8.h.h.h.8.:.8.:.8.1.:.:.>...:.:...L z W n _ _ _ _ .._ ..=.$.:.:.:.:.u.u.f.r.h.h.m.>.o.o.+.o.v n.Q.8.n.b.8.8.@.4.4.4.4.>.>.2.2.2.8.8.d.b.m.M.m.V.V.V.L.Q.H.m.d.g.S.S.A.S.S.S.S.[.|.[.[.{. XoX X XoX,X,X5X,X,XwX5XwXeXyX[.<. .%.N.Y.6.Y.Y.U.N.*.Y.jXIXAXMXAXBXjXBXAXAXZXBXBXBXBXZXAXlXU.H.S.G.G.S.S.x.A.A.A.A.A.m.h.h.d.i.Y.6.,.6.6.5.5.#.5.6.6.5.5.5.#.6.g.U.[.{.S.x.x.x.l.l.k.f.p.r.u.*.%..XdX>X-X0X5X>X>X>X>X:X:X>X-X-X-X-X&X&X&X&X&X!.!.!.&X~.!.K.Q.!.>XQ.h . # * 4 5 4 1 t t t p y u a d g g a y a G ,.B.N.6.B.~.B.B.B.B.U.R.Z.B.0.6.3.>.@.3.#.>.O.T.O.3.Y.l.Y.a.g.S.U.5XlXhXkXaXlXeXfX2Xc # V s 8 5 a 5 5 6 6 4 6 > > > > > > > > > 1 > , < , > , , 3 , , 4 , > , 6 6 , 6 > 6 4 k W ^ W [ ^ ^ [ ^ ] { { { e.<.3.7.3.O.3.3.O.*.<.S.[.[..XL.P.!.Q.K.Q.Q.Q.Q.E.Q.K.K.K.K.Q.Q.Q.Q.K.Q.Q.Q.K.Q.K.Q.K.K.K.K.Q.Z.Q.Q.V.K.Q.Q.Q.Q.Q.Q.Q.Q.%XI.U.S.|.m. .t N N T.<.U.|.U.g.l.l.S.l.l.l.a.a.:.1.h..X;X;XQ.Q.Q.Q.Q.Q.Q.Q.V.Q.Q.H.Q.H.V.H.Q.m.L.n $ r y * 4 B * & = & & & * & * * 4 u n 9 z 9 n 9 n n M n n M n m L L L L L L L L L ..L o.o.L ..o.o.....4.o.4.4.4.4.:.4.:.:.8.h.f.v.t.f.w.r.w.w.-.&.$.[ ' ' _ _ Q ( _ :.:.:.:.1.1.u.h.h.h.h.h.H.H.z.z.F.H.H.].Q.XX].OXOX.XOXOXoXoX<X,X{.m.N.M.Y.N.N.n.n.N.N.Y.2.<.3.<.<.>.>.>.4.o.X.X.} } | } X.X.X.X.#.3.,.,.Y.6.N.6.Y.Y.U.R.5X3XsXlXeX{.'.,X}.{.{.].L.|.|.S.S.S.A.g.g.l.a.a.a.<.;.;.%.*.$...Q T./ ! z i r B r r < r r r t r i N & w * i LXKXFXSXPXJXFXPXLXFXLXJXLXLXKXcXk 1.=.=.4.=....._ Q Q n Q _ _ _ ..[ -.' &.r.:._ h.=X4X<X;X;X1X:X;X;X;X;X;X;X;X1X;X;X;X;X;X;X;X;X;X;X;X;X;X;X;X;X;X;X;X~.;X;X;X;X;X;X",
"F j a j h D c j j h j 9 6 5 c } }.+X,X}.|.`.(.`.x.x.c.l.k.k.s.s.y.y.;.*.$.[ ` ~ $.N o : X $ d.L.H.h.V.h.h.h.h.:.h.h.h.:.:.:.1.@.4.:.:......._ z n n L L _ _ [ ..$...-.:.:.r.:.1.:.h.f.h.h.d.@.o.X.o.v o.Q.Q.8.n.8.8.,.:.4.4.4.@.>.>.1.,.8.8.9.b.b.m.M.V.V.J.J.J.{.m.i.g.A.A.S.S.S.H.U.|.I.|.[.[.{.}.{.oXoXoX,X,X,XwXwX,X+X5XeXeXyX,XY.<.3.Y.Y.Y.6.N.Y.Y.lXIXIXhXjXBXBXVXIXZXBXnXzXIXAXBXAXZXZXlX{.H.|.[.|.G.|.S.S.S.S.A.A.A.V.m.f.Y.i.Y.6.,.,.3.6.,.#.#.#.5.5.3.#.3.6.N.U.|.|.S.(.l.l.l.f.a.u.r.$.S.iXpX3X2X7X7X7X2X2X2X>X>X:X>X:X:X:X-X-X-X-X&X!.&X-X~.!.~.~.~.!.Q.>X-XP # $ & 4 4 4 r t p t y y d d d y y g v 6.Y.Y.6.Y.n.R.n.B.M.q.U.B.q.n.n.6.,.O.O.O.+.O.O.*.O.Y.a.Y.S.|.I.5XeXgXlXlX4X4XlXeXsXfXq.; 7 f p p 5 7 5 6 6 6 > , > > , , > > > > , > > , , > , , , , , > < , , , 3 , > 4 i N l [ ( ^ ^ ^ ^ [ [ { { *.e.<.O.3.6.O.<.O.O.O.<.N.U.[.[..XQ.Q.Q.K.K.Q.K.Q.K.Q.Q.Q.K.Q.K.V.Q.Q.V.K.Q.K.K.K.K.K.K.Q.K.K.Q.V.Q.Q.K.K.Q.V.V.Q.Q.Z.Q.Z.Q.C.P.L.S.U.[.U.%.c f N x %.m.|.S.a.l.S.S.l.l.Y.a.h.:.:.h.Q.;X.XQ.].Q.Q.H.H.Q.Q.H.Q.V.m.H.Q.m.Q.H.=.B & i r 4 & * * * = % * % & B B * 4 u M x z z 9 L L M M L v L L m L L L L L L o.} ..o.....L ..o...o.4.o...4...4.4.4.o.4.:.4.:.v.z.f.f.r.t.t.r.-.-.-.[ [ ' ) ) _ ( Q ..:.=.:.1.r.1.8.r.h.h.h.h.h.H.F.F.H.H.].H.Q.H..X.X.XOXOXoXoX<XwX<X[.M.M.U.V.N.N.Y.i.2.2.b.2.,.3.>.>.4.>.>.4. .4.o.m 3.Y.m | X.O.4.4.@.5.,.,.6.6.n.B.M.N.6.I. X3XeX<X{.}.wXoX{.{.[.[.|.G.G.S.l.A.A.g.g.g.a.a.e.;.;.&.*.$. . ./ / / ! x k 0 0 r 4 4 4 r r r u r 0 r o < KXPXFXPXPXLXLXHXHXLXJXLXLXLXKXmXN 1.=.=.%...%...../ Q _ Q _ _ ' [ [ ' -.w.y.:.*.H.eX<X1X;X:X:X;X<X;X1X;X1X;X;X;X;X;X;X;X;X;X;X;X;X;X;X;X;X;X;X;X;X;X;X;X;X;X&X;X;X;X",
"G c j Z Z V A j j h h c c j 6 4 q ^ |.,X}.}.|.(.x.(.c.c.k.p.t.t.e.t.w.*.&.&.] ` $.) X ; &   $..XV.h.h.V.h.h.h.8.h.h.:.8.8.1.:.:.:.:.:...:._ W z n W _ _ _ _ _ ......:.:.:.:.u.:.h.h.f.f.m.8.4.4.I I v 6.Q.V.V.n.8.8.1.4.4...4.>.=.3.3.1.8.8.b.b.N.N.m.V.V.J.H.J.I.A.i.A.A.A.m.|.S.S.G.G.[.I.{.|.{. XoX XoX XoX,X,XoX,XwXeXeXrXrXeXgXsX[.*.>.Y.Y.N.3.O.lXIXAXgXBXBXBXAXZXZXnXgXjXIXAXBXZXZXVXSXHX;X[.G.{.{.I.|.G.G.`.H.H.A.m.m.z.A.l.m.g.g.a.a.,.3.,.5.3.3.#.#.7.5.#.+.>.a.U.S.|.x.S.l.f.l.f.u.u.! <XjX6X9XdX>XlX6X6X6X3X2X2X2X>X>X>X>X:X:X:X-X-X>X-X-X~.~.*X&X!.~.~.Q.&X>X9.4 X 4 4 6 4 1 t a t y y y d d d v +.0.6.3.6.6.3.B.B.B.q.B.q.n.0.n.n.0.6.>.O.O.O.O. .O.a.Y.a.S. XeXlXlXlX4X5X4X3X3X3XtX;XzX-X8 , f p 7 t 5 6 6 , 4 & > > > ; ; > ; , , > > , > > , > , ; > , , 1 , , , ; ; , 4 k W ( ^ W ^ ^ ^ [ [ { { { *.<.7.a.3.2.<.3.%.*.%.Y.|.|.[.|.L.Q.Q.J.Q.Q.K.Q.K.Q.K.Q.K.Q.K.K.Q.Q.K.K.Q.K.Q.K.K.Q.K.K.Q.K.K.K.Q.K.K.K.Q.V.Q.Q.V.Z.K.K.Z.C.R.P.[.{.|.g.l.[.<.H d N x c <.{.|.U.a.l.l.a.l.S.h.z.8.[ :.H.;XOXQ.Q.Q.Q.Q.H.Q.H.H.Q.m.Q.V.H.V.Q.M - 4 w & r & * * * = = % * & * * * 4 i z n 9 9 M n 9 n M M M n m n L L L L / L L } L L L o.o.o...o...o.o.4.o.4.4...o.:.4.:.:.:.h.h.h.f.t.r.r.:.w.e.-.-.*.$.' ' [ Q L ' :.:.:.u.:.1.u.h.h.h.h.h.H.z.F.H.F.].].Q.XX].Q..X.XOXOXoXoXoX,X.Xm.d.U.J.N.N.N.b.b.Y.2.2.2.<.3.>.4.4.4.4.X.| 4.} m M.J.v o.X.X.@.@.@.,.,.5.6.Y.6.6.0.B.B.Y.n.P.5XwX,XoX{.oX{.|.[.[.G.|.U.S.S.l.g.g.l.a.a.a.a.;.;.*.*.$.$. . .! ! T.Q N i 4 0 4 4 4 4 4 r $ $ 0 t 4.  %XKXPXJXHXHXLXKXJXLXLXLXLXKXKXjXN 1.<.=.=.%...=.../ Q L ( _ [ _ $.:.&.:.:.:.-.1.L.iX;X;X:X:X;X;X;X;X;X:X;X;X;X;X;X;X;X;X;X;X;X;X;X;X;X;X;X;X;X;X;X;X*X;X;X;X;X;X;X;X",
"h Z j Z j j j h h h g j j g a j p 6 < c 2.G..X{.).(.k.k.k.l.a.s.f.r.&.[ &.&.$.` Q $.i   0 o o U.L.m.m.m.h.h.8.h.h.:.1.8.:.:.:.:.:.4.:._ 4.L n z Q _ _ _ _ _ ' $._ :.:.:.:.e.r.p.f.h.u.m.d.=.:.o.>.N >..XQ.b.V.8.8.2.@.4.4.4.4.>.>.,.8.8.8.8.8.h.9.V.V.V.V.Q.Q.L.g.g.l.S.m.l.S.S.U.|.U.[.[.[.{.{.{.{.oX,XoX,X,XwX+X5X5XwXwXeXrXeXwXeXyXnXlXa.*.a.Y.<.5XZXBXjXAXAXZXCXBXmXjXjXjXAXZXZXZXAXZXZXZXAXHXgX|.U.{.'.].'.|.].G.G.S.U.U.m.A.A.m.l.l.g.d.d.i.a.i.a.1.;.<.>.#.#.+.#.#.,.8.8.z.A.F.t.e.p.u./ %X9XfX0X9XpX0XiX6X3X6X2X6X7X7X7X7X2X7X2X>X>X>X-X>X>X;X/.;X^.~.;X&X-X~.~.~.>XR.c   > y 4 < t u t a y d g y t P n.3.3.5.5.3.,.9.n.b.N.n.n.q.9.9.0.6.6.5.,.@.P P o.>.9.L.;X3X4X4X;X4X4X1X4X4X4X4X4X2X;XiX9XO.@ p t 9 6 6 6 , , 6 ; > > > > > > > > > > 4 > > > > > > , > , , 6 ; 6 & * e e W ^ ^ W ^ ( ( [ [ ] { { [ y.1.,.#.#.>.O.3.X.o.;.g.|.[.].L.L.Q.Q.K.Q.K.Q.K.P.K.P.P.I.K.P.P.I.P.I.P.Q.I.P.Q.Q.V.Q.Q.Z.K.K.K.K.K.K.K.K.K.Q.Q.C.Q.V.I.I.K.K.{.I.I.I.I.J.S.M.S.S.<.c t c H T.U.S.S.x.A.p.p.g.u.u.f.p.:.*.l.=X{.{.P.[.L.J.L.Q.Q.m.Q.Q.m.Q.Q.:.$ * 4 4 B * * * B & $ $ & = $ 4 B 4 0 r g x x x M z M M M M n M n v L L L L L L ..L L L L o.o.....o.o...4.o.o...%.4.=.4.@.4.=.=.;.l.l.c.k.f.f.r.e.w.w.w.-.{ ' ' ' _ ( ( :.u.:.r.h.:.h.h.h.h.h.v.H.H.v.H.H.H.H.H.OXH.OXOXOX;XOXOXOX;X.XH.m.V.V.m.N.b.b.b.2.2.i.2.2.i.>.>.4.4.4.X.} o.| m @.&X-X4.T.| O.X.3.3.O.Y.2.3.6.Y.Y.N.B.N.B.J.M.U.<XwX{.+XOX{.'.'.{.[.G.S.F.S.A.A.l.g.a.p.a.u.e.;.;.%.$.$.) ) ) ! ! ! b b w 0 0 0 w * * * k N o.2.o.X @ K.KXLXLXJXHXKXKXPXLXLXKXPXKX<Xm <.>.>.=.=.$.%.' n / ~ ) _ ' ' ' [ r._ :.r._ H.8X<X;X;X2X;X;X;X:X;X;X;X;X;X;X;X;X;X*X;X*X*X;X;X;X*X;X;X*X;X*X;X;X;X*X*X*X*X;X*X;X*X",
"h v v j v j h j j j j g j a g j j j a < * i *.l.S.|.`.x.k.s.s.p.{ -.w.r.e.&.$.$.) %.b - % o o P Q.z.h.h.h.h.h.h.h.h.h.:.1.1.:.:.:.4.....:._ n n Q _ L _ _ ' ..$.1.$.' $.;.f.u.r.:.r.h.D.2.o.X.X.} L 8.Q.D.n.m.8.8.>.>...4.@.:.,.:.8.1.1.h.8.b.m.b.M.V.V.m.Q.L.Q.g.g.m.A.S.S.U.|.|.U.|.[.[.[.{.{.{.oX XoXoX X,X,X,XwX5XwXwXeXrXeXeXbXeXrXgXgX X*. . XcXVXjXBXAXAXAXBXBXcXzXjXAXPXSXZXZXIXZXZXZXSXHXAXlX[.S.{.{.[.{.|.[.].G.[.G.U.S.S.A.A.A.l.m.l.g.h.p.i.i.a.1.a.>.:.@.o.+.+.+.@.d.d.h.z.l.l.p.a.fXfXdX0X0X0XpX0XqXpX0X0X0X0X0X9X6X2X2X7X2X2X7X>X-X:X;X:X:X:X:X^.-X^.5X-X&X-X>X-X@.&   < d & % a r y p 4 t G O.,.@.@.3.,.,.@.6.n.n.0.0.6.6.9.6.0.5.0.6.>.I P @.N.%X=X*X5X1X1X;X,X<X1X1X1X1X4X4X<X4X5X4XsXn., , a 6 6 6 6 6 , 6 > > > > > > > > > > > > > > > > > > > , , , > ; > 9 w z e W W W ^ [ ^ [ [ [ [ { [ w.-.3.3.@.3.>.>.O.X.@.a.S.G.|.[.L.Q.Q.J.Q.Q.K.K.K.P.P.P.Q.K.K.Q.I.P.P.K.I.K.K.I.Z.Q.Q.Z.V.Q.Q.Q.V.Q.Q.K.K.K.K.K.Z.Q.C.Q.Q.P.I.K.I.I.R.{.L.J.U.D.S.S.Y.%.T.c p d x i.[.S.a.m.A.d.u.h.h.h.u.:.&.;.[..X%XL.L.P.Q.A.H.m.Q.h.m.Q.d.y B * * * 4 4 * $ X = * & - $ & & & 4 B 4 g v x x M M M M M M M n L v n L L L L L L L o.o.o...L L o...o.o.o...4.=.X.=.4.=.=.4.=.;.;.p.x.l.k.t.r.t.e.r.w.w.-.[ [ $._ _ ( _ :.:.:.:.:.:.h.h.r.h.h.h.H.h.H.H.].H.OXH.]..X.X.XOXOXOX;X;X<XQ.V.V.V.V.m.N.N.b.Y.Y.i.2.2.2.3.<.@.4.O.X.X.X.o.m X.U.%XR.J.T.T.>.O.O.3.O.Y.6.6.3.6.Y.Y.0.B.B.C.M.U.,X,XoX,XoX{.{.'.'.].G.|.G.S.A.l.l.g.g.a.i.u.<.;.;.*.*.$... .) / ! ~ n n n i = $ = w N T.X...<.>.P 4   # qXLXLXJXLXLXHXKXKXLXKXPXKX<X/ 1.<.=.=.=.=.%...Q ( ) ( ` ' ' -.&.-.-.r.:.4.Q.8X;X;X;X;X;X;X;X:X;X;X;X;X;X;X;X;X;X;X;X;X;X;X*X;X*X;X*X*X;X;X;X*X;X;X*X*X*X*X*X*X*X",
"v v j v h g h j j j j j d j a a 6 f j s t 6 4 r  .r.S.|.|.j.s.e.f.t.-.-.' ` ` ` )  .! r o o O o H.A.h.z.h.h.h.h.1.1.h.1.:.1.:.1.:.:.o.:.:._ z W Q n Q _ _ ' ..$.$.-.:.u.r.:.:.1.h.H.m.b.>.o.o.o.x ..V.Q.V.h.n.2.1.>.=.4.4.:.@.1.:.,.8.h.b.8.n.m.m.M.D.J.Q.H.m.m.g.l.A.l.S.S.S.|.U.|.[.|.|.{.{.{.{.{.oX,X,X,X,X,XwX5XwXwXwXeXeXrXrXlXeXyXbXnXgXlX,XIXPXAXBXIXIXZXzXjXjXgXjXzXAXHXHXIXSXSXIXZXZXIXAXPXIXgXL.[..X,X{.[.[.|.|.G.G.U.A.H.A.A.A.m.l.l.A.l.l.g.g.g.i.p.u.u.<.>.@.o.+.o.P o.1.A.S.-.*.S.fXfXdXdXxXfX0X0X0X0X0X0X6X9X6X6X6X6X6X6X2X6X2X6X>X>X7X>X>X>X>X>X5X-X&X5X-X X-X6X>X0.t O & y t > p d y r c 3.6.+.O.@.@.@.O.#.3.6.6.Y.6.6.6.,.6.6.3.,.3.@.@.h.Q.!.1X:X;X&X=X=X*X*X;X,X;X;X;X;X;X5X4X;X;XiX&Xc # j 6 9 6 4 , > > > & ; > > > & : > > > > > > > > > > , , , ; > & & 9 e W W W W [ ^ [ ^ ^ [ [ { -.-.;.<.<.>.O.3.#.O.} 4.i.S.G.[.G.G.Q.Q.Q.Q.K.I.I.P.K.P.P.I.Q.K.Q.I.P.K.P.I.I.Q.P.P.Q.Z.Q.Q.Q.Z.Q.Z.K.Q.V.K.K.K.K.K.Q.B.Q.Z.J.K.I.K.I.R.I.I.L.I.J.U.S.l.S.U.Y. .N N d N o.M.G.A.f.l.u.h.u.u.a.g.u.%.<.S. X[.L.L.I.J.h.Q.m.h.Q.Q.=.$ B r r r 4 $ $ - 4 x L i . $ B $ * 4 * 4 g x x x g x M M n M n n L n n L v L L L L o.L ..L ..o.o..._ o.4...4.4.o.4.=.4.4.4.=.=.>.;.a.l.l.v.f.t.r.r.y.w.-.-.-.:.$.' ' _ _ =.r.:.1.:.h.1.h.h.h.h.H.v.H.v.H.H.].H..X]..XOX.XOXOXOX;X<XOXH.m.V.V.b.n.b.b.b.Y.Y.2.2.2.3.>.@.%.4.X.X...4.L P M.*XK.J.;Xo.G %.O.| >.>.O.3.3.6.Y.6.q.0.N.n.B.M.U.[.,X,XoXoX{.{.{.[.].].G.S.S.S.A.l.g.f.g.f.a.r.;.:.;.*.$.) ) ) ! ~ ! n n m N i i N c } =.| 4.3.T.y r @   < jXKXLXLXKXJXKXKXKXKXPXKX=X/ 2.>.=.:.>.%.=.' n ( / _ ` ' $.[ &.{ r.:.$.h.;X8X;X;X;X;X;X;X2X;X;X;X;X;X;X;X;X;X<X;X*X*X;X*X*X;X;X;X*X*X;X*X*X;X&X*X;X=X;X;X;X;X*X",
"j j j h j h h 9 g j g a a d 9 s f p p f d a 5 & % B b %.p.S.S.c.r.w.-.w.e.w.] ` _ Q ..z . + : X ..Q.m.h.m.1.h.8.h.1.1.r.1.:.:.:.:.4...:._ n z Q Q ( L _ ' ....[ -.w.:.:.;.r.h.S.h.d./ n o.4.o.o.N 8.Q.C.b.n.b.2.>.>.@.X.@.4.>.>.,.8.8.8.b.h.b.m.m.V.V.J.Q.Q.m.h.g.m.A.A.S.S.S.U.|.U.[.[. X{. X{.{.{.,XoXoX,XwXwX,XwXwXeXeXeXrXlXyXeXyXyXrXgXMXbXl.gXMXBXBXBXaXsXgXaXaXaXgXaXgXzXFXIXHXIXZXHXIXZXZXHXPXSXkXP.S.{.OX{.{.{.{.[.{.|.[.].G.H.S.F.U.S.A.A.m.g.g.g.p.f.h.u.u.1.1.1.2.2.=.X.X.:.a.*.I.BXzXzXdX0X0X0XqXxXqXqXqXqXqXpXqXpX0X9X6X6X6X6X6X6X6X2X2X2X>X2X>X>X>X>X-X-X>X>X~. X:X9XR.g X & y < y 4 4 g | O.o.P O.+.O.O.O.O.@.,.6.6.9.,.5.,.3.@.3.@.X.>.V.*X;X;X.X=X%X%X=X=X=X*X=X*X*X*X*X*X*X,X5X<X%X3X6XO.# 9 6 6 6 6 > , > 6 > > ; > > : > > > > > > > > : < 4 ; > # ; , B w z z W W W [ W ^ W ^ [ [ { { &.=.@.>.@.4.>.O.+.O.X.<.N.G.G.[.G.G.H.Q.Q.C.Q.I.Q.Q.P.I.P.K.I.K.I.Q.I.I.I.P.I.I.I.I.C.Q.V.Z.Z.Q.V.Q.K.V.K.K.Q.V.K.K.C.Q.J.Q.J.Z.I.I.I.I.L.I.P.I.L.J.|.U.l.S.U.a.O.T.d d x G Y.U.H.p.z.z.h.u.u.a.a.e. .&.m.{..XL.V.L.H.Q.Q.m.Q.m.M = r r r * $ & r z | 4.3.P $ - * * < * B 4 i g x x M x n M v M n v L n v L L L L L L L L o...L ..L o.o...o...o...4.%.X.4.4.=.@.@.@.<.<.g.z.v.j.t.t.r.y.w.w.:.:.[ [ $._ _ ( $.;.1.r.h.:.h.h.h.h.v.v.H.v.H.H.H.].].H..XH..XOXOXOXOXOX<X.XV.V.m.n.n.h.N.b.2.b.2.,.,.,.<.>.4.4.4.4.X.o.| M ,.%X.XM.J.=Xb.! | >.O.O.6.O.3.3.6.Y.Y.Y.Y.n.B.n.B.B.G.=XwXoX{.oX}.{.[.].[.G.|.S.z.A.m.l.g.p.f.a.u.;.:.:.=.*..... .) ! ! Q n b z b } .... .o. .<.4.x < 4 4 &   g zXKXKXLXKXKXKXKXKXKXKXD...1.1.<.=.=.=.=...Q ( ) _ _ $.$.&.&.-.r.[ :.Q.8X1X;X:X;X;X;X;X;X;X;X;X;X;X;X;X;X;X;X*X;X;X;X;X;X;X*X*X;X*X*X;X*X;X;X=X;X;X*X;X.X*X*X",
"j c j j g j g 9 j d d j a a a a N g d p 4 5 9 9 6 < $ * u T.e.g.f.r.r.w.w.-.[ &.[ W ' / - . 2 X = Q.Q.1.h.h.8.1.1.8.r.1.1.:.1.=.:.....:._ z n Q L ( L _ _ ' $.$.[ :.:.r.h.d.a.%.N i - o x @.O.P L V.Q.V.b.h.8.8.>.4.@.4.4.=.>.1.8.8.8.b.h.m.n.m.M.M.S.L.I.[.S.a.N.l.S.S.S.S.|.|.U.|. X|.}. X{.oX,X}.,XoX,X,XwX,X5XwXwXeXeXeXrXlXeXbXgXeXyXMXyX&.*.|.eXlXlX4X4X9XlXaXaXaXaXdXlXjXjXZXHXHXFXIXFXIXPXZXZXPXHXnX.XL.{.{.{.{.'.[.[.].G.].G.G.S.S.S.S.A.A.z.z.g.l.f.f.u.r.u.p.u.r.u.u.u.r...%.=.%.M.aXjXCXZXCXVXxXqX6XqXqXqXqX0X9X9X9X0XpX0X0X9X0X6X6X0X2X2X2X7X2X>X>X5X6X6X5X-X-X>X>X-X>X6X5XO.o O d 4 < u P O.o.I o.o.o.o.o.o.o.O.@.,.,.,.,.@.#.>.>.2.>.2.D.*X1X,XQ.Q..X!.%X=X=X%X%X=X=X=X=X=X=X&X*X*X<X=X-X9XB.4 > 6 6 6 6 6 > < > > > > & > : > & > > : > : > > : > & ; # q w 9 z W W ( ( ^ ^ ( ^ [ [ [ [ { { =.>.>.O.O.X.%.O.+.| a.Y.S.U.H.H.L.P.Q.Q.Q.Q.C.Q.Q.J.P.I.I.I.Q.I.Q.I.I.I.K.Q.Q.I.Q.K.V.Z.Q.Q.Q.V.Z.Q.V.K.V.K.K.V.K.K.Q.B.Q.n.I.I.I.I.I.I.U.L.I.K.I.J.U.U.g.g.S.S.g.<.G c a t x :.V.H.A.f.p.l.p.a.e.<.a.*. .i.I.[.L.U.Q.H.V.Q.Q._ * 0 r * + & r m o.>.@.o.@.X.r . + r * < < B r N x x z M 9 M M M v L L v L L L L L L _ L o.L _ o.o.o.....o.....4.4.o.4.4.4.=.4.4.>.>.%.<.a.l.z.z.f.t.t.r.y.w.r.-.-.[ $.' ` _ ' :.u.r.h.:.h.h.h.h.h.v.H.H.H.H.H.].H.OX.XH.OX.XOXOXOX;XOXQ.b.n.m.n.8.b.Y.2.Y.2.2.2.<.3.>.>.4.4.O.X.o...v X.C.%XJ.M.K.K.R.o.v >.O.%.3.O.3.3.Y.6.Y.6.Y.N.n.n.U.B.M.{.<XoX.XOXOX{.[.'.G.G.|.G.S.z.A.A.g.g.d.u.u.r.:.=.*.*.$... .) / ! ! n b z M ! T.|  . .4.Y. .f N t @ # 4   N DXLXKXLXKXKXKXKXKXLXm...8.1.>.<.:.=.<.*.! / _ ` ' ' &.&.-.:.:.:.h.;X8X;X;X;X;X2X;X;X;X1X1X;X;X;X;X;X;X;X;X*X;X;X*X*X;X;X*X*X;X*X*X;X*X&X;X;X;X;X;X~.;X*X*X",
"g j j d j 9 g f a g 9 a a a 9 a t r y a t t 5 5 a p p 2 2 2 p x =.a.f.u.-.[ [ { -.( _ ' w . = %   :.H.8.h.m.:.h.h.r.1.1.:.>.:.:.:...4.4.L n l L Q Q _ _ ..$.$.$.1.1.u.r.4.L t * % % + % 9 X.P v 4.Q.Q.m.b.m.8.,.4.4.4.=.=.,.,.1.1.8.8.8.n.h.8.Q.U.M.U.L.[.S.Y.Y.l.l.S.S.S.S.|.U.|. X|. X X XoX XoX,XoX,X,X,X,X<XrX5XwXwXrXeXeXyXuXbXyXbXMXwXp.*.5X5XlXlX4XlXsXaXlXaXaXaXjXgXjXjXgXjXBXIXPXHXHXHXIXHXIXPXKXPXhX.X,X=X.X.X.X.X.X{.[.L.|.[.G.G.G.G.F.D.F.A.A.m.A.m.m.f.h.f.p.p.u.u.:.1.:.1.u. .b ! i | n.*XdXVXDXDXcXzXxXxXxXfXjXfXdXdXdXpXpXqX0XpX0X0X0X0X8X8X8X6X7X3X6X7X>X5X>X4X-X%X-X9X5X6.< X & t v | o.| o.o.| | | o.o.| o.+.,.,.@.4.4.>.1.2.=.d.L.*X*X.XQ.Q.Q.%X!..X.X%X%X.X.X=X%X%X=X=X%X%X.X;X=X%X1X~.P # 6 6 4 6 < 6 > > & ; > ; & > ; > : > > > > > & : ; & & 4 e e l W W W W ( W ^ [ ^ [ [ [ { -.:.@.@.O.O.O.O.|  .O.%.A.S.S.|.H.D.L.{.Q.V.Z.Q.Q.J.J.Q.I.P.Q.I.Q.I.I.K.Q.J.K.I.I.I.I.I.Q.B.C.C.C.Q.J.J.V.K.K.K.K.K.V.K.B.Q.V.Q.I.I.J.I.U.I.I.U.J.I.J.J.U.R.I.m.g.S.S.g.Y. .N x N r L m.S.m.a.a.p.i.u.a.a.r.;. .;.m.[.{.Q.h.h.Q.z.9 - B $ * u L X.,.,.2.X.| o.>.} * . * > * < r r g M M M n n M n M n M n v n L L L L L o.L L ..L o._ o.o.o.o.4.o.X.o.4.X.4.4.4.4.O.>.O.4.>.a.g.x.z.j.t.f.t.r.r.r.-.-.-.$.$.` _ ) =.1.r.:.h.h.h.h.h.H.H.H.h.H.).H.].].H..XOX.XOXOX.X<XOXQ.V.m.m.m.n.m.8.Y.Y.2.2.1.3.3.>.>.>.4.%.4.X.|  .M V.!.J.J.J.C.K.=X2.m | O.O.3.3.3.3.3.3.6.0.0.n.q.0.B.B.M.{.,X,XoXoX{.'.{.'.[.[.].S.S.M.A.g.l.g.g.p.1.r.<.;.;.*.$... ./ ) ! ! n m z z v T. .O.<.| i.m r N y & # 4 +   G FXKXKXKXKXKXKXKXKX1.@.b.1.>.1.>.=.=.$./ _ _ ) $.$.&.:.:.:.[ [ Q.8X1X%X;X:X;X;X;X;X;X;X;X-X;X;X;X;X;X;X;X;X;X*X;X;X;X*X;X;X=X*X*X*X*X;X;XQ.;X~.;X;X;X;XQ.",
"j d f g d d a a 9 a a a a t p t g 9 < 4 9 a a p > 4 a f t 1 2 = = k } u.u.e.[ ( [ [ Q _ n $ . = . w 8.z.m.m.1.h.8.1.1.1.1.:.=.=.:.4.:...Q z n _ L ( _ _ $.$.$.:.1.:./ y $ X % < < 1 p 4 t U P v C.Q.V.m.n.h.,.>.4.4...@.>.1.,.,.8.8.8.m.b.m.m.Q.U.U.U.R.U.Y.g.S.S.S.S.S.`.U.U.{.|.|.{.|.{.{. XoX,X,X,X,X,X,XwXwXeXwXeXeXrXlXuXlXyXeXyXMXeXa.f.eXlXlXlXlXiXsXiX4XlXaXaXlXaXgXjXjXjXgXlXBXIXHXHXPXHXLXLXIXZXBXaX5X3X3X3X4X3X4X4X5X*X*X5X=X*X=X=X=XP.L.L.I.I.C.D.G.J.D.D.A.m.m.b.h.b.8.,.2.1.e.*.~ l w .   + G q.5XfXjXfXfXjXfXjXfXjXfXfXfXjXfXfXfXfXfXfXfXfXfXfXfXfXpXaXfXfXdXdX6X0XpX0X6XfXjX%XT.& u v v n v m v P P L | | | |  .@.@.3.<.,.2.b.N.d.L.;X<X=XQ.Q.%XQ.L.K.P.K.P.Q.Q.!.Q..X!.Q..X!.%X.X%X*X.X%X:X6.@ 9 < 6 6 > > < > & > & : & ; ; > : > : > > > : % > & 4 w e e W W W W [ W ( ^ ^ [ [ [ { { =.>.@.@.O.O.+.O. .O.<.g.S.F.F.G.G.L.[.P.V.V.Q.J.J.Q.J.J.P.P.I.I.K.I.Q.I.K.J.Q.J.K.J.I.I.V.Q.n.Q.Q.V.K.K.K.K.Z.K.V.Q.V.K.V.Q.Q.n.I.J.J.J.J.Z.I.J.I.I.J.J.B.I.L.U.A.g.l.A.A.m.<.n i g x N d.m.A.f.a.a.r.a.;.a.a.%. .*.m.L.Q.z.Q.Q._ $ = N N L ,.8.8.3.4.4.>.4.X.>.>.g $ $ * * < < B u M x 9 n M M M n M v L n L n L L L L L L o.L o.L o.o...o.o.....X.X.X.X.X.4.=.>.>.@.@.>.4.>.p.z.x.k.k.t.f.r.y.r.w.:.-.&.$.' _ _ :.u.r.h.h.h.h.z.h.H.h.H.H.H.H.].OXH.OXL.L.OX.X;X;XOX;XH.h.m.m.8.n.b.8.2.Y.2.3.3.3.>.>.4.4.4.O.X.o.| } 2.Q.Q.V.J.Z.M.K.R.I.X.v O.O.O.3.3.<.3.6.6.Y.0.Y.N.q.q.U.n.U.oX,X,XoX{.OX.X[.].[.|.U.S.S.A.l.g.l.g.a.a.u.u.;.;.*.$. ...) / / ! n b b M  .%.%.O.%.<.<.x B r 1 * % . j X   @.FXKXLXKXKXKXKXKX$.=.d.,.1.1.:.:.<.*.! ) ) ' $.&.-.-.-.:.[ h.=X4X;X;X;X;X:X;X;X;X;X;X;X;X;X;X;X;X;X;X;X;X*X*X;X;X*X*X;X&X;X=X;X*X*X*X;X;X;X;X.X;X.X;X*X",
"j j j j 9 d a 9 a a a 9 a 9 9 p 6 7 9 8 p 5 5 4 y t B 1 r r 1 B r % $ 0 n *.:.:.( $.l /  .* X + =   :.Q.m.h.h.h.u.u.1.1.:.1.:.@.:...:.[ n z n W ( / _ _ $.$.:.:.w = $ $ & 4 , > ; : 6 # + c o.X.Q.Q.n.b.n.8.>.4.4.4.4.=.,.,.8.1.8.8.b.8.m.m.m.h.U.U.[.|.U.l.g.U.N.l.S.S.S.U.|.[. X|.{.{. XoXoX X.XoXoX,X,XwX,X,XrX5XrXlXrXlXrXyXyXtXnXtXg.S.eXiXeX5X5X6XlX3X3XfXlXjXlXgXdXjXaXgXjXjXzXaXjXZXPXPXLXPXBXdX2X&X-X9X2X4X4X1X1X1X5X:X*X-X*X&X&X~.=X X%X%X%X!.P.P.K.I.Z.C.C.C.C.U.C.n.B.n.n.n.b.b.b.u.;.%./ l B     X U U U P I I o.I Y o.I +.+.o.+.o.#.@.#.#.#.#.,.#.6.3.0.n.6.n.I.B.B.I.E.U.E.R.&X-Xm P  .| | } G } } m m L P L T.| X.4.,.b.M.S.A.m..X5X4X=X!.=X%XP.K.P.L.L.P.K.P.P.P.P.P.Q.Q.Q.P.{..XL.*X%XK.6XC.& 6 6 4 4 6 > & > > ; % > : > & : & > ; & : : : 2 & B r z W ^ W W W ^ W ( ( ( [ [ [ { { [ @.@.@.@.O.| | +.| | Y.|.F.z.G.G.[.P.P.K.Q.Q.Z.Q.Q.J.Q.Q.I.I.I.P.I.I.K.J.I.I.I.I.J.K.Q.I.Q.B.Q.Z.Q.C.C.K.V.K.V.K.K.V.K.V.V.V.V.Q.J.I.J.J.K.I.I.U.J.I.J.J.Z.Z.U.L.U.g.g.l.l.l.m.N.X.9 4 N i $.A.S.a.g.f.a.a.;.<.a.a.*. ...H.V.Q.H.0 X i } V.b.8.,.,.2.,.>.@.,.X.X.>.} * + < * * B * u M x M n M M M M M n v n L L v L L L L o.L .._ o.L _ o.o...o.X.X.X...4.%.4.4.4.4.3.@.>.=.>.p.z.v.k.k.k.t.t.r.r.w.:.-.&.$.' ) ) =.u.<.:.h.h.h.h.H.h.H.v.H.H.H.].H.OXH..XOX.XOXOXOX;XOXm.m.b.Q.8.9.m.b.i.Y.2.2.2.<.>.>.>.O.%.X.X. .T.T.%XQ.P.K.M.n.U.U.J.=X3.M  .O.O.>.3.3.3.3.Y.6.Y.Y.0.n.q.n.U.U.{.5X,XoXOX{.OX[.[.].G.|.G.S.S.l.g.g.g.p.f.1.e.<.;.%.$.....) / ~ ! Q n n n  .4.4.X.4.2.T.B u x t < o 4   t *   >.JXKXKXKXLXKXKX..>.b.1.1.1.<.>.:.=.( ..) ` $.[ :.-.-.:._ H.8X8X&X>X;X:X;X;X;X;X;X;X;X;X;X;X;X;X;X;X;X*X;X;X;X*X;X;X;X;X=X;X&X*X*X*X.X.X*X~.;X;X;X~.*X",
"g j f f a g a g a a d a a t 9 t y y t t t t t t t 4 t 4 4 4 1 < < 4 6 > + & u L $.:.` Q _ N & . $ = & * b =.m.m.8.u.:.:.=.:.:.r.:.:.:._ n l W _ n _ X.4./ g * + $ $ & % & & % & < % < * & 4 G R.Q.V.n.n.8.1.1.4.4.@.>.>.1.1.2.9.8.8.h.n.M.M.D.D.m.{.P.S.g.g.l.l.S.S.S.S.U.|.[.[.[.|.{.{.{.oXoXoX X,X5X+X@X5X5XwX5XrXeXeXrXlXrXlXgXgXtX{.U.lX5X4X4X3X3X3X8X8X8XiXlXlXaXgXaXgXjXjXjXgXjXzXjXjXAXZXkXiX1X:X2XiX3X4X2X4X4X5X1X;X*X*X*X*X*X&X%X%X!.{.R.P.R.P.K.K.J.J.J.J.C.C.V.M.M.N.n.b.b.b.8.8.8.8.2.1.=.4.o.M B $ 9 X.,.+.o.+.+.+.X.+.Y o.U P | P L U L L L D L L c c c c c x c c x g g f g d g d x } b.D.m.i.Y.N.N.N.N.M.U.V.i.%.M G M G G T.G G !.9X!.&X&XI.=X=XQ.L.J.J.J.P.L.I.I.P.P.P.L.Q.J.Q.I.Q.K.Q.J.&X;XL o y < 6 < & 6 # % % % ; ; : ; % ; % % @ ; @ 2 ; i z l l W W W ^ ^ W ^ [ [ ^ [ [ *.%.<.X.O.>.O.o.O.O.X. .;.a.A.A.x.F.G.L.[.I.I.I.J.Q.J.Q.J.Q.Q.J.K.J.J.Q.J.J.K.I.I.I.I.Q.J.K.J.K.J.K.J.J.J.K.K.J.J.I.I.I.I.J.I.I.Z.C.J.J.J.J.J.J.J.J.J.J.J.J.J.J.C.Z.Z.J.J.D.A.A.h.h.h.h.h.:.L r y p h >.U.F.a.w.a.a.a.*.<.e.&.$./ M.D.r x 4.Y.I.8.8.Y.N.Y.2.3.3.3.3.<.>.4.3.m   0 0 w 2 2 k c b z 9 n n n v n 9 L n L L L L L L o._ L o.L o.L o.o._ o.o.4.o.X.4.4.....=.4.=.>.@.>.3.:.:.h.z.x.k.v.v.t.t.r.y.w.w.-.-.' $.' ' f.u.h.h.h.h.h.z.h.v.H.H.H.H.].H.}.Q.OX.XOX.XOX5X,XU.V.m.n.b.b.b.d.8.2.2.2.,.3.<.<.>.O.,.o. .>.v m L.P.P.J.J.V.M.M.C.C.=XK.!  .>.T.,.O.7.3.3.3.Y.6.Y.0.b.n.B.n.B.I.=X,X,X{.'.{.}.{.'.[.U.G.S.S.l.A.l.g.f.p.u.u.e.:.;.$.$.$.) ) / ! ! n m T. .O.%.4.>.8.z 4 u 9 r r + # % > , < X @.KXKXKXHXKXPX_ u.h.8.1.a.<.r.1.&.( _ $._ $.:.[ :.:.:.1.<X8XOX1X;X;X&X;X;X;X;X;XOX;X;X;X;X;X;X;X;X;X&X*X;X*X*X*X;X;X;XQ.;X~.~.;X~.;X~.;X;X~.;XQ.;X;X",
"j g g g g d a a a a a a y p a t t t y t t t 4 4 4 r 4 4 4 1 < 4 < < < & # # $ & t n ( ( .._ 0   $ & & o + 4 L X.>.8.8.h.h.1.:.$.o...:.L n _ Q n :...x B + - # * % % & * * & & & * * < * & & m &XV.n.n.d.1.2.,.X.4.@.>.>.3.2.2.8.8.b.m.n.m.M.V.D.G.L.L.m.Y.l.S.S.S.S.U.|.|.U.U.|.{.{.{.{. X,X X,X+X+X5X5X5X@XeXwXrXeXrXeXlXyXgXbXtX,XlXtX XlX5X4X4X3X3X3X8X8X9XiXaXaXaXaXjXaXaXfXjXjXnXzXzXjXjXjXiX9X3X8X9X3X2X1X4X4X1X5X-X;X5X*X*X&X=X%X%X%X!.!.Q. XP.P.K.J.L.J.C.J.V.V.M.M.n.n.b.b.9.b.9.8.8.,.d.8.1.>.:.X.L M r } @.o.o.+.4.o.| +.| X.} | | | o.o.U o.P } U } | | | | | | | T.I } | } } P G M N n ..3.N.N.N.Y.N.m.U.U.N.%.M u M M M m m G P T.>.-X5X!.=X=XL.Q.P.P.L.J.J.V.L.I.J.L.V.L.J.J.Q.J.I.K.J.Q.I.P.;X,.# 6 6 & 6 : > & & ; ; ; % ; ; ; % ; % % % > < r k k e l e W W W ^ ^ ^ [ [ [ [ [ %.%.>.O.o.4.O.| X. .T.X.a.A.A.A.S.F.G.L.L.P.I.I.Z.C.Q.C.Q.Z.J.Q.J.K.J.I.K.Q.J.I.J.K.J.J.J.J.J.J.J.K.J.K.J.J.J.J.I.I.J.J.J.I.I.I.V.Q.J.J.J.J.J.J.C.J.J.C.C.J.C.J.J.J.J.J.J.D.A.V.H.h.h.h.z.h.=.P u 4 r M %.a.l.S.a.e.p.a.*.;.i.*.>.N N.=.X.P. X4.n.2.,.1.,.Y.N.<.1.3.3.<.%.2. .2 = 2 r r 0 1 u c M M M n n M M L L L L n L n L L L L L o.o._ o._ o._ o...o.....4.4.=.=.=.@.@.@.@.@.>.3.:.p.h.x.v.f.j.t.j.t.w.w.-.w.-.' [ _ ' u.u.1.h.1.h.h.m.H.z.H.H.].].].].].'..XOX.X.X=X,X.XS.m.V.m.N.b.b.8.b.2.2.3.1.>.>.O.>.4. .o.4.o.! 3.=XP.K.U.D.M.N.n.D.D.%XP.>.G X.O.O.<.O.3.3.6.6.6.Y.n.b.n.n.n.n.Z.R.,XoXOXoXoX{.{.{.|.G.S.S.S.A.l.l.f.g.a.u.u.;.:.*.*.$.` .. .~ ! Q n Q  .%.%.X.<.3.X.u y z w r 4 + & % # % 1 X % C.LXKXKXKXPX..d.u.d.u.2.1.<.<.*./ _ [ ' ' :.:.r.:.' H.4X4X:X1X*X;X;X;X;X&X;X;X;X;X;X;X;X;X;X;X*X;X;X*X;X*X;X;X=X;X;X;X;X;X;X;X;X.X;X;X.X;X;X;X;XQ.",
"g j a g d a a a a y y a a t t t t t 9 4 4 4 4 4 5 4 4 4 4 4 4 < * < > > , & # # - 0 r u n / x - + , 6 & # O < g 9 z L ..=.:.1.1...=.:.L x _ _ x * = $ $ # # % & & & & & & & & & % = < & & o x -XV.m.m.8.>.>.>.X.=.@.3.1.,.2.8.d.b.b.b.n.V.V.D.D.[.I.S.m.Y.l.S.S.S.S.S.|.|.|.|.|.{.|.{.{.{.oXoX,X,XoX5X+X@XwXwXeXlXwXwXrXlXyXyXlX{.,XnXUX,X5X5X1X4X4X3XeX3XiX8XiXlXaXaXaXaXjXgXjXjXgXjXzXnXBXjXlX2X3XiXiXlX3X4X1X4X4X2X:X5X;X*X*X*X&X&X=X%X%XR.!.R.Q.P.P.K.I.J.J.J.C.C.V.M.n.n.N.b.b.9.9.8.8.,.8.,.,.>.>.,.8.@.@.v } o.U o.X.o.o.o.| +.| o.+.o.| U P } P I I P P T.T.G G G G G G P G G G G v x d x z z G >.m.C.D.M.N.<.! x N x M M M n m G m G G a N.2X=XQ.*XL.P.P.P.J.L.V.V.D.V.V.V.V.V.D.V.J.L.I.J.V.Q.I.V.%XK.> & 6 & > 6 % & : % & & ; ; @ ; 2 ; 2 % & < i i k l l l W W W ^ ^ ^ ^ ] [ [ [ &.<.>.O.%.X.O.O.|  .T...a.l.A.x.S.S.G.G.I.L.P.I.K.Q.J.V.Q.C.Q.Q.J.I.I.J.I.J.K.J.I.J.K.J.K.J.J.K.J.J.J.J.J.J.J.J.K.J.J.K.Z.J.J.J.J.C.J.J.J.V.Q.J.J.D.J.J.C.J.J.C.C.C.J.C.J.J.J.D.V.m.h.h.h.h.m.8.u.} M i r u ! <.S.g.a.a.e.r.;.=.=...x ZXKX=XX.2.L.b.b.N.M.N.<.3.Y.2.3.2.3.3.2.3.m - 2 2 i t 0 i T.n 9 M M M M n v n v L n L L L L L L L _ L o.o.L o.o...o.....o.o.=.4.=.4.@.=.=.>.4.1.>.<.u.h.z.x.v.j.t.t.t.y.r.-.-.-.-.:.) ' u.f.h.h.h.h.z.H.v.z.H.H.H.].Q.].Q.].Q.XX.XOX,X.XU.m.m.m.n.b.d.8.8.8.2.2.3.3.>.O.%.4.>.T.o.4.n 4.P.%XK.J.U.M.m.N.N.S.U.L. XM.G T.,.| O.3.O.3.3.6.6.Y.0.Y.6.n.B.n.B.U.,X,X.XoX.X{.{.{.].G.H.S.S.S.A.A.l.g.i.p.u.;.<.;.*.*.$.) ) ) / ~ ! c %.<.X.%.6.2.x r 9 u 4 9 i $ ; # @ ; t > X X 5XLXKXKXZX$.b.u.d.1.u.u.:.<.:.( _ :.[ :.[ -.r.:.$.;X8X;X2X1X;X;X;XOX%X;X;X;X;X;X;X*X*X;X;X*X;X;X;X*X=X;X=X;X;X;X;XQ..X;X.X;X;X;XQ.~..X~.;X.X;XQ.",
"a a g a 9 a a y a a y p 9 t t y t t t t 4 t 6 4 4 4 4 1 < < < < B 4 # & > 6 > > & @ $ - = N x w + $ % * > < 5 j y 9 4 9 y N L } 1.@.:.n w i 4 $ + $ # $ % % % & % % % & % & % & % % % & * o t P.C.n.8.8.2.>.=.4.@.:.3.1.1.8.8.d.b.b.b.V.V.V.H.J..XS.b.d.A.g.A.S.S.S.|.S.U.[.[.[.{.{. XoXoX X,XoX,X5XwX5XwX5XwXeXrXlXlXlXyXrX5X,X{.UXZXjX X5X5X>X4X4X3XlX3X3XiXtXaXlXaXlXaXaXaXjXgXjXjXjXjXBXBXgX3X9XiX8X3X4X4X2X1X1X1X:X5X-X*X*X*X%X&X=X%X!..X%XP.P.P.P.I.I.I.J.C.C.V.B.n.M.m.n.9.b.b.9.9.,.8.2.>.@.@.@.>.>.4.@.X.4.I } o.o.P } P P P P P P P P P L U U L v L L G G G G G m G v v m G G v c d g x M x N m @.N.n.X.T.x N x M n M b M c n v G G m x G R.5XI..X=XK.L.P.J.V.V.V.V.V.m.V.V.V.V.V.V.V.J.J.n.J.I.n.P.&XP + > 4 & 4 ; > @ ; % % % % # @ @ @ % 2 B w k z l l l W W W W ^ ^ ^ ^ ^ [ [ { &.X.+.O.| o.O...o.T. .2.A.m.l.S.G.S.G.I.L.L.I.I.I.J.J.Q.V.Q.C.J.J.K.J.J.K.J.J.J.K.J.I.J.I.K.K.I.J.J.K.J.J.K.J.J.J.J.J.J.J.J.J.J.J.V.C.J.C.C.C.C.Z.J.C.J.J.J.C.J.J.U.U.U.J.V.J.J.V.V.V.V.h.h.h.h.f.l.<./ N r r c X.Y.l.a.*.h.=.$.d.m V.KXKXHX;X3.<.V.K.b.>.N.B.2.Y.2.1.2.2.3.1.2.>.2 = 0 0 2 t N c n z M M n M v n L M L L L L L L o.L o.L o._ L o.o._ o...o.4.4...4...4.=.@.@.=.@.>.>.<.<.:.u.z.z.v.v.v.t.f.r.y.w.-.w.&.-.$.) =.f.h.h.h.h.H.h.H.m.v.H.H.].H.].'.'.Q.OX.XoX,X.XA.M.b.m.b.b.9.8.8.8.1.3.<.<.>.>.>.4.X.X.%.m T.M.=XI.I.D.V.M.N.b.N.n.D.C.K.%X4.M 3. .O.O.3.3.3.6.Y.6.Y.0.Y.n.n.B.U.U.oX,X,X{.oX{.'.oX].].G.G.S.S.l.l.l.g.p.p.u.u.:.:.&.%.$..... ./ T.n ! %.3.X.<.Y.%.y i y i B r 9 * # % > & > 5 1 o @ >XLXKXCX/ g.m.i.1.2.1.1.r.:./ $._ ' :.' :.:.[ h.8X<XOX1X.X;X;X;X;X;X;X;XQ.;X;X;X;X;X*X;X*X;X;X=X*X;X;X;X&X;X=X;X;X;X~.;X;X~.;X;X;X;X;X;X~.;X;X",
"a f a 9 d p a p y t t t t 5 9 4 4 t 4 t 4 4 4 4 4 < < < < & < < < < % % @ # @ & > @ % % + $ = - i B $ $ + % 4 g 9 g 9 4 4 4 4 B 9 q x u . X     $ $ # % % # # # $ % + & % % & $ & % $ & < o & >.Q.b.>.,.8.4.X.>.:.>.1.2.2.8.b.b.m.n.m.M.V.V.J.J.P.A.i.m.m.A.S.S.S.|.|.U.|.[.[.[.{.{. XoX XoXoX,X+X5X,XwXwXwXeXeXwXeXyXgXlX X|. XjXBXnXUX1X5X-X1X4X5XeXlX3XlXiXlXlXaXaXaXaXaXfXgXjXzXjXjXjXBXzXlXiXiX3X3X3X2X2X2X1X1X1X;X;X*X*X*X&X%X*X~.!.P.%XR.P.P.K.L.I.I.Z.J.C.V.V.M.M.N.N.n.b.b.9.8.8.,.8.2.,.,.@.>.>.@.4.X.@.o.v v L o.o.o.o.P P v m v G G L L P L D P P P G G v G G v G v v G G v g u g x a n m n c m L m b x z c m m x N c x c b M m H H P f >.;X=XI.=XQ.P.L.J.J.V.V.V.M.N.n.V.m.m.V.V.V.V.J.M.V.J.V.J.!.n.# % t # > & > ; % # % # # & # o % * r e e e e e l W W W W W ( ^ ] ` ` *.*.%.4.| O.| O.X.|  .T. .a.m.l.l.z.`.S.H.I.G.L.I.J.I.I.Q.Q.J.L.K.J.K.K.J.J.J.K.K.J.J.J.J.J.J.J.J.J.J.K.J.J.J.K.J.J.J.J.J.J.J.J.J.J.J.J.J.J.J.C.C.J.V.J.C.V.J.C.C.J.C.C.C.V.C.C.J.J.J.V.K.V.V.h.8.h.h.h.h.g.<...c t r N  .a.A.a.<.;.1.d.n AXKXPXKXKXUXY.X.N.U.Y.Y.B.Y.3.b.2.2.2.>.3.a.6.b = = B 2 0 d N M M M M M M n M L M L L L L L L L L o._ L o.L .._ o.o.o...4.X.X.@...4.4.=.4.=.>.@.>.>.>.;.u.g.z.v.v.v.v.f.t.t.r.w.-.e.-.$.) *.f.h.h.h.h.H.h.z.H.H.H.H.].H.XXQ.Q.].OX.X<X,X[.Y.m.N.N.b.Y.8.8.2.2.3.3.>.>.O.4.4.X.} >.} c 2.=X XC.C.D.M.N.N.b.b.m.D.U.C.=XN.c  .O.O.O.O.3.3.6.2.6.6.Y.n.n.n.B.U.N.{.,X,X{.OX{.{.}.[.|.H.H.F.S.S.l.l.h.g.a.a.u.r.:.;.&.$.$.$. .) ! b  .%.%.4.d.8.n i i u 9 * 4 4 & X % > & # # 5 <   d pXKXHX/ 1.m.d.i.2.u.1.1.:.( [ _ ..:.[ :.:.[ .X8X;X<X<XQ.1X;X=X;X;X=X;X;X;X.X&X;X;X;X;X=X=X;X;X;X&X;X*X;X;X;X*X;X;X;X;X;X~.;X;X;X;X~.~.;X;X~.",
"a d a y a y 9 t t 9 9 t t 5 6 4 t 4 4 4 6 4 < 4 < < < < & < & & & & & > & & @ @ % o % > $ o . - M N i r = + < y r t 9 t 9 6 y t w 9 4.n.,.X.L v . .   . . # $ & & + + % % & & & & + % % * @ o N Q.m.1.>.1.4.4.>.3.,.2.2.2.d.b.b.n.m.M.V.V.J.V.L.G.N.i.g.l.A.S.S.U.|.U.|.|.[.|.{.{.{.oX{.oX,X,X5X5X+X@X5X5XwXeXwXlXyXlX5X X|.,XlXAXnXjXAX1X%X3X5X4X3X3X3XeXlXlXlXaXlXsXaXaXgXjXgXgXjXzXjXzXnXfXlXiX3X3X3X3X3X2X5X2X1X5X:X;X*X*X=X*X%X=X X%X%XP.P.P.P.K.K.J.J.J.C.C.V.M.M.n.b.n.b.b.9.9.8.8.8.,.,.,.3.,.,.,.:.4.o.@.o.L v v L L P } | / L m m L v v v v v v v c v c v c c x c c c g c x d p t y g x c v x v m M g v v v M N x x m N x x c c v v m } c x V.4XP.L.Q.P.I.J.J.V.V.m.V.m.b.b.m.n.m.n.m.M.C.N.M.V.V.M.C.!.t % 4 > & > & % % % % % # & # 2 2 i i e e W W W W W W W W ^ [ ^ ` ` ` *.%.O.O.O.| +. .| T.T. .<.i.g.g.A.F.`.S.D.L.I.I.I.K.K.I.C.J.J.J.J.K.C.K.J.K.J.J.J.K.K.J.J.J.K.J.J.J.J.J.J.K.J.C.J.J.J.J.C.J.J.C.J.J.J.C.C.J.V.J.J.C.J.J.C.C.C.J.J.J.V.C.C.C.D.C.J.V.J.V.V.V.V.H.h.h.h.h.u.a.g.1.*.m u r t c 2.m.1.d.u.i L.KXKXPXKXKXKXZXI.O.Y.I.N.Y.N.Y.Y.Y.Y.2.a.3.3.Y.a.2 o r 0 = i c 9 M M M M M L n L n M L L n L L o.L L L o._ L o.o.o.o...o...o...4.=.4.@.=.=.@.>.>.>.1.3.>.1.i.A.z.v.v.v.k.t.t.r.r.w.:.-.&.' $.f.h.h.h.z.h.z.H.v.H.H.H.].F.Q.].OXOXOX.XOX{.G.N.m.b.b.Y.Y.8.2.1.,.<.3.>.>.%.4.X.X. .o.M %. X=XJ.I.C.M.n.N.b.8.9.m.M.U.D.%X X*.G O.O.O.O.3.3.3.3.2.Y.Y.0.Y.n.B.B.M.L.%X,X.X,X{.{.}.[.G.].G.F.S.S.A.m.l.g.f.a.u.r.:.;.%.*.$. .) )  .m ..<.4.>.d.3.N i g y i 9 * * 4 # X # & # O 6 ; p   c BXHX>.<.N.d.u.d.2.u.u.:./ $._ [ :.:.:.[ r.8X;X;X;X;X;X;X;X;X;X;X;X;X;X;X;X;X&X=X;X;X;X;X;X;X&X;X*X;X=X&X;X*XQ.;X~.;X.X;X.XQ.Q.;X;X;X.X.X;X",
"a y a a p y p t p t t 7 5 t 5 5 4 5 4 5 4 < 4 > 4 > < < & < < & # > & * & & = = - % + + $ + + $ & r t t 4 < t u 9 t 4 r w i y u 9 9 :.Q.Q.Q.0.9.0.#.M & + .     + + o + + $ % & % + & % % & + + 8.n.8.4.@.4.@.1.>.>.2.2.2.b.b.N.m.n.V.V.V.J.L.L.m.b.g.m.l.S.S.G.|.U.|.[.[.[.{.{.{.{.oXoX,XoX,X+X+X5X5XwXrXeXrXeXlXwX5X|.U.|.lXAXjXmXmXZX5XQ.lX>X5X4X3X3X8XeXlXlXlXlXaXaXaXaXjXaXgXjXjXnXzXnXjXlX3XlX8X3X3X2X4X2X5X5X:X;X-X*X=X*X&X=X%X%X!.R.P.R.P.P.K.I.J.J.V.C.V.C.M.V.n.N.N.n.8.9.8.8.8.,.,.2.4.:.@.@.@.=.4.o.4.@.U 9 v j v v L / / } L L v v M v v x h v c g c n v v c c c c c x g u u g g g n x g x n L m m N c m m M g x x N c x x c M v v v G x | Q.*XC.P.I.L.L.J.V.V.M.M.N.N.N.b.b.n.b.b.h.n.m.N.m.M.m.N.Q.I % # 5 % % ; # # % ; & $ $ $ w w e e l W e W W W W ^ ( ^ ^ ( ` ` ..*.o.O.| +.+.| | | } ! T.;.m.g.l.l.m.|.F.S.J.J.J.K.I.Q.Q.V.J.J.J.J.J.J.Z.J.Z.J.J.K.J.J.J.J.J.K.K.J.C.K.J.J.J.C.J.C.J.J.J.J.C.C.C.C.C.U.C.D.J.C.C.J.J.J.C.C.C.J.V.J.V.C.C.C.V.C.C.M.U.U.C.D.V.V.V.V.V.V.h.h.f.a.d.a.a.%.T.x t r ! Y.N.d.=.k PXLXPXKXKXKXKXKXLX4X%.6.N.N.U.B.N.N.Y.Y.6.Y.3.Y.N.T.= = i 2 2 N n n x M M n n L v v n L L L L L _ L L o...L o._ o._ o.o.o...X.X.X.X.4.=.=.=.=.>.>.>.>.1.1.<.i.g.F.v.v.v.f.k.u.t.r.-.;.-.-.$._ u.h.h.h.m.H.z.H.H.H.H.OXH.F.XXQ.OXQ.OX,XOXG.M.m.m.b.Y.Y.Y.2.2.,.,.<.>.O.>.4.4.X.X.X.m o.U.%XP.C.I.D.N.N.b.d.8.9.b.M.U.U.R. XN.H O.O.O.O.3.3.3.6.3.6.Y.0.N.0.M.U.N.M.{.,X,XoXoX{.{.'.].G.H.G.F.S.z.m.l.f.g.p.a.u.<.;.%.%.*.*.`  .! n =.<.<.2.2.} r N u y u r & 4 P g % X # ; # 6 ; a   X O.5Xi.m.i.d.i.i.u.1.a.;.) [ :.:.[ r.:.:.OX8X;X;X;X;X;X;X;X;X;X;X;X.X:X*X;X;X;X*X*X*X;X&X;X;X;X;X;X;X;X;X;X;X;X.X;X~.;XQ.;X;X;X.X;X;X.X;X~.",
"a a a y p t y t 5 t 7 t 5 5 5 5 4 4 4 4 < 4 < 4 * < & < < & & : > & % & & = = $ $ B % o $ % . X # O O O O % * 4 w i u N u u i r = X = n @.V.B.0.n.0.V.V.b.@.M y X X o X o o + $ % + 4 $ o & $   4.b.8.4.4.4.>.>.1.1.2.8.9.d.m.N.n.n.V.V.J.L.L.J.2.g.m.m.m.S.G.G.S.|.|.U.[.[.|.{.oXoX X,X X,X,X,X5X@X5XwX5XwXlXeX,X|.|. X5XlXnXBXhXUXjXAXiX%X5X5X4X4X4XeXlXeX8XlXlXaXlXaXaXaXaXjXzXjXjXjXjXBXjXlX9X3X3X3X4X4X4X3X:X1X:X:X;X&X&X&X%X=X%X%X!..XR.P.P.P.K.L.J.J.C.C.V.V.M.M.n.N.N.b.9.9.9.8.,.,.1.,.1.1.>.:.4.4.4.@.P o.P v v v D v n m / } } L L n v M x v v g c c x h x d x g g x g a r t y g N y g x M m m v x x M M x x x x x g N N z c M c c v v v P i ,.4XL.L.J.J.J.V.D.V.V.V.b.N.b.b.b.b.8.d.b.8.b.m.m.b.b.N.B.0.& # y % # < # # # # # $ & & e k e e W e W W W W W W ^ ^ ^ [ ` `  .%.X.O.+.| T.T.T.T.} T.%.g.Y.l.A.S.z.l.S.[.L.J.K.J.K.J.J.V.Q.J.D.Q.J.J.I.J.Q.J.J.J.J.J.K.J.J.C.C.J.J.J.J.J.J.J.J.J.K.C.I.J.V.J.C.J.J.C.C.C.V.C.J.V.C.V.J.V.D.C.C.C.V.J.V.C.C.V.V.B.M.U.U.U.V.V.V.H.V.h.h.8.d.f.r.u.i.g.a.X.N t 1 %.n...$.<XKXKXKXKXKXKXKXLXKXKXjXY.Y.U.N.Y.Y.N.N.Y.Y.Y.Y.Y.Y.Y.i . r i 2 N M z n M M M L 9 n L L L L L L L L L L L o.o.L o.o.o.....X.X.X.X.@.X.4.@.=.@.>.=.1.>.>.,.1.>.1.i.z.v.v.v.v.f.s.t.t.-.-.-.;.&._ u.h.h.h.h.h.H.H.H.].H.H.].Q.XX]..XOXOX<XQ.S.A.m.N.d.Y.Y.Y.2.2.,.1.>.>.>.4.%.O.o...>.M 2.=XI.D.L.V.M.N.b.8.8.8.8.b.N.B.U.U. XU.T. .X.O.O.O.7.3.3.Y.6.6.Y.6.Y.n.B.B.N.{.,X,XoX{.'.'.'.'.].].F.G.S.A.z.l.g.g.p.u.u.;.;.;.*.$.$. . . .! >.<.1.b.>.b u N N t i 9 & v Q.V.U . # # # ; ; O j ;   c Y. X<.d.i.i.1.u.u.:.) :.[ :.:.:.:.:.8X;X.X;X%X;X2X.X4X;X&X;X;X;X;X*X;X&X*X&X;X=X;X;X=X=X;X=X;X;X=X;X=X.X~.*X;X;X;X;X;X;XQ.;X~.;X~.;X;X",
"a a y a t 9 t 7 p 5 t 5 4 6 4 6 4 4 4 < r < < < < * > * * % & % $ $ = & & & & # + o + % + o O # O @ O @ O . - o % N 2   X O @ # 2 O o X X 5 O.I.B.B.n.6.0.n.Z.I.n.@.c & X       + + % % = % + . B V.2.X.=...8.4.1.2.8.b.b.N.N.N.b.D.J.m.U.{.I.N.g.m.m.z.S.S.H.H.G.].|.[.'.{.{.{.L..X,XoX,XoX,X,XwX@XwXlXeXlX5X[.U.,X X{.5XUXBXUXhXjXjXBXjX XlX=X5X4XlXlX3XlXlXlXaXlXlXgXaXaXgXfXjXaXjXjXUXzXpX3XlX3X3X2X2X1X1X1X5X5X*X-X*X*X*X%X&X%X%X~.P.P.P.P.P.P.K.J.J.U.J.C.C.M.M.n.n.b.b.9.b.b.8.8.2.2.>.2.3.>.>.>.4.4.X.%.} X.o.L c x c H c c Z v c T.^ ! b b b x z N c c N x x N d N N g r r t i y N N g x c c n n n M M M b x x b N x N N u N N N g x g x v L g g n.*XC.P.L.V.D.M.M.m.b.b.b.b.8.8.2.>.,.8.8.8.d.8.d.b.8.8.I.m X & 4 % & & & + - - = w e e k l e W W W W W W ^ W ^ ^ ] ` :.=.} X.o.o.| o.I | o.L m =.f.u.g.l.m.z.S.G.G.L.J.J.K.J.J.I.I.I.J.J.J.J.J.J.Z.J.C.C.J.J.J.J.J.J.V.V.K.V.V.K.V.Q.V.V.n.V.Q.C.Q.n.D.U.C.V.C.C.C.C.J.C.C.V.C.C.D.V.C.C.C.C.V.C.V.C.V.V.V.V.E.V.V.V.q.V.V.V.V.V.0.V.d.d.a.a.i.i.a.<.<.T.* i M.o./ KXKXKXKXKXKXKXKXKXLXKXKXIXI. .N.U.U.N.Y.N.Y.2.2.N.Y.b.@.- - d 2 t n n 9 M L M 9 L L L n L L L L L o.L o.L o.L o._ o.o.o.o...4.4...4.4.4.4.=.X.>.%.>.>.>.<.<.<.<.<.z.F.v.v.x.v.t.v.p.r.r.w.w.:.&.&.f.A.m.z.A.A.A.H.H.H.G.G.XXQ..X.XOX<XOXH.m.m.8.8.Y.Y.,.2.2.,.3.>.>.X...@.>...X.X.N 8.Q.Q.J.J.V.n.N.N.b.2.2.2.8.b.b.n.D.Q.Q.Q.h.v X.O.| O.@.3.3.6.,.6.Y.9.Y.n.n.B.M.U.{.,XoX{.,X}.'.[.G.].G.G.`.S.m.l.g.f.d.u.u.1.;.;.%.*.$.)  .) ! Y.>.1.N. .N c N y d * # o.V.8.5.n.#.& X # > # ; > < > & X.P.i.m.i.l.2.a.l.;. .&.-.( u.:.) .X3X;X;X;X;X;X;X;X;X;X;X*X*X*X*X;X;X;X;X;X;X;X;X;X;XQ.;X;X;XQ.;X;X.X;X;X;X.X;X;X;X;XQ.;X*XQ.;X.X;X;X",
"y t a y t 7 t t 5 5 5 5 4 4 6 4 5 r 4 4 < < * < 4 < * % % % & > 4 * & $ + + + + 4 & # + & + $ % O O @ @ $ % 0 0 = X.O.a @ X X X @ 2 2 O X O O % 3.0.Z.B.Y.6.,.6.n.n.C.n.Y.O.h 1 O X       o & < X >.8.X.>.>.X.1.>.1.8.8.Y.b.N.N.M.V.V.V.U.{.S.a.g.g.z.A.A.S.H.H.L.G.L.[.{.{.{. XOX.XOXoXOXoXwX,X5X5XrXlX5X X{.{. X X X,XnXBXUXjXjXjXmXBXjX XeX5X5X4X3X5X3X3XiXiXlXlXdXaXaXaXjXfXjXaXjXnXUXUXaX3X3X3X3X2X2X1X1X1X:X5X5X*X-X*X&X&X%X%X%X X%XR.P.P.K.K.K.I.J.C.C.V.M.M.B.N.n.N.b.b.9.9.8.8.2.,.2.>.>.>.>.>.4.X.X.o.X.%.o.P x c x H h h c v T.b T.T.~ T.! b c z N z N N u a u u N a r r t i u u g N x z M n v v n M x M x x x x N N u N k p N g x M M M v M x X.I.%XI.V.V.J.V.M.M.N.b.b.b.d.8.2.2.1.8.8.8.8.8.8.8.8.8.V.o.$ + 4 % $ % $ $ $ = * w k e e e e e W W W W W ^ ^ [ ^ ` ' ..} o.O.o.| | | | P L L ..1.h.l.l.l.l.A.S.G.G.G.K.J.J.I.I.I.J.I.J.J.J.Z.J.J.J.J.J.V.J.C.C.J.J.C.K.V.V.K.V.V.V.V.V.C.Q.C.n.V.V.V.C.V.C.C.C.D.V.C.V.V.V.C.V.C.U.C.C.C.C.U.C.V.U.D.q.V.V.V.V.V.V.V.V.V.E.V.V.V.V.8.m.a.a.a.i.<.%.;.%.<.%.x N ..1XKXKXKXKXKXKXKXKXLXKXKXLXKXKX3XO.2.N.I.M.2.Y.P.U.>.b.b.i.t $ r 0 0 M n n M M n n n L L 9 L L L L L L L L _ o._ L o.o._ o.....o.o.4...4.4.=.=.=.%.>.>.<.>.<.3.<.,.a.z.z.z.v.v.j.t.f.t.t.r.w.w.w.-.$.f.z.z.m.A.A.A.H.G.G..X].`..XXX.XOX.XQ.Q.8.b.b.n.Y.Y.2.2.,.1.1.3.>.>...o.4.4...} o.m..XK.V.C.V.m.N.b.d.2.>.2.8.d.b.b.V.C.J.Q.D.v o.+.O.O.@.@.3.,.,.9.6.9.0.N.n.B.M.U.{.,X,XoXoX}..X'.[.G.G.|.S.S.z.l.g.g.f.p.u.r.;.;.;.*.$...) }  .2.2.N.Y.T.i d u x r * v 8.0.8.0.n.n.#.t X O 6 # ; 5 < O x D.N.m.d.m.i.i.g.*.^ *.y.;.;.( =.*X;X;X;X;X;X*X*X*X;X;X*X*X;X;X*X*X*X;X;X.X;X.X~.;X;X;X;XQ.Q.;X~.;X;X;X~.~.;X~.;XQ.;XQ.;X;XQ.*X~..X~.",
"9 p t t t t t t t 4 5 4 6 4 4 < 4 4 4 < > > > & + $ > 4 4 < * % + # $ & * & & $ . X X X . . . - % o = 0 0 0 i 0 B 2.M.9.O.v 5 X X O @ 2 2 2 o X O 1 | n.R.R.n.,.9.6.9.N.M.Z.B.n.@.o.v a & .     X x 2.4.4.1.4.8.b.b.d.8.b.N.U.U.V.V.M.L.P.G.m.a.m.g.A.A.H.H.H.G.G.].[.[.{.{.{.oXOX.XoX,X,X,X,XwXrXeXlX5X|.U.|. XoX{.5XgXBXBXjXgXjXjXjXBXBX X5X5X5X4X5X3X3XeXlXiXlXaXlXaXgXaXfXgXgXfXjXjXjXUXlX3X3X3X3X2X4X1X1X1X1X:X*X*X*X=X&X%X%X%X%X XR.P.P.P.K.K.J.J.C.C.D.V.V.M.M.n.b.b.b.b.9.9.8.,.2.,.2.>.>.>.3.4.O.O.%.o...X.} } c h c c h h h c b c c b T.~ T.b b b z x N u t u u u t r r r y y u u N N x x M c n c M M x x b x x N N N u d d N N N g x M g b v h x ,.&XJ.J.V.V.M.M.N.V.b.b.b.8.8.1.1.2.,.,.8.1.1.2.2.2.8.b.,.r . < # & - $ = 0 w e e e k e W l W e W W W ^ ^ ^ ^ ( ' ..} X.O.P P | P } } m v ..1.g.d.l.l.l.A.A.S.G.G.L.I.J.J.J.L.J.J.I.J.J.J.J.J.J.J.J.J.J.J.J.J.C.C.J.V.K.V.V.V.V.V.Q.C.Q.V.V.n.Q.V.Q.C.C.C.V.C.U.C.C.V.C.C.V.M.C.V.C.V.V.V.U.M.V.M.B.V.V.q.V.V.V.V.V.V.0.V.0.V.V.V.V.L.m.g.m.g.i.i.i.a.i.d...0 m.LXKXKXKXKXKXKXKXKXKXLXKXKXKXKXKXjXY.X.M.P.U.Y.N.N.N.N.Y.N. .0 2 t 0 9 L n M n M n L n n n L L L L L _ L o.L o.L o.L o.o.o.4...o.4.4.4.X.=...@.=.>.%.>.>.>.<.3.<.2.<.u.z.z.v.v.v.v.t.t.f.r.r.:.:.w.[ a.m.z.z.z.F.F.H.].G.`.L..XXX.X.X.XOXQ.m.8.n.n.b.Y.i.6.,.2.,.>.@.@.1.4.} 4.X.P L m.I.Q.L.D.D.M.b.b.8.8.1.>.>.2.8.b.n.V.n.J.=XQ.4.P o.@.@.@.@.5.3.,.6.Y.6.0.N.n.n.M.M.I.=X,XoXoX{.'.'.].G.G.G.S.S.x.m.l.g.d.a.a.u.<.;.;.%.$.` .. .<.>.d.n.>.N i u g r < n ,.q.0.8.b.9.n.C.,.9 . O , ; ; 1 % % 4.R.b.Y.i.i.m.g.&.;.$.$.r.;.=..XeX=X;X;X;X;X;X*X*X*X;X=X*X;X;X*X;X*X;X;X;X;X;X;X;X~.;X~.;X;X;XQ.;X~.;X~.;X;X.X;X;X.X;X;X*X*XQ.;X;X~.",
"t p 5 9 7 5 t 5 t 5 4 6 4 1 6 < < < < > * & & & < > & + + + o % & & $ - + . .   X - * * $ X . $ 0 0 0 w 0 k w = %.N.9.,.9.9.3.P % O O X o % 1 1 X X X 1 T.0.Z.R.B.n.6.3.3.6.0.n.M.B.n.N.3.| d <   = } 2.3.8.1.O.>.8.b.V.V.n.n.N.D.V.D.P.P.S.g.Y.m.m.A.A.S.F.G.].L.L.{.{.{.{.{. X.XoX,X+X,X,X5XwX5X5X XS.S. X,X X{.5XlXmXAXjXgXjXjXhXjXBXBX5X5X5X5X5X3X3X3X3XlXlXlXlXaXlXaXaXgXfXjXgXjXjXjXjXlXlX9X3X2X4X4X4X1X:X5X:X-X*X*X*X%X&X%X%X%X!.{.P.K.K.K.L.I.J.C.C.U.M.M.M.M.N.n.b.b.9.8.8.9.8.2.,.>.,.>.>.%.4.O.%.o.%.o.o.| } v x g c h c h h C b C c H H b T.! b b l z N i u i u i 0 r r r i y y d N N x x M n v M x x x N x N N N N u u u i u N N g g g g M x t G U.P.I.V.V.D.M.N.m.d.b.8.8.2.2.3.3.>.>.>.>.>.>.1.2.8.>.m.v X % & & - $ * w w e e e k k e W W W W W ^ ^ ] ` [ [ ....X.+.o.P P I  .} M / / =.g.g.u.l.l.m.A.S.G.U.I.U.J.J.J.J.C.Z.J.J.J.C.J.C.C.J.C.J.V.J.C.J.J.J.C.J.V.V.K.K.Q.V.Z.V.C.V.B.V.V.V.n.n.V.C.V.C.V.V.V.U.C.V.C.V.C.V.U.V.V.V.n.V.U.V.C.V.V.V.V.V.V.q.V.n.V.V.V.V.V.V.E.V.d.N.Y.a.a.i.p.<.i.*.1.u.m .XLXKXLXKXKXKXKXKXKXKXKXKXKXKXKXKXKXZXR.Y.2.U.I.Y.2.U.N.Y.n.Y.x - 2 1 9 z 9 n n M M M L L L n L L L _ L L L o.L o._ o.L .._ o.o.4.o...4...4.=.%.@.%.>.<.%.<.3.<.3.<.<.1.z.H.v.v.v.v.j.k.t.w.r.y.:.-.-.u.g.A.z.A.A.H.F.G.].G.G.`..X.XOXQ.Q.m.h.8.8.n.8.Y.2.2.a.1.1.>.>...@.4.X.4.} L ..P.Q.P.C.M.V.M.b.d.9.2.1.@.:.>.2.d.m.m.m.V.Q.Q.M.m | O.@.@.@.,.3.3.,.9.9.6.N.0.n.n.N.U.{.,X,XoXoX.X.X[.[.G.|.S.F.A.l.m.g.g.f.u.u.e.<.;.&.%.$...T.i.>.b.b.m t x x y & c N.Q.n.B.n.0.9.n.n.J.C.v X # 6 @ 1 4 o t P.N.D.d.1.i.<.$.*.p.] ;.) :.,X4X;X;X;X;X;X;X;X;X*X;X;X*X*X*X*X*X*X;X&X;X~.;X;X;X.X;X.X;XQ.;X;X;X.X.X;X;XQ.;X~.;X~.*XQ.Q.;X;XQ.;X;X",
"t t t 7 4 5 5 4 5 6 4 6 4 > 6 < * < * < & < < & % > > > > % % $ + + . . . & * 9 x L } o.N 0 * 0 i 0 e e w k 0 0 N.M.,.,.,.,.0.9.2.O.f @ X   O O p 1 o X   : H ,.B.C.C.B.N.0.9.b.Y.0.Y.n.n.n.n.b.8.>.P ..@.2.n.m.b.8.2.2.b.N.M.J.V.V.H.Q.G.Y.g.A.A.l.S.S.S.S.].U.[.G.[.{.{..XoXoX,XoX,XoX,X,XwX5X5XU.Y.|. X XoX5X{.lXMXBXjXgXgXjXjXjXjXUXBX3X=X4X4X4X3X3X3X3X3XlXlXlXaXaXaXaXaXgXjXgXjXjXUXjXlXeX3X2X3X4X4X1X:X5X:X;X*X*X*X=X=X%X%X%X%XP.P.P.K.P.I.I.J.J.C.V.V.M.M.n.M.n.b.b.8.9.9.2.8.1.,.3.>.>.@.@.@.%.X.o.o.o.....P } m c g c h c c c C f C b f N b T.! T.~ b b z N u u i w 2 r r r y y u y N x x z c M M x x g x N N N N N N i u d t u N N N d M x N c x h  .Q.P.V.M.V.V.N.m.b.b.8.8.1.1.1.>.>.>.=.@.=.>.:.>.1.4.n.X.$ # $ $ $ = w e i e e e e W e W W W W ^ ^ ] ^ ]  ...o.X.I P P P P } | ! b %.1.a.h.g.u.l.l.A.A.D.D.J.V.L.J.J.J.J.J.J.J.J.J.C.J.J.J.C.C.J.J.J.C.C.C.J.V.J.K.V.V.V.V.K.Z.V.V.C.V.C.V.V.V.Z.V.C.V.C.C.V.C.V.V.V.V.V.U.V.M.C.M.V.C.V.B.C.M.C.V.V.V.V.V.V.V.V.V.V.V.0.8.8.0.8.N.D.L.U.u.1.a.i.a.;.<.<.:.S.-XcXKXKXKXKXKXKXKXLXKXKXKXKXKXLXKXKXPX3X%.,.I.P.n.b.N.N.N.U.4.% % i k M M z n 9 L L 9 n L n n L L L o.L o.L _ o._ o._ o...o.4.4...4.4.4.4.4.=.=.>.=.>.>.<.>.<.3.<.1.:.h.H.z.v.v.v.v.k.t.t.t.r.e.-.-.r.h.A.A.A.H.F.F.G.].'.]..X.X[..XU.M.M.N.V.0.b.2.Y.2.a.<.3.>.>.>.o.X.4.4.X.M o.V..XP.I.V.V.V.m.8.9.8.8.>.4.>.1.2.8.b.m.M.V.J.Q.Q.| P o.O.O.O.3.3.,.,.6.2.Y.Y.b.n.B.N.n.P.,X,XoX{.OX'.'.[.].G.G.G.A.A.A.l.f.g.i.a.a.<.;.;.$.$... .2.2.n.3.N u x i 4 g ,.Q.B.q.B.B.V.Q.0.8.B.Q.n.Y   ; > ; > @ & G M.G.M.m.S.a.*.` [ :.u.' A.8X*X<X;X;X;X;X;X;X;X;X*X;X=X;X;X*X*X*X;X;X;X*X.X;X;X;X;X;X.X;X;XQ.;X;X;X;X;X;XQ.;X*X*X;X~.;X.X;X*XQ.;X",
"t 5 5 5 6 6 4 5 6 4 6 4 6 4 < < < < < < < * & < * * * % % O X X # & 9 9 L ..4.,.4.%.%.} n N i i w 0 e e e e = W U.N.b.B.M.5.6.,.B.n.Y.>.G 1 O X   O 2 1 # X X @ | 3.n.K.K.C.N.0.n.N.0.6.6.Y.9.0.V.>..   * r L 1.V.V.U.U.V.M.M.V.V.L.L.J.m.Y.N.S.S.A.S.F.U.|.[.|.[.[.{.{.{.oX XoX,XoX,X<XeX5X,X{.S.S.U. X,XoX{. XeXhXBXzXgXjXjXjXjXjXUXjXAXlX=X1X5X1X5X3X4XlXlXlXaXlXlXlXaXdXgXfXaXjXjXjXjXjX4XlX2X3X4X4X1X:X1X;X;X;X*X&X&X=X%X%X%X!.%XQ.P.P.K.K.I.I.J.D.C.D.B.M.m.M.n.b.b.b.9.9.8.8.6.2.1.3.,.>.>.@.4.4.X.X.o...o.} } P m c f h x c c c N c f f f f C b c b ! T.n b z z k k i r r r r i u u N d x x x M M x x N N N N N N N i N t u i y i u u d t c x u c m x u b.L.J.m.V.V.b.b.b.8.8.8.2.,.3.1.4.4.4.4.4.4.@.@.>.4.2.@.6 # % $ 0 w i e e e W e W W W W W W W ^ ^ ^  . . .| o.+.P P P } } L c x 4.i.g.a.u.i.l.z.z.A.S.D.J.J.J.J.J.C.J.J.C.J.J.C.C.J.J.C.D.J.J.J.C.V.C.J.C.V.C.J.V.V.Z.V.V.V.V.Z.C.C.V.C.V.Z.V.V.V.C.C.M.V.C.V.V.U.V.B.V.C.M.C.M.C.C.M.C.M.V.M.M.V.V.q.V.V.q.V.V.8.8.8.V.V.Q.Q.Q.-X3XsX3XQ.u.1.l.;.g.e. .D.[.2.D.hXPXKXKXLXKXKXKXLXKXKXKXKXKXKXKXKXLXjXU.>.N.J.U.M.n.N.B.N.c - i i z v M M n n n _ L L L L L L L o.L L L L o.L o.o.o._ o...o.4.o...=.4.4.@.@.=.=.%.>.>.<.3.<.3.2.:.1.h.H.z.v.v.v.v.t.t.f.r.y.:.:.:.h.z.z.x.F.F.F.G.]..X.X[.L.V.M.N.n.n.n.n.n.9.2.2.6.<.,.3.<.O.4.>.....X.L L 8.;XQ.L.C.V.V.n.b.8.8.2.1.>.4.4.>.2.8.8.N.V.V.V.L.=X2.| P O.O.O.3.#.3.,.6.2.9.0.0.n.n.B.B.U. X,XoX.X{..X[.[.[.G.G.S.S.z.m.l.g.g.p.p.a.;.;.;.%.$.$. .8.b.m.X.N 9 y 9 4 b.Q.V.B.B.n.q.Q.n.n.V.M.B.Z.!.o.# X % : > > > x  .<.b.S.m.a.$.r.z.h.r..XhX1X&X;X;X*X&X=X;X=X;X;X*X;X;X&X;X*X;X&X&X*X*X;X;X~.;X~.;X;X~.;XQ.;X~.;XQ.Q.;XQ.*X;XQ..X;X~.;XQ.;XQ.;X",
"4 t 9 4 4 4 4 < 4 6 4 4 < > > < < < * > & % % $ o X   X o 4 v | 4.o.@.8.8.4...L L m n z z k u k k e e 0 k u w 1.R.U.6.n.n.6.n.n.@.5.0.n.N.#.H p o X X @ < & & #   O g >.B.I.I.B.n.n.0.Y.Y.6.9.Y.N.o.w - - X X X . r } N.I.R.{.P.L..XQ.A.i.g.N.A.A.S.S.S.|.G.|.[.{.'.{.{.,X.X.XoX{.oX,XwX,X XU.m.N. X,XoX X XoX XjXjXjXgXjXjXgXgXgXjXUXjXVXaX=X1X5X4X4X4X3X3X3XlXlXlXaXaXaXgXaXaXjXfXjXgXUXhX5X3X2X3X4X4X1X5X5X5X5X*X&X*X&X=X%X!.%X%XR.R.P.P.K.K.I.I.Z.J.U.V.V.n.M.n.n.n.b.b.9.8.6.2.6.,.,.3.>.3.@.@.4.4.X.X.o.o.X.} P } G c d N d h h f c c f b b f N f f b c c b b b b b N i i 0 r r i y u N N N x x x M x x N N N N k N i u u i d r i t i y u N N N d c c d y L b.I.M.m.m.b.b.b.8.8.8.1.3.>.>.@.4.4.........4.4.4.4.,.v . + = e e w e e k l e W e W W W ^ ^ ^ ~ )  .|  .| P P o.L P } L x c T.m.g.i.p.p.p.l.A.A.A.H.J.J.J.J.Z.C.V.C.C.J.C.C.C.J.D.J.D.C.C.C.C.C.V.J.V.C.C.J.C.K.V.V.V.V.V.V.V.V.V.C.V.V.V.C.V.C.V.V.C.V.V.V.V.M.M.C.C.M.C.M.C.C.V.V.M.M.M.M.n.V.n.V.0.8.8.8.8.K.Q.&X;X8X8XkXqXpX0XaXaX4XL.d.:.u.l.*.2.,X;XV.d.2.1XZXKXKXKXLXLXKXLXKXKXKXKXKXKXKXKXKXAX X3.N. XM.M.M.N.U.6.* 2 w 9 L 9 n L n L v L L n L L L L L L _ o.L o.o.o.o.o.o.o.o.4...4.X.4.4.4.=.@.4.@.<.<.>.3.<.<.3.<.1.:.h.H.F.v.c.c.v.j.t.t.t.r.y.:.' h.z.z.x.H.H.F.].L.L.D.V.n.9.9.0.0.Y.q.n.0.9.9.2.a.1.<.<.<.O.>.4.4.X.} L >.Q.Q.I.V.V.M.m.b.d.9.2.,.3.4.X.4.@.3.1.8.b.m.M.V.L.P.I.O.G +.+.X.@.,.3.3.6.2.Y.6.b.b.q.B.N.U.{.,X,XoXOX.X[.'.[.|.|.S.F.z.A.l.l.g.i.i.a.<.;.;.%.%.....b.m.8.n N N r g 3.!.!.n.C.Z.B.Q.Q.q.B.Q.K.C.M.K.-XI ; % & 6 > 2   + B z T.*.<.! / ( w 0 4.Q.4X0X4X1X;X;X;X&X&X;X&X;X;X;X;X=X;X&X;X;X*X.X;X~.~.;X;X;X;XQ.;X;X;X;X~.;X~.;X;X;X*X*X;X~.;XQ.;X~.;X~.",
"t 5 4 6 6 4 6 6 4 4 6 < 6 > 4 2 & & & % + o o O t h I O.9.9.Y.6.,.@.@.o.o.o.P P n m / n k i z b k k k e z N i J.B.Z.B.Z.B.0.B.0.B.n.Y.6.6.n.n.N.| f O X O @ % # < +   O t 4.B.R.n.n.n.B.n.n.n.n.1.& g B   $ $ + O X     $ z O.N.Q.=X.XV.a.l.U.g.S.S.S.`.I.|.U.|.[.{.{.{.}.{.,XoX,X<X<X.XG.U.M.Z. X|.|. XoX X5XjXBXUXjXaXjXaXgXjXjXjXcXhXVXgX=X5X1X1X4X3X3X3XlXlXlXlXaXlXlXaXjXdXgXgXjXjXzXfX4XlX3X3X4X1X1X1X:X-X;X*X*X&X=X=X%X%XR.%X{.R.P.K.I.I.I.I.J.C.U.V.n.V.n.n.N.b.b.b.9.8.2.8.8.1.3.>.>.@.>.O.%.O.X.o...} X./ L o.G c d h h x d N f d N f C b N f f d f f c Q Q Q b b b N r r r i i y u N x x z M b x N x N N N N u N u u t i y r i y i y g i y x N u x c B 2.I.M.m.n.b.N.8.8.8.8.,.1.>.>.4.4.4.o.o.} X.o...>.P ,.o.. + & w w e e k e W W W W W W W W ^ ^ ) !  . .| P P P L L m } m M } 2.L.u.;.g.g.g.l.f.z.A.H.H.J.L.Z.J.C.J.C.J.V.J.V.J.C.C.C.C.C.J.C.C.V.C.J.V.V.D.C.C.V.V.V.Z.V.Z.V.V.V.C.V.V.V.C.V.C.V.M.C.M.V.B.V.V.M.C.M.M.C.M.M.V.U.V.M.M.M.n.N.n.8.8.n.K.!.;X2X8XkXqXkXqXqX8X8X8X9X6X2X3XkXsXL.=.d.a...[.;XV.%XI.U.1.J.BXKXKXKXKXLXKXKXKXKXKXKXKXKXPXKXKXLX4X2.Y.J.N.U.Y.U.U.d $ w z n n 9 L n 9 n n v L L n L L L L o.L _ o.L _ o._ _ o.....4.o.X.=.X.=.4.4.:.@.>.>.>.<.<.3.<.<.8.=.r.H.z.v.v.x.v.v.f.t.t.r.:.:.[ h.F.z.F.F.F.F.[.L.A.b.,.9.6.0.n.0.0.0.6.6.9.n.2.2.<.3.<.>.4.4.o.X.4.L L D.&XH.I.V.M.V.m.8.8.b.1.1.>.4.X.X.=.=.1.9.b.b.M.V.J.J.;X3.G X.X.+.@.@.#.3.3.6.6.Y.0.n.n.U.B.N.G.,X,X.XOX.X{.[.[.[.G.|.S.S.A.A.l.g.f.a.i.e.;.;.;.*.%...M.M.4.i 9 z r ..;XQ.B.Z.Z.Q.Q.q.B.Z.Q.Z.C.J.K.Z.Z.-X0.# O > @ t 1 < > < < G 3.M       X   X g 8.8X3X1X;X;X*X;X;X;X=X;X=X*X;X;X;X;X;X~.;X;X;X.X;XQ.Q.;X;XQ.;X~..X;X.X;XQ.;XQ.Q.;X.X;X;X~..X;X;X.X",
"5 4 4 < 4 4 4 < 4 < 4 4 < & % + . . & 4 g P ,.8.V.N.9.,.>.>.,.>.>.@.@.X.L L L L n L n z i k z l ~ l W W k q ! =XK.Z.B.Z.C.B.B.q.n.n.0.b.0.6.9.6.Z.n.#.j # . O + @ : < #     4 | n.-XR.n.b.6.n.I.z z 9 q . . . . - $ % $ % O X   & g O.m.J.G.G.G.z.S.|.|.G.|.{.{.{.{.{.{.OXoX{.5X5X,X{.U.Y.U.I.{. X|.oX,X X,XgXBXjXjXgXjXaXgXjXaXjXjXUXUXUXBX X;X5X4X4X4X3X3XlX3XlXaXsXsXdXaXaXaXaXjXgXjXzXlXlX3X4X1X4X1X1X:X:X-X-X*X&X&X=X X%X%X!.R.%XP.P.K.K.J.J.J.J.C.V.V.n.M.n.n.b.n.b.8.9.8.2.,.,.3.1.>.@.@.@.%.4.X.X.o. .} |  .P / P ! x u N N d f N f d d d k d f N N f x d N x Q M ! b b u e w w i u N d x x x N N N N N N u N N i u u u i y i i i r i r t u u d d g d g g u 8.Q.8.2.V.d.d.8.2.1.1.>.>.>.4.4.4.o...o.} } P 4.} P =.i - e i e k k k k k k e e i y N u a d c T.| | L P L G m G | ! N n d.L.;.e.i.p.p.l.A.A.G.U.U.U.C.U.J.J.C.C.C.D.C.C.V.C.D.V.C.C.C.C.V.C.V.V.M.V.V.Z.V.V.V.V.V.V.V.V.V.V.C.C.D.U.V.V.V.V.V.V.V.V.8.V.V.V.V.V.V.V.V.V.V.V.b.b.9.8.9.n.V.Q.;X8X8XkXkXqXqX0X6X8X8X8X8X8X2X8X8X8X6X8X8X6X8X8X>.} 1.=X,XL.P.D.m.I.N.1.4XLXKXKXPXKXKXKXKXKXKXLXKXKXKXLXKXKXfX1.N.M.U.M.N.P.2.. 4 9 M v M x n v _ L n L n L L L L o.L L L o.L ..o._ ..o...o...4.o.o.4.4.@.4.@.:.@.=.=.1.1.>.1.1.1.u.f.f.z.F.).).(.c.c.k.t.r.:.:.{ w.z.H.H.L.A.V.b.b.9.9.Y.6.Y.9.Y.9.9.2.6.2.2.2.2.6.<.>.4.X.4.X.L 4.L L m.&XQ.L.V.D.M.N.b.8.8.,.>.1.4...X...4.>.1.,.8.N.m.M.C.C.!.K.| v O.| @.O.@.3.,.,.9.9.9.2.3.Y.n.J.K.Q..X.X,X{.{.{.{.|.G.U.S.S.z.A.A.l.l.f.a.;.a.e.%.*.*.<.J.2.P v y r #.~.K.K.E.R.P.E.Z.R.Q.Z.I.J.K.K.Q.!.-X5XlX Xb * u i N ! Q *.! z -X6X~.6.p X     X   4 >.;X8X8X:X-X&X.X;X1X1X1X~.~.;XQ.;X;X;X.X~.;X;X;X~.;X~.;XQ.~.;X;XQ.;XQ.;X.XQ.*X;X~.Q.;X;X;XQ.Q.",
"& 4 4 r 5 r 4 4 < & % o + % 2 r } X.8.9.n.b.n.n.,.2.Y.2.9.9.2.,...o.o.o.o.L L L L n M z e k l l l Q W ) W z g.*XK.Z.Z.K.I.Z.B.B.B.n.B.n.n.0.0.9.,.9.n.n.9.U 4 . X X # 6 6 & O X 1 G n.%XR.R.U.3.i i k k i 4 9 * . X X X X @ % 2 X X X X $ N %.N.[.{.{.{.[.I.`.S..X{.[.]..X<X<X,X X|.N.N.U.{.{.[. XoX,X XoXgXjXcXjXnXjXfXaXaXaXjXhXfXUXjXUXBX=X5X4X5X4X4X4X3X3XlXlXlXlXsXsXaXaXjXaXjXjXjXmXlX5XlX3X2X4X1X5X5X5X;X*X*X*X%X*X%X X%X%X.XR.P.K.K.J.K.J.J.C.V.V.M.M.n.b.n.b.b.b.8.2.8.2.,.1.3.1.>.@.@.=.@.X.X.X.o. .o. .| P m } m b u f d d u d N d d f f d d d d d d x N x x N b b b z N i i t t u x x N x z N N N N u u u u u u i u i r r r r r y y i i u u u d u g x i L m.I.V.d.8.8.8.2.2.,.3.@.=.4.4.4.o.o.} } }  .} L o.=.N $ w w w e w r i i t e e y y y g d y H }  .| L P L G m T.c c m u.D.H.u.u.a.f.l.l.l.S.S.U.S.G.D.U.J.C.V.V.V.C.C.M.V.C.U.C.V.V.V.C.U.V.J.C.C.C.V.q.V.V.q.V.q.V.V.V.q.V.V.M.V.M.m.n.n.n.m.V.C.V.Q.V.n.n.q.V.V.9.8.0.8.8.C.K.!.-X6XpXpXkX0X8X0X0X8X8X8X2X8X8X6X8X8X8X8X8X2X6X8X8X2X8X2X8XQ.V.b.P.%XP.Q.G.J.I.I.M.d.K.mXKXKXKXLXKXKXPXKXKXKXKXKXLXKXKXLXIXP.b.N.C.J.U.n.%.- i M n x n M n 9 L L L L L L L L L L o.L L ..o.o.o.o.o...4.o.o.4.o.4.4.4.4.4.@.>.>.>.>.>.1.,.,.,.8.8.u.h.m.z.h.z.v.c.j.j.j.s.j.t.r.A.H.A.D.N.b.2.6.Y.6.6.6.9.6.,.,.,.,.3.3.,.,.2.2.2.,.3.>.>.O.4.X.L =.P.Q.V.V.V.V.m.N.8.8.2.1.>.4.4.o...} 4.@.1.2.2.d.m.M.V.J.K.R.>.L O.O.O.O.#.3.,.6.,.,.,.>.R.R.C.N.b.n.V.Q.oX{.}.oX{.'.|.G.S.S.S.A.m.l.g.a.f.e.a.e.;.<.*.1.V.8.g * r O.!.~.!.Q.K.K.K.R.R.R.Q.Q.-X:X>X-X~.!.3.| G a = t  .T.Q T.Q ) ! n :X:X&X>X7XR.#.r O       & o.J.1X8X8X2X;XQ.Q.;X<X~.Q.*X*X;X;X;X;X;X.X.X;X.X;X;X;X;X.X;X;X;X;X;X~.;X;XQ.;X;X;XQ.Q.;X2X",
"g y 4 & o . X + X + 4 v 4.n.K.R.n.V.V.V.V.9.8.8.Y.2.9.b.9.,.>.@.o.o.} P L L L L n n b i k z l l l T.W ^ b ^  X5XR.R.K.E.R.Z.Z.Z.Z.C.Z.B.B.B.n.B.n.6.,.0.n.n.0.#.6 + X X @ > & % X   % H 6.R.R.| i e z l L n L L M N y B $ . X   ; @ : > % o O X B c %.U.{.,X<XwX[.{.{.,X,X,XoXU.M.N.N.U.U.G.{. X|.5X X|.lXBXmXgXjXjXaXgXgXaXgXaXfXhXjXUXUXAX5X5X5X4X4X3X3X3XlX3XlXsXsXsXlXaXgXaXdXjXjXjXjXlX5X5X1X3X1X>X5X;X;X;X*X*X*X&X%X X%X%XP.!.P.P.K.L.K.J.J.J.C.C.M.M.M.n.N.n.n.b.b.9.8.8.2.6.,.1.3.@.@.=.4.4.O.X.o. .|  . .} } } m / M u N f f N d N f d d d d f d u d d d h u d f N b M M b g t r t y d g N N N d k N u u k u y i u i y t i r r r r 4 r t i y y p u u d N N g X.V.V.1.d.d.8.8.1.1.>.>.@.4.4.4...o.} L } } G G  .4.x = = 2 0 B B 1 B r r i 9 i i u p a u G P | } L L L L T.c x n <.G.G.d.a.a.f.g.l.g.A.A.S.D.U.U.C.C.C.C.U.V.C.V.V.C.U.V.V.C.U.C.U.V.V.V.V.Z.V.V.V.V.V.V.V.V.V.V.V.V.V.V.m.n.M.B.V.V.n.n.J.C.M.n.b.9.b.8.8.8.V.V.Q.&X;X8XpXpXkXkXkX0X2X2X0X0X8X8X8X2X8X8X6X8X8X6X2X8X8X8X8X8X6X6X8X8X8X8XiX;XU.D..X%XK.J.J.b.M.!.C.>.M.8XLXKXKXKXKXKXKXKXKXKXKXKXKXKXKXKXHXeXN.Y.J.P.U.N.= & M M x v M n L n L n n L L L L L L L o...o.L L o.o...o.:.:.o.X.4.4.@.4.4.@.@.=.>.>.>.1.,.,.>.,.,.3.#.#.,.,.@.>.>.>.<.1.r.r.1.:.:.h.A.2.2.,.3.3.3.,.,.,.,.,.,.,.5.,.@.3.3.3.3.O.O.>.@.@.X.} | ..L 4.Q.%XL.V.V.V.V.m.9.8.8.3.1.>.@.4.X.o.o...X.@.1.8.8.b.n.V.V.J.!.M.T.o.@.o.O.>.,.2.@.o.>.K.2XUXjXlX5XQ.C.N.d.S.I..X.XoX{.|.S.|.S.z.A.l.l.g.f.e.;.e.<.a.%.%.Y.m.o.i y 4.!.1XQ.K.!.%X-X>X>X5X>X>X-XQ.0.| a # X + o .     - N T. . .b ! m ! :X-X-X&X-X>X2X-Xq.O.4 X X X . x N.;X2X2X1X~.Q.;X;X8X*XQ.~.Q.Q.;X;X~.;X~.Q.;XQ.;X~.;XQ.;X;X~.~..X;XQ.;XQ.;XQ.Q.*XQ.Q.",
"X X + & 4 f P @.Z.I.P.R.K.C.n.6.n.n.V.9.8.8.n.m.n.N.9.,.>.>.X.X.o...} } P L L L L n z i k z b b b ^ ~ ^ ~ ) P.5X&X~.!.~.!.!.R.R.E.K.Z.Z.B.Z.B.n.Z.q.n.0.0.n.n.B.B.@.j % X X o & t O X   o G 3.x l z i n _ L L ......%.X. .m x y + + X X o % : 2 @ o O @ B c <.U.<XeX<XeX Xm.N.a.Y.U.U. XI.G.[..XoX X XeXnXBXjXjXjXgXaXaXaXaXfXgXhXhXjXjXjXAXlX=X5X4X5X4X4X3X3X3XlXlXlXaXaXaXaXaXgXjXgXjXjXlXeXlX2X1X1X5X5X-X;X*X*X*X&X%X%X~.%XR.%XP.P.P.K.J.I.I.J.C.C.C.M.M.n.n.n.b.b.b.8.8.6.2.6.1.3.3.>.>.@.4.4.%.X.X.o.o.} } } } m m m G M g u u d u N f u d k f d k u f f k N p d u i f N x M H x d i t u g g N N N N N u N u N u i y i i r i r i r r r r r t r y i y u a u g x r x 8.b.8.b.8.8.8.,.3.>.>.=.4...X.o.} o.L L  .T.T.%...b w $ * 2 < < < r B t i y r 9 d y u a } } P L L G G v T.z z >.S.I.m.1.a.a.i.l.l.g.A.S.D.D.C.U.C.C.D.C.C.C.V.U.U.V.C.C.C.V.C.M.V.C.U.C.V.B.n.V.V.V.n.n.q.V.V.V.V.q.V.V.J.C.C.V.V.n.V.Q.M.n.N.9.8.8.Q.Q.;X>X2X8X0XqXkXpX3X6X8X8X8X8X8X8X8X8X2X8X8X8X8X8X6X8X8X2X8X8X8X8X8X2X2X8X6X2X2X8XsXlXP.V..X%XL.J.Q.m.2.m.L.P.V.8.{.VXKXKXKXKXKXKXKXKXKXKXKXLXLXLXKXLXaXD.Y.M.I.P.n $ u n n L M v _ 9 L L L L L L _ L L ..L L L ..o.....o.o.o...o.4.4...4.4.4.4.:.>.>.>.>.1.>.1.,.,.,.#.#.#.+.+.T Y R Y Y Y I I | ../ 1.m.,.3.9.@.#.3.3.O.>.@.4.X.>.3.@.@.#.O.>.#.3.>.#.3.@.@.O.X.v n ,.Q.Q.V.V.V.n.m.N.9.8.2.1.>.4.:.4.4...} X.4.@.>.3.8.d.m.V.V.J.P.!.4.v 4.X.4.>.| } @.V.:XpXhXkXhXhXjXfXsX2X;XN.U.D.H.[.[.{.|.G.G.S.A.A.l.l.l.g.g.a.;.<.;.;.U.V.g $ P K.~.:X-X0X6X3X-XR.N.>.O.# # X X X O @ @ o & 1 $ . X = w T.%.)  .n T.3X>X>X^.~.~.-X>X2X>X~.n.L #       B 8.Q.2X8X2X;XQ.Q.*X;X1X1X;XQ.*X;XQ.;X;XQ.;X.X;X~.;X~..X;X~.;XQ.;X;XQ.Q.;X;X;XQ.Q.",
"i c X.Y.n.I.R.%XJ.J.I.Z.C.C.C.V.n.V.V.C.n.n.n.m.8.8.,.@.@.@.4.4.X.o.} } / m L L L x k k z l W W Q Q ^ ~ ~ ^ <.2X-X~.&X~.~.~.!.~.R.R.K.Z.Z.Z.C.Z.n.Z.Z.Z.B.0.6.6.n.C.n.6.G 4 O   O 2 t < O X * z l z z n / n L .. .} ..=.<.3.i.i.u.=.m N 4 % o X # O : : % @ @ + M /  .D.{.N. X5X XU.U.U.{. X{.oXoX{.5XjXBXnXfXnXaXgXaXaXaXaXaXgXhXjXhXUXjXAXsX=X1X1X5X4X3XeX3XlXlXlXlXlXaXaXaXgXaXjXaXjXkX4X3X4X2X1X1X1X:X;X*X*X*X*X=X&X%X%X%XP.P.P.P.P.K.J.J.J.J.C.C.V.M.M.n.N.N.n.b.b.8.8.2.8.8.3.3.>.>.@.@.@.X.%.X...o.o.} } } T.m m m G c x u d y p u d y d p u N p f p u u d u p p N p p k N N N d t t u g N N N g N u u N N u i u t i t i 4 B B w w 4 r r r r y r t i y d g r w L d.V.b.8.8.1.8.>.2.@.=.4.4.X...o.} } } } *.| *.O.! b i = * < 1 B B r t r r t y y y i u g  .P G G m v v n x b ..m.G.A.u.r.a.p.g.g.m.S.m.U.U.U.C.U.C.V.U.U.M.V.B.V.V.V.V.V.V.M.V.M.U.C.B.V.n.V.n.V.V.V.V.V.V.V.V.V.V.V.V.V.n.n.b.9.8.9.n.8.8.V.Q.~.2X8XpXpXkXqXkXqX0X8X8X2X8X8X8X6X2X8X6X8X8X8X8X8X8X8X2X8X2X8X8X7X8X2X8X8X2X8X2X2X2X8X2X8X4X8X=XD.L.&XQ.L.V.J.V.b.m.I.P.V.1.V.kXLXKXKXLXKXKXKXKXKXKXKXKXKXLXKXKXVX{.,.N.;XD.= B L M M M n _ L L L L L L L L L L o...L o.o.o._ o.o.o.4...4.4.4.4.4.4.4.@.=.>.1.>.>.,.,.1.1.#.,.#.#.+.+.+.Y Y T T Y R F F F } ( :.J.M.m.n.b.Y.2.i.3.<.<.<.>.O.O.O.O.X.| O.O.| T.G G H T.P | X.1.L.Q.J.V.J.V.m.b.b.8.8.1.3.>.@.@.4.@.4.X...4.@.>.3.1.8.b.m.V.J.C.;XN.c X.O.O.G o.Y.!.3XaXiX4X3XeXeXiXhXjXfXhXaXlX*X].G.G.|.|.].G.S.S.A.z.m.h.a.a.;.;.<.%.i.U.n 4 +.2XfX9X-X5X5.+.D p 2 O X X % % 2 < 2 < < 2 5 1 + . $ $ . . r ! *.*./ } iX6X>X7X6X>X&X~.&X-X>X>X;XQ.6.v .   X + L n.2XsX2X;XQ.Q..X;X;X1X;X;XQ.;X;X;X;XQ.Q.;X.X;X.X~.;XQ.*XQ.*X;X*X=XQ.Q.Q.*X",
"%X*X;X-X%XP.J.C.C.C.U.M.C.V.C.V.J.C.C.V.Q.b.8.,.1.>.4.>.4.4.4.X...o.o./ L L v n n z k k z b W W Q l ) ~  .) T.5X>X:X-X&X&X&X~.~.!.!.!.R.R.Z.Z.K.Z.q.n.n.n.B.B.B.0.0.n.B.Z.0.| d + X X % 2 o O T.u z n _ _ n L / X.%.........%.%.:.1.h.A.M.d.O.G 4 2 # X X O ; 1 X - o N.sXeXaXgXI.U.U.|.{. XoX X X5XgXMXjXjXjXjXaXaXaXgXaXaXfXgXjXjXhXUXjXBXkX%X5X1X4X4X5X3X3X3XlXlXaXaXlXaXaXaXgXjXjXjXgX4X3X4X1X1X1X1X:X;X*X*X&X=X=X%X%X%XR.%XR.P.P.P.K.I.J.J.C.V.C.V.M.n.n.N.b.n.9.9.8.8.,.2.1.3.3.>.@.@.=.X.4.O.X.o. .} } } } ! } m n m b z d y d u u p d t u p u u i f u p t p d d f N p p t p d u u u i i N u N k u i u u u i u i i t w r r r B B 0 * * * r r r r t t t i t B n b.V.n.d.b.8.8.,.1.>.>.@.4.X.o...o.} ..o.X.O.%.3.*.b z k 0 = & * < * 1 1 t B t i i r u u x P G v v G v c c N  .m.S.D.z.f.1.p.f.g.l.m.A.S.S.D.C.C.C.M.U.V.V.V.B.V.V.M.U.B.V.M.U.V.C.C.M.V.C.V.n.V.8.V.V.V.V.Z.V.n.V.n.0.8.0.b.b.n.V.Q.Q.~.;X9XpXkXdXpXpX0X8X8X8X2X8X8X8X8X0X6X6X8X8X9X8X0X8X8X8X7X8X8X8X2X2X8X2X8X8X2X8X2X2X2X2X8X2X2X2X2X2X4XlX4XL.V..XQ.K.N.m.V.J.V.N.m.J.Q.N.b.;XIXKXKXKXKXKXKXKXKXKXKXKXKXKXKXKXHX2XN.2.&Xn B n M x L v 9 L n L L L L L L o.L L L L ..L o.o..._ ..o...o.4.....4.4.4.>.@.>.4.>.>.>.>.:.#.#.#.#.+.+.+.+.Y Y O.o.I I I P } ..' :.L.L.D.D.D.U.U.M.m.d.b.i.i.>.>.>.%.>.>.%.>.3.3.2.Y.B.J.!.=XQ.Q.Q.Q.V.J.J.b.b.b.8.8.8.2.1.3.1.>.,.:.@.:.>.@.@.=.3.3.2.b.N.M.J.n.=XP. .G  .T.O.U.4XlX2X,X5X3XlXlXeX3X2XlXiXiXjXjXjXaXlX5X[.A.G.S.F.S.z.z.l.l.h.g.1.b.i.>.>.1.N c 8.C.,.h : O O O X O o 2 < 5 2 % 2 % 2 @ O o * + X X - - - . . i T.%.} ..iX6X7X7X-X>X2X7X>X~.~.&X:X>X2X;XZ.@.& . X X z 8.Q.pX8X2X;XQ.~..X.X~.;XQ.Q.;X~.;X;X~.;X~..X;X~.;XQ.;XQ.Q.Q.Q.;X;X;X;X",
"!.R.I.I.I.I.K.K.K.P.P.Q.Q.Q.J.Q.Q.Q.V.d.8.8.8.8.,.>.>.>.@.X.o.} o...} } L L n m b z u z l W W Q ! Q ` ^ $.) ! N.2X>X>X-X-X-X^.-X^.~.~.~.!.R.R.R.Z.!.Z.Z.Q.Z.B.B.Z.n.0.0.B.Z.U.B.,.h @ X % @ @ N N n L ....} o.} %.X.@.<.1.2.<.1.8.<.=.=.<.d.S.J.{.I.N.,.| g & . @ %   3.jXsX4X{.B.[. X{.{. X,X,X XgXBXmXjXnXjXaXaXaXaXlXlXaXaXjXfXUXhXUXjXBXjX*X,X1X1X4X3X3X3XeXlXlXaXlXlXaXaXaXaXaXfXUXaX5X2X4X1X4X5X:X-X*X*X=X=X&X=X%X%XP.R.P.P.P.P.K.J.J.J.C.C.D.V.n.n.n.m.b.b.b.b.8.9.2.2.,.2.,.>.>.>.@.X.O.X.X.X.o.|  .} T.G } T.m m m M c u p t y t d i p u p u p p u p u i p p u p u u p t i N x b x i w u u u u u t i i i 9 i r r 4 B B r w B B B * * * B B r 4 4 r t t B n 8.M.b.,.2.h.8.2.8.>.@.@.4.4.X.X...o.o.X.X.=.>.3.<.T.z N z i * $ * = < * B r r t t t t u g c G n c c m c x z ..u.A.A.A.l.u.a.p.g.g.l.A.A.U.U.U.U.B.B.C.U.M.V.V.C.C.C.B.U.V.V.C.C.V.V.M.M.C.M.V.Q.0.Q.n.V.n.V.0.8.0.V.n.V.V.V.&X*X:X2X9XdXfXjX9X9X9X8X2X8X2X0X0X0X8X8X2X2X2X8X2X8X8X8X8X8X2X2X2X2X2X8X8X2X2X8X2X8X2X2X8X2X2X2X2X2X2X8X2X8X8X2X4X8X3XP.D..X.XQ..XV.8.b.N.b.N.J.V.Q.V.1.P.BXLXKXPXKXKXKXKXKXKXKXKXLXPXKXKXLXsXm.Q.b.9 u n x L n L n 9 L L L L L L L L o.o...L ....L o.4.4.o.4.o.4.4.4.=.=.=.@.=.>.@.@.>.@.>.>.@.R +.R +.R T Y o.I I } } _ _ ' ' -.-.$.A..XD.D.D.U.U.U.U.D.A.N.M.m.m.i.i.a.2.2.2.=X*X*X*X=X.XK.I.Q.Q.Q.V.V.V.V.h.b.b.b.8.8.8.8.1.1.8.8.,.>.>.3.:.:.@.3.1.2.d.b.V.S.V.P. X6.n X.2.*X-X*X*X*X*X5X1X;X5XeXeXeXlXlXiX*X4XsXjXhXgX5X[.H.F.F.F.F.F.A.l.H.A.f.d...T.3.i.m...Q %     - 2 & 2 6 < < < % 2 2 % 2 @ % & 1 < + + $ = = - = q - - w Q / >.dX0X0X6X7X7X>X-X>X7X>X>X~.~.~.>X2X>X;XQ.L $ . X & L ;X;X2X1X;X;X~.;X;X;X;X.X;X.X.X;XQ.;X;X~.~..X*XQ.*XQ.Q.1X8X;XQ.b.",
"%X%X%X%XR.%X%X{.%XP.P.K.K.I.Q.Q.b.n.8.8.8.8.,.,.,.>.4.@.4.X.X.X.} ..} } L m L n z u k z b l W Q W _ ` ^ )  . .T.6X2X2X>X:X>X-X-X-X~.~.~.~.~.~.!.Z.!.!.Q.Q.Z.Z.Z.V.K.Z.M.n.0.B.n.M.K.B.c o O X < n L _ L } o...X.X.%.=.>.>.>.1.>.,.u.8.u.h.d.f.d.g.m.S.I.{.[.L.M.@.+.  X.hX8X{.;.|.|.|. X,XwX,X{.{.mXZXgXgXfXaXaXaXaXaXlXaXpXgXgXgXjXaXUXhXBXmX;X1X1X1X4X5X3X3XlXlXlXlXlXaXaXaXaXaXaXhXjXpX1X2X2X1X5X5X5X;X-X*X*X&X=X=X%X%X%X%XP.R.P.P.I.L.J.J.C.C.C.V.V.M.N.n.n.b.b.9.8.8.6.2.8.>.,.@.>.>.@.4.4.X.X...|  .} } } m T.T.! c m n c y y u y u p u u p u t u u p i p p u u p u p p u p p x T.! m z i u i i t i i r r i r t w 4 w 0 B * * * B r u y u * * * 4 < < 4 r N 8.b.@.=.8.2.=.8.2.1.1.:.@.4.4.X.o.X.o.X.4.4.=.%.a.%.m k b l k $ * * * < B B B t t t t r t d c G c b c G c x N M.m.m.H.A.u.e.f.g.g.l.A.l.U.U.U.U.J.B.C.B.V.V.V.M.M.M.M.V.M.M.B.M.M.M.B.M.C.M.V.B.B.n.n.n.0.8.0.V.V.K.Q.;X8X0XkXpXpXpXpXiX8X2X:X8X8XiX8X8X8X8X8X8X8X8X8X0X8X6X2X8X8X8X2X2X2X8X8X8X8X8X2X2X2X8X2X2X2X2X2X4X8X2X8X2X2X2X2X2X2X2X2X3X4XlX.XV.%X%XI.C.L.V.b.b.m.M.m.M.n.J.L.8.=.eXKXKXLXKXKXKXKXKXKXKXKXKXLXLXKXKXHX8.Q.n * L M L v n L _ L L n L L o.L L _ L L o.o.L 4.o.o._ ..o.4...4.4.4.=.@.=.@.=.=.>.>.>.@.=.>.@.4.+.+.T T Y I U P } $.-.&.w.{ w.-.` z..XL.D.P.U.C.D.D.U.M.D.N.N.N.N.N.Y.Y.i.i.%.2.N.I.{.R.K.U.V.b.b.V.D.n.d.M.m.b.b.b.b.b.8.8.8.8.8.8.2.2.,.8.>.>.1.,.1.8.b.N.M.C.M. XP.4.U.4X X%X X X=X&X*X;X,X5X5X4X4X3X<X4XsX8X3X3XlXgXgXgXH.F.].[.[.F.S.A.$.Q k 0   = M.1Xi.b T.<. .c 2 % B 1 > % % 2 * 0 2 % % % % % % % - X . - . . - - 0 - . i m 2.jXqX7X0X6X0X6X6X7X2X2X>X>X>X>X~.~.;X~.>X8X1XV.9 . + X v Q.8X8X;XQ.;XQ.;X~.;X~.;X;X~.;X.X;X~.;X.X~.*XQ.;X8X;XQ.4.* X ",
"*XP.%X!.Q.;XQ.Q.~.Q.Q.Q.Q.Q.n.9.0.8.8.8.8.8.:.#.8.@.:.@.:.:.R o.L o.R 9 _ _ L 9 k k z l l W Q ( ( ( ( _ ) ' ) ) .XaX2X>X7X-X6X-X-X5X-X-X~.~.^.~. XR.R.R.R.R.R.E.E.E.Z.B.n.n.n.B.0.B.B.E.Z.O.t   m / } _ ..=.=...=.=.:.<.<.<.1.2.u.u.d.d.b.m.m.m.m.M.A.m.m.A.L.Q.=X[.,XeX;X.X.XH.V.L.=X*XD.1.} G N 6XZXgXfXzX8XhXsXsXtXsXaXaXaXgXfXjXgXzXnXUXBXeX*X<X1X1X4X8X8X4XlXtXiXsXaXsXaXaXgXdXjXfXlX5X3X5X1X:X:X:X;X*X*X&X=X%X%X%XR.{.!.!.P.K.P.L.J.J.C.C.C.M.M.n.n.n.b.n.9.9.9.8.2.,.,.3.>.>.>.@.>.X.X.@.X.o.o. . .} } G ! m ! m v c b x N t r t i t r u t i p t p t t t d d t r r r u u ! ! ! /  .! ! N u = r } ..M i 0 4 i i y N c G M T. .) T. .~ T.T./ ! c x u < 4 c >.>.=.X.=.@.>.1.@.>.>.>.3.3.@.} >.,.,.,.,.2.b.N.C.d. .Q l l l z 0 * * * = * * * 4 4 r i y r g v P g g M N i / d.g.g.H.H.f.u.a.g.h.h.h.h.V.8.V.V.q.V.V.V.V.V.V.V.W.V.V.V.V.V.V.V.0.V.V.V.V.V.8.V.8.8.8.8.V.Q.;X2X8XqXqXqX8XqX8X8X8X8X7X8X7X8X8X8X8X7X8X8X8X7X8X8X8X2X8X2X8X2X8X8X2X2X8X2X8X2X8X2X2X8X2X8X2X2X2X2X8X2X8X2X2X2X;X2X2X2X2X;X8X2X2X2X8X;X8X8XV.V.;XQ.H.V.V.V.8.8.V.V.V.V.V.V.V.Q.V.V.VXKXKXKXLXKXKXKXKXKXKXKXKXLXPXKXKX3X .i ! T.m b _ L n L L L L o.L L L _ _ o.L } ..o...o.o...4.o.X.O.X.X.4.o.4.@.@.>.>.@.@.#.@.+.+.o.I Y R F Y G T.*.*.{ *.{ { { e.y.&.e.,X{.P.P.L.I.L.U.S.U.U.U.M.n.N.N.m.N.d.N.Y.i.3.%.2.M.K.*XQ.L.P.V.V.M.n.b.b.n.N.h.n.m.b.b.8.b.b.b.b.8.8.8.8.8.1.1.,.8.b.n.V.V.Q.Q.Q.Q.Q.Q.L.Q.Q.Q.Q.!.%X%X=X&X*X;X;X;X<X4X4X4X4X3X8X8XtXiXsXeX} 3.M 6 $ # + # X w i ...Xf.( ( ( ( ( Q Q n 0 * & @ & % 2 2 ; 2 2 % $ $ & . . . . - - - $ $ $ = . * X 4.DX9XqXqX0X0X0X7XqX7X2X7X7X>X>X>X/.;X/.Q.~./.2X>XQ.V.* X   + >.1XsX2XQ.Q.;XQ.Q.Q.~.;X%X=X&X%XL.P.=X1XaX%X@.7 # # ; 3 ",
";X&X*X&X~.Q.Q.;X~.~.Q.Q.V.q.n.n.8.V.8.8.8.8.8.8.@.@.@.4.R :._ o.o.L :.9 L L L _ e k z l l l W Q ( ( _ [ ` ' ' ' u.aXaX9X9X7X7X-X7X>X7X>X>X-X-X-X^.-X~.^.^.R.R.R.R. XR.R.R.K.K.Z.U.B.q.U.Z.B.B.2.b  .>.>.o. .o.%.=.:.:.1.1.1.1.i.d.h.h.m.m.m.M.A.S.A.M.S.M.S.V.m.L.=XQ.Q.<X4X3XiXkX%X2.o.}  .| X.v n.kXcXfXgXaXaXiXlXiXiXlXaXgXaXaXUXjXUXzXzXBXlX*X;X;X1X4X8X8X3XlXlXlXiXiXsXaXaXfXaXjXjXlX5XeX4X1X1X5X;X*X*X=X*X=X%X%X%X%X%XR.P.P.K.K.J.I.J.C.C.V.C.M.M.n.n.b.b.b.9.9.8.2.2.,.2.>.,.>.@.@.4.X.X.X.X...o.| } ! } P m m m n M b c N y r t t t t d 1 t t y a a a t 1 t t u u N b b b ! ! ! !  . .*.>.o.X.b.d.=.} } z N N N N N N u N f N N i f u N y d g r t t g X.=.@.=.@.@.%...o.4.=.4.4.>.2.>.4.x x x m P  ./ m m ! m Q b l l z B $ = 4 r * 4 r 4 4 4 y i r N m x v M N N / :.m.l.m.S.S.p.u.a.g.h.h.H.H.V.V.V.V.V.V.V.n.n.q.V.V.V.V.V.V.V.V.V.q.V.V.0.8.8.8.0.0.&X&X8X8X8XqXqXqX8X8X8X8X8X8X8X8X8X8X8X8X8X8X8X8X8X8X8X2X8X8X8X8X8X8X2X8X8X2X8X2X2X8X2X8X2X8X2X8X8X8X2X2X8X2X2X8X2X2X8X;X2X2X8X2X2X2X2X2X>X2X;X2X8X;X8X8XQ.V.;XQ.Q.V.V.8.n.8.8.8.V.8.V.V.L.V.V.V.V.sXHXKXKXLXLXKXKXKXKXLXKXKXKXKXLXKXVX|   M %.N n 9 n n M L o.M L L L } } } } o...} o.o...o.o.4.4.X.4.4.4.@.=.>.=.>.>.#.@.+.+.T Y Y T I I | T./ *.*.` *.{ { e.{ y.y.e.e.=X=X{.{.P.L.I.J.U.U.U.U.V.U.D.D.U.m.N.N.N.m.b.2.<.@.=.1.Q.Q.J.J.V.V.m.b.b.b.b.b.b.b.b.b.m.b.b.8.8.b.8.b.b.8.8.,.,.8.8.h.m.n.V.m.V.V.V.J.J.L.L.L.P..XQ.%X.X=X=X=X*X*X*X*X;X5X;X1X4X4X3X3XaX4X$ & # @ @ % + & w N z -.F.-.[ ( _ ( ( ( / / n k i * % % % % @ % 2 % $ & = - - - . - - $ - = $ = = =   9 6XBXqXqXqX0X0XqXqX0X8X8X8X2X2X>X>X>X>X;X;X;X/.;X/.;X;XQ.P &   X L Q.sX8X;XQ.;X;X;XQ.;X%XQ.%X:XpX>XE.d t , , ; , 3 3 ",
":X;X&X!.2X2X!.;XQ.Q.n.n.n.b.n.n.8.8.8.8.8.8.#.#.:.#.@.4.:.L o.o.R L L L _ 9 9 9 k k l l Q W W ~ ( ( ' ' $.-.-.&.! *XkX6X6X0X6X7X6X6X7X>X>X-X-X-X-X-X^.&X^. XR.R.R.R.E.K.Z.Z.Z.Z.E.B.q.B.Y.B.R.B.. 0 N X.2.2.>.>.:.>.:.1.u.1.i.1.8.8.8.8.g.d.m.m.N.S.[.{.[.L.G.D..X:X*X=X;X&X&XiX1X9.c v | o.o.@.o.v P.BXjXlXfXlXiXiXiXiXlXgXaXaXgXjXgXjXUXzXBXsX=X*X1X4X4X4X8X4XlX8XlXiXsXaXdXgXgXaXjXjXlX4X4X5X1X5X:X:X*X&X&X&X%X%X%X%X!.P.P.R.P.P.L.K.J.U.C.C.V.M.V.n.m.N.b.n.b.9.8.8.2.,.,.3.,.>.@.>.@.X.X.o.o...o. .} } ! P G m m m M M x c N u t t t t t t t r t t t p t t B r i N N n n / ! ! ! !  .%.1.i.<.X.=.,.=.../ _ / / n z r B * = 2 2 2 2 2 > 2 2 @ < * $ * i n _ } ..%.>.>.1.=.>.@.>.>.>.>.,.2.2.x r = . . - = = * w b n Q l k z x * X + w B = 4 r 4 r t r t g n g M g N m >.h.m.m.A.S.z.a.u.g.p.h.v.h.V.V.V.V.V.V.V.V.V.V.V.V.n.V.V.q.8.8.5.8.8.8.V.V.Q.;X8XqXqX8XqX8XqXqX8X8X8X8X8X7X8X8X8X8X8X8X8X8X8X8X8X8X8X8X8X8X8X8X8X8X2X8X2X8X2X2X8X2X8X2X2X2X2X2X2X2X2X2X;X2X2X;X2X2X8X2X8X2X2X8X2X2X;X2X2X2X2X>X8X8X;X8X;X8X8XQ.V.Q.Q.Q.H.V.V.h.8.8.8.8.h.V.n.V.V.Q.V.9.N.*XCXKXKXKXLXKXKXKXKXPXKXKXKXKXKXKXUXn B i  .L M L L M 9 L _ L L } } } } } } ..o.4...o.o...4.%.%.=.4.:.=.:.=.>.>.@.#.+.T R R U U I o. ...^ &.*.{ *.w.e.e.e.w.y.w.t.-.'.,X{..X.XQ.[.P.L.L.U.U.U.J.U.U.M.M.S.M.N.N.i.i.N.b.N.J.Q.L.L.J.D.V.m.b.d.8.8.8.8.8.d.8.8.8.8.8.d.8.8.8.8.b.8.8.8.8.8.8.b.b.b.b.b.M.m.V.V.V.J.J.L.K.K.P.P.P.P..X.X%X=X=X*X,X;X;X;X1X<X4XaXsX& X 1 1 4 * = i l ( l _ f.( [ ' _ ( ( ( W / _ / n k i 0 = - @ + + $ $ $ - . . . - - $ - $ $ $ * * = + X o.DXqXqXfXqXqXqX0XfX0X0X8X7X8X2X2X2X/.2X>X:X&X&X;X>X7X6X9X>Xn.9 . . 9 8.2XsX;XQ.Q.;XK.*X9X4XR.6.H O 3 ; @ O O O O O ",
"2XiXiX:X;X~.Q.V.Q.V.n.V.V.V.n.b.V.8.8.8.8.#.8.:.#.:.4.4.R :._ o._ L L L _ _ _ W k z l b W Q / Q ' ( _ ' [ -.-.-.' D.kXfX0XqX6XqX6X7XlX7X7X6X6X7X7X>X>X>X-X5X^./.^.^.%X~.!.!.!.R.R.R.R.R.B.K.I.4.=     + y } ,.N.1.2.1.1.u.d.h.m.m.h.m.V.M.S.U.J.D.D.U.M.D.D.=X1X;X.X&X=XQ.1XsX1XP G G o.O.| P I O.d X.aXjXlXsXlXlXiXlXtXpXgXaXgXjXjXfXjXjXmXBXgX=X*X1X4X4X4XeX3X8XlX8XsXiXsXaXaXfXgXjXgX4X5X3X5X:X5X;X;X*X&X&X=X%X%X%X!.!.R..XP.K.K.J.I.J.C.C.D.V.V.M.n.n.b.b.b.9.9.8.2.2.,.1.3.>.>.>.>.4.@.X.X.X.X.} } } P G / / G m n M x x z N a t r t t t t y t t t t r t r u N z c n Q L n ~ / / / ..;.2.2.>.=.>.X...L m /  .} / / ! b b x B r B 2 2 2 : 2 > & & > k / / / / / ..%.=.u.8.d.d.d.b.i.8.,.6.2.M.8...9 < * * r * 0 u b n b z k x :.L   . 9 r & 4 4 r 4 r r g c v N i m =.h.g.g.A.S.S.g.e.a.g.g.h.h.h.V.h.V.V.V.n.V.Z.V.V.V.V.V.8.8.8.V.V.Q.Q.;X8X8XkXqXkXqX8X8X8X8X8X8X8X8X8X8X8X8X8X8X8X8X7X8X8X7X7X8X8X8X2X8X7X8X8X8X7X8X2X8X2X8X2X2X8X2X2X2X2X8X8X2X2X8X2X2X2X2X2X8X8X2X2X;X2X;X2X2X;X2X2X2X;X2X;X2X2X;X2X2X;X2X;X8X>XQ.Q.Q.Q.V.V.V.8.8.8.8.8.8.8.V.V.V.Q.V. XD.2.U.fXLXKXKXKXLXKXKXKXLXKXKXKXKXPXKXjX| 4 u } L M n _ o.L n L } L L L o._ } o.L ..o...4...o.4...4.=.=.=.@.>.@.O.+.T R o.R U U U P  .$.[ &.{ &.{ { w.{ e.w.w.s.{ k.;.S.eX X,X%X.X%X X{.R. X|.I.I.I.U.G.U.U.U.U.m.m.I.=X=X*X1XQ.Q.Q.J.V.V.V.b.b.8.2.2.,.:.,.8.,.1.8.,.8.8.8.8.8.8.8.8.1.8.8.8.8.8.d.8.8.8.b.b.m.n.V.V.V.D.J.D.I.K.P.Q.Q.%X=X=X=X%X=X*X*X;X:X;X%XdXc o t % % = e Q ~ W W [ r._ ' ' ' ' _ ( ( W l Q Q W b z i 0 = $ $ + . - - . . - - - - $ - $ = + * $ r   . fXvXqXxXqXqXxX0XqXqXqXqX0XqX0X7X8X8X2X7X7X:X>X/.;X~.~.&X7X0X6XQ.#.& . . L &XjXsXQ.4X*XZ.5.p O O O O O ; 3 8 U #.0.",
"+.n.>X1XI.B.Q.V.V.V.V.V.V.n.8.8.8.8.8.8.8.8.8.#.:.@.4.4.L 4.R _ L L L L L _ 9 9 k z W W Q Q ~ ~ ( _ ` $.] -.w.w.&.` 4XcXdXqX0X7X0X0X0X0X6X6X7X2X>X5X-X-X-X-X-X-X~.~.~.~.!.!.!.E.R.E.R.Z.J.%XU.z k * . X   O t } Y.N.m.N.8.1.d.g.h.h.h.m.m.A.A.V.G.U.D.J.L..X.X<X;X=X&XQ.&XsXQ.L g v P P P L I o.| o.x U.jXaXlXiX8XlXlXlXsXsXgXaXaXjXaXhXjXUXBXnX=X*X<X4X4X1XeX3X3XlXlXiXsXsXpXaXaXaXjXaX5X1X3X5X5X5X;X*X-X%X%X*X%X%X%X{.!.P.P.P.P.K.K.I.J.C.V.V.V.M.n.n.m.b.b.b.8.8.9.2.,.,.1.>.>.>.4.@.4.4.o.X.X.} o.} } } } m m m m n c M x N N u t t r t t 1 t t t 1 1 r r u x b n ! n ! n Q / / / ..@.1.>.@.@.1.1.1.%... ...)  . . ./ } }  .Q c x N y r 4 < < * = z !  .) / / ../ _ ..=.:.>.d.b.N.n.b.9.6.Y.,.8.9.3.| N * o B B 0 w b ! l k = 1X8Xx   + 4 B < r r < B t N x x i x 4.h.b.d.g.A.S.z.a.u.i.g.g.h.V.H.Q.K.V.V.0.V.V.V.8.8.8.V.V.Q.Q.;X8X8XqXkXkXqXqX8X8X8X8X8XqX8X8XqX8X8X8X8X8X8X8X8X8X8X8X8X8X8X8X8X8X8X2X8X8X8X2X8X2X2X8X2X8X2X2X2X8X1X8X8X2X;X8X2X2X8X2X2X2X2X;X2X;X2X2X2X2X2X;X;X8X2X;X2X2X2X2X2X2X2X2X2X>X;X8X;X;X8XQ.V.Q.Q.V.V.V.V.8.8.@.8.8.b.h.h.V.V.V.U.{.R.N.Y.-XZXKXKXKXLXLXKXKXKXKXKXKXPXKXCX*X*Xr 4 g L M M L } M } L } } L o.} o.o...o.......4.o.X.%.X.4.>.4.4.O.+.+.+.I R U U U } _ _ $.&.{ { w.{ e.w.y.e.s.y.s.s.w.k.e.p.eX,X,X&X=X=X%X X X{. XL.L.P.I.I.I.U.U.G.S.U.=X3X3X*X%X%X!.Q.I.V.D.V.M.b.b.2.>.>.>.@.=.1.>.>.1.=.1.,.1.1.>.,.1.1.8.8.8.b.b.b.d.8.b.d.b.m.b.N.N.n.M.M.D.D.J.L.I.L.P.P.P.P..X!.=X=X=X=X;XQ.fX@.  * o 0 z W _ ~ W ( w.y.&.&.' $._ ( ( _ ~ ~ W l l l l l Q i 0 * = . . - . . - - - $ $ $ $ & . = + 9 $ X Q.GXxXxXxXfXxXqXfXkXqXqXqXqXqX0X0X0X8X6X8X8X0X>X;X0X2X;X!.!./.6X0XdX!.I X X * V.qXZ.C X   X O ; 2 V F 6.Z.~.-X>X>X",
"X + O.&XP.M.Q.Q.V.V.V.V.n.8.n.V.8.8.8.8.:.#.:.:.:.@.4.4.4.L L :.L L L L L 9 z z z l l W W Q ~ ( _ ` ' ' ' w.{ w.f._ =XzXxXxXxXzXfXdXdXqXdX0X0X0X0X6X6X5X>X7X-X-X>X^.-X^.^.~.^.~.R.R.^.R.R.%X3.0 z r = % + o X O r T.2.m.V.V.m.m.m.z.V.A.H.H.D.J.[.[..X*XeX8X1X*XQ..X.X;X1XQ.o.x ..} } m P } o.| G 3.x G 1XfXsXsXeX8XlXsXsXaXaXaXgXjXgXjXjXUXcXBX*X;X1X4X4X4X2X8X8XlXiXiXiXsXsXaXaXgXfXsX1X5X3X5X-X5X;X*X*X*X&X%X%X%X%XR.P.R.P.P.L.I.I.J.J.C.V.V.M.M.M.n.b.b.9.b.9.Y.2.2.,.1.3.>.>.@.4.4.o.X.X.o.X.} ..| ! } m G m m v n b x x x N N i B 1 t t 1 1 1 B r t N z z b b n ! / / _ / / / %.<.2.d.1.4.X.@.@.>.>...) ......) / ! Q b b ! Q Q b z N N u B < u ! ! ! Q ) _ _ ....$.=.*.=.1.u.b.M.n.n.9.0.,.8.Y.9.8.>.T.c B = + 0 u n n N $ ;XUX=Xo.+   y * < B 1 r u N g w n 4.u.d.h.l.m.S.A.g.e.u.p.g.g.H.h.h.8.0.V.8.V.#.8.V.V.&X>X8XqXqXqXkXqXqX8X2X;X8X8X8X8X;X8X8X8X8X8X8X8X8X8X7X;X8X8X8X7X2X8X2X8X8X7X8X2X2X8X2X2X2X8X2X2X8X8X2X2X2X2X8X1X1X2X2X8X8X8X;X2X;X8X8X;X2X8X2X2X;X2X;X2X2X8X2X2X2X2X;X2X;X>X;X;X;X;X2X;X;X8X2X;X8X;XQ.&XQ.Q.V.V.V.8.8.1.8.8.8.8.8.n.m.m.N.M.P. XV.b..XfXLXKXKXLXKXKXKXKXKXKXLXKXcXN.VX0Xv 4 v o.x x } } L } L L } _ L ..o.o._ o.4.o.4...X.X.4.4.4.O.+.+.I I R U I } o...$.' ' -.w.&.*.y.y.e.e.e.s.s.s.s.s.s.k.t.a.<X5X5X,X;X=X,X X X,X X.X%X.XQ.{.L.[.L.G.U.M.P.1XeX,X.X%X.XQ.L.Q.D.V.M.V.b.d.8.3.>.=.@.@.4.@.4.>.>.>.>.4.4.4.,.,.8.8.b.b.m.M.V.M.M.V.V.m.n.m.M.M.M.M.M.M.M.M.V.C.D.D.J.I.I.L.Q..X%X=X%X=XsXb.  0 w b ) ~ ^ W ( { e.;.&.$.$.$.' ( ( ( ~ ( ~ W l l W l l z k i 0 - . . - + . + - - $ $ = & . & . = = X 9 HXvXzXvXUXxXcXfXfXxXxXqXqXqXqXqX0X8X0X7X7X2X7X7X~.-X7X0X2X~.~.~.!.:XpX8XQ.M .   X X ; f | 0.R.R.5X>X6X2X:X~.!.Q.",
"1 o f P.-XK.I.n.V.V.8.V.V.n.n.n.8.8.8.8.#.8.8.#.R :.R o.4.:.L L L L L L n z 9 z z l W Q Q ~ ( ` ' ` ` ] &.w.w.w.t...b.%XR.E.^.~.>X>X2X6X0XlX0XpXqXqXpXqXqXqXlX6X0X0X0X6X7X7X7X>X7X:X>X:X4X=X%.u n r . . % & % @ X . r T.<.M.J.U.L.L.L.Q.Q.Q.Q..X!.J.b.8.n.Q.~.;X8X1X;X;XV.x 4 L P L m P | | P c G o.L g d.iXaXlX3X8XtXtXsXsXgXsXfXgXfXjXUXzXzXBX1X<X;X4X4X4XeX3X3XlXlX9XsXpXsXsXaXfXhXiX5X5X3X5X*X5X5X*X=X=X&X%X%X%X X!.R.P.P.K.K.J.J.J.C.V.U.M.M.n.n.n.n.9.b.9.2.9.2.2.,.3.3.@.@.>.@.4.4.X.o.o.| } } } P m / m v m n M c c x N N N t t < t r < > r t i k x b b b b Q ! W / / } / ..>.2.2.,.@.@.X.X.@.>.1.=. ..._ / ) _ )  . .} Q b Q b b Q b b z z ! ..! ! /  ..._ ..=.=.:.r.:.:.<.1.n.C.M.0.b.m.9.,.>.3.6.2.2.m g 4 * 0 i k n 0 I.9XsX8X1.$ $ * B r r r u N N N ..8.u.u.g.A.z.S.A.a.e.f.l.g.l.h.8.8.b.8.V.Q.Q.8X8XqXkXqXkX8XqX8X8X8X;X7X8X8XqX8X8X8X8X8X8X8X2X8X8X8X8X7X8X8X8X8X8X8X8X2X2X;X8X8X2X2X2X2X2X2X8X2X8X8X2X8X;X2X2X2X2X2X2X8X2X2X;X;X8X2X2X;X2X2X2X2X;X2X;X2X2X;X2X;X2X;X;X;X2X;X;X>X2X;X2X2X>X;X2X;X;X8X;X;X;XV.&XQ.Q.V.V.V.V.8.1.,.1.8.8.8.8.8.V.J.N.b.P.%XI.N.d.sXZXKXKXKXKXKXKXKXLXKXKXPXt :XKXpX,.9 g L ..L M L L L } } } o.} L ..o...4.o.o...X.O.4.>.O.O.+.Y T R U P o.} ' [ -.{ { :.*.y.w.e.e.y.s.s.s.p.s.s.s.j.j.l.e.,XeX4X<X5X5X5X,X5X5X,X=X.X.X.X{.{.{.{. X[.A.m.{.1X5X=X=X%XQ.P.L.C.V.V.m.b.b.8.1.>.>.@.=.4.@.4.4.4.4.4.4.4.4.>.,.8.h.n.V.V.V.V.V.D.V.J.C.C.J.V.V.V.D.D.V.C.J.D.J.V.U.J.I.I.I.K.K.L.Q.Q.P.;XL.. i Q ~ ^ ( ] ~ ] r.e.$.*.-.$.[ ' _ [ ( ( ( Q ~ Q W W z e k k k i - . . - . - - + = = = $ = = $ = - = = . UXDXvXvXvXcXvXxXxXUXxXUXxXxXfXfXqXqXqXqX0X8X6X0XdX6X^.>X>X>X>X7X7X~.~.:X0XsX.XV.| Z.6XdX>X&X5X:X&X%X!.K.Q.Q.!.~.",
"< @ * ,.%XK.J.J.V.V.V.V.n.n.0.8.8.8.8.8.#.:.:.#.:.@.:.4.L R L o.L L L _ n z e z l l W W Q ~ ( _ ' $.' $.[ w.w.y.{ f.N.U.n.q.B.0.6.6.6.6.0.0.0.n.B.B.R.^.-X7X7X5X^.^.~.^.~.~.~.!.R.E.Z.Z.P.Y.b l z i = - - @ @ % 2 % .   $ m <.d.1.1.1.8.8.b.8.b.I | U G c v U U 4.,.J.J...N B + + @ 4 f c v I O.X.v X.M c *XjX5X3X3XlXlXsXsXaXaXgXdXjXjXnXjXnXBX4X5X;X1X4X4X4X8X3XlXlXtXiXsXsXaXaXgXfXsX;X5X3X-X-X-X*X*X&X*X%X%X~. X!.P.Q.P.K.P.K.J.J.J.C.C.B.M.M.M.m.n.b.b.9.9.8.2.2.,.,.1.>.3.>.@.@.4.X.o.X.o. .|  .} T.} m T.m m n c x z x N N N u B B t r < r 1 t N l b b x b b Q ! / ( / _ } =.8.9.>.O.@.@.@.4.X.1.d.>.} ..) ..../ / ! ~ ! T.! T.n Q b b l l l b n x ! } ! } ..' $.*.;.=.:.1.<.2.N.C.C.n.n.9.b.b.Y.,.,.,.,.b.>.L r - $ i n $ ;XsX;XjXfX>.  = < < r r N g i X.:.u.d.d.g.z.m.H.l.;.e.l.m.i.l.h.Q.;X8XqXkXqXkXqXqX8X8X8X8X8X8X8X8X8X8X8X8X8X8X8X8X8X8X7X8X8X8X7X8X8X8X8X8X8X>X8X8X8X7X8X2X8X2X2X2X8X2X8X2X2X2X2X8X;X2X2X2X2X8X2X2X2X2X;X8X2X2X2X2X2X2X2X2X8X;X2X;X2X2X8X;X2X2X2X2X2X2X2X;X2X2X;X;X2X>X;X;X2X;X8X;X;X;X;X8XQ.Q.Q.Q.H.V.V.8.8.@.@.@.8.8.8.8.8.n.Y.J.L.N.N.P.%XK.<.%XCXKXKXKXKXKXLXKXKXJXKXP +.CXZXVXh.& g } M _ L o._ } } } L o...o.o...o...o.4...%.4.O.O.+.+.Y U U P L _ [ { { { { { w.e.y.y.w.s.s.s.s.s.a.a.a.j.c.s.x.a.{.tX<X4X4X5X,X5X X5X,X,X=X=X%X,X X X XG.{.G.S.{.<X4X,X=X%XQ.Q.Q.J.J.V.m.n.b.b.8.1.>.=.4.o.X.X...X.4...4.4.1.1.8.8.8.b.V.V.L.J.Q.V.J.J.L.P.L.I.L.I.I.J.P.L.P.K.L.P.K.I.L.K.L.L.P.P.P.I.L.=X<Xw l &.) ^ ] ] ] -.f.u.$.e.-.&.$.' ' _ [ ( _ ( Q W W l l l k i k k q   X . . + + - - - = $ + * . * = $ 4 . >XSXVXUXvXzXvXcXUXvXcXUXxXUXxXUXxXfXfXfXfXqXqXqX6X0X0X6X7X0X6X7X>X2X:XQ.V.d.d.d.b a F U.0XpX2X~.&X&X&X-X&X-X-X-X",
"# 9 # g !.!.n.Z.V.V.V.8.V.8.V.8.8.8.8.8.:.#.@.:.4.4.4.o...o.L o.L 9 L _ z e z W z n W Q Q ( _ _ &.] *.&.&.&.e.f.u.m.L.V.n.B.C.Z.B.B.B.B.B.B.Z.Z.Z.n.,.I h 6 @ O . O X X X X X X O X X O X o t G l b 0 - &   2 @ @ % % 2 $ - O X . . # O O X # U D +.#.+.U P U I 4.} . n.LXKXKXZX4X!.,.v r = + $ r T.N m T.3.lXsX4X3XiX9X8XiXsXjXjXjXhXjXUXjXmXZXlX X5XlX4X3XlXlX3X3X3XiXiXpXsXaXdXaXjX3X5X1X5X5X*X-X*X*X=X=X=X%XP.%X%XR.P.P.K.K.I.J.J.J.C.V.M.M.M.n.N.N.b.b.9.8.i.2.2.2.,.,.>.>.>.4.4.4.o.X...}  . .P } m } m m m M b b x b N b N N t r 0 2 i p k z b c n Q ! Q ! ! ^ T. . ./ / d.i.2.<.>.>.4.O.4.@.4.>.1.,.=. .) $.$.` ^ T.) T.~ ~ T.Q Q n n b Q z b Q T.) )  ._ ..$.=.=.&.;.;.a.:.:.d.V.J.C.B.n.n.0.8.8.8.,.,.,.>.,.3.} N & . 4 *XkX1XeXkXpX~.  X d & * N r %.u.1.u.u.g.g.A.H.z.p.:.p.z.m.f.d.kX8XpX8X8X0X8X8X8X8X8X8X8X8X8X8X8X8X2X8X8X2X8X7X8X2X8X2X8X2X2X8X8X8X8X8X2X2X2X8X2X2X8X2X8X;X2X2X2X2X2X8X;X2X;X8X8X2X2X2X2X2X8X2X;X8X;X>X2X;X2X2X;X2X2X;X2X2X;X2X>X;X2X2X;X2X2X;X2X;X2X;X;X2X;X;X2X2X;X>X2X;X;X2X;X;X2X;X;X8X;XQ.Q.Q.Q.b.Q.n.8.,.:.,.@.:.,.8.8.8.b.m.n.V.V.V.I.L.Q.M.N.8XLXKXKXLXKXKXKXKXLXdX  cXCXVXFX6Xv + @.m L P o.L L o.4._ o...o.o.L L 4.4.%.%.O.+.J Y Y G T.*.^ *.{ { *.{ w.w.w.w.y.y.y.y.s.s.s.s.s.p.s.k.l.s.(.s.l.|.sXlXeXlX5XwX5XeX5X5X<X<X,XoX=X,X{.{.[.U.[.S.N.=XeX5X,X%X=XQ.L.K.L.V.V.M.N.d.2.2.1.@.4.o.o._ } ..4.4.4.@.8.8.8.n.m.8.M.V.I.P..XP.{.P.Q.P.Q.%XL.L.P.%X X{. X{.!. X{.%X%X%XP..X.X%X.XQ.0XJ.v ; O 2 3 1 b r ! f.a.y.p.w.-.{ [ $.' ' _ [ ( ( ( Q Q W l z k l k l q X . - - - . $ $ $ $ $ $ = & $ & $ $ + & LXCXVXvXvXvXvXvXvXUXxXxXxXcXxXcXxXfXxXfXxXfXqXqXqXqXfXkX8XoXQ.m.h.f.r.r.r.r.u.g.k     r  .I.dXpX7X&X&X-X>X>X-X",
"< 4 $ # 8.&XV.V.V.V.V.V.8.n.V.8.8.8.8.#.8.:.@.4.4.4...o.o.o.L L L L L L z e z z W W Q Q ~ ( ` ` ` ] &.&.e.e.w.;.:.m.U.J.Z.Z.C.B.Z.K.K.K.Z.6.O.U 6 1 > > > > < > t 6 5 5 1 1 1 5 2 2 : 2 > > 2 r b Q 0   < % % X @ % 2 2 2 2 % @ 4 & > & 6 & 6 @.+.U P U Y Y | o.P v   M.KXKXKXHXKXKXKXKXLXZXaX;Xc N i N .   n.lX;X3X9XtXsXkXsX3XaXaXgXjXUXjXgXjXgX5X5XeX,X1X5X5X3X2XiX3X9XiXiXsXdXgXdX3X*X4X5X:X5X*X*X=X*X%X%X%X%X%XP.P.P.P.L.I.J.K.J.C.B.U.M.M.n.n.b.N.b.9.9.8.2.2.i.2.1.<.,.,.>.4.4.X.4.o.o.o.| } } P } m m v M M c x x N N N N u i r t w i k b z b b b b Q m ~  . . .T.) X.<.i.2.2.3.>.%.X.X.4.@.>.3.1.2.=..... ...`  . .) ) ~ T.! ! n Q Q b b z z ! ) !  . .......$.*.*.;.r.u.u.1.2.m.U.I.B.V.V.n.n.0.0.8.8.,.,.,.,.#.o.v g = !.hX8X1X8XjXjX%X&   r g w } <.u.u.1.h.h.m.A.F.f.p.r.h.z.u.h.=XpXpX0X8X8X8X8X8X8X8X7X8X8X8X7X8X8XqX8X8X2X8X8X8X2X8X2X8X2X8X8X2X8X2X>X8X2X2X2X2X8X2X2X2X2X8X2X2X2X2X2X8X2X2X2X2X2X;X;X2X8X;X;X2X8X;X8X8X2X8X;X>X2X;X2X;X2X;X;X2X2X;X;X2X2X;X2X;X;X2X;X2X2X;X2X8X;X;X;X2X;X2X>X;X;X>X>X;X;X;X;XQ.Q.Q.V.Q.8.m.8.8.1.@.:.@.,.8.8.8.b.b.m.M.V.V.V.J.D.*XP.d..XAXKXKXLXLXPXKXKXHXX O.HXVXcXSXcX8.$ g o.L L L _ L L ..o.L L ..4.4...4.| | | Y | F | / *.*.{ { { *.e.*.w.w.w.r.t.y.t.r.a.s.a.s.s.c.k.c.l.k.(.(.(.S.eXtXlXlXeX5X5XeXeX5X5X,X,X,X.X.X X{.{.I.I.[.m.[.5XeX=X=X%X.XK.L.L.C.V.M.m.b.8.2.>.>.=.4.o.} } o.4.4.>.:.,.8.8.8.n.Q.D.J.L.P.!.P.%X%XQ.Q.Q.=X%X%X=XP.{.%X%X%X%X%X%X=X=X%X%X*X%X!.*XsX8.I a > @ : 2 2 1 - = / a.a.w.s.-.-.-.-.' ' _ _ ( ( ( Q Q W l W l l k z w X . - - + + - + - $ $ $ = & $ = = * # o CXFXvXCXvXvXvXvXvXvXvXUXvXcXcXxXUXcXUXxXfXqXxXjXzXjXtX.XQ.h.f.z.h.f.f.h.p.r.f.h.u.i   X o O t B.-X0XpX6X&X%X-X",
"4 % 4 . 9 Q.Q.n.V.V.V.V.V.V.8.8.8.#.8.,.#.:.#.@.o.4...o.L o.o.L L L L z e z z W W W Q _ ( ) ' ' ` ] &.-.w.w.e.1.L.Q.Q.E.E.K.Z.Z.3.+.H p > : > > 1 < 1 > 2 < 1 1 1 1 6 4 r 1 < 1 2 < < 2 1 < 2 $ B m M X o o o < % % : 2 * * 2 > & & 4 & & % 5 #.U U P U P P I 4.y i   N.KXKXKXLXLXLXKXKXKXKXKXKXKXKXKXLXjXI. X%XlXlXtXlXiXaXkXkXgXhXjXgXjXmXBXAXjX5X X5X5XeX3XlXlX3X9XiXiXsX0XaXaXgXaX2X:X1X-X:X-X*X-X*X%X%X%X X!.P.%XP.P.K.K.K.I.J.J.J.V.M.M.n.M.n.N.b.b.b.9.9.2.2.2.3.3.<.>.>.@.@.4.4.X.o...o. .} } m m m m m M M b c x N N N N u N i p i k c x b b b b ! ~ ! ! T. . .T. .<.N.i.2.3.<.%.4.X.X.4.>.@.>.,.2.:.%.$...$. .*.^ ) T.) ! ! ! Q ! n W Q b b Q ! ) )  ._ ' $.=.%.;.:.;.;.u.d.1.i.C.K.I.V.n.n.n.n.n.9.8.,.6.,.,.8.,.,.=.g Q.kXjXkX8X8XpXCX:Xt   $ ~ i.;.1.u.h.f.l.S.A.A.e.u.p.h.m.r.D.sX8X8X8X8X8X8X8X8X8X7X8X2X8X8X8X8X8X8X8X8X8X2X8X2X8X2X2X2X8X2X8X8X2X2X2X8X8X8X2X2X8X2X2X8X2X8X2X8X;X8X2X;X2X2X;X2X2X2X2X2X2X2X2X2X>X;X8X;X;X8X2X2X;X;X2X2X2X;X2X;X;X2X;X2X;X2X;X2X>X;X>X;X;X;X;X;X;X2X;X;X;X;X2X;X;X;X;X;X;X;X;X&XQ.Q.Q.h.m.m.h.8.,.:.@.4.@.1.8.8.8.8.b.b.m.M.V.D.K.J.D.K.C.n.sXKXKXKXKXPXKXKXd   xXGXzXVXDXGX!.t 9 L ..L P 4...L ........4.....o.| T J Y o. . .*.&.{ *.{ *.y.w.w.w.r.y.y.t.t.t.t.s.k.k.s.c.l.c.c.j.(.c._.|.e.,XbXlXlXlXlXrXlX5X5X<X<X,X,X,X=X,X{.{.{.I.L.U.A.{.lX*X=X*X*X.XK.L.J.V.V.m.b.9.8.1.3.4.4.o.o...o.=.4.,.1.8.8.b.m.m.n.J.I.P..X!.%X%X&X=X=X;X*X=X,X;X=X*X*X,X*X;X;X;X;X;X4X*X!.:X9X:XB.a 7 p 5 > : < > 2 2 O r a.N.&.y.w.-.-.[ :.' _ ' _ ( Q ( W Q W l W l k z w . . . + - + - + $ - $ = $ $ * & * * *   ~.LXBXDXvXvXvXvXvXvXvXUXvXUXUXcXUXxXfXxXzXvXcXfXtX.XA.h.h.z.F.x.v.v.v.f.f.h.p.e.A.&.= . o . X X @ G R.0XjXfX9X",
"2 @ 9 # & n.Q.9.V.V.V.0.8.8.8.n.8.8.:.8.:.#.:.@.4.4.4.o.o.L L L L _ W 9 z z W z n W W _ ( _ _ ' &.-.-.{ &.e.g.i.Q.R.B.#.I c j t 2 % % : > 6 t p p p 5 1 6 4 1 1 < 1 2 > 2 < 2 2 2 < 1 2 % % 2 & o i m * o % . 2 $ % $ % & & & * & # & & & & t +.v P o.U U | G c $ &   n.KXLXKXKXKXKXKXKXLXJXLXKXKXKXKXKXKXKXLXgX4X4X3XlX4X;XlXcXjXjXcXjXjXjXjXjXjX-X,X5X5X4X4X9X3X3X6XiXiXiXsXaXaXfXaX1X;X5X5X;X*X*X*X%X&X%X%X~..XR.P.P.K.K.L.K.J.J.C.C.D.M.M.M.n.b.n.b.b.9.8.2.2.2.2.2.,.>.>.>.=.4.4.X.X...} o.} } } } T.m m n M M x c x N N d k N u u k d b b b b b b m ! ! ! ^ T.) T.*.%.i.N.2.<.<.%.4.4.X.X.4.@.>.>.,.2.1.>.$.$.*.*... . .) )  .} ^ Q ! ! ! Q b x Q ! )  . .....$.$.;.;.;.r.r.u.d.1.i.m.I.P.Q.Z.V.V.n.n.n.9.8.8.8.,.,.,.,.,.o.,.n.;XfXjXpX0XiXcXiX} c i.%.<.r.f.h.h.A.S.A.l.r.u.l.h.a.m.=XhX8X8X8X8X8X8X2X8X8X8X8X8X8X7X8X8X8X2X7X8X8X8X2X2X2X2X8X8X2X2X2X2X2X8X8X>X;X;X2X2X2X2X2X2X2X;X2X;X8X;X2X2X;X8X;X2X2X;X2X;X;X2X;X2X;X2X;X>X>X;X;X2X2X2X;X2X;X2X;X2X2X;X2X;X2X;X2X;X2X;X;X;X;X2X;X;X;X;X>X;X>X;X;X;X>X>X;X;X/.;X;X;X~.Q.Q.n.Q.n.n.8.1.@.@.4.4.@.>.1.8.8.d.b.b.n.V.V.M.D.K.%X.XV.V.*XZXKXKXKXJXKXM.  5.SXDXVXzXFXSX6Xn 9 L L L n L 4.L o.o.o.4.o.o.o.I J | T...*.&.] { { { w.w.w.e.e.t.y.y.t.t.y.v.s.k.s.k.c.c.(.c.(.(.|.j.|.(.s.eXnXgXyXyXyXlXyXrXeXwX5X<X,X.XoX=X X X{.[.{.G.N.U.eX4X*X=X=X!.P.L.I.J.V.M.m.b.8.2.1.>.=.4...o...4.,.1.8.8.8.b.8.Q.m.I.I.P.P.=X%X;X;X4X;X;X<X;X*X;X1X5X5X5X5X1X,X5X1X1X;X&X4X0X3X9.t a s h a > @ : > 2 f 2 o T.l.g.&.r.-.:.-.[ ' ' ' _ ( ( Q _ W n W W l l l e - . - - - - + - + $ $ = & $ $ = * 4 w   v JXCXSXvXDXCXvXvXvXvXvXvXvXvXxXxXcXvXVXUXpXwXQ.H.z.v.F.Q.F.x.x.z.v.h.h.f.h.r.-.u.g.m . $ 1 o % O     2 O.%XpX",
": 2 * > + L Q.Q.V.V.V.n.8.8.8.8.8.:.8.#.8.@.4.4.o.:.o.L L L L L L L n k e W n l W W W _ ( _ ' ' &.&.{ -.r.a.;.*.f p , , > , < 1 t p p s f p 1 : 2 1 2 1 < 1 4 1 1 1 1 1 < 1 1 < 2 B 1 2 % % 2 & t X % o X 2 $ - $ % + $ + $ & & $ 4 & 4 & 4 9 o.U D D U o.| a o . *   b.KXLXKXKXLXKXKXKXKXKXKXKXKXKXKXHXPXKXCX{.sXiXsXaX4XC.d.N. X5XlXfXjXmXAXCXBXeX5X4X4X2X1X4X3X3X3X9XiXiXiXiXsXfXiX1X:X:X;X*X*X&X&X*X%X%X%X!.R..XR.P.K.K.I.I.J.J.C.V.V.n.M.n.n.N.b.b.b.9.9.2.2.2.3.1.>.>.>.>.4.4.X.X.o.o.} } } } T.P T.m v n b b c z b N N k t k N N N b b b b b b ! ! ^ ! /  .T.^  .<.i.Y.Y.1.<.>.4.O.X.o.O.4.>.>.3.,.2.2.1.=.%.*.$. .*. . . . .! ) ! ! ! ~ Q b b Q T. . . ...$.$.=.:.:.<.<.1.u.u.d.d.d.S. XQ.C.C.V.V.B.n.n.0.8.8.8.,.,.#.>.3.P v } V.8XfXcX9XBXZXP.m <.g.;.<.d.h.m.z.A.m.a.u.u.l.a.i.{.iXiX8X2X8X2X8X8X2X8X2X8X8X8X2X8X2X8X8X;X2X8X>X2X2X2X8X8X2X2X8X2X8X2X;X2X2X2X8X8X2X;X2X;X8X;X8X;X;X2X;X2X2X2X2X2X;X2X2X;X2X2X;X2X2X;X2X8X>X;X2X;X2X;X;X>X;X2X2X2X;X2X2X;X2X2X>X;X;X>X;X;X;X;X;X;X;X/.;X;X;X;X;X;X;X;X;X;X;X;X;X;X;X;X;X.XQ.Q.Q.h.8.8.8.:.>.o.4.4.@.:.,.2.8.8.b.m.N.V.M.I.J.V.K.=XL.b.I.jXLXKXKXKXaXX 1 lXGXDXDXzXCXJXUX,.* x :...M L P P P o.o.o.o.P T.| *.*.*.*.*.{ e.e.e.w.w.y.e.w.t.y.t.t.s.j.v.k.l.s.(.l.(.l.(.(.(.).(._.s.(.bXnXgXgXlXlXyXlXlXrX<XwX<X,X,X,X=X{. X{.{.I.[.M.S.=X3X<X=X=X%X.XK.J.L.V.V.M.N.b.8.2.,.:.4.X...4.:.,.8.8.8.m.n.V.b.Q.I.L.Q.Q.%X*X,X<X4X&X=X4X4X;X1X4X1X4X5X4X4X5X4X5X4X=X3XfX>X+.5 h Z j j p % # # & 2 : 1 2 0 *.m.a.r.-.-.-.-.[ ' ' [ _ _ ( ( Q Q W W l l l u = . - - - + - + + $ $ * = $ $ = & * B $ . FXHXSXvXDXvXCXCXvXvXvXvXvXvXvXDXVXUXkXOXQ.x.v.z.Q.].H.z.v.z.z.h.v.h.f.h.h.u.f.:.h.;.0 X o % 2 2 B %     @ 4 ",
": 1 @ r + & 8.Q.n.V.8.n.n.8.8.8.8.,.#.:.4.4.4.4.o.o.o.o.o.L L o.L L l z z W W W Q Q ( ( _ [ ' &.&.] &.r.f.<.m 1 < 3 , , 6 7 t 1 7 1 2 2 2 1 1 p 5 5 1 6 6 1 1 < 2 < 2 2 2 & & 2 2 2 % 2 < > % % o X t T.o . = 2 % & % % % % & $ # $ & # # & g P L v v P P u % . + B   b.KXKXKXLXKXKXKXLXKXKXKXKXLXLXKXKXKXKXhX=X;X5X4XlXaXiX{.Y.Y.Y.Y.n.n.R.5X5XaX5X5X1X4X6X3X9XiX3X9XiX9XiXiXiXaXfX8X5X5X;X-X*X*X*X=X%X%X%X!.!.P.R.P.K.L.K.I.J.J.J.C.V.V.n.n.n.m.N.b.b.9.8.2.2.2.2.1.3.1.>.>.>.4.@.X.X...} ..} } T.m ! m m m n c c x x N N N u u k z k N b b b ! b ! ~ T.T. .) *.|  .%.Y.d.i.<.1.>.@.X.X.X.X.%.@.>.3.3.2.i.i.1.=.$.*.$.*... .*. . . .) ) ! ! ! ! ! b Q !  .*. .$...$.:.=.=.:.r.u.r.u.h.h.u.A.L.Q.V.Q.Z.Z.V.n.n.n.n.n.9.8.8.8.,.8.@.X.P L @.J.2XfXFX&Xi o ! U.a.u.h.h.m.A.A.g.a.p.f.g.i.S.2XaX1X8X8X6X8X7X8X8X2X8X2X2X2X8X8X2X8X8X8X2X2X8X2X2X2X;X8X2X2X2X8X;X2X8X2X2X8X2X;X>X8X2X2X2X2X2X2X2X2X2X2X;X2X;X2X2X;X;X2X;X2X2X2X;X2X;X;X>X2X;X2X;X2X2X;X2X;X;X;X;X;X;X;X;X;X;X2X;X;X/.;X;X;X;X;X;X;X;X>X;X;X>X;X;X;X;X;X;X;XQ./.;X;X.X~.Q.Q.V.V.b.8.8.8.4.4...4.4.@.1.1.8.8.8.b.b.n.J.m.m.J.L.V.I.=XM.L.4XIXKXKXHX  % +.GXCXCXSXDXvXJXCXQ.M 9 _ @.L o.o.o.o.o.P o.o. .*.*.*.{ { { e.&.e.e.e.s.a.s.s.k.k.j.k.v.j.v.v.c.c.c.(.(.(.(.(.(._.|.}.k.wXmXgXgXgXgXgXlXrXeX5XeX5XwX<X,X,X=X,X{.{.{.U.I.G.M.D.4X4X*X=X%X%XP.K.I.J.V.M.N.b.8.2.,.,.4.X.4.@.@.,.8.8.b.b.n.V.Q.m.L.Q.Q.%X%X*X;X1X;XI.L.1XiXlX8X3X2XeXlX3XlXeXlXlX4XjXfX~.| 8 s Z V f f t & # & & 2 O 2 3 O i a.g.r.r.r.-.:.[ :.[ [ [ _ ( ( ( ( W W l l z z 0 . - . - + - $ $ $ $ = = $ * = = & & 6   0XLXSXDXGXCXDXvXDXvXCXCXCXDXvXUX8XOXH.H.).}.OXOX.Xc.v.h.A.F.z.z.h.h.h.f.r.r.r.r.u.g.;.0 X < o o o $ : & + O ",
"2 B @ 1 $ . L Q.V.8.n.8.8.n.8.8.8.8.,.,.@.4.4.o.o.4.o._ o.L L L _ n z 9 z W W W Q Q _ _ _ [ ' [ -.[ -.u.;.Q t 2 a 8 8 a p p t 7 p 7 p p p 5 1 > > > > < < 1 > > 1 < < 1 2 < > 2 % @ @ & % @ @ % X f I.4X| - . - $ % % % % + % % # 4 $ 4 $ & v U 9 v U L r o . & + r   8.KXLXKXLXKXKXLXKXKXKXKXLXKXPXLXKXKXPX1X4X1X4X1X4XsXhXsX;XU.Y.n.B.U.B.B.B.I.U.I.R.%X-X5X1X4X2X3X3XiXsXpXaXsXjX3X-X5X;X;X*X&X*X&X%X%X%X!.{.R.P.P.P.K.J.I.I.C.C.C.C.V.M.N.n.n.b.b.9.9.8.8.,.1.3.,.3.>.>.>.>.X.X.X.X.X.} } P T.} ! G m m n c b x x x N N u N N k x b l b b ~ Q b ! T.^  . . . .*.%.Y.b.i.,.>.>.>.@.X.o.X.O.X.@.>.>.3.2.i.8.d.=.=.:.*.*.*. .*. . .) ) ) ) ! ! Q ! Q Q Q )  .^ $.$.:.:.=.:.r.1.d.u.u.h.h.d.m.m.Q.Q.Q.Z.C.C.C.V.Q.n.n.m.n.n.6.8.@.=.b.2.} n P 3.%X~.B   u i m m.h.h.m.m.D.A.a.e.g.f.a.m.;XiX9X2X6X8X8X8X8X2X2X2X8X2X8X;X2X2X2X2X8X2X8X8X2X2X2X2X2X2X2X2X2X;X2X2X2X;X2X;X8X;X2X;X;X8X;X2X;X2X;X2X2X;X2X;X;X2X;X2X;X2X;X2X;X2X2X;X;X2X;X;X2X;X;X>X;X;X>X;X;X>X>X;X;X2X;X;X;X2X2X;X;X;X;X;X;X;X;X;X;X/.;X;X;X;X;X;X/.;X;X;X;X&X;X;X=XQ.Q.m.V.V.V.8.8.,.:.o...4.4.4.>.>.1.,.8.8.b.b.8.M.J.J.V.D.K.L.=XC.m.5XUXLXKXr * o fXLXvXVXDXDXcXLXLX2X9 9 L o.o.L _ o._ o.L [ *.{ { { y.w.y.e.e.a.y.s.a.s.s.s.s.j.j.k.c.j.v.c.c.c.x.(.(.(.|.).(.|.).(.|.nXnXgXnXgXgXlXyXlXrXlXeXwX<X5X,X,X,X{.{. X{.I.[.I.D.m.=X4X1X=X%X=X.XK.P.J.J.V.M.b.d.2.,.:.,.4.4.>.8.1.8.8.m.m.V.Q.V.V.P.P..X%X=X;X;X;XL.J.I.=X1XlXsXlXlXiXsXlXlXsXsXsXsXfX5XH > H U 8 j f f p < & > > 1 ; , t 2 = ~ l.w.r.:.r.:.[ :.$....._ _ _ ( Q Q Q W l l l w . $ + + + $ + $ $ $ $ $ = = & & & * 4 X +.LXFXSXSXSXCXDXDXDXDXZXAXmX;XOXQ.].OXOXOX).].F.v.)..XXXH.v.z.h.h.v.v.f.h.r.w.p.e.e.a.c . . o @ 2 2 & & % % ",
"@ 2 & < 9 + 9 V.n.V.n.V.8.8.h.8.#.8.:.:.#.:.4.4.4.o.o.o.L L L L L 9 e z z W l W _ W _ _ [ _ ' &.-.w.r.e.Q 0 2 h 3 7 3 1 1 1 1 t 1 1 2 1 1 1 1 6 4 1 4 < < < > 2 > < 2 2 2 2 2 & : 2 2 2 @ X o 1 R.&X*X>X4.0 = $ o o + + % @ % % # & # $ # $ v P v L M 9 o o $ = $ i   ,.KXKXKXKXKXKXKXKXKXLXKXKXKXKXKXKXKXZX=X4X4X4X4X4X5X3XsXkX-XU.N.U.U.U.I.I.I.I.R. XR.%X X%X%X=X;X4X2XlXsXsXsXfX3X;X5X;X;X&X*X*X=X=X%X!.!.%XP.P.P.K.K.K.J.J.J.C.D.M.n.n.n.m.b.n.9.9.9.8.2.2.2.2.1.3.>.>.@.4.4.4...X.o.X.} } } T.G ! m m b c c x x N d N k N k b b b b b b b ! ! ! T.T. . . ./ %.i.N.Y.1.<.,.1.>.O.X.X.X.O.4.>.>.,.1.,.Y.d.d.:.$.:.:.*...%.*.$. . . . .! ! ) ! ! ! b !  .*. ...$.:.$.=.:.<.1.u.u.d.u.h.z.z.d.Q.Q.Q.Q.Q.Z.Q.C.V.n.n.n.n.n.0.8.V.} _ =.@.>.o.P X.r # 4 g r 0 ..A.h.h.A.H.z.a.e.a.f.<.G.sXiX:XiX2X8X2X8X2X8X2X2X2X2X8X2X2X8X8X2X2X2X;X8X2X8X;X2X8X;X2X2X2X2X2X8X2X8X2X8X;X2X2X2X2X2X2X2X;X2X2X;X2X2X2X;X2X;X2X;X2X;X>X;X2X;X;X2X2X;X;X2X;X;X2X;X2X;X;X;X2X;X;X2X;X;X;X;X/.;X;X>X;X;X;X2X;X/.;X;X;X;X;X;X;X;X/.;X;X;X;X;X;X;X&X;X;XQ.Q.Q.V.Q.n.8.8.8.@...o.o...o.4.@.3.1.1.8.8.d.m.b.b.M.V.V.J.J.S.%XP.L.m.eXKX2.r % O.LXGXvXDXSXGXvXDXLXvX4.9 L o.4.o._ o.......{ { { *.w.y.{ y.y.y.y.s.s.s.k.s.k.f.j.j.c.c.c.c.(.x.(.(.(.|._.|.).|.|.|.}.MXnXnXgXgXgXyXlXyXlXrXeX5X<X<X,X,X,X,X,X X{.{.U.[.G.m.L.1X3X*X=X%X%XQ.P.L.V.V.M.m.b.i.8.1.>.4.@.:.,.8.8.8.n.V.Q.m.Q.Q.P.%X%X&X*X:X<X1XC.L.Q.L..X4XaXkXaXaXaXaXaXgXaXgXBXU.p f D Z s A s d j 9 ; # & ; O 1 : ; 2 2 i a.u.y.y.:.-.-.[ $.[ ' ' _ ( _ Q W Q l W l n w X - - $ + + $ + $ $ $ $ & * * * * * * O # LXGXFXDXFXDXDXFXFXCXkX.XH.OX].OXXXOX].H.Q.].F.XX].F.x.z.F.z.z.z.v.h.f.f.f.f.p.;.<.a.%.i   % - + o + @ + # ",
"@ $ % : % + * v !.M.2.m.n.,.b.,.1.3.@.@.4.=.4.4.o.o.L o._ L L L b z k k l W ~ W ~ ~ ) ~ ) *.-.$.&.p.r.z * 1 p p t 1 1 1 t 7 1 1 1 1 1 1 r 1 B 1 1 B 2 2 < 2 2 < < 2 < < 2 2 2 % 2 2 % X . p Y.-X&XE.I.>XI.0 N $ - . + + + $ $ = + + & & . & D v T.c B - + - + - $ . X M.LXKXJXKXKXKXKXKXKXKXKXKXKXKXLXKXLXsX;X8X4X5X;X;X1X4X3X8XjX2XI.h.N.D.J.J.I.P.K.K.!.!.!.!.%X&X&X*X*X-X-X5X4X4X2X5X:X;X;X;X*X%X&X%X%X!.Q.P.R.P.P.K.I.J.J.J.V.V.V.V.V.n.n.n.b.b.b.0.8.8.,.8.2.3.3.<.>.>.4.4.X.X.X.o... .} P / T.} m m v c b x z x N z N k N x z b b n b n ! n )  .) ) %.*.T.%.2.N.Y.i.3.<.>.>.4.X.o...X.%.4.>.>.3.6.a.6.Y.N.a.%.<.<.*.*.*.*.*.$. .$. .) ! ) n ( ( n n / ..$.$.$.$.:.:.:.:.u.u.r.h.h.m.z.z.A.9.Q.Q.Q.K.Q.E.Z.Z.Z.V.V.V.n.n.n.N.>. .>.%.O.X.X.>.@.u * y i u r m U.S.m.S.p.r.f.z.:.m.8XtX2X8X8X2X8X2X2X2X8X;X2X;X8X2X2X2X2X2X2X;X8X2X8X2X2X2X;X2X2X2X;X2X2X;X;X;X;X8X>X;X2X;X2X;X2X;X2X2X;X2X;X2X;X>X;X2X;X2X;X>X2X;X2X;X>X;X>X;X;X;X;X>X>X;X;X;X;X;X;X;X;X;X;X;X;X;X;X;X;X;X;X;X;X;X;X;X;X;X;X;X&X&X;X;X&X;X;X;X;X&X;X&X;X;X;X&X;XQ.Q.V.Q.n.b.8.8.:.4.o.} } ..X.@.4.>.>.,.,.8.8.d.h.n.b.M.V.V.U.U.{.%XI.I. X5X.   6 -XJXLXDXCXDXDXDXDXJXGX^.6 ! ) $.&.[ w.{ &.&.w.w.w.w.y.e.t.s.a.s.s.p.k.c.k.j.j.j.(.c.(.(.(.(.).).).).|._.}.(.XXj.(.nXBXnXgXnXgXgXgXlXgXlXlXeX<X<X5X5X<X,X,X{.{.{.{.{.L.G.G.m.,X4X,X%X*X.XQ.Q.Q.V.V.V.n.N.b.8.8.>.>.>.,.8.8.b.b.m.M.D.J.L.P..X.X&X=X,X3X5XS.P. X,X X,X,XeXsXsXjXnXgXlXhXfX0XG H H Z Z Z j V f f f a t @ o 2 : 2 > 2 > 1 2 < z.t.:.y.y.w.-.' -.$.' ' ) ) ^ ~ Q Q W k b b - . - - + + $ $ $ $ & $ & * * * * * * = * !.LXSXFXJXLXHXUXeXOX.XOXOXOXOXOXXXOXXX].].`.XX].`.F.F.).H.z.v.h.v.h.h.h.r.h.:.f.:.:.u.=.- . $ $ & & O X < ",
"% % % * < : + > V.V.8.9.9.8.8.2.3.3.>.@.>.@.o.o.4._ L L o.L L L b l k l W W W Q ) ( ) ` ] ] &.' u.&.b t B t p 2 t t t 1 B 1 3 1 1 B B 1 < 1 1 1 1 2 2 2 2 > > & % 2 2 < * @ * 2 % X X < O.I.~.&XR.%XR.&X*X! u k = - + + + + $ & & # & & . 4 v g d r $ o . $ $ - + i   a HXKXPXLXKXKXKXKXKXKXKXKXKXKXLXKXIXtX<X4X4X1X<X;X;X4X4X8XeXaXiXP.8.b.C.C.C.I.K.!.K.J.Q.~.%X%X%X&X*X-X*X5X1X>X1X5X:X:X-X*X&X=X%X%X X!.!.!.P.P.P.K.K.J.J.J.V.V.V.V.n.m.b.m.b.b.b.8.,.8.1.,.2.<.3.>.>.%.O.4.X.X.X.| | } } / / T.G m n n M M x x x N z k z N x x b b n ! ! ! / / !  . . .*.*.2.Y.Y.Y.3.3.3.>.>.4...o.o.O.4.4.3.%.,.a.2.2.Y.Y.i.;.<.;.<.*.&.*.*.$.$.) ` $.) ) / _ / Q W _ ..=...4.$.=.:.:.u.:.u.f.h.h.h.h.z.m.h.Q.;XQ.Q.Q.Q.K.Q.Z.Z.V.V.V.n.n.n.<.X.%.%.X...| >.>.x * y y d u N  .i.L.S.;.u.A.h.h..X8X8X2X2X2X8X7X2X8X2X8X8X8X2X2X2X8X;X8X2X2X2X2X2X;X;X2X2X8X2X;X2X8X2X;X2X2X2X2X8X;X2X2X2X;X;X2X2X;X;X2X;X2X;X2X;X2X;X2X;X2X;X;X;X;X;X;X;X;X;X>X2X;X;X;X;X2X;X;X;X;X;X/./.;X;X;X;X;X;X;X/.;X/.;X;X;X&X;X;XQ.&X;X;X&X;X;X&X;X&X&X;X&X&X;X&X&X;X~.Q.Q.V.V.n.8.8.,.,.@.o.} _ o.....4.4.:.>.1.8.8.8.b.b.m.V.V.V.C.P.K.P. XI. XaXC.g     R.FXLXHXVXGXGXDXDXJXJXUX!  .] &.&.w.w.-.;.;.e.e.e.e.e.y.k.s.s.f.k.s.j.c.l.x.l.x.x.x.c.(.).|.).)._.|.|._.}.}.(.rXMXnXgXnXgXnXbXgXbXlXlXlXeXeXwXeX<X<X,X,XoX=X%X{.{.[.[.U.A.{.4XeX=X%X&XQ.Q.I.L.J.V.M.N.N.9.8.1.3.>.1.8.8.b.n.M.D.J.J.P.P.%X=X=X*X4X<X,XG.{. X=X.X X=X5X5X*X[.R.=X5X=XU.| F H H Z Z Z Z j f f a p 7 2 O 2 2 & 2 > 2 2 < < =.f.f.w.w.t.w.-.[ $._ _ ` ` ! ! ~ Q W l Q Q = . - - + $ $ $ = $ $ & & * = * = w w # + 8.LXPXFXCXyX8XoXOXOXoXoXoX$XOXOXOX].Q.].XX`.H.].`.F.F.z.z.z.v.v.h.v.h.r.h.h.y.r.t.:.u.r.n . o - @ + + % + ",
"% * % % 1 < + O X.C.V.,.8.b.2.,.3.>.>.>.@.4.X.X...o.o.L L L L L k z z l l W Q Q ) ( ` $.&.] { -.e.b r < t 3 1 1 1 1 1 1 1 1 1 1 1 < 1 1 2 < 2 < 1 & 2 2 2 & 2 2 1 2 + $ > B % o X < | Z.5X-XR.E.R.-XR.R.eX .- k w w = $ . . # # % + $ + o y P 9 % % X . + $ & & % y <   G SXKXLXKXKXKXLXKXKXKXKXKXLXKXKXBX:X4X4X1X;X;X;X;X5X1X4X4XiXkXsX%Xb.8.V.J.V.C.J.K.Q.K.K.~.%X%X&X*X*X*X-X5X5X:X:X-X*X*X=X&X=X%X%X%XR. XP.P.P.P.I.J.J.J.C.V.V.V.n.V.b.b.n.b.b.8.8.8.,.8.,.,.2.3.>.>.>.4.4.X.%.X.}  .} P } T.! m m m M M x x x x z N N z N b b m m ! ! T.! ../  . .$. .*.i.Y.N.Y.3.>.>.>.4.4.4.X.o...O.4.O.>.3.<.2.2.2.Y.g.N.<.%.;.*.<.e.;.*.*.$.$.$. .) ) ( / / n Q / _ ..=.=.$.:.:.1.1.1.u.h.h.h.h.z.z.h.h.H.Q.;X&XQ.Q.Q.K.E.Q.V.Q.V.V.V.U.2.O.4.>.>.X.T.4.>.x $ 4 i i g x i ..D.l.<.d.a.:.Q.8XtX8X2X2X2X2X2X2X2X2X2X2X2X;X2X;X;X8X;X;X8X2X2X2X2X2X2X2X;X2X2X;X2X2X>X2X2X2X;X;X2X2X;X2X;X>X2X;X>X;X2X2X;X;X;X2X;X>X2X;X;X2X;X>X;X;X;X;X/.;X;X>X>X>X;X;X;X;X;X;X;X;X;X;X;X;X;X;X;X;X;X;X;X;X;X;X;X;X&X;X;X;X^.&X;X&X;X&X&X&X;X&X;X;X&X;X&X;X~.Q.Q.Q.V.V.n.8.8.,.:.4.L L o.X.4.4.@.>.>.,.8.8.b.b.m.V.V.V.L.I.{.K.R.=X{.5XcXZXpX+.    | fXKXLXSXDXJXLXPXmXm. .] &.w.w.w.-.w.y.y.y.e.s.p.s.s.s.s.s.s.j.j.c.c.c.j.(.c.(.`.).).`.`.).)._.|.}.}.XX_.|.bXAXMXnXgXnXgXgXgXbXlXyXlXeXeXeX,X,X,X,X,X,X,X{..X[.[.L.G.D.M.*XeX,X=X=X.X.XP.L.J.C.S.N.N.b.d.,.1.8.8.d.b.m.M.V.J.I.L.P.%X.X*X=X,XeX;XL.[.{.%X,X=X,X,X,X,X5X{. X5X5XU.+.f F F H Z Z Z j j j f a p 5 : @ 2 % 2 > 2 2 < < < k r.z.{ -.r.w.-.*.*.$.' ( _ ( ( ~ ~ Q W Q b q . - - = $ $ $ $ = $ & & $ * = 9 & 4 w . 9 ZXAXhXuXoX<XoX<XwXwXwX+XOX+XOXXXOX'.].Q.XXQ.x.H.F.F.F.F.z.H.z.h.h.h.r.t.t.:.:.r.u.:.:.8.0 . . % o $ > o ",
"% > & % $ > * o r M.C.,.2.b.8.2.,.@.>.>.4.4.X.o.o.o.L o.L L L n e k z l Q Q Q Q ~ ` ] ' ] [ w.t.x t 1 3 7 1 3 5 1 1 1 1 1 < 1 1 1 B 2 < < 1 < 2 2 2 2 = 2 2 % 2 o % 2 < 2 O O X T.N.&X-XR.B.R.&XR.R.^.&XiXA.q l z e = - . # . + + # + o . 4 g r o o o - & & * > 9 X 4 1   d VXKXLXLXLXKXKXKXKXKXKXLXKXKXsX&XtX;X1X;X,X*X,X;X;X1X8X;X4XaXaX*XV.9.n.J.J.C.C.!.!.C. XR.%X X%X=X*X-X-X5X:X:X-X-X*X*X&X&X%X%X!. XP.P.P.P.K.I.J.J.C.V.V.B.V.n.n.n.n.b.b.0.8.8.8.8.,.,.<.3.3.<.>.%.X.O.o.%.o.o.| } / P m } m m v M x b x z N N z z z z b ! n ! ! ! ^  .! ....%.....a.M.N.b.i.3.3.>.>.%.4.X.o. .X.4.%.>.>.3.2.2.2.Y.N.N.M.i.<.<.;.<.;.*.*.&.*.$.$. .$.) _ / ( / / _ ..$...$.=.:.:.1.u.1.u.u.h.h.h.h.z.H.m.z.Q..X;X~.Q.Q.Q.Q.Q.Z.C.Z.C.V.U.2.%.<.%.%.4. .} >.x . + * 4 t g B x ..>.g.S.:.h.;X8X8X1X2X2X2X2X2X2X2X2X2X2X2X8X2X8X2X2X2X8X;X2X;X2X2X2X;X;X2X;X;X2X;X;X2X;X;X2X8X;X>X;X2X;X>X;X;X2X;X2X;X;X>X2X;X;X2X;X;X;X>X;X;X>X;X;X;X;X;X;X;X;X;X;X;X;X>X/.;X;X;X;X;X;X;X;X;X;X/.&X;X;XQ.&X;X&X;X&X;X&X/.;X;X&X;X&X&X;X;X&X&X&X;X&X&X&X&X.X~.Q.Q.V.Q.V.n.8.8.,.@.4...o.4.4.4.>.1.,.8.8.8.n.9.m.V.V.V.V.J.P.K.{.R.{.5XgXBXjXBXcX&X2   % -XGXJXJXLXjXm./ e { { w.w.w.y.w.e.s.y.t.s.p.s.s.k.k.k.l.l.l.x.x.x.(.(.(.(.(._.(.(._.(.).}.}.}.}.}.}.|.rXNXnXBXBXgXnXjXbXgXgXgXyXlXeXeX4XeXeX<X,X,X=X.X{.{.{.[.[.G.G.l.L.eX4X=X=X=X!.Q.L.J.C.D.M.N.m.9.,.1.1.8.b.b.m.V.D.J.K.P.R..X=X*X,X1X5X{.I. X%X.X=X,X,X5X5X<XeXeXtX4XN.+.J F A S H A H Z c j d s a p 7 : O : : : : > > 2 2 < $ L f.u.-.w.y.{ -.-.$.[ ` ` ` _ ! ~ Q Q Q W q . - - - - $ - = $ * $ * * = * $ & = 9 . - kXwXOXOX@XwXwX@XwXoXoXOXOXOXOXOXXXQ.].OXH.`.).].F.x.H.).h.H.v.v.v.h.h.r.y.h.r.r.u.&.$.u.*.0   = & # + % ",
"+ + % = o 2 B 2 X 3.I.8.8.8.3.2.,.,.@.4.4.4.o.o.o.o.L L L L 9 z k e W W n Q Q Q ) ` ] ` *.-.&.! 2 1 7 p 1 1 , 7 1 2 < 1 < 1 2 B < 1 2 < < > > 2 & 2 : 2 > 2 2 % % 5 1 o   X c 0.&X~.K.U.U.R.R.&X-XR.-X&X5X,Xb w e e w = + - + # $ + $ + # * 4 O $ o % % 2 2 2 % O p 2 ; p X 7 cXKXKXLXKXLXKXKXKXKXKXKXHX4X*XlX1X<X;X;X=X=X*X*X;X;X4X4X4XsXfX4XM.8.M.I.Z.M.B.K.!.P.P. X%X%X%X=X&X*X-X*X-X*X*X*X*X=X%X%X%X%X XP.P.K.P.K.J.J.J.C.C.M.M.M.n.n.n.8.n.b.b.8.8.8.1.,.,.3.3.>.>.4.%.O.X.X.X.| | } } T.} m / L m n M x x N N z N l x l c b b ! ! ~ T. . .)  .*...%.<.N.M.Y.2.,.<.,.>.4.O.X.X.| ..X.O.%.>.>.3.3.2.2.Y.b.N.A.Y.<.%.;.<.<.*.-.*.*.&.$.$.....) ) ) / Q ) ) ..=.$.=.:.1.:.u.u.h.u.h.h.h.z.H.z.H.z.H.Q.;X;X&X&X!.!.!.Q.Q.Q.V.C.J.1.>.3.%.%.>.=.X.>.n # . $ $ & * * r r M :.b.m.&X3X3X1X2X2X1X2X2X2X8X;X8X2X2X2X2X2X2X2X;X;X8X;X2X2X2X;X2X;X2X;X2X;X2X;X2X>X;X2X;X2X;X>X;X;X2X;X;X>X2X;X;X;X;X2X;X;X;X;X;X;X;X;X;X>X;X;X;X;X;X;X;X;X/.;X;X;X;X;X;X;X;X;X;X;X;X;X;X;X;X;X;X&X;X&X&X;X&X;X&X;X&X&X&X;XQ.;X&X&X&X&X&X&X&X&X&X&X&X&X;X~.&XQ.Q.Q.V.V.8.8.8.@.4.o.....@.>.>.>.1.8.8.b.b.m.V.V.V.D.D.J.I. X%XJ. XsXBXUXpXfXBXDX0XG     6.DXCXI./ k ( t.w.w.y.y.y.e.r.y.e.s.s.a.p.s.p.k.k.k.c.j.v.c.v.k.(.(._.).).|.}.}.XX}.XX}.XXXXXXXX'.{.nXIXnXhXmXnXjXgXnXgXgXlXlXgXeXeXeX4XwX5X<X,X,X,X,X.X.X{.[.L.L.A.m.=X8X1X.X*X%XQ.R.L.J.U.V.n.N.b.2.2.2.d.b.N.M.V.V.L.K.P.%X=X=X=X4X8X.XG.{.{. X X.X=X5X<X3XeX<XyXlXB.Z s F J F A A D Z v h j j 9 f p p 2 @ % % 2 % 2 2 : : 2 % B ;.A.r.-.w.:.-.-.' &.$.' _ ` ( ~ Q ~ Q b w   - $ + + $ $ $ $ = $ * & & & * & $ 9 $ - uXwXwXuXwX@XwX@XwXoX@XOX+XoXOXOXOX].].].].].].H.F.F.F.x.v.z.z.z.v.h.h.h.u.f.a.;.:.-.$.=.g.b . . % + X % ",
"& . % 2 @ % 2 %   M b.n.2.8.3.2.:.@.@.4.4.o...o.o.L _ o.L _ Q z l W W W Q Q Q ) ` ` ` ' ;.<.Q 2 2 t 3 1 : 3 1 1 2 < 1 B 2 < < 2 2 < < 2 2 2 & 2 2 2 % 2 2 & 2 : t - X . a 3.R.:XR.Z.I.R.&X*X%XR.-XR.-XR.=XpXa.0 l z e w = $ . . X . $ $ $ $ % X o % 2 2 2 2 2 2 O f 3 @ f 2 . 1 BXKXKXPXKXKXKXKXKXKXKXBX;X4XeX4X1X5X*X=X%X%X*X=X*X4X3X<X4XaXaXlXP.b.8.M.I.B.C.Q.K.K.P.R.R.!.=X=X*X=X5X-X5X*X*X*X=X%X%X!.P.R.P.P.L.K.K.I.J.C.V.C.B.M.M.n.m.b.n.b.8.b.8.8.8.,.,.@.<.3.>.4.4.O.%.X...o. . .} } m m / m v M M x b x x z x x x b b Q ! m ! ! ~  .)  .$.*.....a.U.n.Y.i.3.<.,.3.>.%.X. ...o.o.X.4.O.>.<.3.2.2.Y.Y.d.d.M.m.1.;.<.<.e.*.;.;.;.;.*.$.$.' .._ ) ) / ) } $.=.=.:.:.:.r.r.1.h.h.h.h.m.z.m.F.H.H.z.Q..X;X;X&X~.~.!.Q.Q.Z.Z.Q.I.>.4.<.=.o.>.>.:.>.o.4 . $ = & + < 4 = B y m b.sXiX2X1X8X2X:X2X;X2X;X2X;X2X8X;X;X;X2X;X2X2X2X2X;X2X;X2X>X2X;X2X;X2X;X2X2X;X2X;X;X;X2X;X;X2X;X>X;X;X;X;X;X>X;X;X;X/.;X;X;X;X;X/.;X;X;X;X;X/.;X;X;X;X;X;X;X;X/.;X/.;XQ.;X&X&X&X&X&X&X;X&X&X;X;X&X;X&X;X&X&X&X&X&X&X&X;X&X&X;X&X&XQ.;X&X&X&X&X&X&XQ.;X;XQ.Q.V.V.n.n.8.8.1.4.o...4.=.>.>.1.2.8.8.b.b.V.V.V.D.J.Q.J.J.*X%XJ.3XUXzXUXVXcXfXjXCXBXI.; X | O.w ! p.r.{ e.y.y.y.y.y.t.p.a.s.a.s.s.k.j.k.(.c.(.(.(.(._._.}._.).}.}.}.'.'.}.|.|.S.x.A.l.l.g.%.5XZXIXmXjXmXnXnXgXnXgXbXbXlXtXtXeXeXeX<X<X<X,X,X.X{.%X{.[.[.L.G.N.U.4X4X%X*X=X%X{.P.K.J.U.M.m.b.8.2.8.b.N.M.V.C.I.I.P..X%X%X;X=X4X1XL.L.{.=X,X,X,X,X,X5X4X4X4XnX3X+.j R J F S F A D Z Z Z j s a p a p 1 o 2 : : % 2 2 2 2 2 < @ b Y.h.{ y.t.w.-.-.$.[ ' ` ` ` ~ Q ~ W Q l . - $ + + $ $ = = & & & * & & & * 4 w $ q hXuXwXuX@XwX@X<X@X<XOX@XOXOXOXOXOXOX].Q.].].].).).H.F.F.F.z.v.h.h.h.t.r.u.f.u.;.w.w.:.&.;.%.B   o % + % ",
"v + - 2 % % & @ + + X.V.8.,.1.1.#.@.@.o.4.o.4.o.L o.L L L L 9 z z l l Q Q Q ( ( [ ` ` ;.*.b t 2 p 7 < 2 , > < 2 1 1 1 2 1 2 2 2 2 > > 2 2 & % 2 & 2 2 2 % % @ O X X 2 o.R.5XR.n.U.K.R.&XR.R.R.5X~.-X:X-X6XkX1.u z z z e w * + . . + = * & % % # % % @ 2 2 % 2 @ f X @ f ; 2 t X < 0XKXKXKXKXKXKXKXKXLXtX;X8X;X4X1X;X=X=X.X=X=X=X*X*X5X3X4X<X8XjXiX%Xb.b.C.I.C.U.I.I.P.P. X%X%X%X=X*X*X5X-X*X%X&X%X%X!.%XQ.P.P.K.K.I.I.I.J.C.D.C.V.n.M.N.n.b.b.b.0.9.8.8.,.,.1.,.<.>.>.>.4.%.X.X.o. ...} } T.m } m m L M M x N x x x x b Q b Q M ! ! !  .) $. .*.*.*.4.<.N.N.N.2.2.3.>.3.<.4.X.X.|  .| o.X.>.>.>.>.3.2.2.2.b.d.N.A.S.Y.<.a.<.e.e.;.;.;.*.%.*.$.$...)  ._ / / / $.=.=.=.:.1.1.u.u.h.h.z.h.h.z.z.H.F.).H.H.Q.<X;X;X;X&X~.!.!.Q.Q.Q.%X4. .2.>.o.X.@.>.} o.i . $ * # & & 4 4 * $ & v 0X0X2X2X2X1X1X1X1X2X1X2X2X8X2X2X2X;X2X2X2X;X;X>X2X;X;X2X;X2X2X;X;X>X;X;X;X;X2X2X2X;X;X>X;X;X>X;X>X;X;X>X;X;X>X;X;X;X;X;X;X/.;X;X;X/.;X;X;X;X;X;X;X&X&X;X;X;X;X;X;X&X;X;X&X;X;X&X;X&X&X;X&X;X&X&X;X&X&X&X&X&X&X&X&X&XQ.&XQ.;X&X&X&X&X&X&X;X&X&X&XQ.&X&X&XQ.V.V.V.n.8.8.,.4.o.4.4.>.>.>.2.2.8.b.b.m.n.V.C.Q.D.Q.Q.P.%XP.;XjXmXjXBXjXcXcXfXcXZXBX3X$ B O.a.u.y.] { y.y.y.t.t.t.s.s.s.c.j.c.c.(.(.(.(.(.).).).).).`.(.F.z.l.t.1.<.>.4.O.| +.+.J J J Y c O. XBXIXnXnXnXnXjXgXgXgXlXbXtXtXeXeXeX<X<X<X,X=X.X,X%X.X[.P.G.[.m.V..X3X;X=X=X.XR.P.P.J.U.V.M.b.8.8.d.N.m.V.V.J.L.P.R.=X=X=X;X<X;X.XL.P.=X%X,X,X5X5X,X<X<XeXeXjX!.D R T R A F S Z Z A A j V s a p a p 2 @ % % : : 2 2 2 2 2 3 2 B  .h.t.w.t.w.w.-.[ [ ' ` ` ` ( ~ ) b ~ ! - - $ + - $ $ = - & & $ * & * * & 4 0 - e nXuX@X+XwXwXwX@XoX@XOXOX+XOXOXOXOX].].'.].].].F.H.x.v.F.z.z.v.h.v.h.h.t.u.u.r.r.-.e.e.;.$.;./ * . + % o ",
"2.4 X % : % 2 o *   v V.8.>.8.1.1.@.@.4.4.4.o._ o.L L _ _ 9 z e l W Q Q Q Q ( ` ( ` &.:.T.< ; p 7 2 < 1 1 < < 6 < < 2 < 2 < > > < 2 & 2 & 2 2 2 & % % % % @ o o % | K.-XR.B.U.~.R.~.R.R.R.&X%X&X5X5X%X>XiXP.-   0 w e z u e 0 = B * 4 r & - . + o @ @ % % 2 2 2 ; 3 3 : 2 7 2 2   * 0XKXKXKXKXKXLXKXPX;X;XsX&X4X4X;X=X=X=X=X=X=X*X*X=X;X1X3X3X1XfXaX-Xn.9.M.C.M.I.I.K.R.P.R.R.%X~.%X&X*X*X-X&X X%X%X%X%X!.P.P.P.K.L.I.J.J.C.U.M.M.M.M.n.n.b.n.b.8.9.8.,.,.,.,.1.<.3.<.O.4.O.X.X.o.o. .} | m } m ! m n M M x x x z x x c b b ! ~ / ! T.^  . .*.*.*.*.<.N.N.i.,.2.i.,.>.<.@...o.X. .|  . .X.O.%.>.<.3.2.2.2.Y.b.b.M.S.m.e.a.a.e.<.;.;.;.%.*.$.$.$.....) ..) / ) ..$.=.:.:.1.1.u.u.u.h.h.z.m.z.z.H.v.Q.H.H.Q.Q.;X;X;X;X~.~.~.!.!.Q.*X%.T.,.1.%.X.X.X.M L y . $ * + < # & & r t $ o 1X>X2X2X2X1X1X2X2X1X2X1X2X;X;X2X;X2X;X2X;X2X2X;X2X;X2X;X2X;X;X2X2X;X;X2X;X>X;X;X;X2X2X;X2X;X;X;X;X;X;X>X;X>X;X;X;X;X;X;X;X;X;X;X;X;X;X;X;X;X;X;X;X;X;X;X&X;X;X;X&X;X&X&X;X&X&X&X;X&X&X;X&X&X&X&X&X;X&X;X&X&X&X;X&X&X&X&X;XQ.&X;XQ.;XQ.&XQ.&X&X&X&X;X;XQ.Q.Q.V.V.m.8.8.,.:.4.o.4.>.>.8.8.8.d.b.N.V.V.V.D.V.Q.J.Q.=XJ..XaXUXmXjXBXCXBXzXvXzXjXVXFXHX<.^ -.` w.{ y.e.t.t.p.t.s.j.c.j.(.c.(.c.l.x.l.a.i.a.<.@.%.| | F A F S F F F J J Y Y T +.+.+.#.E 7.F d  XmXAXnXzXnXnXgXnXgXgXlXyXlXeXeXwX5X<X4X,X,X=X,X.X{.[.{.L.L.D.A.L.4X2X%X=X=X.XP.L.I.J.D.M.m.b.b.b.n.M.V.J.I.L.Q.{.=X&X,X,X8X*XH.L..X.X=X X=X,X<X4X4X4XeXlXaXB.j R R K F F F A Z j A A 9 s a a 7 a 2 @ @ 2 : : % 2 2 2 2 3 1 o k h.v.{ t.w.-.:.-.&.' ] ` ' _ ) ) Q ! ! $ - $ $ $ $ $ $ $ $ & * $ * $ & & * * 0 k hXuXtXrXwXwXwXoXoXOX@XwXOXOXOXOX].XXOX}.].].].H.).F.F.F.H.z.h.v.v.h.h.r.u.:.r.f.r.-.-.&.*.e.<.b . . % o ",
"u._ = X $ * # < & # o @.B.X.,.1.@.4.4.o.L 4.L L R :.9 _ L z 9 e l l W ~ W ^ ( ] ^ *.<.c 1 2 1 1 < 1 r < < 1 < < 2 2 & 2 > & 2 % o 2 1 2 $ 2 < % $ + 2 < O   o v I.R.R.Z.I.R.R.R.~. XR.R.&X-XR.5X&X>X5XaX%X$   . . X X * i i i B * * * & % @ o @ @ @ @ % @ 2 @ 2 : % > > 2 , 2 , t O o &XKXKXHXKXLXKXtX1XsX4X1X5X<X;X*X=X%X=XQ.P.=X=X*X*X;X4X1X4X4XsXkX3XL.,.b.J.U.J.I.R.P.P.P.%X X%X=X&X*X&X%X%X%X%XR.%XP.P.P.I.I.I.I.J.C.C.C.V.n.M.M.b.b.b.b.9.8.8.8.,.,.>.@.@.>.>.>.4.%.X.X...| o. .T.} m m m m m v M b x z x x b M ! ! T.! T.! ) ......*.%.$.*.a.N.m.Y.Y.2.,.,.<.>.>.@...o. .| } ..X.X.4.>.>.,.1.,.i.b.b.N.N.n.M.m.i.1.a.u.e.e.<.;.;.<.;.*.*.*.$.$.$.' ) ) ) :.=.:.<.1.r.1.1.u.d.h.h.h.H.V.z.H.H.G.G.H.H.OX8X;X>X/.~.;X~.Q.<XD.=._ ' ( ! Q k b ..u i N $ X 0 $ & & & < y 4 X X.fX2X;X6X*X8X1X;X>X;X>X8X;X8X;X2X;X;X;X2X;X2X;X2X;X>X2X;X;X>X;X;X;X;X>X;X;X;X;X;X;X;X;X;X;X;X;X>X;X;X;X/.;X;X;X;X;X;X&X;X;X;X;XQ.;X;X&X&X;X&X;X&X;X&X;X;X&X&X&X;X;X&X&X&X&X&X&XQ.;X;XQ.&X&X&X&X&X&X&X&X&XQ.;X&X&X&X&XQ.&XQ.&X&X&X&XQ.;X&XQ.Q.&X&X&X&XQ.Q.Q.V.V.V.8.8.,.:.4.:.@.3.1.2.8.b.b.m.M.V.N.V.I.J.K.%XP. X%XlXUXUXBXmXmXCXBXmXVXcXzXDXDX0.c u *.a.w.y.y.y.s.j._.c.x.l.l.*.O.+.T.U D H c Z Z D D D F F F | J | Y | Y +.| | | | +.+.+.+.+.+.Y #.Y j q.zXFXjXnXgXnXgXsXgXgXgXeXtXeX4XwX5X<X,X,X,X%X{..X{.{.{.U.{.U.m.,XtX,X,X%X=XQ.L.K.K.M.M.m.b.b.b.m.V.V.V.Q..XP.Q.&X;X=XeX=XL.L..X X.X=X,X5X5X<X5XeXeXlXaX3XF F T S J U F F D Z Z Z s 9 p f 5 6 t 5 ; @ @ $ 2 $ 2 2 2 = t 2 2 = ! m.a.w.t.w.-.-.:.-.$.$.[ _ _ ( n ( n e . q - = $ + = = = & & & & * * * $ e + _ hXwXuXwX@XwXwX@X<XOX<XOXOXOXOXOXOXOXQ.}.].].H.H.).H.).H.v.z.h.v.h.v.t.t.u.u.r.r.e.;.-.-.-._ :.=.r X X & ",
":.=.k - + * # # % % X c N.,.3.3.:.#.4.4.:.o.R _ :.9 9 :.L z e l l W l ~ ` ^ ^ ` &.*.! i 2 1 3 2 1 < 2 < < < > < < 2 < > * 2 & > p % o < 2 % + 2 1 1 +   O c n.~.I.I.I.Z.R.I.R.R. XR.~.&X&X-X~.-X>X!.aX1Xr   . $ $ $ . . . = * w = * & * % + @ o @ @ : @ 2 $ $ 2 : 2 % 2 , 2 , 2 1 p @ % I.KXKXJXKXKXkX<X8X8X4X4X1X;X*X=X%X!.Q.P.%X.X=X*X;X<X1X1X4X8XsXsX2X.XM.2.K.V.n.J.R.I.P.R.R.!.%X%X=X&X&X&X%X!.%XP.R.P.P.K.I.I.J.J.C.V.V.B.V.n.n.n.b.b.9.b.8.8.,.,.,.1.,.1.>.>.>.O.O.X.o.X. .| | } } m } m m v M M x x x x b b b ! ~ ! ! ! ../ ) ..%.=.$.*.<.Y.U.Y.Y.Y.2.3.3.3.>.@.%.o.o.| } o.o.X.O.%.>.>.>.,.2.2.Y.b.b.N.m.B.S.d.a.e.u.u.<.e.<.;.*.;.*.;.$.*.$...)  . .) =.:.:.<.r.1.u.u.h.h.h.h.z.m.z.z.H.H.H.[.Q.Q.*X1X;X~.:X;XQ.1X<XQ.:._ ' ' _ _ / z ..<.b N x * . o $ @ & & & 4 t & 4 >X9X:X2X:X2X;X2X8X;X8X;X>X;X2X;X2X2X;X;X2X>X2X;X;X;X;X;X>X;X;X>X2X;X;X;X;X/.;X;X;X;X;X;X;X/.;X;X;X;X;X;X;X;X;X;X;X&X;X;X/.;X;X;X;X/.;X;X&X;X;X;X&X;X&X&X&X;X&XQ.;X&X&X&X&X;X&X/.Q.&X;X;XQ.&X&XQ.;X;XQ.&X&X&XQ.&X&X&X;X&X&X&X&XQ.&X&XQ.&X&X&X&XQ.Q.&X&XQ.Q.Q.V.V.n.8.1.@.@.:.,.1.2.2.9.d.b.b.M.V.V.J.L.J.K.{. XI.5XjXBXUXjXBXBXmXZXCXjXvXJXvX#.< 2 x T.*.e.t.-.j.j.t.-.*. .! m T.C H H D D D D D D D D G I I | | I I I I I Y I +.Y Y +.Y | +.I Y +.+.#.+.G Y.kXAXmXnXnXbXnXgXlXtXgXtXeXeXeXeXwX<X<X,X,X,X{..X.X{.L.L.U.M.{.4X5X;X=X=X=XP.L.K.C.V.M.N.b.M.M.V.V.J.K.P.!..X=X;X4X4X XL.{. X X,X X=X,X<X5XeXeXeXeXhX&XH U J R J F F D Z Z Z Z j s a 9 9 7 9 4 % @ @ 2 @ 2 $ 2 2 2 2 2 2 2 i <.S.{ t.t.:.-.$.$.&.$._ _ [ ( Q ( n k . - + - $ + = $ & & & & * * 4 * = 9 . [ hXwXuX@XwXwXwX@X+X@X@X@X@XOXOXOXOXOX'.].].].].).H.).v.v.H.z.z.z.v.h.h.h.u.r.r.r.;.;.-.-.-.' $.=./ = X + ",
"' u._ 0 . $ & # % : O & @.n.1.4.4.:.4.o.o...o.L o.L ..L n z z z W l n ~ ( ( ( ' *.! i 2 2 0 1 0 < < < < < 2 > < & 2 > 2 % 2 2 % % 2 2 % o $ % < + X X a ,.P.R.R.R.R.Z.I.R.R. XR.R.R.-X-X X-X5X2X*XiXlXG   . $ $ $ . . . . . . = 4 = $ & % o O @ @ @ @ @ 2 @ $ 2 % 2 > 2 > > 2 , 2 1 1 X + K.PXKXKXAX;X4X4X3X4X<X;X,X*X*X=X.XQ.P.Q.P..X%X&X,X;X;X4X1X4XsXhXiX%Xb.9.V.J.C.U.J.P.K.P. X!.%X&X X%X%X%X%X.XR.P.P.P.K.I.J.J.J.V.C.V.V.n.M.N.b.b.b.b.8.8.8.8.,.,.@.1.@.>.>.4.4.%.X.X.o.|  .} } G ! m m n M M M x x b x m M ! ! ! T.T.) .._ } $.%.%...<.N.m.N.b.2.2.6.3.<.>.>.%.X.o.|  .}  .o.X.O.4.>.>.1.,.2.2.Y.b.N.N.m.C.D.N.i.u.a.a.<.e.<.e.;.;.;.%.*.*.*.$.$...) ) =.=.:.:.1.u.u.u.h.h.h.m.h.m.z.m.J.H.H.[.`.Q..XOXpX8X1X>X1X3X.X8.=.' *.*._ ) Q l 2.d.} N Q N 0 - $ % & 4 & < r 4 X 9.pX2X;X2X4X1X;X2X2X;X>X;X2X;X;X;X;X2X;X>X;X;X;X2X;X;X;X;X;X;X;X;X;X>X;X;X;X;X/.;X;X;X;X;X;X&X;X;X;X;X;X;X;X;X;X&X&X;XQ.;X&X&X;X&X&X&X&X&X;X&X&X&X&X&X&X&X&X&X&X;X&X&X&X&X&X&X&X&XQ.;X&X&X&X&X&X&X&X&X&XQ.&X&XQ.Q.;XQ.&XQ.Q.&X!.&X!.&XQ.&X&XQ.&XQ.&XQ.!.Q.V.V.n.8.n.8.1.@.@.8.1.2.8.b.b.N.M.M.V.J.L.I.P.P.P. X*XgXBXmXUXjXBXAXAXCXzXCXHXcX0.# d c c z z  .i.i.%.%./ L c c x h Z c H H G D H G G U U F U U U U I I | I I I I Y Y +.Y | Y +.| Y Y #.Y U #.G v ,.jXAXMXgXmXgXeXnXgXtXtXeXeXeXeX5X<X,X,X,X,X=X%X{.{. X{.U.m.U.=XeX*X=X=X=X.XK.J.J.V.V.m.n.V.V.J.L.J.L.P.=X&X=X*X3X,X{.I.{.,X X=X,X,X,X<X5XeXlXeXlXjXn.h R R R F S D A Z Z Z s j V 9 a p 6 p t ; @ @ $ $ @ 2 2 2 2 @ t 2 0 - N S.a.r.r.r.-.[ &.:.[ $.' [ _ ( _ n n . - - = = + = $ = & = & * * * * * r $ h.bXrXuX@XwX@XwX@X@XOXOX<XOX<XOXOXQ.'.].XXOX].H.].H.H.H.H.v.h.h.z.v.h.t.h.u.r.1.r.;.;.-.-.-.=.$.$.:.M . X ",
"$.:.:.b + + # + @ ; @ X x b.,.X.4.4.4.o.o.4.L o.L L L L z e z W W _ ( Q W ~ ' *.b t = 2 t t 2 2 < < 2 < > < < > 2 & & & & & : & % 2 $ + 2 1 %     1 O.K.~.I.n.B.Z.I.I.R.R. X~. X X&X5X~.&X-X-X-X2XfXX.  . * = X $ . . $ - . - r z w $ = + . . % O % o @ @ @ 2 @ 2 % 2 > > : , ; 1 ; 1 c %   0.KXKXfX*XhX4X4X4X*X;X*X*X=X=X%XP.P.L.P.P.!.=X=X*X;X1X;X1X3XiXsX9X;Xb.n.C.C.C.C.J.K.I.P.R. X~.&X%X&X!.%XR.!.P.P.K.J.I.J.J.C.C.V.M.M.M.n.N.n.b.9.9.8.,.8.,.,.,.>.@.@.>.>.4.4.X.X.o.o. . .} T.} T.m m n M M x x x b b Q b ! ! T.) )  ._ ..=.=.....<.N.S.M.N.2.2.2.1.3.>.>.@.X...o. .|  .| ..O.%.4.>.>.,.,.2.2.9.b.N.N.N.V.G.M.i.u.a.p.a.a.<.e.<.;.;.;.=.*.*.*.$...` $.:.*.r.1.1.u.u.d.h.h.h.h.m.H.H.H.G.H.F.F..X`.Q.XX8X8X;X2X8X.Xd.-.r.r.-.' ( Q Q z i.M.>.z c G N 0 $ + & & * & 4 t . g 1X9X~.4X:X1X>X;X;X;X2X;X>X;X;X2X>X;X2X;X;X2X>X;X;X;X>X;X;X>X;X;X;X;X;X;X;X;X;X;X/.;X;X;X;X;X/.;X;X;X&X;X;X;X&X&X;X&X;X;X&X;X&X;X;X&X&X;X&X;X;X;X&X&X;X;XQ.&X&XQ.;X&X&X;XQ.&X&X;XQ.&X&X;XQ.&XQ.&X&XQ.&X&XQ.Q.&X&XQ.;X&X&X&XQ.&XQ.&X!.&XQ.Q.&X&XQ.!.Q.&XQ.Q.V.V.8.8.8.,.@.:.,.8.8.9.b.m.M.M.V.V.L.U.K.&X.XL. XhXcXUXjXAXAXBXAXZXZXSXPXfXU O f G c f c h c H v h g f h c Z F F H F H H D G H H D G D G D D P U J F G J I I Y T.F | I Y | | Y Y T +.T U I #.O.c | gXAXjXgXnXyXgXgXtXsXtXeXeX4XwX<X<X,X,X,XoX=X{.{.{.L.G.U.S.[.4X5X,X=X%X%XP.K.I.V.V.M.m.V.V.J.I.I.P..X=X*X*X1X<X X{.{. X{.,X,X,X5X5X4XeXeXeXlXlXaXT D +.F T F F F D Z Z V Z j s 9 s 7 5 7 t : o @ @ 2 2 2 $ 2 % 2 2 2 p 2 0 *.l.t.-.r.r.&.-.e.' [ ..' _ [ _ _ n - - - = $ $ = $ = & & & = * * 4 4 4 $ H.UX$XwXuX@XwXwX<X@X<X@X+X@XOXOXOXXXXXQ.}.].].).H.).H.).v.H.H.z.v.h.h.h.t.p.r.1.r.r.;.:.-.' r.$.) $...i   ",
":.&.:...w X O & @ + & X * >.b.X.@.4.4._ o.L L L L L _ 9 z z z W l Q ( ~ ( ' ..m w 2 2 1 t 2 & 2 < < > < > > & > 2 > : % : : % : > $ > 1 +   X 1 | B.!.I.n.Z.K.I.I.I.R.R.R.&X~.&X-X&X X-X2X>X&X:XjX9.X X & . $ . . + + . X . y ..n i * 0 * + . + @ @ @ @ @ @ @ @ % : 2 2 ; : > , 2 5 , 6 5 @ > 3.HXfX2XaX;X4X4X5X;X;X*X.X%X.X{.P.I.L.L.P.P.%X&X&X*X,X4X;X1XlXaXaX4XU.,.n.I.C.U.K.I.K.P.R. X%X%X=X%XQ.P.P.K.Q.I.I.J.J.C.C.V.M.M.B.n.N.N.n.b.b.8.8.8.,.1.1.,.,.@.@.>.O.%.4.O.X.o. .| | } / m m m m v c b M b M b b ! ! ~ T. .)  .*._ $.=.....;.b.D.m.N.b.2.2.2.3.>.>.4.X.X. .} } } | | X.X.O.4.>.3.,.,.2.Y.b.b.N.N.N.V.D.D.m.r.a.p.1.a.e.u.;.;.;.;.;.%.&.%.$.$.$.....:.1.1.1.1.d.h.h.h.h.z.A.m.H.A.G.H.].].]..XXXQ.;XsXkXsX<Xh.*.f.:.:.&.' _ _ n L d.M.8.m x T.m u * + + % < > & 4 4 . J.pX;X:X;X1X;X;X;X>X;X;X>X;X2X>X>X;X;X>X;X>X;X/.;X;X;X;X;X;X/.;X;X;X;X;X;X/.;X;X;X&X;X&X;X&X;X;X;X&X/.;X;X;X&X;X&X;X&X;X&X&X&X;X&X&X&X;XQ.&X&X&X&X&X&X&X;X&X&X&X&X&X&X&X&X&XQ.&X/.Q.;XQ.Q.&X&X&XQ.&X&XQ.&X&X;XQ.&XQ.Q.Q.&XQ.Q.!.&X&XQ.&X&X!.Q.Q.Q.!.&XQ.Q.Q.V.V.8.8.1.:.,.8.8.b.b.m.m.M.V.V.J.J.J.Q. XP. X5XjXmXzXmXAXAXBXBXUXFXPXpXj # Z Z f 5 a H F c f p h f c c c Z H H H c Z Z H H H H D D D D D D Z D G T.F F | F G J | Y I I I J | I +.F T 5.I I #.O.c X.5XBXUXnXnXgXgXlXgXeXeXeXeXeXeX<X<X,X,X,X{..X{.{.{.I.{.M.U.,X3X5X=X%X=X.XK.I.L.V.M.M.V.V.L.P.P.%X%X=X;X4X5X=XI.[.{. X,X X,X5X5X5XeXeX4XlXsXjX/.D U +.F R F U D D A A Z j s f 9 t 9 7 5 5 2 @ @ @ 2 @ @ 2 % 2 1 % 3 2 2 2 i l.l.-.;.t.w.-.w.[ ' $.[ _ _ _ _ _ - . $ = $ $ = $ & & & & * * * * w w . OXhX$XuXwXwX@XwX@X<XOX+X@XOXOXOXOXOXOX].].].].].H.H.).H.).v.z.z.h.h.v.h.h.u.u.u.r.:.:.-.:.$.&.*.' / =./ = ",
":.[ $.:.Q $ . & @ @ & + . c 2.@.@.o.o.4.o.o.o.o.L L L n z z W ( l Q ( ( ' $.! r 2 < B 5 2 % % B > > 2 & : * 2 % % % : : % % % % % % $ o   o H B.!.P.B.n.U.R.!.I.R.R.R.~.!. X~.&X&X*X&X>X>X&X6XjXn.o X & = .   = . + . X - u _ } _ N w r r * o O o o @ o @ @ @ 2 % : % 2 > : : > > 1 > # 6 a >   2.aX8X4X4XlX;X4X;X,X*X%X%X%XP.P.L.I.I.L.P.{.=X=X=X*X5X5X<X4XlXiXfX4XK.N.b.B.C.I.I.I.P.K.R. XR.%X!.!.P.P.K.I.P.I.J.J.C.C.V.M.M.M.n.n.N.b.9.9.8.8.,.8.,.,.>.@.:.@.>.%.%.O.O. .o. .| / } G T.m m v n b M c M n m n ! !  .)  .*. .*...$.4...;.N.S.n.b.9.2.2.2.,.%.>.4.4.X.o.} } } }  . .X.4.%.4.>.3.1.,.2.d.b.N.N.N.N.V.J.D.m.p.a.p.i.u.a.<.e.<.<.;.;.%.;.*.*.$.$.$.' :.1.1.r.r.u.h.h.h.m.m.m.A.H.H.G.].[.L.].Q.Q.Q.oX1XiX4XV.r.u.;.-.-.-.$.$./ Q / m.m.M.%.x ! ! c i * o + < * % * y   o.8X8X;X;X;X;X2X;X;X>X;X;X2X;X;X;X;X;X;X;X;X;X;X;X;X&X;X;X;X;X;X;X;X;X;X;X;X;X;X;X;X;X&X&X;X/.;X&X;XQ.;X;XQ.&X;X&X&X&X&X&X&XQ.;X&X&X&X&X;X&X;XQ.&X&X;XQ.Q.&XQ.&X&X&X&XQ.&X&XQ.&XQ.&X;XQ.&X&X&XQ.&X&XQ.&XQ.;XQ.;XQ.&XQ.&XQ.&X&X!.Q.!.!.Q.Q.Q.&XQ.Q.&XQ.Q.Q.V.V.m.n.8.,.,.@.8.8.b.b.m.M.V.D.J.I.L.P..X X{.5XjXmXcXmXmXmXcXAXIXHXKX9Xy @ c Y f f c H f f Z H H c H v Z c c x c c h h c c H H H D D D D D U P D G F T.F F F J T.F J T.F I I I I | I Y +.+.F Y O.O.f G 5XZXmXlXnXbXgXgXtXtXtXeXeX<X<X<X,X,X.X.X=X=X{.I.[.{.G.m.L.4X4X,X=X&X%XK.K.J.V.V.V.V.V.P.L.Q.%X=X=X;X2X5X{.I.{. X X X,X5X,XwX5XeXlXeXeXgXhXn.A R R U A U U D A j A V j 9 f 9 7 5 7 5 t 2 @ @ @ - 2 2 % 2 2 2 2 1 ; 2 1 - T.S.f.r.w.r.-.-.:.$.$._ ' _ _ _ ..* - $ = $ = $ $ $ * & & & * * 4 4 * - <XhXwXuXwXwXwX@X<X@X<XOX<X@XOXOXOXOX].OXOX].].].).).H.H.v.H.v.z.z.h.v.t.h.u.t.r.u.:.r.;.:.r.$.-.*._ ' ..z ",
"w.:.[ $.4.i + + + % @ * . * 4.3.4.o.o.o._ o.L L L L L _ z z W W ~ ~ ~ _ $.! i % 2 1 < > & % % 1 > % & 2 & : > : & % : % % % % % > O   O H n.R.U.n.n.Z.R.R.B.U.~. XR. X~.~. X-X&X-X-X>X>X*X>XpX:XX   B $ - *   $ . . . = z ..L n _ l k i i r * $ o o @ @ @ O @ o 2 2 % 2 : : > > > ; > p > , 6 > - sXhX3X8X8X;X;X;X*X=X%X%XP.P.L.J.J.J.J.L.P.P..X%X%X*X1X4X1X4X4X3XkXsXR.Y.N.C.C.J.I.I.I.K.P.R. XQ.Q.K.Q.Q.I.I.J.C.J.C.V.V.M.V.n.n.N.b.b.9.8.9.6.,.,.,.,.,.@.4.4.4.%.4.X...o.| | } } P } m m m n n b n n n m Q ! T./  . . . .*.*.=.*.$.:.m.A.M.b.9.2.2.Y.,.<.>.O.O.....| } } T.} } o.X.X.4.>.>.<.,.,.2.Y.Y.b.N.m.M.M.G.L.D.g.a.f.a.a.a.a.a.<.<.e.;.;.;.=.*.*.*.$...:.1.r.u.1.u.h.h.h.h.z.z.H.H.A.F.H.[.[.).OX.X.XV.8.d.d.<.f.f.-.w.r.:.$.$.Q n =.V.b.I.8.m ! ! m c y % + * > & > r & & Q.pX;X:X&X>X;X2X;X;X>X;X;X;X;X;X>X;X;X;X;X;X;X&X;X;X/.;X&X;X;X;X;X;X;XQ./.;X&X&X;X;X;X;X;X;XQ.;X&X&X;X&X&X&X&X&X&X&X&X&X&X&X&X&XQ.&X&X&X&X&X&X&X;X&XQ./.;X&X;XQ.&X&XQ.&X&X&XQ.&XQ.Q.&X&XQ.&X&XQ.Q.Q.Q./.Q.^.Q.&XQ.Q.Q.Q.&X!.!.Q.&X&XQ.!.&X&XQ.Q.Q.Q.&XQ.V.V.V.m.8.,.1.8.8.b.N.m.M.M.V.J.L.I.P.%X!. X XgXBXmXzXmXBXAXAXZXIXLXCXX.# I Y 5 j p f H c h d f a h d c c c H c H H H Z H H Z Z H D H H D D D P U G F H F F G G F G G J | J I I I F +.Y F | #.I F F 5.F G  XmXnXgXgXgXgXlXtXlXeXeXeX<X<X,X,X=X,X.X{..X{.{.I.I.D.M.,X4X4X=X=X%XR.P.L.J.V.V.V.I.P.P..X%X&X,X1X1X=XI.{..X=X,X,X=X,X<X5XlXlXeXtXlXsXlXY F R R R D I D D A A A V j j a s 7 p t 5 5 < @ 2 o @ @ - 2 $ 2 $ 2 2 O 2 2 2 0 r.z.f.:.:.w.-.:.-.$.[ _ ' _ _ ..e . $ = + $ * = & & & & * * 4 * 4 0 - tXyXuXuXwXwX@XwX@X@X@X@XOXOX<XOXOX].OXOX].OX].H.H.H.H.).).z.v.z.v.h.v.h.r.p.t.r.r.r.:.:.-.:.*.-.[ $.' ' ' ",
"{ r.$.' :.m $ . + < X 2 + . } 2.4.o.o.o.o.L _ L L L 9 9 e W W ( ( ~ ~  .Q w 2 2 1 > > & > 1 1 1 : * 2 % % 2 % % % : % % : : % %   X t ,.K.I.n.B.B.I.I.U.I.!.%XR.R. X X~.-X&X&X-X>X5X>X:X5XjX8X$   X $ $ X X * X . . + 9 L L n L 4.L k 0 r i r 4 o @ @ @ - 2 2 @ % 2 2 % : > 2 > 6 > ; 6 6 , 1 5 . 4XiX8X5X<X3X;X;X*X=X%X.XR.P.K.V.J.J.J.J.K.P.P.%X.X%X;X;X;X1X3X3X3XaXfX*XN.,.C.C.C.J.J.I.K.P.P.Q.Q.Q.K.I.P.I.J.J.J.C.V.V.M.n.M.n.N.b.b.9.8.8.8.8.,.1.,.@.:.@.@.4.O.O.X.o. ... ./ } / m m m n v n v n n ! ! ! ! ^ T.)  .*.*.*.*.=.$.=.d.V.V.b.b.Y.Y.2.2.3.O.4.4.4.%.o.} } T.} T. .o.X.X.4.4.>.3.,.2.2.2.b.N.n.m.M.V.J.L.G.l.d.a.f.g.a.a.a.a.e.<.;.;.;.;.&.%.*.*...$.1.u.u.u.u.m.h.z.m.m.m.A.H.H.A.F..X].Q..X.X.X8.=./ =.m.h.e.l.:.:.' ' _ W Q m.m.8.P.M.} T.! ! P c < o % % * 4 & 9 X @.sX~.2X;X;X;X;X;X;X;X>X>X;X;X;X;X;X;X;X>X;X;X;X;X;X;X;X;X;X;X;X/.;X;X;X;X;X;X;X&X&X;X&XQ.;X;X&X;X&X&X;X&X&X&X&X;XQ.;X;X;XQ.&X&X;X&X;XQ.&XQ.;X&XQ.Q.;XQ.Q.&XQ.;XQ.Q.;X&XQ.Q.&XQ.&X&XQ.Q.&XQ.&X&XQ.&XQ.Q.Q.Q.&XQ.Q.;X/.Q.Q.!.Q.Q.Q.~.Q.!.Q.Q.Q.Q.Q.Q.Q.Q.Q.V.n.8.8.8.1.8.8.b.b.m.M.V.C.J.J.P.P.!..X XlXjXzXjXnXBXIXHXPXHXzXL.} 5 v D g h f a a a d c g a x x h h d f c c Z h C Z c c c H Z Z H c v v D Z D H H F H G F F F T.J T.F T.I T.J H Y | | I F J +.7.F +.T.u {.AXnXgXgXgXyXtXtXtXeX<XeX<X<X,X,X,X,X=X X X[.I.G.G.m.P.5X2X*X=X%X{.P.P.L.J.V.L.I.L.Q.=X=X*X4X5X*X[.I.%X X.X=X5X,X,X5X5XeXeXlXtXgXlXlXv R R A R A R j U D A 9 Z j a 9 9 7 7 a 5 5 < @ @ - @ 2 % % 2 @ 2 r @ 3 3 2 i - l v.k.w.y.t.-.&.-.:.[ ' [ _ Q =.e - $ = + = = & $ = * & * * * * * * - yXuXuXwX@XwXwXwX@X<XOX<X@XOXOXOXOXOX].].OX].].].].].].H.H.H.h.z.h.h.v.h.h.t.p.r.u.:.1.:.:.$.;.-._ $.' / _ ",
"-.$.' ' _ $.n X . & + O & X + 8.=.=...} } } } } n / l e k l l ~ l _ *.b 0 * 2 2 2 2 2 > 2 2 2 2 > % 2 1 < % o % 2 + o % > @ X   2 O.I.Z.B.n.Z.U.Z.Z.I.R.R.R.R.~. X&X&X&X&X&X-X-X&X>X2X;XfX8XN   $ + $ $ . . - &   = N / ! n ~ .. .O.b w u i 0 u w 2 . O O 2 O @ @ % @ : : % ; % > > > 2 > 6 , 4 O X.fXsX&XtX<X1X;X*X&X%X%XQ.P.I.L.I.V.V.V.J.I.P.Q.Q.%X=X&X*X;X<X4X4X2XsXgXlXJ.X.C.C.J.J.Z.I.K.!.%XP.R.R.K.J.J.J.J.C.V.V.M.n.n.N.b.n.b.b.9.8.6.8.,.,.1.>.>.@.@.4.%.X.4...o. .} } } ! T.! ! m v n x b Q ! ! T.^ T. .)  ...*.*.*.<...>.b.M.M.N.N.b.Y.,.,.<.>.>.%.O.X.o.o.} } } } } | ..4.4.>.>.3.<.2.2.Y.Y.Y.N.m.N.U.U.U.I.L.M.p.m.g.a.Y.a.a.a.e.a.;.<.;.;.;.*.%.%.$.*.r.u.d.f.d.h.l.g.A.A.A.H.H.H.G.[.[.[.{..XI.2.1.3.3.3.<.1.d.f.e.w.*.&.` n ..V.b.n.C.K.8.m / m ! T.x r = $ * * 4 p . 6 &XpXQ.:X>X;X;X;X;X;X;X/.&X;X&X;X&X/.&X;X;X;X&X;X;X&X;X;X&X&X;X&X;X;X&X&X&X&X&X;X&X&X&X&X;X&X&X;X&X&X&X&X&XQ.Q.;X&X&X&X&X&XQ.&XQ.&X&XQ.;X&XQ.&XQ.&X&X&XQ.Q.&X!.Q.&XQ.!.~.&XQ.Q.&X%X&XQ.&X&X&XQ.;X~.~.~.!.Q.&XQ.Q.Q.Q.Q.Q.Q.Q.Q.Q.Q.Q.Q.Q.Q.Q.Q.Q.Q..XQ.Q.Q.V.b.8.8.1.8.b.M.N.M.U.U.U.L.{.P.P.P. X<XaXmXBXFXHXFXBX4X,.6   X & H c p j j g f f f f N f N f f c h f x h x f c j j c c H c j c v v Z c v H c F H H G H G G F G G F G F I G I F I I G I I I I +.I I | F j 0.zXBXgXgXhXyXtXlXeXeXeXwX5X5X,X,X,X}.,X,X{.{.[.U.G.g.5XeX,X,X=XR.%XP.J.V.J.L.L.Q.Q..X&X;X4X8X.XD..X X X,X,X,X5X5XeX5XyXeXeXgXlXBX6.J E | J F S F F Z Z Z Z j 9 j s p t 7 t 5 5 6 < o # # + @ 2 @ 2 % % 2 2 2 2 1 2 O O.l.w.s.s.&.w.-.&.&.&.[ ' _ _ ! . = = + B $ $ & * & = * * * = * = e hXyX@XuXwXwXwXwX<X@X<X@XOX<XOXOXOXOXOX].].XX).XX`..XF.F.F.F.z.z.f.z.v.h.f.f.r.p.u.r.:.;.;.:.&.$...$..._ ) ",
":.[ $.$._ ' ! 0 X + % o @ o + | >...X.X.} P } ! / b k z W ~ l W ) ) Q t 2 2 < < > > < > 2 * : ; < % o o @ % 2 2 o 2 < * . X r G n.I.K.B.N.B.U.B.I.K.I.R.R.R. X~.R.&X&X&X&X-X-X>X1X3X&XfXdXL X = $ + . . - $ .   0 N / } / m }  . .*.! u i e w e i 0 $ - O @ @ @ @ @ % % % : & > > > 2 , > , 1 1 # c 9XaX;X4X1X;X*X*X=X%X%XQ.P.I.I.J.V.M.M.D.L.I.P.Q..X%X=X=X*X;X1X4X4X3XiXsX4X%X,.N.V.V.U.I.K.Z.Q.P.{.P.K.I.J.J.Z.J.C.V.V.n.m.n.b.b.b.b.9.2.8.,.,.1.,.>.>.@.4.4.4.O.X.X.o.} } } } } G G m m M M b m m T.! !  .T... . .*.%.%.*.;.>.8.N.M.N.N.Y.i.2.2.2.3.>.>.X.X.X.o. .} } m } } o...X.O.%.>.3.3.2.2.i.Y.m.N.N.U.V.C.U.I.P.S.d.g.a.l.g.p.a.a.a.<.a.;.a.;.;.;.;.*.$.*.:.1.u.f.a.h.l.m.z.A.A.A.H.H.G.].].[..X[.b.>.3.3.@.>.>.1.u.u.e.e.&.$.) ! X.C.C.M.B.P.M.....%.! T.T.b B % $ < < < & $ b.9X;X-X;X;X;X;X;X;X;X;X;X;X;X;X;X;X;X;X&X;X;X&X;X&X&X;X&X;X&X;X&X&X&X;X&X&X;XQ.&X&XQ.;X&X&X&XQ.&X&XQ.;X&X;X&X&XQ.&X&X&X&XQ.&X&X&XQ.Q.;X&X&X&X&XQ.Q.&X&X&XQ.&X&XQ.&X!.&XQ.&XQ.Q.%XQ.&XQ.Q.Q.Q.Q.Q..XQ.Q.Q.Q.&XQ.Q.;X&XQ.Q.Q.&XQ.&XQ.Q.Q.Q.Q.&X~.Q.Q.Q.Q.V.b.b.m.m.b.8.n.2.b.M.G.L.P.I.I.%XK.K.4XBXFXSXBX;XM.v +   X & 4 4 j +.I f j d f N N f k f u f f N d d x f c f c j c c c c j c c c Z c c H H c H G H H G G H H G F G G U G G F I | F F I F I I P G I I +.O.D D 9.gXUXhXeXyXgXyXtXeXeXeX5XwX,X,X,X,X X{. X{.[.{.U.U.{.4X4X=X=X=X{..XI.D.L.H.Q.Q.Q.=X=X<X4X.XQ.P..X,X.X=X,X,X,X5XeXeXeXlXyXyXgXdXO.+.J J J R F F F A D D j j j j 9 9 p 7 5 5 5 < 6 # o @ + @ 2 $ 2 = 2 = 2 < 2 1 2 % c a.l.e.w.w.;.-.&.&.$.[ ' ' ) Q . - - - * $ $ & & * * * * * 9 * = W hXuXwXuXuXuX$XwX@X<X$XOX<XOX$X<XOXOX].OX].F..XF.F.).).F.x.x.z.z.z.h.z.f.f.f.p.r.r.r.e.e.;.:.&.$.$.' ` _ ) ",
"w.-.-.$._ .._ m . . @ + # o + * 8.....X.P L } m / k e b Q W b W ..b r = & < > 2 > > 2 2 % : : & $ < 1 2 % % $ O < o     % c 0.R.U.Z.B.B.B.K.K.Z.I.K.R.R.~. X X&X&X~.-X&X-X>X7X>X9X:X6XfX8.  . - $ . . . - + . . n / ..} / / } .. .%...b k i k u w i 0 2 o o @ @ @ % % % 2 % : : < > , < 1 , 1 , & % !.fX:X;X<X<X,X*X%X%X{.R.P.L.L.J.V.M.M.V.V.J.I.L.Q.Q..X%X*X*X;X5X4X4X8XiXpXsXK.m.9.n.J.C.C.J.K.P.P.K.I.J.J.J.C.C.V.V.V.n.n.b.n.b.b.9.9.2.8.,.,.,.>.,.@.@.@.@.X.O...o. . .} } T.P T.m v n v M ! ! T.~ ! )  . . . .X.;.<.*.*.X.N.N.M.V.N.b.b.2.2.2.3.>.>.4.X.X.o. .} } G P / } o...X.4.>.>.3.<.2.2.Y.Y.N.N.M.N.n.C.J.J.L.I.m.i.g.Y.g.p.a.a.a.a.a.e.<.;.;.;.;.&.*.*.<.u.u.d.d.g.g.m.z.A.A.H.H.H.].[.[.{.G.h.>.%.3.3.#.O.@.>.>.<.;.e.-.$.) / 1.L.M.C.V.P.I.X.M ! T.|  . .x = + > & & 4 o d -X9X&X;X;X;X;X;X;X;X;X;X;X&X;X&X;X;X&X&X;X&X/.&X;X;X&X&X&X;X&X&X&X&X&X&X&X&X&X&X;XQ.&X&X&X&X&X;X&X&X&XQ.&X&X&XQ.&XQ.&X&X&X&XQ.&XQ.&XQ.Q.&XQ.&X&XQ.Q.&XQ.&X&XQ.Q.&X&XQ.Q.!.Q.&XQ.%XQ.&XQ.Q.Q.~.Q.~.!.=XQ.Q.&XQ.Q.Q.Q.Q.Q.Q.Q.Q.Q.Q.Q.Q.Q.Q.Q.Q.Q.Q..XQ.Q.Q.8.8.8.8.8.m.J.D.M.V.U.U.L.P.*X5XlXjXfX&X| $   X X o * t a 9 5 c O.+.h f a f f p u f u f f N f f N f x f f x j g h h j c c c h D c Z c c H c H H H H H G G H G F D D F G G G I F I G U I I U F Y I U +.T H c i.iXUXgXeXgXyXyXeXeXeX5XwX5X,XoX.X X{.{.{.[.[.U.U.S.5XeX5X X,X%X.XL.I.L.Q.Q..X&X*X=X4X1X[.I.%X.X X X,X,X5X5XeX4XlX5XtXgXlXjX-XH +.J | J J F F F D Z Z Z j j 9 s p t t 5 4 6 4 > O o o @ @ $ 2 $ % % 2 2 2 2 2 1 1 = T.S.p.w.p.w.-.&.-.&.$.] ' ' _ = - - + & $ = & = * * * * & w 9 . :.nXwXuXuXOXwXwXwX@X$X$XOX$X<X@XOXOXOXOX].OX.X`..X).F.).F.F.A.x.z.v.z.f.h.f.r.h.t.r.r.:.w.;.;.&.$.$.$.) _ _ ",
"-.-.-.-._ _ ....0 . . $ o + $ X ..X.X.} } } L T.m k k Q z l ^ T.b r * % 1 < ; % : % * & & & & % : % % o % : * % X   @ c 6.I.I.n.n.n.B.I.I.Z.I.I.R.R.~.R. X~.&X~.-X-X-X5X1X>X4X>X1X8XzXm.X $ 0 X + + - = . X = x / /  ./  .}  .....%.>.^ u k z e k i i 0 = $ - @ @ @ @ @ % : % ; : : > > > > , , 7   9.jX4X*X1X*X*X=X=X%X%XP.P.P.J.V.V.m.m.m.M.V.C.L.I.L.Q.!.%X=X=X;X<X4X1X3X3XsXsX&Xn.b.n.C.J.Z.K.L.K.P.K.J.J.J.D.C.U.n.n.m.n.n.b.b.b.9.9.2.,.1.,.>.,.>.@.:.4.X.X.X.o.o.| } } } } ! ! m m v n v ! ! ^ T.T. .| *.*.*.*.;.%.%.<.a.M.D.M.n.b.b.2.b.2.2.<.>.>.%.X.o. .| ! P ! } } } X.o.X.4.>.3.<.3.2.,.Y.b.N.m.N.M.V.U.J.J.L.{.D.p.g.g.g.Y.i.g.a.a.1.a.<.a.;.<.;.;.:.%.;.u.u.f.h.g.m.z.A.A.A.H.H.].F.[.OX[.g.>.%.,.@.@.O.4.O.X.=.%.;.;.-.&.~ ..d.P.n.I.Z.!.&Xn.X.%. .T.T.T.T.N * o & < y & + m.dX%X;X;X;X/.&X;X&X;X;X;XQ.;X;XQ.;X;X;X&X;X&X;X&X&X;X&X&X&X&X;X;X&X&X&X&X&X&XQ.;X;X&XQ.&X;XQ.Q.&X&X&X&XQ.&XQ.&XQ.;XQ.Q.&XQ.&XQ.&XQ./.&XQ.&XQ.&X&X&X&X~.Q.Q.&X&XQ.!.!.!.!.!.Q.%XQ.&XQ.Q.&X~..XQ.Q.Q.!.Q.Q.Q.Q.Q.Q.Q.Q.Q.Q.Q.Q.Q.Q.Q.Q.Q.Q.Q.Q.Q.Q.Q.Q.Q.m.m.8.8.8.n.m.b.m.D.P.%X&X;X-X%Xn.o.t @ X X + & 5 a g f t 6 4 & 9 +.Y c s a f p u p f u p u p d d d f d f d f g h j c j j h h h h c c Z c c Z c H c H H H H H D G D G G F F G G G F U P F G U I | I v I +.| | c 3.4XBXgXlXlXlXeXlXeXwX5XwX5X,X,X,X.X X X{.[.[.[.Y.{.4X5X=X*X=X!.Q.L.L.Q.Q.=X.X<X;X<X.XU.L.=X.X,X=X,X5X<X5XeXeXyXeXyXgXlXcXY.H T +.J +.U F S F Z D Z j j j a a 9 t 7 7 9 4 4 < @ # o @ @ @ @ @ 2 % % 2 2 2 3 2 1 . i a.f.p.a.y.e.;.-.&.-.' ' ..$.q - - = & $ & = & * = * * & = w . h.mX<XuXuXwXwXwXwX<X<X<X<XOXOXOXOXOXOX].OXH.)..X`.)..XF.F.F.A.x.z.z.z.z.f.f.f.r.u.u.r.w.;.;.:.&.$.$.' .._ / ",
":.$.-.&.' _ ' ..m $ X $ . + %   9 4.4.n }  .m } z k l n k Q ) T.B 2 % > 1 : @ ; % 2 $ % & % @ % % o o @ 2 $ O X X u 6.K.K.B.n.Y.Z.Z.U.Z.E.U.R.R.R.R. XR.&X&X~.-X-X-X:X>X>X>X>X4X2XjX&X+   = - = + . + . . = N X.} L / .. .%...$.4.4.<.%.z z z k k k e i 0 2 = @ % % @ : % 2 % % : : > > , > , > p   G 0X9X*X1X,X*X=X.X!.Q.Q.L.I.J.J.V.n.N.m.n.m.V.V.I.P.I.Q.Q..X=X*X;X;X1X1X4X2XiXaX1XV.2.V.I.C.J.J.K.K.I.J.J.J.C.V.V.n.M.n.n.b.b.b.b.2.2.2.,.,.1.,.@.>.@.4.o.4.X.X...o. .} P } G / m m m n v n ! ^ T. . . .*.*. .%.<.%.*.%.i.S.D.M.N.N.b.2.Y.2.1.3.>.>.4.X.o.o.} } m ! m P P  .X.X.%.4.>.3.3.2.2.Y.Y.9.b.m.N.M.M.C.I.U.L. XI.g.l.N.a.l.g.p.g.a.a.a.1.u.<.;.;.<.:.;.;.<.i.g.f.g.m.z.A.A.H.H.H.G.].{.G.b.<.@.@.,.@.O.O.O.O.X.+.X.%.;.;.$.Q $.m.K.I.R.U.B.%XJ.4./ X. .T.! } T.u % & < < u X v iX:X;X;X;X;X;X&X;X&X&X;X&X&X&X;X;X&X&X&XQ.;X;X&X&X&XQ.&X;XQ.Q.&X;XQ.&X&X&X&XQ.&XQ.&X&X&XQ.;X&XQ.&X&X&XQ.&X&X&XQ.&X&X&XQ.&X;X&XQ.&XQ.Q.Q.&XQ.&XQ.!.Q.Q.Q.Q.!.!.!.!.!.&X&XQ.Q.Q.Q.Q.~.Q.Q.Q.&XQ.Q.Q.Q.Q.Q.Q.Q.&XQ.Q.Q.Q.Q.Q.Q.Q.Q.Q.Q.Q.Q.Q.Q.Q.Q.Q..XQ.Q.Q.m.h.8.8.Q.I.Q.%X=XP.n.4.| 2 + X O & & 4 p 5 4 6 > & < p f > v +.o.U j 9 9 t p p t u p p u N N f p N d d d g g j g j j j j h g c h Z c c c Z Z v Z v v H H H G H H D G D G G F U D P F U G H Y I U I I Y | | a O.6XcXgXtXeXlXeXeX5XeXwXwX,X,X X,XoX X{.{.[.[.N.A.5XeX5X=X=X%X.XP.L.Q..X=X;X;X4X*XL.[..X X=X=X5X,X5XwX5XeXeXlXyXlXgXgXzXT.J E Y +.J J J F H Z Z Z j j f 9 a p p 5 7 5 6 4 < # o o @ @ @ @ 2 2 @ @ 2 2 2 0 2 2 2 2 b d.l.e.a.;.e.e.-.-.[ ' ..:.u . - = $ = & & * = w * * * 9 i . v.nX@XuXwXuXrX@XwX@X<X@X<X@XOX@XOXOXOXOX].OXXX`.`.]..Xx.F.F.F.A.x.z.z.f.f.f.r.r.r.r.e.e.:.e.;.;.$.$...' _ ) ",
":.$.$.[ ' ` ( m $.i . - # o % X . L @.v }  .m ~ k k z l ! ^ b i $ % ; 2 % @ % < % 2 % % % % % % o 2 r < o   X > 3.0.U.n.9.9.B.K.U.B.Z.U.P.R.R. XR. X X=X~.&X-X&X-X-X-X>X3X5X>X2XcX&X$   $ . . = + + . . = v ../ / ..} ..*.%.%.%.%.%.a.<.! k l k k k k k k i 0 - $ o $ @ % ; @ ; : & ; > > > > , p @ t %XiX;X<X*X,X=X=X!.Q.L.L.J.V.V.V.m.N.b.b.b.m.V.V.J.J.Q.Q.Q.=X=X=X;X<X4X4X2X2XiXaX3XK.6.9.J.V.C.J.I.J.J.J.J.U.V.M.M.n.N.b.b.b.b.9.9.8.2.8.,.>.,.>.@.@.@.4.4.X.X.o.o.} } } G m m m v n m m / ! T.^  . . . .*.*.%.<.%.%.a.U.U.U.N.N.b.Y.i.2.2.3.>.4.4.X.X.|  .} } m m m / |  .o.X.X.O.>.>.<.,.2.2.Y.b.N.N.U.N.U.D.I.I.L.{.L.A.m.l.S.a.g.g.Y.a.i.u.u.a.a.e.e.<.<.&.&.e.u.g.l.l.z.A.A.A.F.H.G.G..XI.h.>.X.>.>.O.@.O.O.4.O.o.o.o.X.*.%...! >.D.J.J.K.K.Z.-X5XY.T.O.*.*.T.}  .G d o & o p $ * Q.3X&X&X&X;X&X;X&X&X&X;X&X;X&X;XQ.;X&X&X;X&XQ.;X&X&X;X&X&X&X&X&X&X;X!.;XQ.&X&X&X&X&X&XQ.&XQ.&X&XQ.&XQ.&XQ.Q.Q.&X&XQ.&XQ.Q.Q.Q.&XQ.Q.Q.&X&XQ.Q.&X&XQ.Q.&X!.!.!.!.Q.!.Q.Q.&XQ.;XQ.Q.Q.Q.Q.Q.Q.Q.Q.Q.!.Q.Q.Q.Q.Q.Q.Q.Q.Q.Q.Q.Q.V.Q.Q.Q.Q.Q.Q.Q.Q.Q.;X~.Q.V.m.V.V.n.h.Q.I.V.2.| d & .   > & < 5 p 5 6 > < > 4 t t t < % & U +.+.U v 9 4 p i t p p p u p p p p N f p p d a f f a d j g g j h h h f c c h c c c Z c Z c c H v v H H H D D D D D D D D F G P D P Y I G G U Y | c T.=XnXjXtXyXlXeXeXwX5X5X,X,X,X,X X{.{. X[.[.U.N.[.4X4X=X*X=XQ.P.Q.!.%X=X;X1X1X{.J.%X=X{.,X=X=X5X,X5XeXlXlXlXgXgXgXzX5XH J T T T J J T.H S A H h Z s f s a 9 t t 5 5 4 6 6 O @ @ @ @ o @ @ 2 $ @ 2 2 2 2 2 2 1 2 2 <.m.e.p.r.e.e.-.-.-.' ' :.n - - 0 $ & & = * = w q * * * B + H.mXyXyXrXwXwXwXwX@X@XOX@XOXOXOXOXOXOXOXOXOXF..XXX`.F.).F.x.x.z.z.z.z.z.f.h.f.h.h.r.r.e.:.:.&.&.$.$.$.) ) _ ",
"-.*.-.' ` ( ( ( ) n * . + . + @ X i o.} G } ! z k l l Q ! b w = % 2 : : : % ; 2 % % % % % % % @ % % % X   : | n.C.B.N.0.n.I.I.n.U.U.I.R.R.R.R.I.!.&X~.~.-X-X-X5X-X-X>X2X2X5X6XdX8Xy   $ * X =   + - . & v %.o.n ......=.%.%.=.=.<.=.1.2.*.l k l W k k k l u i 0 o : @ % % % @ ; ; & : : : , , > 1 1 O 2.sX1X;X;X;X.XQ.Q.Q.L.L.J.L.V.V.M.m.b.9.8.b.V.V.V.V.L.Q.J..XQ..X*X5X;X4X2X3X1X9XfX8XC.9.n.V.C.C.J.I.J.C.U.M.M.B.M.n.N.b.n.b.9.8.8.2.,.1.3.>.>.>.@.4.4.o.o.X..... .} } G } ! m m m m m P / ^  . .*. .*.%.%.*.<.%.<.Y.U.U.U.N.N.N.Y.Y.2.2.<.3.>.4.4...o.} } G m T.m } }  .o...X.O.>.>.3.3.,.Y.2.b.b.N.M.M.M.U.C.J.I.J.{.[.H.l.m.m.l.g.a.l.a.g.a.a.u.a.<.e.;.<.&.%.<.a.h.l.m.m.z.A.F.H.H.G.L.U.b.4.O.@.@.O.o.X.4.X.X.o.o.o. .o. .%...! d..XJ.C.I.&X-X5X3XI.2.>.>.4.*. . .T. .r * o r 4 o } 8X;X&X;X&X&X;X;X&X&X&X&X&X&X&X&X&XQ.&X&X;X;X&X&X&X&XQ.Q.;XQ.&XQ.;X&XQ.Q.&X&XQ.&X&XQ.&XQ.;XQ.&XQ.&X&XQ.Q.&XQ.~.Q.Q.Q.Q.Q.Q.&XQ.Q./.Q.&XQ.~.!.!.!.Q.!.!.Q.!.!.!.Q.Q.Q.Q.Q.Q.Q.Q.Q.Q.Q.Q.Q.Q.Q.Q.Q.Q.Q.Q.E.Q.Q.Q.Q.Q.Q.Q.Z.Q.Q.Q.Q.Q.Q.Q.Q.Q.Q.Q.8.P * r L n.Q.n.#.>.t < # X X o < t < 4 5 > % & 6 t p 4 % % & 4 5 4 # P I P P v j r 1 t r t p t t p p i p u p d u f a d f a d d a g g j h h x f h c c f c c c v Z c H H v H H H D D D D D D D D G U U G D D G F U Y C #.Y p T. XaXjXlXeXeXeXeXwX5X5X,X,XoX X{. X X|.[.{.M.M.,X3X*X*X=X.XQ..X=X=X;X<X1X.XL.[.%X%X X,X,X5X5XwXeXeXtXeXeXgXlXgXjXq.J 7.E Y Y Y F H H F D Z j j j s 9 a p p t t r 5 1 > @ # o o @ o @ @ @ @ 2 2 2 2 2 2 2 1 2 @ x <.k.a.r.r.r.w.-.-.' ..$./ $ - = + * $ & * & = 4 4 & 4 + q H.hXuXuXwXwXwXwX<X@X@X<X@XOX@XOXOXOXOXOX].H.XX).F.F..Xx.F.F.A.x.z.v.z.h.h.f.f.f.r.r.r.:.;.;.:.-.$.....' _ _ ",
":.:.-.' ' ' _ ( b ..i . . X # % X & P @.m ! } k z l l Q ~ i - = * : : % ; 2 % % % 2 $ $ @ % @ # 2 X   o G n.I.B.6.n.M.B.n.B.C.C.Z.R.R.I.I.R.~.-X~. X&X-X-X-X-X5X5X>X2X2X2X2XpXzXg   + B . - - = - . = L %. ./ | ......$.%.>.:.<.1.<.1.i.e.W k ^ l l l l k k k k $ o @ @ ; @ % % % : : : > > 2 1 @ a   | sX8X=X<X&X=X=XQ.Q.Q.L.J.J.V.V.n.m.b.b.8.b.b.m.V.V.V.D.Q.K.P.R.=X*X=X&X;X4X4X1X2XdXfX&X,.n.V.J.L.J.Z.C.C.C.M.M.M.N.N.b.b.b.9.9.9.2.,.1.,.,.>.>.@.@.o.4.X...o.o.| } } / T.m v n m m L } }  . . .*.*.*.<.*.<.%.<.<.m.[.U.N.N.N.N.b.9.2.,.>.<.>.4.X.X.o. .T./ } m m m } | ..X.X.%.4.>.>.1.1.2.Y.d.b.N.m.M.M.C.B.J.L.J.L.{.L.S.m.l.N.l.g.Y.g.a.d.f.u.1.u.u.<.u.;.;.;.a.h.g.m.A.A.A.H.F.F.[.G.d.4.o.@.@.+.O.>.X.X.o...o.o. .|  .! .. ./ h.%XL.5X*X5XU.| x 2 % a.%.X.X.X.| | O.G < % * y - = 2X;X&X&X;X&X&X&X&X&X&X&X&X;X&X&X;X;X&X&XQ.Q.;X&X&X&X;X;XQ./.;XQ.&XQ.&X&X&XQ.&XQ.&X;XQ.&XQ.&XQ.&XQ./.Q.&XQ.&X&XQ.&XQ./.Q.Q.&XQ.Q.Q.~.Q.Q.Q.!.~.Q.&XQ.Q.!.Q.Q.Q.Q.Q.Q.Q.Q.Q.Q.Q.Q.Q.Q.Q.Q.Q.Q.Q.Q.Q.Q.Q.Q.Q.Q.Q.Q.Q.Q.Q.Q.Q.Q.Q.Q.Q.Q.Q.Q.Q.,.n 9 & g 4 4 9 N * X X o @ % > < < > : @ & 4 & & < & # & < 4 4 < < < 4 < P P v U P D 6 t 1 r 1 t t t t u p p p u p y p a a a g a d d g j g j g c f h c f c f c Z Z f c Z c H v H v D D H G D D D U D D D D G F D D G U +.V F +.c b L.mXyXlXyXeXeX5XwX5X,X5X,X X,X X XI.I.{.G.N.{.4X4X=X=X.XQ.%X=X=X<X1X4XL.U.%X{.{.,X=X5X5X5X5X5XeXeXtXlXyXgXgXjXT.J +.Y T Y J F J H A Z Z Z j j s 9 a 9 t 7 5 5 5 4 1 @ # o % @ @ @ @ 2 @ @ 2 % 2 = 2 0 2 2 2 2  .S.s.r.u.r.-.-.-.-.' $...= + & + * $ $ * & & & * & & * 9 m.OXOXuXuXyXuXwX@X@X<X@X<X@X<XOXOXOXOXOXOX].F..X)..X`.F.F.F.x.z.z.z.v.h.f.f.r.r.r.u.r.e.-.:.:.&.$.$.$.' _ / ",
"w.-.[ *.' ) _ ) W _ L 0   . + X # o g o.n / _ k k b T.! 0 @ $ 2 : : & 2 % % % % % % % > & # $ +   @ G Y.n.n.0.Y.N.n.B.B.C.Z.I.Z.U.R.R.R.P. X X~.&X~.&X-X-X5X5X>X6X%X0X0X~.jXUX@.  + & + . = $ . . w _ ..} ......%.%.4.=.>.<.1.<.1.1.u.d.d.%.k Q Q l l l l k e k k w = $ % % @ 2 @ ; : : 2 2 2 2 2 p 2 X >XpX X5X=X=X.XQ.Q.L.I.J.J.V.V.M.m.b.9.8.8.b.b.m.m.V.V.V.I.P.P.%X.X=X*X;X;X1X4X2X8XlXsXsXd.9.M.J.J.J.C.V.V.M.n.N.n.m.b.9.9.8.2.2.2.,.>.>.>.>.3.@.4.4.o.X.o.| | } } P / L n n / / / / _ } X...%.*.%.%.%.;.1.%.1.M.I.M.N.M.N.b.Y.Y.2.1.>.>.>.O.X.X. .| } T.n v T.G }  ...o.X.X.4.>.>.1.,.2.Y.i.b.b.N.M.n.V.D.J.I.L.P.P. X Xm.A.S.l.l.A.l.a.l.f.f.d.u.u.a.a.a.e.;.;.r.h.z.h.m.H.H.h.A..XL.8.%.X.X.4.4.X.o.o.%.o...o.o.o.|  .} X.x g Y.5X-XY.O.t O   X X @ ; o d 3.Y.>.o. ...%.Q - . d < O >.qXQ.;X/.&X&X&XQ.&X&X&XQ.&X&X&X&X&X&XQ.;XQ.&X;XQ.Q.&X&X&XQ.&X&XQ.&XQ.&X!.&XQ.Q.&X%X&X&X~.Q.~.~.Q.Q.Q.Q.&XQ.Q.Q.Q.Q.Q.Q.Q.Q.^.Q.Q.&XQ.&X&XQ.Q.Q.Q.Q.Q.Q.Q.!.Q.Q.Q.Q.Q.Q.Q.Q.Q.Q.Q.Q.Q.Q.Q.Q.Q.Q.Q.V.Q.Q.Q.;XQ.Q.V.Q.Q.Q.Q.Q.Q.Q.!.~.B.I a 4 t g x z x  .W k z = $ % % : 2 > > ; % : & * 2 & & > * > * > < 4 < ; & & I L v L g v L B r r r t r t t t t t y y y u y y y p d t a f u N f d f d c N f c h d h h c h c c c Z c c c D v v Z D v v D D v D G P D G D P D v U U U F U P P jXhXgXeXeXeX<X<X,X,X,X,X,X{.{.{.[.U.[.U.m.,XeX,X;X.XQ.=X,X=X;XeXL.L.{.=X X,X,X=X5XwXeX5XeXeXtXtXtXnXeXBX&XA T #.T Y R U U F A F D Z Z j s j s 9 a 8 1 6 a 4 < r 2 X X : - o $ 2 @ % % % % : 2 2 2 2 3 2 = i *.S.r.u.r.w.-.e.-.&.[ =.w X 4 + = = w = = 9 $ 9 & $ @.8.0.0.#.R q.Q.tXuXuXwX@X@XOXOXOXOXOXOXOXXX].OXXXH.].].).].).`.F.x.z.z.z.h.h.h.f.f.f.r.r.r.:.:.:.:.' $.$...' _ ",
"w.-.-.-...' _ ( n ( / k = X $ & # X * P o.z e z l Q b r o 2 2 2 @ o $ % % % % o % + + + . X X X v +.Y.n.B.n.N.n.n.B.B.C.C.U.I.R.R.R.R.R. X~. X&X-X&X-X5X>X>X4X>X:X0X3X>XjXfX0.$ $ . . . $ - .   w n ..o.L ..=.4.%.%.=.=.<.<.1.1.1.2.d.d.m.<.l Q l W W b l l l k k i 0 $ @ @ @ @ @ @ @ ; ; : 2 1 2 3 2 O Z.pX*X-X=X=XQ.Q.Q.L.J.L.J.D.V.m.m.b.d.2.2.8.9.b.n.V.V.V.L.I.L.Q.!.=X=X=X;X;X4X4X4X8XiXtX3XJ.2.n.K.C.M.B.M.M.M.n.n.b.b.9.9.8.2.9.2.>.>.,.,.>.>.4.@.X.X.o.o.| | } } L L L n ! n / / / .._ *. . .*.%.;.<.<...a.U.I.U.N.0.n.N.b.Y.2.2.3.3.>.4.%.X.o.|  .} T.m m m } }  .o.o.%.O.4.%.3.3.2.2.2.Y.Y.N.N.N.M.U.C.J.I.I.L.P. X XS.A.A.A.x.l.l.l.g.f.d.f.d.1.u.p.e.u.;.;.u.l.z.f.A.z.h.z.L.H.8.X.o.O.4.@.4.O.o.| } | o.|  .} m v r z } %.| u % O o X o 2 2 % 2 2 % % < c >.i.%.T.T.%.G = % $ @ N ;X;X;X;X&X&X&X&X&X&X&X&X&XQ.&XQ.&X&X&XQ.&X&XQ.Q.&XQ.Q.;X&XQ.&X&XQ.&XQ.&X&XQ.&XQ.Q.Q.Q.Q.Q.!..X~.Q.Q.Q.Q.Q./.&XQ.Q.&XQ.Q.Q.Q.Q.Q.Q.Q.Q.Q.Q.Q.Q.Q.Q.Q.Q.!.Q.Q.Q.Q.Q.Q.Q.Q.Q.Q.Q.Q.!.Q.Q.Q.J.Q.Q.Q.;XQ.Q.V.V.V.Q.Q.Q.V.V.Q.&X%XQ.8.g d 4 4 y x v n n n ! l b b i N $ $ $ % % * & > % > % 2 > * * > > * & & < & & & 4 U v v m y M } f r * r r 5 4 r i t t y t y y y a y d t d y f a f d d d d d f N h h h h j c g c j c h c Z c c Z v v v D D D v D G D D D D P G U U U P D U D U P i.gXhX5XeXtX<X<X5X<X,X,X.X,X X{.{.L.[.U.M.{.4X5X*X=X=X%X*X<X4X;XP.[.{.{.,X=X,X,X5X5XeXeXeXlXeXgXgXgXgXBXB.F +.T Y J R U F F F F A Z Z j j s a a 7 p 5 5 t 1 > > o % : o O $ 2 O @ % % % % : 2 2 2 2 2 3 2 = z m.f.:.r.f.w.&.-.-.[ :.e X 4 $ = $ $ w = * 9 $ & @.B.q.0.6.5.#.#.#.@.n.H.;XwXtXwXwXOX$XOXOXOXOXQ.]..X.X].F.F.F.F.F.F.z.z.z.z.h.f.f.f.h.h.r.r.:.w.:.:.&.$.$.$.' _ _ ",
"w.w.-.' $.) ) ) ( n Q n i .   $ $ o O x 1./ w Q Q b i % 2 2 t 2 < < 2 o + % % > % + .   X + 9 D n.n.n.q.0.n.n.C.B.C.Z.I.I.Z.I.R.R.R. X X~.=X~.=X-X&X5X-X5X>X5X6X2X0X:X9XBXQ.$   * . . $ -   . * ......_ _ ..=...=.=.=.<.<.1.1.1.8.8.d.d.m.d.) l Q Q Q b W l k k k z i t 2 % @ @ @ : ; : ; ; 2 1 ; 3 , O | 0X5X=X&X=X.XQ.P.K.I.J.D.V.M.m.b.b.8.2.1.,.8.8.b.b.m.m.V.V.I.L.P.Q.%X=X=X*X;X<X4X4X3XlXfX3XP.b.b.V.J.M.V.M.n.m.b.b.b.9.9.8.2.2.2.,.,.>.>.>.>.@.@.X.X...o.|  .} } L L L ! m / / _ .._ ..%.X...*.;.;.;.<.;.m.{.I.U.M.N.Y.b.Y.Y.2.,.3.>.>.4.O...o. .} T.m m m m ! }  .o...O.X.4.>.<.3.1.2.Y.9.N.N.N.M.V.V.C.J.I.P.P.P.Q.%XL.S.A.S.A.l.A.S.l.g.d.h.f.u.a.a.i.e.e.;.u.f.z.z.z.z.m.Q.L.d.4...4.4.o.} } | o.X.X.| P n c x G T.2.,. X=XX.- . . o o > 2 : $ % % > + O % u  .>.<. .O.4.u % B & O V.8X;XQ.;XQ.&X&X&X&X&XQ.&X&XQ.&XQ.&X;X&XQ.&XQ./.Q.Q./.Q.&XQ.Q.&XQ.!.Q.&XQ.Q.&X&X%X%X;XQ.~.Q.!.!.Q.Q.&XQ.Q.Q.Q.Q.Q.Q.Q.Q.Q.Q.E.Q.Q.Q.Q.Q.Q.Q.Q.Q.Q.Q.Q.Q.Q.Q.Q.Q.Q.Q.Q.Q.Q.Q.Q.Q.J.Q.Q.Q.Q.Q.I.J.E.V.Q.Q.&XQ.Q.Q.Q.Q.Q.Q.m...9 w u N M m / / n l .._ _ Q ! ! l b r < 2 $ % % % % % > & % & & * * > & & > * 4 & & 9 L v v M r x o.m u < < r t r 5 t t t t t r y t t p t a p d u p p d d f f p d f g g g h g h h g h c h c c c c c j D v Z v v v D D D v G G D D P D P D U D D U U a i.eXhXyXwXeXeXwX,X,X,X,X.X,X.X{.{.{.U.S.U.=XlX=X*X,X.X,X8X5X{.[.{. X=X.X5X,X,XwX5XeXeXeXeXsXsXgXlXBXaXT R 7.T Y T R U U F F Z D A h Z j s s p 6 a t 6 5 1 > 2 1 o X o % @ o O @ 2 % 2 % 2 % % 2 2 ; 2 p $ 2 *.z.r.t.h.t.[ w.;.:.:.z X = $ * & = $ * * + * R n.0.5.#.5.5.0.5.#.#.R #.@.8.H.OX<XuXwX@XOX}.XXOXOX]..X].XX].`.F.z.z.F.z.z.v.v.f.f.f.f.f.r.r.r.:.r.-.&.:.-.$.' _ / ",
":.-.-.' ' ` ) ( _ Q l n n =   X X X   . M n i x b r $ = $ % @ O % % % > % + o X   o < c P 4.d.V.b.N.Y.n.Y.n.B.B.C.C.U.Z.I.I.R.R.R. X^.~.~.-X-X-X-X-X5X>X>X2X2X7X0X=X9XBXQ.&   - - - $ = . . w ..=.....4.4.4.=.=.;.>.<.1.1.2.i.i.d.d.d.d.M.A.;.l Q Q Q Q W W l l k l z N i 0 O O % 2 2 2 : % : 2 2 2 1 % 1 2X2X%X&X%XQ.L.P.L.L.V.C.V.M.n.N.b.8.8.3.3.1.1.8.d.n.n.M.V.V.I.L.P.Q.%X=X=X*X;X4X4X4X4X3XdXsX!.9.b.V.J.M.n.n.N.n.b.9.8.2.2.8.6.2.>.>.,.>.>.@.4.X.X.X.o.o. .| } G / m m / / / } ........%.*.<.<.<.%.<.<.M.U.U.N.N.U.M.Y.b.2.2.1.3.<.>.4.O...o. .} } } m v n } G } | | o.X.4.4.<.3.3.2.2.2.b.N.N.N.M.n.U.U.J.I.L.P.P.{.%X{.S.l.z.S.l.l.l.l.m.l.f.d.d.a.a.a.i.u.;.u.f.m.z.A.V.Q.H.8...} X.o.X.O.4.O.X.| / x m } o.@.9.U.~.*XP.5X XT.t r % 2 > 2 @ O 2 2 2 > < * # o & v >.>.O.4.} y r > o 9 ;X;XQ.;X&XQ.;XQ.&XQ.&X&XQ.&X&X&XQ.Q.&XQ.&X&XQ.&XQ.Q.Q.Q.&XQ.Q.&XQ.Q.Q.Q.&XQ.Q.!.Q.Q.~..XQ.!.!.Q.Q.Q.Q.Q.Q.Q.Q.Q.Q.Q.Q.Q.Q.Q.Q.Q.Q.Q.Q.Q.Q.Q.Q.Q.Q.Q.Q.Q.Q.Q.Q.Q.Q.Q.Q.Q.Q.Q.V.I.Q.P.Q.Q.Q.Q.Q.;XQ.Q.V.V.V.Q.Q.Q.Q.h.R z 9 z n L ( ~ Q n b b l e w k W l W ~ l b z w * + + % % % % & % & & & & * & & & & & # & 9 U g v 9 4 v o.T.c t * < 4 r 4 1 r r t t t t t t t a t t y p u d u p d N f f N s d d f f j g g j j h h j c c h v h h v D j Z v G H D D D D D v P v D D F U F F F t <.lXsXeXwX<X5X<X,XoX=XoX X X X{.{.I.U.m.[.eX*X,X=X=X5X4X=XG.{. X%X%X,X,X<X5X5X5XeXeXlXeXsXyXgXyXCX:Xh T +.R Y Y U F F F D F Z j h j f s 9 p 5 9 5 , 4 5 4 4 r X X . o - $ o @ @ % % % % 2 2 2 3 ; 2 t 2 2 t m.f.r.y.r.w.w.e.[ :._ . $ & & $ * = 4 $ # o.q.8.#.#.5.6.5.5.5.5.5.#.#.#.#.#.#.8.Q.Q.=XOX@XOXXX).).].].].].].H.H.F.F.A.z.z.f.v.f.f.r.u.r.r.r.:.:.:.:.$.....-...' ",
":.-.&.$.$._ ) / ( Q n n n i - $ X X X - i x x L r $ o $ : % : 2 * % o X X O o @ G | >.9.,.@.#.8.0.0.Y.n.B.B.B.B.B.Z.I.I.R.I.R.R. X~.~.=X&X&X-X-X5X>X5X>X2X6X2XlXiX6XjX3Xt   + B . $ - . - w } ,..._ ..=.:.=.=.=.<.<.1.1.1.i.i.d.i.g.Y.g.A.G.a.! ~ ~ ! ~ Q Q W W l l b l l i 2 - % : : 2 : : : : 2 1 < 1 X R.3X%X=X=XQ.Q.P.P.I.J.D.V.m.N.N.b.8.2.1.3.@.2.2.8.8.n.m.m.V.C.L.I.P.Q.Q.=X=X*X;X;X4X4X4X3XaXaX*XN.8.V.M.n.N.N.b.b.b.9.8.2.2.1.,.>.>.>.@.@.@.X.X.o.o.o.o.| } } ! ! m ! } } )  . .$.*.*.;.*.<.<.<.%.1.d.[.J.M.N.N.M.N.Y.Y.2.2.,.<.>.@.4.X.o. .} P } v m v ! } }  .|  .X.4.4.4.>.>.2.2.2.2.b.b.N.N.U.M.U.J.U.I.L.P.P. X%X.XL.m.S.`.l.l.x.m.m.l.l.g.g.a.g.a.i.a.u.1.u.l.A.m.G.D.h.%.} @.@.#.O.T.G v v H G 3.9.Z.R.&X&X-X5X&XR.5XU.b b k . $ @ ; 2 @ 2 2 @ @ & : & $ @ * < T.O.>.3.T.1 $ B 9 Q.2XQ.&XQ.Q.&X&XQ.&XQ.&X&X&X~.&X&XQ.&XQ.&XQ.&XQ.&XQ.Q.Q.Q.Q./.%X%XQ.%X%X%X&XQ.Q.%XQ.Q.!.Q.Q..XQ.Q.Q.E.Q.Q.Q.Q.E.Q.Q.Q.Q.Q.Q.Q.Q.Q.Q.Q.Q.Q.Q.Q.Q.Q.Q.V.Q.K.Q.Q.Q.Q.V.Q.V.Q.Q.Q.P.Q.Q.%XQ.Q.Q.V.V.Q.Q.Q.Q.;X.XQ.L 9 9 $ $ 9 9 9 w i i z x L  .4.i.b.U.L.~ k $.k ! b k r 0 * + - % % % % % % % = % % & & & & & % r L M g 4 r } P L P g B & 4 4 4 r r 1 1 r 1 t t r t t r t d t p p d p u f p y d d a g 9 d d g f j g j g j h h h h v h h v v v Z v D v D v D v D v D D D D F D F I H a | ;XhXgXwXwX5X,X,X,X X=X.X{. XL.[.I.U.S.*XeX,X.X1X4X=X[.P. X X X,X5X5X5XwXeX5XeXlXlXgXgXgXgXgXBXU.Z 7.R T Y Y J F F A D A Z Z Z V f s a p 7 t 6 > 5 5 < & @ t t     o * o o @ @ $ 2 $ 2 2 2 2 2 2 2 p 1 2 ! A.v.-.t.t.-.:.:.:.:.- - * * = $ 9 + & R n.,.#.#.5.8.#.#.#.#.#.,.#.,.5.#.#.R R U @.8.V.Q.OXOXOXXX.X}.F.H.).F.`.x.F.z.z.z.z.h.f.f.f.p.r.r.r.:.:.r.:.$._ ...._ _ ",
":.-.&.$.' ) _ _ W ( Q z z b M L o._ o.o.x $ + B o % > 2 : : % O     X @ t G 3.9.,.,.,.@.o.@.9.V.N.n.n.B.B.U.U.C.I.U.R.I.R.R.R.R.~. X~.=X-X-X5X>X>X5X>X2X2X6X6XlX2XBXpXM   . = . = - X . i _ :...X.4.=.>.>.=.>.1.1.1.2.i.d.d.b.d.d.m.m.m.m.G.S.$.^ ! ! ^ ~ Q Q Q Q l k l z N i 0 $ - o @ : : ; 2 : 2 1 1 X O.3X-X=X%X.XQ.P.L.D.J.V.V.n.m.b.d.8.2.1.>.3.:.>.1.8.d.b.N.m.V.V.J.I.L.Q.Q.=X=X=X;X5X4X2X1X2XsXdX1XJ.6.B.n.N.N.b.b.9.8.9.2.6.1.,.>.>.>.@.>.4.@.4.o.o.o. .} } m } m ! T. . . ...%.%.%.%.;.;.;.;.%.<.M.L.I.U.M.U.M.b.Y.b.2.2.,.<.>.@.X...o. .| } G ! m n m ! m } |  .o.X.4.4.O.>.<.,.2.2.b.b.N.N.N.M.D.U.U.I.K.K.K. X{.%X,X[.z.S.U.S.S.S.A.l.m.g.g.l.l.a.p.p.a.u.r.u.h.H.H.G.b.4.o.X.X.P c c c G O.N.K.&X-X:X5X2X5X~.R.R.&X&XlXN.b ~ ! i o o : 2 @ @ @ @ @ @ @ & 2 % + o % d | >.6.T.i + 9 8.;X;XQ.&X&X&XQ.&XQ.&X&XQ.!.&XQ.Q.&XQ.&XQ.Q.Q.&XQ.Q./.Q.&XQ.Q.%X%X%XQ.Q.Q.Q.Q.Q.Q.!.Q.Q.Q.Q.!.Q.Q.Q.Q.Q.Q.Q.Q.Q.Q.Q.E.Q.Q.Q.Q.Q.K.Q.Q.Q.Q.Q.Q.Q.Q.Q.Q.K.Q.K.Q.Q.Q.Q.Q.Q.Q.Q.Q.Q.Q.Q.C.V.V.n.V.8.V.Q.V.h.R 9 9 9 L L 8.h.h.V.V.1X2X8XiXdXfXfXzXzXcXAXBXi.w ) l z z b z u w * $ $ % $ % % % % % % % % % & % & # 9 v 9 g 4 y I L G P L p * 4 4 < 1 B r r r r 1 r 1 p 1 p t p t p t u p t y y y p a a a a d f f d g j j g f g j j h h j v h c j v v h v Z c D D v D v D D D D D D D +.H t X.=XgXsXeXeXwX,X,X,XoX X X{.L.L.{.U.U.G.8X;X*X2X5X{.I.{..X.X,X X,X,XeX5X5XeXeXyXlXlXgXgXgXBXdX+.U 7.R E J T Y Y F F F Z Z Z j f j s 9 p t 9 5 5 t < + o a >.,.d O   O + @ @ - 2 - 2 2 $ : 2 2 1 2 2 2 2 2 a.A.t.f.t.w.w.:.[ :.= - * $ & # $ 4 ..8.8.#.#.#.#.R #.#.5.,.,.#.,.#.R R #.5.5.@.R R L o.8.m.Q.Q.XXXXOXOX].`.`.F.x.F.z.z.h.v.h.f.h.r.h.r.:.:.r.:.$.-.:.[ _ _ _ ",
":.-.=.' ' ' _ ( Q ( _ l z L ..=...o.=.1.P * . & % 2 2 @ O O O X t g | >.Y.9.,.@.@.>.3.,.3.@.2.9.b.n.n.B.B.Z.U.R.I.R.R.R.R. X~. X~.=X~.-X-X5X5X>X>X2X2X6X6X2XlXlXaXdX1.  X 4 - . = . . r _ =.4.o.=.=.>.:.:.:.1.8.u.2.i.i.d.b.b.m.b.m.m.M.A.G.[.a.^ ) ) ^ ! ~ Q Q Q W l k l k l N 0 2 @ o : > : ; : , ; 1 @ 1 5X-X=X%X.XL.P.L.J.C.V.M.n.N.b.8.8.1.2.1.>.@.>.>.2.8.8.b.b.M.M.V.J.L.L.L.Q.Q.=X=X*X;X1X4X4X4XiXkX3XK.M.b.n.b.b.9.9.2.2.8.,.,.3.@.>.@.=.4.4.X.o.o.o.o.o. .} T.T.! } }  . ...$.%.%.*.%.;.e.e.%.<.A.I.L.U.M.U.D.M.Y.i.d.2.2.<.>.@.%.%.o.o. .} m T.m n c m G ! T.} o.| X.4.4.>.<.3.i.2.2.i.Y.b.N.M.M.D.U.J.I.L.P.R.{.%X%X,X{.G.S.S.`.S.S.x.A.l.A.l.g.g.g.g.p.p.a.1.r.h.D.D.u.$.L m G P P 6.Y.I.&X>X5X:X-X-X&X&X~.&X&X-X-XR.5X5X;.e ~ l ! = o O @ @ @ 2 2 : : & ; % % % > X 2 < c %.2.| * * 9 H.;XQ.&X!.!.&XQ.&XQ.Q.&XQ.Q.&XQ.Q.Q.Q.&X/.Q.Q.Q.Q.Q.Q.Q.Q.Q.%XQ.Q.Q.Q.Q.&XQ.Q.Q.Q.Q.!.Q.Q.Q.Q.Q.Q.Q.Q.Q.Q.Q.Q.Q.Q.Q.Q.E.Q.Q.Q.Q.Q.Q.Q.K.Q.Q.Q.Q.Q.Q.Q.Q.Q.Q.V.V.V.n.V.8.8.8.d.8.8.,.8.Q.8XkXkXqX8XQ.Q.Q.;X;X8XkXkXkXkXkXUXUXfXfXjXcXzXxXxXfXdXdXfXBXU.t ~ ^ W W l W z z t r $ % % $ o % % % % % % % % % % # 9 x y i 4 9 / G m G m M t < < 4 B 1 1 r 1 B 1 r t 1 r t t p p t p p p t y t t d a a a a a a d 9 g g a g f g g g g h h h c h h v j Z c v h D c Z Z D c D D v D D H Z I F d L Q.8XeXeXwX,X,X,X.X,X.X=X{.L.[.|.U.U.;X;X4X4X&XI.[.=X X,X,X5X,X5X5XeXeXeXlXlXyXgXgXhXgXBX5XC T T E E J Y F F F F F Z Z j h f s s 8 p 5 5 6 t 5 # + 4 3.9.9.,.P * X + - @ 2 @ $ 2 @ 2 @ 2 2 < 2 2 2 p @ b 8.z.r.r.y.:.:.:.h.q - = $ & 9 # L 0.#.R ,.,.8.#.R #.#.@.#.R R R @.#.#.R o.o.@.#.@.o.U I U U :.h.A.Q.[..X].F.`.F.x.z.h.z.f.h.f.h.r.r.r.r.w.:.:.-...:.:._ [ u.",
"w.:.$.$._ _ _ _ ( Q W W z / ..m ....o...4.y o $ 2 O   X o 2 Z 3.6.9.9.6.,.3.@.O.>.3.3.>.@.,.9.n.n.B.B.U.Z.U.Z.I.Z.R.R.R.R.!.~.-X&X-X=X-X-X-X5X>X2X5X2X6X0XlX9X0XBXn.X   0 $ . = . . w _ 1..._ =.%.=.>.=.1.1.8.1.2.2.i.i.d.g.h.m.m.M.m.D.m.U.{.m.) ! ) ) ) ) ~ Q b Q Q W l l k z N t 2 @ : 2 ; ; ; ; @ r 2   *X4X=X%XQ.Q.P.I.L.U.V.M.m.N.b.8.2.2.3.>.@.=.4.>.>.2.2.8.b.b.m.M.V.J.I.I.Q.!..X=X=X,X;X:X:X1X4XpXkXkXn.n.n.b.b.b.9.2.2.6.1.,.3.>.@.>.@.@.4.@.X.o.o._ | T.} / T.T. . . ...$.*.*.%.;.;.;.a.a.<.i.I.L.U.U.M.N.N.d.N.b.d.2.,.3.>.@.=.o.o.|  .} } m m v n m m T.T.| ..X.X.4.%.O.>.,.,.2.2.9.b.N.N.N.n.M.U.J.I.I.K.P.P.%X X=X X[.`.S.U.S.A.A.A.A.l.g.g.l.g.p.g.f.a.r.r.l.H.1./ N P 4.,.C.&X2X>X>X-X>X5X&X-X-X-X-X-X:X>X:X-X-X3X5X .k ` l W z 2 O @ @ : $ - @ % : : ; % @ % 2 < X - B o.i.} * $ 8.8XQ.&X&XQ.Q.&XQ.&X&XQ.Q.&XQ.Q.Q./.Q.Q.Q.Q.Q.Q.Q.&XQ.Q.&XQ.Q..X%X%X%X%XQ.Q.Q.Q.Q.%XQ..XQ.Q.^.Q.Q.Q.Q.Q.Q.E.Q.Q.Q.Q.Q.Q.Q.Q.Q.Q.Q.K.V.V.V.V.n.8.8.8.8.,.8.8.V.Q.Q.&X;X0XkXkXBXHXLXKXKXLXHXDX;X;X7XqXkXkXqXqXkX8XqXqXqXqXqX0XqX0XpXqXqXfXqXfXfXfXsXCXlXQ Q ) ~ ! W k z z z z $ + + % % % % $ % % $ & % % # + 9 g 4 9 r 4 P } G M v m g * % 4 * < < B B 1 1 r 1 r 1 t t t t t t t t t p t a a y a y a a y a a a a g s g f f g h h h h h h h h h v D h v c v D H D Z H G v v D G U c D Y y j J.tXeXeX5X,X,X,X=X%X.X{.{.U.I.U.m.Q.<X8X,X{.U.[.{. X,X,X,X5XeX5XeXeXeXlXyXlXgXgXgXgXBX[.C 7.F E R Y Y R F F F Z H Z Z j j s a 9 p 7 9 4 5 B % < H ,.,.O.6.B.2.g X @ @ - @ @ 2 2 2 % 5 2 $ 2 1 2 1 r * _ z.t.w.f.w.:.[ h.i $ & + & + o.n.#.#.#.#.R R #.#.@.R @.R #.@.#.R @.R @.R #.o.R o.R o.R +.o.D U P @.u.A.G.OXx.`.x.x.z.z.f.h.h.t.f.r.r.r.:.:.:.$.$.:.' _ h.Q.",
":.-.-.-.$.` ) ( ! ~ b b n o.o.o.4.X.>. .} ..0 X   0 d | 6.N.Y.Y.,.,.>.,.,.3.,.,.,.@.,.,.>.,.9.n.B.B.U.Z.U.R.I.I.R.R.R.~.~.%X&X&X-X-X-X-X>X5X6X>X5XlX6X5XpX2XlXCXh.$ . & - . . . X N ;.>. .%.>.%.=.>.<.1.1.a.i.2.d.d.g.b.m.m.m.m.M.A.D.D.H.G.H.Q.:.W ' $.! ` ` ) ! ! ! W b l l l l l i = o 2 2 2 > # > 8 ; O | sX%X%X.XP.L.[.J.C.V.V.m.n.h.8.8.,.>.,.4.o.4.4.=.,.>.1.,.8.n.m.n.V.V.Q.L.Q.Q.Q..X%X=X*X;X<X4X3X3XlXkXsX9.1.m.8.2.8.2.2.2.<.3.>.>.%.%.O.X.X.o.o.} | } | T.T.}  . . .*.%.%.&.;.;.<.<.1.=.:.N.L.L.J.C.M.N.N.N.9.Y.,.2.<.3.>.4.4.X...o.| } L m m m ! G / P G } } ..o.o.4.>.>.3.3.a.2.Y.b.N.N.M.M.M.D.U.I.I.L.P.P. X%X%X=X=X.XA.H.].A.F.S.A.l.l.A.g.l.l.g.e.f.l.z.F.r.i.X.6.K.-X2XlX3X6X5X-X-X>X:X:X5X:X:X:X:X>X5X>X5X>X>XaX.X~ Q ~ l W b l 0 - o 2 2 O @ @ @ % % $ % % % 2 2 % o O d ,.} . y &X1XK.!.Q.Q.Q.;X~.Q.Q.~.Q.&X&XQ.Q.Q.!.Q.Q.&X%XQ.Q.Q.Q.Q.!.Q.Q.Q.Q.Q.Q.Q.Q.Q.Q.;XQ..X!.Q.Q.%X%X!..XQ.K.P.P.J.J.J.M.b.2.9.b.0.8.8.V.J..X1XiXiXsXjXcXAXHXLXKXKXKXKXKXKXKXKXLXKXKXKXVXQ.9 j 6.6X8X0X8X8X0X0X8XqXqXpXqXqXkXdXdXfXfXdXfXfXfXfXjXjXcXfXcXBXh.e ' Q Q W W l l e l k i = + O o @ % & % o % 2 % O o x 5 & < o o c } v M v v x 9 4 $ B B * 4 4 * 4 4 r 4 < 4 r 5 5 r t t r t t t t y y t y y a y y a a d d a d d d d g g d j g j h h h h h c c c c Z c Z v v D v v D v D D P v D c c N.sXsX,X4XwXoX X,X X=X{.I.[.|.U.z.*XlX{.U.{. X*X,X,X5X,X5X5X5XlXlXeXlXgXbXgXbXjXBXdX#.U 5.R T T Y J F F F F H A Z j Z f s s p p 5 j ; d t X v Y.,.,.2.,.8.9.b.8.2 . X % 2 o $ < : 2 2 1 2 2 2 1 2 2 0 a.(.e.{ s.r.r.-.( - - + # #.@.#.#.R o.R o.+.+.+.@.+.+.+.+.+.R R o.+.R +.R +.+.R R o.U o.R o.U P U D U o.>.V.m.A.F.x.v.j.v.f.f.a.a.1.e.<.e.&.e.&.) 4.V.Q.0.",
"w.:.&.[ $.` ) ) Q ) ! b  .%.X. .X.X.1.o.4.o.i c 2.2.Y.Y.b.b.,.3.,.,.,.,.>.,.,.,.,.3.3.,.>.,.n.C.B.B.Z.I.Z.I.R.R.R.R. X~. X-X&X-X-X-X5X-X>X2X5X2XpX-X6XdX:XdXzX-X+ X . . = = . . z  .>.%. .%.<.;.>.:.1.1.2.i.i.d.d.h.d.m.m.m.A.M.S.D.D.D.J.G.L..Xz._ _ $.) ` ` ^ ^ ~ ! Q Q l W l z l z r * o @ 2 : ; : > > O d 1X%X{.{.[.L.I.J.C.V.V.n.m.8.8.8.8.,.:.4.4.X.4.4.=.>.1.8.8.8.8.m.n.V.V.V.Q.P.Q.%X%X=X*X;X5X1X4X3X8XtXiX*X9.2.b.b.8.2.2.2.3.<.>.>.>.4.4.4.X.o...o.| T.T.T.} }  . ...$.$.%.&.;.<.<.<.:.1.h.D.L.J.D.U.M.N.N.N.9.Y.2.,.>.>.>.>.4.X...o. .} / m G m m m P ! ! }  .| %.X.4.4.>.3.3.,.2.Y.b.b.N.n.M.U.D.C.I.I.L.P.P. X X%X&X,X=XA.H.L.A.].|.|.S.A.A.g.g.g.G.S.[.A.=.Q ) =X8X2X9X6XlX>X>X-X>X:X5X>X>X>X2X>X2X>X>X>X>X2X>X2X>XaXU.W ~ ( W Q W b w 2 o o ; @ ; @ @ % @ 2 % % % o % 2 : o o > @.4 $ b.8X*X!.&X~.Q.Q.Q.;XQ.Q.Q.Q.Q.Q.&X!.!.&X!.P.P.Q.Q.!.!.Q.Q.Q.Q..XQ.Q.=X~.Q..XQ.Q.Q.V.V.V.V.b.b.b.m.N.m.m.n.J.L.P.&X3XkXBXAXvXZXPXPXKXKXKXKXKXKXKXKXKXKXKXKXLXLXKXKXKXLXKXKX0Xo.    +.2XjXzX0X8X0X8XqX8XqXqXkXpXpXkXdXdXfXfXfXfXfXfXxXjXUXxXzXxXjXcXCX1Xu ) ( ) Q Q Q W l n N k i < = % o o $ - + % $ + @ % t & o & o X u T.v v n v n g r & & & * 4 & 4 4 & 4 4 r 4 1 4 r 4 4 t r 5 t t t t t t p y y y a y y y d u y d d d 9 g f j j g h g h g j c j c c c c Z c Z v Z D v Z v Z v D D v h N a.eXsX<X{.,XwX.X=X{. X{.[.L.|.m..X,X[.L.{.{.%X X,X,X5X5XeXeXeXlXlXlXyXgXgXgXgXBX-XU Y 7.R T T Y Y R F F F Z Z Z Z j j a s 9 p 7 , t t @ p 6.2.,.9.2.b.9.9.0.b.n.T.% X . 2 2 o % : % O 2 t 1 2 t 2 = T.l.l.s.y.{ { r.... = g #.R @.@.o.#.+.#.#.+.R o.R @.R +.+.I o.o.R U o.o.o.I U U o.o.U I I R P U U D D D U v o.8.A.H.F.x.k.f.r.r.e.e.e.e.r.p.%.) =.n.Z.Q.E.",
"e.;.;.&.' ' _ ) ! ! ! ! @.%.| %.4.1.=.M i - * N.n.Y.2.Y.,.>.,.6.,.,.,.5.,.,.,.,.6.,.,.9.,.9.n.C.Z.U.I.Z.I.R.R.R.R.R.~. X-X~.-X-X>X5X5X>X2X2X6X6XlX>XdXpX9XBX3X& X . - $ - X X u >.<.>.%.%.%.<.<.<.1.1.1.i.i.d.d.b.g.b.m.m.n.S.S.D.G.D.D.G.G..XG..X=...$.*.$.` ` ) ) ~ ~ ! Q Q Q b l z b i & @ % % > , O < % + R.-XP.P.{.L.U.C.D.m.V.n.8.n.8.1.,.1.@.4.4.o.X...X.>.>.1.,.2.8.b.b.h.V.V.V.I.L.Q.Q.!.%X=X*X;X<X4X4X4XsXaXV.X.b.9.9.2.,.1.3.>.>.>.O.O.X.X.X...o. . .T./ } }  . ...$.%.&.;.;.;.<.<.u.<.m.U.{.J.C.V.M.n.N.b.9.2.6.,.1.>.>.>.4.X.o.o. .} m / m m m / G m m } }  .o.X.X.4.>.<.3.1.2.Y.Y.b.b.N.N.n.D.U.C.U.I.I.P.P.{.%X%X=X;X<XH.S.].F.`.s.l.A.G.[.[.G.G.d.;.b q = - i %XaX2X>X2X>X5X2X1X6X>X4X2X2X2X2X2X3X2X6X3X6X6X3X6X6XsXi.l [ ( Q ~ W b l r % o @ 2 @ @ @ @ @ @ 2 @ % @ @ % > % @ O & 9 + B 9.-X*XQ.Q.~.Q.Q.Q.Q.=X&XQ.Q.&XQ.Q.Q.Q.Q.&X&X!.Q.!.Q.Q.Q.C.J.V.m.m.8.6.,.,.8.b.Q.P.%X&X;XsXaXjXVXFXPXKXKXKXKXKXKXKXKXKXKXKXKXLXLXKXKXKXKXKXKXKXKXKXKXKXLXKXKXKXLXzXB.t X   c &XzXvXpX0X8X0X0XqXpXqXkXdXdXdXdXdXfXfXfXfXfXxXfXxXzXzXzXzXUXzXzXcXfXAXBXn Q ) ~ W W W W z l k z k u i = . . + + % + % o $ : @ + O + + . r T.v L v M x g 9 r & & & * 4 4 * * 4 < < 4 r r 1 r 5 r 1 r t t t t r t t t y y y y y u a d 9 u d d a a g a f g h g g j g g j c j c c c c c v Z v D v Z v D P D D c p u <.eXtX<X,X,X,X.X{.{.{.P.[.U.m.G.{.L.{.=X{.=X X5X5X5XwX5XlXeXyXlXlXgXgXnXgXjXAXq.D 7.+.R T 7.T Y F F F F F A Z j j V s a 8 p a : p : O 3.U.6.9.9.b.b.b.N.n.n.U.Z.,.f O X @ 1 : % 2 2 : % 2 1 2 2 2 e -.S.F.p.p.r.v.:.. B L 5.o.R o.R o.R R o.+.+.+.R R R I +.+.#.R o.o.R R o.I o.U U R U I R D U R o.R U U D U v j D P =.8.z.l.l.v.f.p.t.w.-.$.) ,.K.~.Q.Z.Q.",
"w.-.&.&.$.` ` ) ` Q ! %.>.o.X.3.N.L * . + . . x N.,.3.9.2.3.2.,.,.8.8.8.,.8.6.8.,.2.,.8.,.9.V.C.U.Z.I.K.R.R.R. X X~.&X&X&X-X&X5X5X>X>X5X2X6X6XlX>XfXlX6XBXdXv   * $ $ = X . g 2.<.%.*.>.<.<.<.<.1.1.1.d.i.g.m.d.m.m.m.m.S.S.D.U.J.G.G.L.Q.L.Q..X,Xh._ $.&.$.` ` ) ) ) / Q Q Q Q Q l z b b u 0 $ + % 1 O 4 2 X ,.2X.XJ.%XI.D.J.U.V.m.m.m.8.8.8.,.,.:.4.4.X._ o.} 4.4.>.>.1.8.8.8.b.n.V.V.J.V.P.Q.Q..X=X=X*X;X5X4X4X4XkX&X=.8.b.1.2.<.3.3.>.>.%.>.X.X.X...o. . .} } T.T. .....*.*.%.;.;.<.;.;.<.1.d.C.{.L.D.D.M.n.N.N.9.9.Y.6.1.3.>.>.@.X.X.o. .| T.P m G ! G P / } } } }  .o.X.X.4.>.>.<.,.2.i.Y.b.N.N.N.M.D.C.C.I.I.P.P.R. X%X%X%X%X*X.XS.`.G.G.,X,X{.[.g.;.! z 0 X     q ~ ! p.dX2X>X8XlX6X0XlX6X6X6X6X6X6X6X6X6X9X6X9X9X9X9X9XaXlX*.W [ W _ W W W l N * o O % @ @ @ % $ @ @ @ 2 % % @ $ : 2 *   r 9 * h n.&X!.Q.Q.~.;XQ.Q.Q.Q.Q.Q.Q.Q.Q.I.J.I.b.d.b.8.8.b.b.9.K.Q.*X3XkXUXBXAXSXHXPXPXKXKXLXKXKXKXKXKXKXKXKXKXKXKXKXKXKXKXPXHXZXCXVXAXVXBXjXfX0XaXfXjXjXfXdXlXI.6.h @   O d | fXjXfXpX8X8XqXkXqXqXdXdXqXkXdXfXfXkXfXxXfXjXxXjXjXzXjXzXzXzXzXcXcXvXcXcXBXHXd.z ) ' ~ Q Q ~ W W k k z k k w 0 = - - - - o o o : . # X + & O 2 T.L M x x x M z u & & = & & & 4 & < < < < < < < 4 1 4 1 r r 4 t t t t t r p y y y y p y y y y a y a g a a d g f g f g f h j j c j h c j c h c c h h v h v D D v D +.d p >.5XyX<X{.oX,X X X{.{.[.I.D.D.I.P. X,X=X,X5X+X5X5X5XeXeXlXlXgXyXgXnXnXgXzXzXT U 5.R R T T J Y F F F F D Z Z V h f s a p p p p < @ H n.N.Y.b.N.b.N.n.n.M.n.Y.U. XU.T.o X o B % @ < 1 2 2 % ; 1 2 2 c <.a.e.g.r.1.$.i } P U U U P U D U D 9 D D D D v v v 9 v v v v v v L 9 D D D D v v v v D D D D D D U U U D j j c h v G @.<.f.h.f.f.e.-.) d.P.%XQ.Q.Q.!.",
"e.-.-.[ [ $.` _ ^ l  .<. .4.,.,.L $ . + & $ . X n.M.2.b.b.Y.b.2.8.8.8.0.8.8.6.8.8.6.8.6.,.b.C.J.Z.K.K.R.R. X X~.&X~.~.&X-X5X-X-X5X>X2X2X6X6XlXlXlXpX6XfXjXO.  - . $ $ . . M >.=.X.%.%.<.1.<.<.1.d.d.i.d.d.m.m.d.M.A.M.S.D.D.D.I.I.L.[.L.L.{..X.X,XA.' ' =.*.$.&.' ` ` ^ ! ! Q Q Q Q W z b b N 0 = o 1 % 2 1 O d 2X=XJ.L.P.V.J.M.V.n.b.h.h.8.8.,.@.@.@.=.X.} } } o...X.4.>.>.2.8.b.b.m.M.V.J.L.I.P.P..X%X%X*X;X;X4X1XlX3XM.%.d.2.,.,.<.3.>.O.%.O.X.X.X.o. .|  .} !  . . .%.%.%.;.:.<.u.<.<.<.a.i.J.L.P.J.N.U.M.M.Y.N.Y.2.2.,.3.3.4.4.4.X. . .| T.G m } / m } } G T.} } } | X.X.4.>.>.>.3.,.2.2.b.N.N.N.N.U.V.U.C.I.I.L.R. X!.%X X*XQ.;X;X[.OX%XoX].g.%.W q -     q . $ w Q &.^ m sXpX2X9XiX9XiX8X9XiX9X9X0X9XiX9X9X9X0X0X0X9X0XiXjX;X_ Q &.~ _ Q W W b l i % - + - @ @ @ 2 @ @ @ o % 2 @ @ % % @ 4 @ $ v | v 2.-X~.V.8.n.B.b.9.M.8.8.n.Q.Q.Q.-X;XiXhXmXFXLXKXKXKXLXKXKXLXKXKXLXLXLXLXLXKXKXLXPXHXFXFXZXVXcXjXdXpXiX0X3X2X4X1X>X5X&X;X:X-X~.!.-X>XfXfXpX6X-XZ.3.| @ O   O G R.fXVX0XaXfXpX9X0XpX0XkXdXdXkXfXkXfXfXfXfXfXUXjXjXxXxXxXzXzXzXUXcXcXcXzXVXxXVXzXFXlXW  .$.) Q ~ Q l W W k k k k k i r = $ - o o $ % o X + # + 2 - o c v v x 9 L M x 9 4 & & $ & 4 & & < < < < < < < 4 < < < r 4 r 4 r 6 4 4 t t t t t y t p y y y y y y a a a a 9 d f a g a g h g g j j h h h h h h c v j v v D D D c c | c 1 ..*XtXwX,XoX,X{.{..X XI.L.D.{. X X,X X<X5X5X5XeXlXlXlXlXlXlXlXgXjXgXjXAX2XD T 5.J T +.J U R F F F F A Z Z h j f a 8 7 p p t O a n.n.6.n.n.n.n.n.n.n.n.B.K.n.n.R.%Xn.a   X o 2 2 : < 2 : < 7 1 : < f f N r r i n i.3XR.R.Q.Q.Q.K.Q.Z.V.V.8.8.6.8.8.,.,.,.#.#.#.+.+.#.o.R U U P P P v D P L v 9 j j g j j j j c H j j 9 t 9 d x L ..*.;.<.L.*X9X4X&X&X~.~.",
"e.w.&.&.-.' _ _ Q T.<.>...Y.Y.| + . * 4 + . . X  .n.2.,.9.2.b.8.8.9.8.8.b.8.0.8.8.9.8.9.6.n.Z.I.K.R.R.R. XR.~.~.&X&X-X-X5X-X>X>X>X2X3X6X6XlX0XlXfX>XjXBX6.X X < $ = . . M =.=.} >.%.>.1.1.1.u.d.i.d.d.d.d.m.m.A.m.M.S.D.D.J.L.G.L.L.[..X.X{.%X.X,X.Xu.$.=.-.-.&.$.$. .`  .^ ) ~ l ( ( l l W b k B $ * % % 2 o @ R.;XK.L.P.J.J.M.V.n.n.8.8.8.,.:.4.:.4.4...o...} ..o...X.4.>.1.8.8.8.b.N.m.V.V.J.I.L.Q.!.=X=X*X;X;X<X4XkX=X%.2.8.,.<.3.<.>.4.O.%.X.X...o.| } | } }  ...$.&.;.;.;.e.a.e.e.u.a.g.M.[.K.U.M.M.n.U.n.N.Y.6.a.2.<.3.%.4.4.X...| } T.} / T.} m } P ! } } } }  .o...X.4.4.>.3.3.2.,.Y.9.N.N.N.M.M.U.U.J.J.P.P.{.P. X%X=X;X.XeX3XD.d.<. .- - .   . - = = . X 0 n ` &.-.) <XkX9X0X9X9XpX0X0X0XpX0XpXpXpXpXpXpXpXpXpXpXaXsXBXG.( ] [ ( [ ~ W W l l z i = - @ @ o @ o @ 2 - % @ @ o @ % % @ * & X & v | ,.C.2XkXpX8XjXBXBXZXGXDXJXJXLXJXLXLXKXKXKXKXKXLXPXFXSXZXCXcXjXfXpXsX4X4X:X:X-X&X~.~.&X&X-X-X:X>X:X:X2X>X2X2X6X0X0X0X0X9X0X0XdXxXzXzX6X-XE.6.F 1 O X X c Z.lXzXcXfX9X0X0X9XpXdXjXfXqXdXfXfXfXfXfXfXxXxXzXjXxXxXUXUXcXcXcXcXcXcXvXBXBXvXvXvXDXzXZXFX%.~ ) ) Q ( ( ~ Q W W l k k e k i w * $ - - % o o o O @ o 2 o . y L v M n 9 x M z 9 4 & $ $ & & & & > * & & 4 & < < < 4 < < < 4 r 4 4 4 4 4 t t t t t t r y 4 y t p y y a a a 9 a d a a g f g g j g j g h h g h h h h g g h v D v V c G Z t T. XlX,X,X,XoX{. X{.{.U.U.{.{.{.=X=X,XwX5XwX5X5XrXlXgXgXgXgXnXgXgXjXBXq.U 7.7.R +.E Y U R F F Z F Z Z Z j j s a a a p 5 > : 3.I.n.n.U.B.M.M.V.C.C.C.C.K.U.M.C.R.*XZ.3.: . O % : o % p 2 2 2 : 7 p 3 1 6 t i N m.kX*X*X-X;X&X;XQ.&X&X&X;X;X~.;X~.=X~.&XQ.Q.Q.Q.Q.Q.Q.Q.Z.!.Q.K.Z.Q.Z.K.Q.V.V.0.n.n.9.8.,.>.+.o.o.@.@.#.I U P P | O.@.<.n.9.9.n.Z.!.!.Q.",
"e.w.-.-.' ' ' _ ~ %.<.<.,.2.T.1 # # # + $ $ + X < n.n.2.b.9.N.b.9.9.0.9.b.0.8.0.9.9.n.9.Y.n.I.K.K.R.R.!.R.R.&X&X&X&X-X5X>X>X5X6X2X2X6X6X6X0X0X0XpXfXzXR.$   < . $ . . M 2.4.4.1.>.1.1.1.1.2.i.b.d.b.h.m.m.m.m.M.S.D.D.D.U.G.L.L.L.{..X.X.X.X.X.X.X4XF.&.-.;.e.-.&.*.$.` ` ) ^ ! ( _ ( Q W l l Q N r + % : > 2 X ,.*XR.J.L.V.C.D.m.V.b.b.8.8.,.1.>.>.4.o.X.o.X...X.X.o.X.4.X.>.1.1.2.8.b.N.m.V.V.V.I.I.P.{.%X%X&X;X;X;XsX3XM.>.8.<.3.3.<.>.4.4.4.X.X...o. .} } } ..$.$.*.;.;.;.e.u.u.a.1.1.g.S.P.K.I.U.U.U.B.n.n.Y.Y.2.6.,.,.<.O.4.O.o.o.} } T.m } } T.} } } } T.} } } | | X.4.4.4.>.<.3.2.2.i.b.N.N.N.M.V.D.U.J.I.K.R.{. X%X=X=X&X&X8X.Xk = X   - $ = = 0 * = = . q l :.e.-.] l Q.jXfX0XdXpXfXdXdXaXaXaXdXaXdXdXdXaXfXaXfXdXaXfXmX1.( &.[ [ ( ( Q Q l l l N w = o @ @ o @ @ o @ 2 % o @ @ % 2 > + t <   & ,.!.b.cXPXJXLXKXKXLXHXCXvXvXUXkXpX8X2X:X:X&X~.~.&X%X%X~.&X&X-X-X>X:X>X8X2X6X6X9X0X9XpXpXqXpX0X0X0X0X0XpXdXqXdXpX0X0X0XqXfXjXzXcXdX~.0.V t @ X   O ; f -XlXfXjXpXlX9X0XfXdXpXqXpXqXdXfXfXfXfXfXjXfXxXxXzXzXzXcXzXcXcXcXcXcXcXvXvXBXvXVXVXcXCXCXvXZXLXU.n $.$.' _ ) _ ( ~ Q W l k k k e i i 0 = - % - o . . @ o o o O * L v 9 9 n n 9 9 9 w & = & & & & & & & < & < < & < * < < < < 4 < 4 4 4 4 4 r 4 t t 4 t t r 9 t t p t t y y a a a a a a a g a f f g g j g g h d h h c h h h v v c F p f Y H 1 T.I.5X,X,X{. X{. X|.[.D. X,X X=X=X,X5X5X5X5XlXrXlXlXgXlXgXgXgXzXBXjXI T 7.R E T Y J R F F F F A H Z h V j s s 8 p 7 4 : | Z.B.B.U.U.U.B.C.U.Z.J.I.Z.n. X&XK.B.I.-X>XE.c X o 1 1 2 @ 2 % 2 > a Z p f r M ! l e.iX;X5X;X^.&X&X&X&X&X&X~.*X~.!.~.Q.Q.!.!.~.Q.~.~.Q.Q.Q.Z.Q.Q.Z.Q.C.K.C.Q.Q.C.Q.Q.V.Q.V.K.K.I.P.K.J.I.C.Q.J.B.n.n.n.U.Z.@.h $ X       . ",
"e.-.-.-.$.' _ _ ) <.*.<.M.>.$   + & & + + . X $   b.C.b.n.b.b.b.n.9.n.9.b.8.n.n.b.9.n.9.Y.B.P.K.R.R. XR.%X&X&X&X&X-X5X>X5X5X>X2X2X3X6XlX0XlXpXpXlXZX&XO   2 + + . . 9 8.=...8.4.<.1.i.1.a.d.g.g.d.h.b.m.m.m.M.A.D.D.D.G.L.L.L.L.[.P.Q..X.X%X%X{..XtX.X-.*.:.r.-.&.{ &.$.$. . .) ' ( W ( Q W W n m n % % > > 1 X v *X%XJ.L.M.V.C.V.n.b.h.8.,.,.>.>.=.4.4.X.X.X.....4.X.X...4.4.@.3.1.8.8.b.b.M.V.V.C.L.L.P.Q.%X%X*X=X;X;XtX&XX.>.3.3.>.>.4.4.4.X.X.o...o.} } } }  .%.%.;.;.;.;.<.e.<.1.a.a.m.[.%XU.U.U.I.U.N.b.b.0.Y.Y.,.<.3.>.>.X.X.o. .} } } m } } } } } } } T.} T.}  .o.X.4.4.>.>.<.<.2.2.2.Y.N.N.N.M.M.C.J.J.J.I.P.P.P. X%X=X&X*X8X8.X   B = & % % @ @ - - - - Q -.^ ^ ] { ^ d.jXjX9XdXdXfXdXfXdXdXfXdXdXfXfXfXkXfXfXfXfXfXfXcX..Q w.( _ ( ( ~ ~ W z l l k w - o @ @ - o @ @ % @ % 2 @ o o @ < X * 4   y !.!.@.t 0.pX:XR.5X~.&X&X;X>X:X>X2X2X0X6X0XpXpXpXdXpXqX0X0XpXqXqXdXqX0XpXqXqXqXpXpX0X0XpXpXpXpXpXaXqXpXpXpX0XpXdXjXzXCXcX0XZ.H > @ O t 2 O o p 0.6XVXzXaX0X0XpXdXqXdXpXpXdXjXxXjXkXfXfXfXfXxXxXfXUXxXUXxXUXcXcXcXcXcXBXvXBXVXvXBXVXBXVXvXDXvXZXCXKX X0 x ! n l n Q l Q W W b W l k k k k w = - - o o O O % O O % o % L v v x M 9 z 9 n 9 * # & & & & & & & & & & & & * > < < < 4 < r < 4 6 4 4 6 t 4 t t t 4 t t t t t 9 p t p y a y y a a a a a g d f g f f g d h h h h j h h h j h h | h a Y H t d ,X,X,X.X{. X{. XI.G.{. X,X5X,X,X5X5XrXlXlXlXlXgXgXgXjXnXgXnXzXlXD 5.T J 7.T F Y R J F F F H Z Z V h h s a 7 p t % a Z.R.N.I.B.Z.J.C.I.J.Z.I.Z.I.!.I.U.I.R. XR.I.2X5X6.%   o 1 @ < < 4 > 6 f < < N n -.~ -.eX4X4X;X>X>X;X;X>X;X&X~.;X;X;X&X;X~.&XQ.~.~.~.Q.Q.Q.Q.!.Q.!.Q.K.Q.I.Q.Z.V.V.C.Q.Q.V.V.U.D.U.D.D.M.n.m.m.m.N.n.B.B.E.R.!.!.P.n.P 6 . # ",
"g v ~ *.;.&.`  .Y.Y.N.Y.G & + % % & o   + %   %   r M.J.Y.B.N.N.n.n.n.0.n.0.n.b.Y.n.N.0.B.U.R.R.R.!.~.~.~.&X&X-X-X5X2X>X>X2X6X6X9X2X0X6X6XfXlX0XZXQ.=   & * . . . _ 8.=.=.=.:.8.1.1.2.u.d.d.d.d.h.m.m.m.A.H.H.A.D.D.G.L.Q.G..XQ..X.X%X%XoX=X,X,X,X,XeXm.^ t.a.&.w.-.-.-.] *.*.] _ ( ( ~ ! ~ Q Q W Q b k 2 - - 2 ; :X!.B.Q.A.Q.m.n.b.b.b.8.,.1.,.:.@.@.>.>.@.@.@.>.=.4.4.4.4.4.=.@.>.1.2.8.b.m.N.V.V.V.V.L.P.Q..X=X=X=X*X4X4XI.P 2.3.@.@.@.4.o.@.O.X. .| }  ...%.=...=.*.&.;.<.u.;.a.1.1.M. XR.C.C.C.D.n.M.N.b.i.Y.2.i.3.3.>.4.O.X...| } T.} } } } }  .| | } o. . .|  .|  .X.4.%.>.<.3.2.2.b.Y.b.N.N.n.M.C.C.J.I.L.J.P. XP. X%X%X=XhXJ.- . w = $ $ & = $ = = - . _ [ ' ' -.{ -.-.( iXBXsXfXfXfXfXjXfXjXfXfXjXfXfXdXfXfXfXjXfXfXBXhX( [ w.( [ _ Q ( Q W W l l e k 0 - o $ % O O @ @ @ - @ + % $ $ + 4 o 4 $ + n.&X!.n.% x pXVXkXpXqXkX0X0XqXdXqX8X0XpXqXqXpXpX0XqXiX0XpXpXdXdX0X0XdXdXfXfXdXdXpXpXdXdXdXdXdXdXpXqXdXpXfXzXCXVXdX&X5.c @ X # 6 t 9 X @ G R.dXcXfX0XpXpXdXpXdXdXfXdXfXfXfXfXfXxXxXxXUXxXUXxXzXzXUXcXcXcXcXcXcXBXvXBXVXvXvXvXvXvXCXCXVXDXDXcXGXJXE.# 8 a t 5 t 5 4 6 4 6 4 < < & * > 2 > = = r B = X X . O o $ o @ O x L N u g z n 9 i 9 9 w $ # + $ # & & # & & & & < 4 & 4 < 4 4 4 < < 4 < < 6 4 6 * 4 < 4 6 6 5 4 5 t t y 9 y y a a a a p d a f d p d d a a d d d 9 j g j j j j h c c H v Z Z v H y B.4X5X{.,XoX{.[.L. X X{.,X<X,X5XeXeXeXlXyXlXlXgXjXlXnXnXzXZXY.7.7.J O.+.J T T F J F H F A Z Z j Z 5 j f a a 1 < n.Q.n.C.K.Z.V.I.I.I.Q.P.K.P.P.R.R.R.!. X~. X XR.&X5XR.G X   r 2 1 2 7 a t 4 k ' W [ [ ^ yX4X>X2X2X2X:X>X1X;X;X:X;X;X;X-X;X*X-X;X&X&X&X&X&X~.~.=X~.Q.~.Q.!.!.Q.!.K.Q.Q.K.K.K.K.K.K.I.I.J.K.C.C.U.U.n.B.R. XR.I.I.U.B.I.R.K.0.O.",
"p j c b Q n b T.>.T.t % o @ % @ ;   X g O.v o o . + >.I.Y.b.M.2.n.n.n.0.n.n.n.b.0.n.n.0.B.I.R. X!.!.&X&X&X-X-X-X-X-X5X>X2X2X2X6X>XdX9X9XdX0XdXBX9XM   + * . X + L :.1.:.1.1.>.1.i.1.d.i.g.b.m.m.m.m.A.m.A.V.H.H.G.L.G.L.Q..XG..X.X.X=XoX,X,X5X,X,X5XwX].*.e.a.w.w.;.-.*.&.*.` &.' ) ) ) ( ~ Q Q W Q Q N u 0 2 @ O q.~.J.K.V.V.V.m.b.m.8.8.8.,.1.2.>.2.1.1.>.3.:.>.>.>.>.=.>.@.@.@.=.>.>.2.8.8.b.N.M.V.V.J.I.L.Q.=X=X=X&X;X4XQ.=.>.<.>.@.@.4.o.o.| X. . . . .$.%.=.=.=.=.<.;.u.u.p.i.a.N.P. XI.J.C.U.V.n.N.N.b.b.Y.i.,.3.3.%.4.X.X.o. .} } } |  .|  .}  . .|  .o.|  .o.} o.X.O.4.>.3.1.3.2.2.b.b.N.N.M.U.D.U.J.I.P.L.P.R. X=X=X%X1X<X .  * B . 4 & + $ B = . q W ' [ ' [ [ w.w.-.( ,XBXfXzXfXfXxXfXjXfXzXjXjXzXzXcXBXBXBXBXcXBXCX<X^ { w._ [ ( [ ( W W W l l l e 0 2 - @ % o O @ @ @ - @ + $ $ $ & & % * & + P &XR.R.K.1   M.zXcX8X2XqXxXkX2X0XcXdXdXkXqXpXpXqXkXdXdXdXpXpXpXdXjXfXdX6XlXpXfXfXfXfXdXpXpXdXfXfXfXVXVXzX0XB.| 1 @ O 1 Z j < # # # ,.R.fXzXfX9X9XpXqXdXdXdXdXfXfXfXfXfXfXjXjXjXjXjXzXUXzXzXcXcXcXcXcXvXBXvXvXVXVXvXvXVXCXCXCXCXCXCXCXGXvXGXLX6XZ ; a a 9 7 t p 9 5 6 4 6 < < < < & * % * r z z N y + o X o $ 2 o X y / M x M N z i i k 9 4 = $ & & $ $ $ % + & & $ + $ & & & + & & > & > < < < 4 * 5 5 t 6 t y 5 9 r 4 t 4 t t t r y y y y y y u p d d d d g d d g f d g g g c c c h d f h h c f c p c Y.5X5X[.{. X[.L.,X,X X5X5XeXeX5XeXeXlXyXbXgXjXnXjXnXgXBXzXJ 7.7.7.E T Y Y J R Y J F F H Z c Z j c j t a p % @.K.Q.V.I.I.I.K.K.K.K.K.R.R.R.!.!.!.~. X~. X~.&X~.-X>X6X>XU.a   2 < 2 2 y 4 i -._ ( [ [ W eXiX3X2X2X8X2X2X2X2X2X2X>X:X2X:X:X:X:X:X;X;X;X~.;X;X&X&X&X=X*X&X~.%X~.!.!.!.!.!.Q.Q.Q.!.P.K.Z.I.K.K.K.Z.Z.R.R.&X~.R.I.R.Z.C.Z.C.U.B.n.",
"8 9 a y y r x O.1 2 . X * B % @   4 O.n.B.,.r   &   g K.C.9.J.U.n.n.n.n.n.B.n.n.n.n.n.n.U.R.R.~.!.~.&X-X-X-X:X:X>X>X2X2X6X2X6XlX6XpX6XdXdXiXzXfXv X   B .   * L 8.1.X.4.1.1.1.h.i.d.d.h.b.m.m.m.H.m.m.H.H.D.F.H.L.L.[.[.Q..X.X.X=X.X,X,X,X,X,X<X,X<XeX,Xl.*.p.t.e.e.e.w.&.&.*.*.$.' ) ) ` ) ~ Q ~ ~ Q ! b f 0 2   | &XQ.M.V.m.J.b.b.b.b.8.8.8.8.8.2.8.8.8.8.2.8.,.8.>.1.>.2.>.1.>.=.>.3.,.1.2.2.b.b.m.M.V.J.P.Q.Q..X%X&X*X<X=XV.X.>.>.>.@.X.X.o.X. . .|  ...%.%.=.=.:.:.<.u.u.u.1.p.N.K.%XP.C.C.U.U.U.N.N.b.i.Y.2.2.3.<.>.%.O.*.o.o.} } } } |  .|  .|  . .o.o.o...o.} X. .O.O.>.>.>.,.2.2.Y.Y.Y.N.N.M.M.D.C.I.I.I.R.[.R.%X%X=X%XsXd.$ . B = . * $ $ $ = - - l :.$.[ [ $.[ -.{ -.( H.mXBXcXBXBXBXBXBXBXcXcXjXjXzXdXdXpXdXaXpXaXjXz.[ :.-._ -.( [ ( Q Q W W l l e k 0 - - o 2 @ o @ @ @ @ + % + & 4 + < % < % @ K.R.C.:XC.d @ d 4XvXvXdX8XqXUXfX2XdXdXdXkXfXfXfXfXdXfXfXfXfXfXpXqX0XfXzXzXzXfXpXqXdXdXfXzXcXVXcXzXR.0.D > @ @ 2 7 c 7 o X % P Q.7XzXzXdXdXqXfXfXfXdXfXfXfXfXfXfXfXzXfXjXxXzXzXzXzXcXzXcXcXvXUXvXvXBXvXBXBXVXVXVXAXVXCXCXCXCXDXCXZXFXVXSXLXdXt % f a a a 5 p t 5 5 < 4 < < < & * > % = 0 i N x z x u < $ O O o o o & M M u N N z y 9 i 9 w 4 * * B * * * * B 0 B * & = & = & = B & & & & < & & & & < < < B * * * 4 9 r y t t t y y p y a y a a a a y d a a a d d d g d N y 9 g d y h f c c Z c H c H i N 1.=X5XoX{.I.[.=X5X,X,X<X5XeXlXlXlXgXlXgXjXgXgXnXjXlXZX5XJ E O.J O.E Y T Y R J F S F A A Z h a D s p d 2 h !.Q.K.Z.P.K.R. XQ.Q.Q.!.R.%X X~. X~.%X&X X^.-X&X5X-X X&X2X0X~.3.X X : t 0 l [ ^ ^ [ { { W OXfX3X0X8X8X8X8X8X8X2X8X2X2X2X2X2X2X2X1X;X>X:X;X;X;X;X&X;X;X&X&X&X&X&X~.%X%X%X!.~.!.~.%X!.R.R.K.!.Q.K.R.R.-X5X-X X~.R.R.R.K.U.C.B.Z.U.",
"g g N u i u ! 2.Y.%.! N r X   & 3.0.B.,.3.B.O.O *   . 2.R.b.n.U.n.n.n.V.V.B.B.n.n.B.n.n.B.R.~. X~.&X&X*X-X-X5X>X>X4X6X2X2X0XlX0XpX6X0XpX6XcXUX>.  . 4 =   $  .b.1.:.:.=.8.u.1.b.d.d.b.g.m.m.m.A.m.H.H.A.H.Q.Q.F.[.L..XQ..X.X.X.X.X.X,X,X,X,X<X<X<X<XeXeX|.;.l.p.e.t.e.w.;.w.&.&.$.$.$.` ` _ ) ) ! Q Q ~ ! b u 0 X r %X!.b.Q.m.m.b.m.b.b.b.8.8.8.b.8.8.d.8.8.8.8.8.8.2.8.2.8.2.8.8.8.8.1.2.2.2.2.8.8.b.m.m.V.V.P.I.P..X%X%X;X;X=XX.@.>.>.X.X.X.o.O.|  . ...%.%.%.:.:.=.<.r.u.u.u.<.M.{..XP.L.C.D.M.D.n.N.N.b.Y.2.2.,.3.>.>.4.X.X. .}  .| |  .o... ...| o...o...o.o.o...o.X.X.4.%.>.3.1.2.2.2.b.N.N.N.m.U.U.U.U.I.J.{.P.%X%X X=X,X4Xi   0 = - B + $ = - . = n *.` [ [ [ -.-.w.y.w.&.u.sXjXiX0X8X3X2X4X4X4X5X-X5X,X1X5X*X5X*X5X5XeX[ [ t.-.[ [ [ _ ( _ Q Q W l l l b i 0 @ O o @ @ o o @ - $ % $ @ & + 4 + < & X O.5XR.Z.R.%XG   > 9.9XCXUXqXqXzXjXfXfXfXfXfXfXfXjXzXfXfXfXfXzXzXjXzXzXxXdXqXpXxXBXVXCXVXcXqXR.| 7 @ O O 2 f Z c f O O 5 #.~.dXzXcXfXdXqXpXdXfXfXfXxXfXfXfXxXxXzXjXzXcXzXxXcXcXcXcXvXcXvXcXvXBXvXvXvXVXVXCXVXCXCXCXCXCXCXDXDXZXSXDXDXVXLXvXZ O 7 H a a a 9 t t t 5 < 6 4 4 & < > * & * r i k z k N x x i * . X O $ o v m y 9 N 9 N e i k e w w i e i k k k k u u k i i e i i u i i r r r r r r y 6 * B B B 4 * * 4 * 4 < * 6 < < 6 t t 5 p t t p t t d y d d d h h j g j j j j j j d d f f f f c c H c d i %.5X5X{.{.{.=X,X5X,XeXeXeXeXeXeXgXlXgXgXgXjXnXjXnXZXU.T.7.7.E E T +.J T Y F F D D D Z h j a h s f 1 p B.~.K.K.!.%XR.R.~.!.!.!.!.%X%X%X~.-X&X&X-X-X&X-X-X-X-X-X5X5X>XlX0XZ.1 X i W [ [ ^ [ { [ { ~ G.mX9X8X8X0X0X9X0X8X9X6X8X9X6X2X8X2X2X2X2X2X>X>X>X2X:X:X:X:X:X;X;X-X-X&X-X&X&X&X&X%X&X%X%X%X%X!.!.!.Q.5X-X>X-X&X~.&X&XR.R.R.R.I.Z.U.B.",
"k z l l k n %.b.1.2.<.<.=./ | n.!.K.B.b.6.N.,.u X $   N P.C.9.N.B.B.n.B.B.B.B.n.n.B.B.n.Z.R.&X%X&X&X-X-X-X:X2X>X>X2X3X6XlX0X6X0X0X0XkXpXfXBXJ.  + * $ . <  .2.1.>.1.1.d.h.8.u.d.h.b.b.m.m.V.V.A.Q.H.H.H.Q.F.Q.Q.Q.Q.Q..X.X.X.X=X,X=X,X,X,X<X5X<XeX<XeXyX,Xe.a.s.a.a.t.y.e.*.e.&.&.*.*.*.$.` ^ ) ) ( Q Q ! b b c B   S.5X9.I.V.b.n.b.m.n.m.b.m.b.b.b.b.b.b.h.b.b.8.8.b.h.b.d.8.b.d.b.8.8.8.8.8.8.8.2.8.b.b.n.V.V.J.L.Q.Q.Q.=X;X<X1.@.=.@.X.X.@.X.|  .X. .X.%.;.<.*.r.r.u.u.f.d.i.m.{.%X[.I.U.U.I.D.N.N.N.Y.Y.i.2.3.3.>.%.4.4.X.X.} o. .| o. .X.o.o.o.o.o.o...o...%.o.o.o...4.4.O.>.3.<.2.2.Y.b.b.N.n.M.B.D.U.J.I.I.{.R. X XP.1X3X1.X . i + - r . = $ - - z [ :.( $.[ { -.{ w.y.w.r.' %XsX&X*X*X*X:X5X5X4X5X4X5X4X3X4X5X3X4X4XlX5X$.w.y.[ [ :.[ _ [ ( ( Q W W l l l k r 2 - . o o o o $ $ @ % $ $ $ & & % & < % * &X-XC.B.!.!.@.  X 9 Q.vXCXxXpXdXfXjXfXjXjXfXfXfXjXfXjXzXfXfXfXfXpXdXxXzXVXCXCXVXxX5X6.f : O O @ > h | F 8 @ O O H Y.6XzXcXzXqX0X9XqXfXzXjXfXfXfXjXxXfXjXfXzXjXzXcXzXzXcXcXcXcXvXBXBXBXvXvXBXVXVXCXVXCXCXCXCXCXDXCXDXDXZXDXDXDXDXCXLXSXY O j h f a p t t t 4 5 6 4 < < & > * 2 % 2 0 e k k k b T.N b n x y $ o X o h L g g N i z w i i i i e i k u k i k N k k k z z z z z b z b b z b z z x x l z z b N z x z x y t y y t y t r 4 r 1 r r r t t 5 5 5 t t 5 p 7 5 5 a a 9 d j j a s j d f f h h h c c d N O.K.lX{. X X,X,X5X5XeXeXeXlXyXgXgXgXgXjXnXjXnXVXzXT.E J 7.E J O.J Y J F F F A F H Z Z s j p h t > 7.-X!.K.R.~.R.!.~. X~.!.&X&X&X&X&X-X-X-X-X-X-X5X5X-X-X-X>XlX2X>X>XlXfXiX3.i ) ` W { [ { { { ^ j.AXiXkXqXqXpXpX0X0X9X9X9X8X9X9X8X8X9X8X8X2X2X2X2X2X2X2X1X2X:X>X1X;X:X;X-X:X-X*X-X*X-X&X&X&X&X~.!.&X*X6X>X5X5X5X-X&X-X%X XR.R.R.I.Z.B.",
"z z l z z ..2.b.@.,.1.@...v t + g I 6.P.I.C.C.0.  B   $ n.&XL.P.V.C.B.C.C.B.B.B.C.B.B.n.K.~.&X&X&X-X-X:X5X>X>X2X2X3X6X9X9X0X0XpXdXpXkXxXCX!.X . w .   = ..d.1.<.1.1.1.2.d.m.h.8.g.g.m.m.m.V.A.D.A.H.m.Q.H.F.Q.]..X.X.X.X.X*X.X,X,X,X,X,X<X<XeX5XeX<XwXsXeX(.a.p.p.t.t.e.t.e.e.e.e.{ &.*.$.$.$.` _ _ ) Q ~ Q ~ ~ Q . *.=XI.V.V.n.m.V.V.V.V.V.V.V.M.m.m.n.n.n.b.m.b.m.n.b.b.b.b.b.b.b.b.b.d.8.8.8.8.8.b.b.b.N.m.M.V.V.K.P.P.Q.=X;XV.@...@.X.X.4.o. . .%.%.;.%.<.;.:.r.u.i.d.d.2.i.=X=XP.J.L.S.D.G.M.n.N.N.Y.2.2.2.<.>.>.4.4.X. .|  .o.o.....o.o...o.o.X.X.X.X.X.X.X.X.X.X.X.X.4.4.3.<.2.2.2.Y.Y.b.N.M.M.M.U.J.I.L.K.R.P.%XP. X8X*X+ o - & = & = = $ . - l :.[ [ w.{ -.:.{ w.y.y.y.f.' A.lX4X4X3XiX3X3XeX8XlXeXlXlXeXiXeXiXlXsXaX X-.f.r.{ w.w.:.[ [ ( ( W n W l l k b k 0 = - o o o $ o o + $ = $ + < & * & * t   9.&XR.%X~.Q.Q.P $ . # o.8XCXVXfXUXfXxXxXzXcXUXxXfXzXzXzXzXxXzXzXBXVXDXZXvXlXE.3.2 2 @ @ 1 a f h G f ; X X t O.Z.zXzXzXfX0X9XdXUXcXfXdXkXfXjXcXfXjXxXzXzXcXzXcXcXcXcXcXcXcXvXBXBXvXVXvXVXVXVXCXCXCXCXCXCXCXDXZXDXDXSXSXSXSXSXSXFXLXHX6.# a c j 7 a 7 p 7 t 4 5 4 < 6 < < * 2 * & 0 i k k k l b ~ x b c m M N 4 $   B M N z M i u i e i i k z z k k e k k k k k l z z z z z z z z n Q n Q Q W Q Q Q ( / Q ( Q ( L / / Q ( ( _ / / b b b b b n Q c z x d d g y u y y y t t y y t 5 a a 9 9 f f a a f a h H a 1 F Z. X=X,X5X5X4X5XwXeXeXlXyXlXgXgXgXgXjXgXnXZXlXJ 7.E 7.E +.E +.T J J F F H F A Z h j c s a > H -X&X!.!.&X~.R.%X&X&X&X~.&X&X&X-X5X5X-X5X5X5X>X>X5X>X>X>X-X-X>X6XlX6XfXfXn.g / &.^ ] { { { { { { mXkXkXkXkXkXpXkXkXpXpXpXpXiXiX0X9X9X0X8X0X8X8X8X8X2X2X8X8X2X2X2X2X2X4X1X1X1X:X-X:X:X:X:X*X&X&X-X2X9XlX7X>X>X-X-X-X&X-X&X~.R. XR.R.I.",
"l l l l ! 2.M.2.N.1.=.' / } x + X o + g O.n.!.!.g B . + M 2.C.%XK.K.C.C.B.C.Z.C.Z.U.B.U.R.&X-X&X-X-X>X:X>X2X2X3X6X6XlX0X0XiXiXdXfX0XfXcX4X4   4 - X 0 ..i.1.<.i.1.1.1.u.8.h.m.d.m.m.m.V.H.V.A.D.H.H.Q.Q.Q.Q.Q..X.X.X.X=X.X&X<X;X,X<X<X<XwX<XeXeXeXeXeXeXgX{.e.l.p.s.p.a.e.e.e.e.e.e.-.&.&.*.$. .) ) ^ ^ ~ ! ~ ! ~ e N U..XM.Q.C.D.V.V.V.V.m.V.V.V.V.V.V.V.m.V.m.V.V.V.n.m.M.n.m.M.M.N.M.m.b.b.m.b.N.b.b.b.m.N.m.D.M.D.P.I.P.!..X=X8.X.4...o.X.o.%.O.%.%.%.<.;.<.u.i.i.i.u.2.>.4.U.R.P.J.C.U.U.m.n.N.N.b.b.2.,.3.>.4.4.4.X.X.|  ...o...X.X.X.X.X.o...X.X.X.X.X.X.X.X.X.X.X.4.4.>.<.3.2.2.Y.Y.N.N.N.M.M.D.U.U.L.K.P.P.P.%X X5X5Xo.  $ $ + * & - * - - z [ $.' [ :.-.-.-.w.:.y.t.t.j.r.u.eX8X4X8XeXlX8X8X8XlX3X3X3X3XlX4XlXeXlXsXA.-.t.w.:.w.[ [ [ _ ( ( ( Q W W l l k k k 0 - . o o o o $ $ $ % % & & % < & & 4 o y -X>XI.K.I.Q.~.y 9 # . 9 V.cXFXcXcXUXzXzXvXcXcXcXcXzXzXcXVXCXSXSXcX>X0.Z 2 O O 7 p f f f h a 1 > O O p 6.6XcXCXfX0XdXpXjXxXfXqXdXfXjXxXfXfXfXcXzXzXzXzXcXcXcXcXBXcXcXvXvXBXVXBXVXVXCXVXCXCXCXCXDXCXZXDXZXDXDXSXFXSXSXSXSXFXGXJXGXZ.# 5 c 5 h p p 9 7 5 t 6 4 6 < 4 < < * & 2 = i k k k k k l b } m x z M M g N o $ N N k u i k k u k k z z z u k z z z z z z z l z z z l l l l l l l W n n n W W n Q n n Q Q Q ( Q _ ( ( _ ( ( ' $.$.$.$.$.*.*.=.%.%.$........._ ..../ L n / n N N N N N g g g h d d f a t p d I.5XeXeXeXeXtXlXeXlXlXlXgXgXgXgXnXnXzXBXVXU.J 7.E E J E J E J Y R F F S Z Z Z Z Z j s 5 h Z.6XR.~.-X-X&X-X&X&X-X-X-X-X-X-X5X-X>X5X>X>X>X>X>X2X2X3X6XlXlX3X3XlXlXfXc O Z |  .*.[ [ { { { { { nXjXfXkXfXkXkXkXfXkXkXdXdXdXdXpXpXpX0XpXsX8X0X8XiX8X9X9X8X8X8X8X6X6X2X2X2X2X2X2X1X4X2X:X;X:X2X6X9XaXlX6X2X2X2X>X5X-X-X&X X&X XR.R.R.",
"~ ~ Q z  .M.J.2.,.) _ ] ~ Q Q 0 $ +   O O X g @.%XB . .     x ,.Q.K.Z.C.C.B.V.Q.Z.U.B.B.R.*X:X-X-X:X:X2X>X2X2X6X6X9X0X0XiXpXpXdXpXpXVXkX*   k - X & X.m.<.;.i.1.d.d.b.m.h.d.m.m.m.m.V.A.D.D.H.F.Q.H.Q.H..XQ..XQ..X.X=XOX;XOX<X,X5X<X5XwX5XeXeXeXtXtXtXeXhXwXw.S.k.l.k.p.t.t.a.a.e.e.;.;.-.{ *.*.$.) ..) *.^ ~ Q Q *.i i.=XV.Q.J.J.J.D.J.C.Q.C.D.J.V.D.C.D.C.V.V.V.V.V.V.V.V.V.V.M.V.M.V.M.M.V.M.M.M.M.m.m.N.N.n.V.N.D.J.L.J.P.Q.3Xd.} 4.4.o...} O.%.%.%.<.<.;.;.a.u.u.1.>.4.| | | Z.~.J.n.U.U.N.N.N.b.Y.Y.2.1.3.>.>.%.O.X.X.o. .X.O.O.X.O.X.X.X.%.o.X...X.X.O.%.X.4.X.X.X.4.4.>.>.3.2.2.2.Y.b.N.N.M.U.V.C.C.J.K.I.P.{.%X%X4X!.  + B & + $ $ - = X n :._ ( [ w.[ -.{ -.-.y.y.y.t.r.t.$.4XgXlXtXsXlXlXlXlXlXiXlXsXlXaXiXsXlXaXsXY.:.j.w.r.-.[ -.[ [ _ [ ( ( W Q l W k e k i 2 . . o - $ $ + $ % $ < % $ < 4 % & 4 o M.>XR.!.~.C.Q.~.g . 9 * X 9 ;XDXCXcXzXzXzXUXxXzXjXcXVXCXcX6XR.f 1 O o 2 p f h p f a f a t 2 % o F R.fXBXzXdX0XdXfXfXfXdXfXfXUXjXzXzXzXxXzXjXcXzXcXcXcXcXcXcXvXBXvXBXvXVXBXCXVXCXCXCXCXCXCXZXCXZXDXZXZXSXFXSXSXFXFXFXFXFXGXJXJX~.# > D j a p p 9 t t 9 t 5 6 4 6 , < * * 2 2 2 N k l l k k l Q ! T.! m M M c n z i x z w u k i k k k u x l z z z l z z l z z z l n l n l n n l Q Q n / W W ( L Q Q / / _ _ Q _ ( ( ( ( ( _ ` _ ` _ ) ` `  .` ` ' $.[ &.&.-.-.-.-.-.:.-.y.:.r.r.r.u.r.r.e.r.;.;.%... . .X.X.T.M T.S.{.=X5XeXsXgXjXnXnXBXBXMXAXAXBXnXAXAXBX7.7.7.E 7.7.| Y Y +.J Y F S H F A Z h j Z t ; 6.9X-X&X~.:X&X&X5X-X-X-X-X:X:X:X>X>X>X>X>X>X3X4X2X3X6X3X3X2X6X6X6X6XdXzXd O 8 Y H c $._ [ { { y.s.^ gXmXxXUXfXfXfXfXjXfXkXfXkXkXkXkXdXkXpXpXpXsXpXpXpXpX9XiX9X9X9X9X8X8X6X3X6X2X2X2X2X2X2X1X:X3XpXkXpXpXlXlX6X2X2X2X>X>X-X5X-X&X~.R.R.R.",
"l _ l ( H.[.f.$.' ..' _ ( n Q n + O # @ : : .   o u i $ X X     N M.*X!.M.K.P.C.I.I.C.n.R.:X-X*X>X>X2X6X2X6X2X6X9X9X9XpXpXdXfXdX9XZXjXt   B *   0 =.d.=.1.8.8.d.i.Y.g.g.d.m.m.M.S.D.D.U.I.L.G.L.[.[.{.{.%X{..X=X{.,X,X,X,X,X<X5XeX5XwXeXeXeXeXtXeXtXgXeXgXyXS.l.S.s.l.p.k.l.e.p.a.e.e.e.*.*.*.&.&.*.^ ` ^ ^ ^ ) [ ' ( q L ;X;Xb.Q.V.D.Q.K.J.D.I.L.L.I.L.I.J.J.J.J.J.J.J.J.J.J.V.J.V.D.C.D.D.C.D.V.V.V.D.V.V.V.V.V.M.M.M.V.D.I.P.Q.Q.1.v 4.4.P %.=.<.<.*.e.a.1.u.,.#.@.o.o.T +.o.L @.Q.Q.8.b.Q.n.h.b.b.b.8.,.>.>.%.O.4.X.X.X.X.X.X.O.X.O.4.4.O.%.X.O.4.O.4.4.%.O.4.4.4.4.@.%.>.@.<.,.2.2.2.b.N.N.M.M.n.M.D.J.L.I.J.=XQ.C.8X1XM   * = $ $ $ $ . . ) _ ` ` [ [ -.{ { w.w.e.y.t.t.t.s.p.e.|.nXlXaXlXgXlXgXlXlXaXaXlXiXdXiXpX8XmX<Xy.f.t.t.y.w.w.-.[ ' [ ( ( ( Q W n W e z e w z q - $ $ + $ $ $ $ $ = & & & & < & < + d 9X>XB.=XK.R.~.~.O.o : h 1   +.6XVXxX3X0XfXzXVXzXqXR.+.2 @ O 1 p f p a f f a d d f 1 O X 5 @.fXzXzXjXdXdXdXfXfXjXfXxXxXzXjXxXzXzXzXzXcXzXcXcXvXUXvXUXvXvXvXBXCXvXCXVXVXCXCXCXCXDXCXZXDXDXZXDXDXSXSXSXSXFXFXFXFXHXFXJXSXJXLX7X@ 5 h d p d f d y t t 5 4 6 4 6 < > & 6 * = 0 k k k l l l W l l ! / } } m m m m ! n B w b n k z z z z z z z z x l b W b W b b W b b W Q Q ! Q ! Q ! Q ) Q ~ ) Q ) ~ ) ( ) ) ) ) ` ^ )  .` ` ` ` *. .*.` *.` *.*.*.&.*.*.&.&.*.&.;.*.-.;.;.;.;.;.e.w.e.e.e.e.e.e.a.p.p.p.a.p.f.p.h.$.k # + 6 j j D I #.2.n.U.&X3XqXfXvXvX7X5.R 7.7.+.T T T R Y Y S R F F F Z D Z a Z 2 +.6X>X~.-X-X5X>X5X>X5X7X5X5X>X2X5X2X>X2X2X7X6X6X7X6X6X0XlX6X2XdX9X7XBX0X6 ; 7 f c Z H J T...-.{ s.y.{ wXZXjXjXcXUXzXjXjXjXjXjXjXjXfXfXjXfXfXkXfXkXaXdXdXdXpXpXpXpXsXiXpX0X8XiXpX8X8X9XiX9X5XlXqXdXfXdXdXdXlXlXlXlX6X6X2X>X>X>X:X-X&X&X%X~.",
"_ l n u.F.h.:.=.$..._ _ ( Q l n + # @ % o o $ - i Q *...! y O X   X n P.:XJ.n.P.I.K.K.K.&X:X>X>X>X4X2X2X6X6X9X9X6XfXpX9XsXdXsXaXBXzX} X * X   4 @.8.8.>.8.h.1.d.i.g.m.m.m.M.V.S.D.S.D.G.G.L.{.L.L.{.{.{..X,X.X,X,X,X,X,X,X,X<X<X<XeX4XeXeXeXtXeXhXtXtXtXhXhX.X1.x.p.c.l.l.s.p.a.a.s.a.e.a.&.e.*.*.] *.*.*.$.` $.[ [ ' w $ _ Q.iXQ.Q.Q.Q.D.{.%XD.L.P.L.I.P.I.L.P.L.K.I.L.I.I.L.I.J.L.J.J.J.J.J.J.J.J.C.V.C.D.C.D.V.V.V.V.D.J.J.L.Q.=XQ.X.} o.o.=.$.%.;.a.a.a.1.1.@.X.+.U o.U o.I R } #.B.Q.n.8.n.n.b.9.2.2.1.1.>.>.O.4.X.X.X.O.X.%.%.%.4.O.>.%.O.%.4.4.%.4.4.%.O.4.4.>.4.>.@.%.@.,.,.2.Y.b.b.N.N.N.M.U.J.I.I.I.I.*XP.K.*X4X8.+ . = $ $ & $ X = i ) ] ] { [ [ -.{ w.w.w.y.t.t.t.t.k.p.e.|.gXgXaXaXaXaXlXaXaXlXdXaXpXkXpXpXsXmXOXy.s.t.t.y.y.{ { -.[ [ [ ( ( _ W W l z z e e e w $ $ + + $ $ $ & $ $ % & & & * * < % 4 R.3XK.~. XR.I.R.R.| % > N t X f q.fXFXSXfX4X#.T.p 2 2 1 p c r f h f f a p t f : X # Y !.qXcXdXjXxXfXdXfXjXfXfXxXxXjXxXzXzXzXzXzXzXzXcXcXcXcXvXmXvXvXvXVXvXvXCXvXVXCXCXCXCXCXDXCXDXDXDXZXZXFXSXSXFXSXFXFXFXFXFXGXJXSXJXLXdXf t h h f a p a y 9 t t 9 t 4 6 4 < > * * * 0 r l e l e l l W b W ! / ..) ! ! ! m b W w = w u N n z z z z l W n l b b W b W W W Q Q Q Q Q Q ~ Q ~ ^ ~ ~ ) ) ( ) ) ) ) ) ) ) ) ) ) ` $.` $.` *.*.` ] *.*.*.*.*.*.*.&.&.&.;.&.;.;.&.;.;.;.;.;.;.;.;.e.e.e.e.e.r.r.r.t.t.r.t.p.p.p.p.r.r.=.L y , 9 j 6 > 6 6 1 1 2 1 > > 7 j F R 7.7.E E E E T T F U F U A S Z A Z j F 2 C R.>X-X-X5X5X>X5X>X5X>X5X5X2X>X6X>X6X6X6XlXlXlXlXlXlX0XlXlXpXdX>X0XVX2XU # ; p j H D F Y Y | %.e.t.y.[ .XZXcXUXjXUXUXjXzXUXjXjXjXjXjXjXjXjXfXfXfXfXfXfXkXkXkXkXsXpXpXpXpXpXpXpXiXiXpX0X9X9XlXpXfXxXxXfXdXaXdXqX0X0X9X6X6X2X2X1X5X-X-X&X&X~.",
"( l ' z.h.*.$.*...' ' _ ( Q W n % + % % o o 2 i u z T.<.N.3.} T.i o   . X.=X1X!.I.J.B.I.-X2X:X-X4X2X>X3X6X9X0X0X9XfXsXpXfXdXpXcXZX2.  $ 4   B 4.d.8.=.1.b.h.d.h.m.m.m.m.S.U.D.S.D.G.U.L.L.L.P.[.{..X.X.X{.,X,X,X,X,X,X5X5X<X<X5XwX4XeXeXtXeXtXtXtXtXgXyXgXhXgXl.l.S.l.c.l.s.l.s.s.a.a.s.a.e.<.*.&.&.&.&.&.&.&.w.[ _ :.L . X L !.2X.XQ.Q.*X%X{. XQ.Q.Q.Q.Q.Q.Q.Q.P.P.P.P.Q.P.P.P.L.P.L.P.L.K.I.K.L.I.L.L.L.J.J.J.L.J.J.J.J.J.J.J.V.Q.Q.=.m  .=.%.;.;.<.a.8.:.4.X.P o.| P I o.I o.o.P L ,.Q.n.8.9.b.b.8.8.,.3.>.>.O.%.%.O.O.O.%.4.O.%.4.O.4.4.O.%.4.4.%.O.O.%.4.>.4.O.>.4.%.>.>.>.<.,.2.Y.Y.b.N.N.n.N.N.M.U.I.K.P.U.D.&XtX.Xu   * $ = $ - . - u ' ` ' [ w.w.w.-.w.w.y.e.y.t.t.s.k.j.k.s.p.lXjXaXlXaXgXaXaXaXaXaXaXaXaXkXpXkXUXQ.{ v.t.t.y.:.w.-.[ ' ' [ ( ( Q W W W e z z e z w - + + $ $ $ $ $ & & & & & & 4 < < * + @.2X-XR.-XR.R.I.&X X| o 2 c f % @ | n.@.f 2 t 2 2 p f Z f f p t t f f 4 1 2   f 6.-XdXcXcXjXfXfXfXdXjXzXfXfXjXzXzXzXzXzXcXcXzXzXcXcXcXcXVXBXvXvXvXVXCXvXCXCXCXCXCXCXDXDXDXDXDXDXZXDXFXDXFXFXFXFXFXFXFXHXGXHXHXGXFXPXLXVXa ; f c Z d p a a y t t t y 6 5 4 6 > & & & 0 r e k l l l l b W W Q ! _ ..' ..! ~ n l n i $ = w u n n l l l Q n n l Q Q Q ~ ! ! Q ~ Q ! Q ! ~ ! ! ) ) ) ) ) ) ) ) ) ) $.` ) ` ` $.` $.] *.$.*.*.*.*.*.*.*.&.&.&.&.&.;.e.;.:.;.;.;.a.*.e.;.e.;.e.:.r.t.t.a.t.t.p.a.t.t.a.a.t.p.p.p.p.v.f.h.h.o.d 5 a h j c Z H H H c U P j A U 5.q.R +.E T T T R R F R A F F A j Z a h : B.qX>X5X7X2X>X2X7X5X7X6X2X6XlX6X6X6XlXlXlX0X0X0XlXqX0XpXlXpXdX3XdXVX6XD O , > p M G F F Y J T +.@.:.p.&.z.IXBXBXBXBXcXUXUXcXcXcXUXjXUXjXzXjXjXjXjXjXjXjXjXfXfXfXkXfXkXfXkXkXfXaX0XdXdXpX0XpXxXxXzXzXjXjXfXfXdXdXdXpX9X9X0XlX6X3X>X>X:X-X&X&X",
"Q ( :.f.r.:.-.-.$.$._ _ / n n l i + o @ $ $ i z Q k z  .1.Y.Y.N.N.2.} &     } %X-X&XK.!.&X2X6X9X6X6X2X6X9XiX0XiXpX0XpXfXfXdXcXCXK.X . &   t 4.b.1.1.1.8.m.i.d.m.m.m.m.A.S.S.D.U.U.G.I.[.P.[.{.{.{. X=X.X,X.X,X,X,X,X<X<XwX4XeXwXeXeXeXeXtXtXtXtXeXgXhXhXtXhXmX[.l.|.c.k.l.c.x.a.l.s.p.a.y.a.y.e.{ e.e.y.e.w.w.&.-.~ [ :.i . $ 9 &X3X=XQ.*X%XR.-XQ.%X=X.X.XQ..XQ..X%X!..X.XQ.Q.Q.Q.Q.P.Q.P.P.Q.P.P.P.P.P.K.L.P.P.Q.P.L.I.J.I.L.I.J.Q.Q.m. .$.i.;.i.i.a.4.X.I P P o.| I Y o.I o.I U P D P ,.Q.n.8.8.8.2.2.<.>.>.@.%.>.O.O.%.4.4.4.4.O.%.>.O.%.>.>.4.>.O.>.>.>.>.>.%.>.4.>.>.>.>.>.<.,.2.i.2.b.N.N.N.U.J.J.J.J.U.U.%X*X4XQ.} & . * - = = . . k _ &.' ' [ &.[ w.w.y.w.y.t.y.t.p.p.s.j.c.l.s.,XnXjXgXaXaXgXjXaXjXfXgXkXkXjXkXmXhXv.s.f.j.t.t.y.y.-.{ -.[ _ [ _ ( ( W W W z z e i w = $ + $ & $ $ $ $ $ & & & & & < * < @ t *XlXR.*XR.=XR.I.&X%XG + : c p 2 2 7 7 p p f h H F Z p 1 2 f f c f 7 > : 5 n.6XBXVXxXfXfXfXxXfXfXjXzXzXzXzXzXzXzXzXcXcXcXcXBXBXBXBXVXBXVXVXVXVXCXvXCXCXCXCXCXCXDXCXZXSXSXDXSXSXFXFXFXFXFXFXGXHXGXGXGXGXGXGXJXFXJXLXHXO.X D h h d a t a a a t 4 9 4 4 4 4 < > < & & 0 i z l l l W l W W ~ Q ( _ $...) ) ~ ! l ~ l = $ & B r x n / / W W W ( Q ~ Q ! Q ~ ! ! ! ^ ) ! ) ) ) ) ) ) ) ` ) ` ) ` ` $.$.$.$.$.$.$.*.*.*.&.*.&.&.*.&.e.;.&.;.-.;.w.;.;.e.:.e.e.e.e.a.e.a.e.e.u.r.u.a.p.t.p.p.p.p.p.p.f.p.p.k.k.f.l.v.f.r.f.1...N < 9 j g f h h Z F j c D Z F 7.5.R E E T T T Y T F U U U F j Z D f % #.6X6X-X6X5X2X2X2X5X2XlX6X6X6XlX6X0XlXlX0X0XlXlX0XlXpXpXpXpXdXlXfXVX6Xf X 6 9 6 a H G F F J J E J +.O.8.$.u.HXBXBXBXVXVXcXBXBXcXcXBXcXcXcXUXcXUXjXUXzXjXjXjXzXjXjXjXfXjXfXfXfXkXfXkXfXaX0XfXjXBXBXcXcXzXxXxXfXfXdXdXpXdX0XlXlX6X6X3X>X2X>X-X-X",
"[ t.f.:.e.r.:.&.' ' ' _ ( Q W n x $ X - 0 i z b / l z ! %.a.,.>.2.>.2.J.N.m & + >.n.Q.1X2X-X-X>X9X6X9X9X0XpXpXaXfXiXfXdX9XcXVX2XX . &   * d.b.8.1.d.m.m.m.d.g.m.m.m.S.M.D.H.H.F.L.L.K.[.{.{.{.%X.X.X=X.X=X,X,X,X,X5XwX<X5XwXeXeXeXeXtXtXtXtXgXtXgXjXtXjXnXnXUXeXe.|.S.l.x.x.l.l.l.k.p.s.a.s.s.s.r.r.t.t.t.w.w.-.w.( ( $.l & . . r %XaX*XI.*X5X X=X=X=X=X%X.X=X=X=X=X%X=X.X=X%X=X=X%X%X%X.X!.%X.X!..XQ..X.XP.Q.P.Q.Q.Q.Q.Q.Q.Q.Q.Q.Q..XI.:.=.1.<.:.@.o.L P U I o.| o.P o.P U P P U L P L U b.Q.,.Y.i.2.3.>.>.@.@.%.O.>.%.O.%.>.>.4.4.>.4.>.>.O.>.>.>.>.>.>.<.>.>.>.>.>.>.>.>.<.>.,.2.2.i.b.b.N.N.n.D.C.D.B.J.=X>X&XU.X.r X + B - = - - - w _ -.' ' [ -.{ { -.r.y.t.r.t.s.s.f.k.j.c.x.c.y.|.nXjXgXjXgXfXjXjXjXgXjXfXkXjXhXmXtXf.v.v.j.f.s.t.y.-.w.-.[ ' [ _ _ Q Q W z z z e e e B - $ . $ # $ $ $ $ & & & & * < * 4 * + n.pX~.R.&X!.&XK.J.*XR.| o 2 p h t 3 f f f f p 7 2 3 p f D p r 2 O @ H ^.BXCXBXjXdXpXfXfXzXxXzXzXzXzXzXzXcXcXcXcXcXcXBXBXcXVXcXBXVXVXVXVXVXCXCXCXCXCXDXCXDXDXDXDXSXDXFXFXDXFXFXFXFXFXFXGXFXGXGXGXGXGXGXJXJXHXGXKXGXO.% v c f a a y 9 p y p 9 4 t 4 6 4 < < < & = * i k W e l W W W ~ ~ ~ ~ Q ] ' ' ' ( ~ Q W / n w & & & # r N m / L n ( / ~ ! ! ! ) ! ) ) ) ) ) ) )  ...` ' ' ..' $.$.$.` $.$.$.*.$.*.*.*.&.*.-.*.;.;.*.;.;.<.&.e.e.<.e.;.r.r.u.r.u.r.r.u.a.a.u.u.p.u.a.p.p.p.p.p.p.p.k.f.f.k.l.l.f.l.l.l.z.f.y.r.a.i...x N d 9 j j f j c h D D j j R 7.7.#.E +.R T F R Y A A U A Z F c 7 h >X0X>X2X6X6X6X6X6X6XlXlX6XlXlX0XlX0XpXiXpXpXpXqXaXpXpXaXdXdXaXxXVX>Xp O 9 f 6 6 s H H G F I J +.Y +.+.5.#.@.cXFXAXcXBXCXZXCXBXBXBXBXvXBXBXcXBXcXcXcXUXcXUXcXUXjXUXjXzXjXjXjXjXfXjXjXgXdXfXBXBXVXVXcXcXzXzXxXxXfXfXfXdXdXaXpX0XiX9X6X2X2X>X:X-X",
"r.f.f.r.r.e.-.-.' .._ _ L Q Q l ! 0 - = i z b l l W W Q  .2.Y.3.>.b.b.>.,.M.M.,.9 P 6.&X9X9X9X0X3X6X9X9XiX0XpXfXdXdXfXaXfXSX3X+   $   r 8.b.b.:.d.m.g.d.d.m.A.m.A.A.D.D.D.H.H.Q.L.[.{.P.{.%X.X%X,X%XoX,X,X,X<X,X<X<X5XeXeXeXeXeXeXeXtXsXtXgXsXgXgXgXtXnXhXiXgXmXl.l.|.`.`.x.k.x.l.l.p.s.a.s.k.l.v.v.j.t.t.w.w.{ [ ' _ ' n B $ & X u K.sX4X5X5X5X;X;X;X;X*X*X=X;X*X,X*X*X&X*X=X&X=X=X=X=X=X=X%X=X%X%X%X=X%X%X%X%X!..X.X!.Q.!..X!.Q.Q.Q.J.1.o.%.X.} } U U P U U U I P P P P G U D U L L U v o.8.m.2.2.2.3.>.>.>.>.>.O.>.>.>.>.>.%.4.>.>.>.>.>.3.%.>.>.>.>.<.3.>.3.>.>.>.>.>.3.,.>.,.2.2.i.Y.b.N.N.n.N.N.J. X&XR.U.c 1 . + - . $ $ = - - e _ &.[ [ [ &.-.-.{ w.w.y.y.s.t.t.f.k.c.c.c.(.(.k.l.gXBXjXjXjXjXjXjXjXjXjXjXjXjXjXAX<Xt.x.v.v.j.t.t.t.w.w.{ -.' ' [ _ _ W W W W z z z z w - - + $ $ # = & & % & & & < & 4 < t o G 5X2XR.-X%X%X~.R.I.-XR.#.2 2 r p y f Z f h y p f c j t 2 2 O 2 0.fXZXVXfXfXpXqXfXzXzXfXfXxXzXzXzXzXzXzXcXcXcXcXcXBXvXVXVXVXVXVXVXVXVXCXCXCXCXCXDXDXZXDXDXZXDXSXDXSXSXFXFXFXFXFXGXFXFXGXGXJXGXJXGXJXJXJXJXJXLXLX0.  h I 6 g g f f g d p t 4 9 4 6 4 > < < < * * r k z k l W W W W ~ ~ ~ ^ ~ _ ' ' _ ( ( W Q Q W e $ & 4 & & 4 N n / _ _ ( ) ^ ) ) ) ) ) ) ) ..`  .) $.) $.$.$.$.-.$.&.*.*.&.$.&.&.&.;.&.-.;.;.;.*.&.e.e.<.e.e.e.e.e.e.e.e.r.r.r.r.r.r.p.u.p.p.u.f.f.f.f.f.p.l.k.p.l.p.f.l.f.f.l.f.l.l.l.l.v.z.v.u.t.f.a.:.i d d g h f Z Z c j Z H j R #.5.R E T R T T F F U F D Z F Z 1 5 &XqX>X2XlX>XlX6X6X0X6XlXlXpXqX0X0X0XpXsXpXpXdXaXdXdXaXfXfXfXfXjXCX-X7 O 8 K ; 3 3 s Z D H F | I +.E +.E 6.+.T -XFXFXZXBXBXBXBXCXVXAXBXVXBXBXBXBXBXBXBXBXcXmXcXUXcXcXUXzXUXUXcXzXzXzXjXfXjXCXCXVXVXBXBXcXcXzXzXzXjXjXfXfXdXdXpXaX0X0X9X9X2X6X4X>X",
"x.f.t.s.w.w.-.-...[ _ _ _ W n n Q w 0 w z b W l ( ~ Q Q ~ %.Y.Y.9.8.2.2.2.8.9.b.M.9.>.n.&X2XpXjX9X0XpX0X9XlXpXfXaXfXdXxXCXsXv   * + 0 b.V.2.b.8.b.d.d.d.g.A.H.A.D.D.D.D.J.G.Q.F.[.P.{.{.%X.X%XoX,X=X,X,X,X5X<X5XwX4XwXeXeXeXeXtXtXtXtXtXgXgXgXyXgXgXhXhXgXhXAXLXnXp.`.'.l.`.z.x.c.l.x.c.(.c.c.x.v.v.f.t.r.w.w.w.[ w.[ &...w $ 4 4   B  XaX3X=X4X1X<X1X;X<X:X<X;X;X;X5X;X;X;X5X;X*X;X,X*X*X*X*X,X&X=X&X=X=X=X=X=X.X&X=X=X&X=X=X.XQ..XV.8.d.>.T.G U P P P U P } P P P P P P G G G U D L L L v o.n.Y.,.3.<.>.%.>.%.%.>.>.>.3.>.>.>.4.>.>.>.>.>.>.<.>.>.>.3.3.3.,.3.>.>.3.3.3.<.3.<.,.2.Y.9.Y.N.N.M.n.M.Z.!.R.Y.f . O o % a y + + $ $ $ w ( &.[ [ { [ { w.w.w.w.y.r.t.t.t.f.s.k.c.k.c.(.(.(.s.eXAXjXjXjXjXjXjXjXjXjXjXUXjXmXmXOXj.x.c.k.f.t.t.t.y.w.-.-.-.' [ _ _ W _ W z W z e z i - - + # $ $ # & = & & & & < < < < r % 2 B.pX%X&X-XR.&X&XR.R.-X&XM 1 % p f p p f 7 p f h p 2 % % |  XzXCXzXdXdXfXfXzXcXzXfXfXzXVXzXzXcXcXcXzXcXvXBXBXVXvXVXVXVXVXVXVXVXCXDXCXCXCXZXDXDXZXSXSXSXSXFXSXFXFXFXFXFXFXGXGXGXPXGXGXGXPXJXGXJXJXJXJXJXJXLXJX!.# t I a g j f g s a t t p t 6 4 6 4 < < < & * 4 u l l l W W W W Q ~ ( ! ` ( ' ' ' [ ( ( ^ ^ W W k = $ 5 > > & * t M / _ _ )  .)  ...) ..) $.$. .` *.$.$.*.$.*.*.*.-.*.&.;.-.;.;.;.:.;.;.;.w.e.;.<.e.;.e.e.e.a.e.a.a.a.a.a.u.u.p.u.p.f.p.p.p.f.f.f.f.f.f.f.l.l.l.l.l.l.l.l.l.l.l.l.l.x.l.x.A.z.z.v.p.t.f.g...m d a a f f f Z c h U A D R 7.E E +.R R F F R Y U A Z F a p 5.fXlX3X0XlX6XlXpXlX0XpXlXpXlXpXpXdXaXdXaXdXfXdXfXfXdXfXjXfXjXzXjX:Xa X s 9 ; ; 3 6 f H H H G I | | +.+.7.7.7.7.5.CXPXKXJXFXSXCXAXAXCXAXCXCXAXCXCXVXVXBXVXBXvXBXBXBXBXcXBXcXBXcXcXcXjXjXBXCXSXSXCXZXVXBXvXBXBXcXcXzXUXjXfXfXfXdXaXdXpXiX9X9X6X2X7X",
"v.t.f.f.-.:.u.' ' ' ' _ ( Q W W l i k z k l W b W l ~ Q ! *.i.N.8.9.b.N.b.9.8.9.9.b.0.b.3.P P 3.fXjXxXjXpXpXdXfXdXjXfXBXBXP   t   0 b.m.=.d.d.d.m.m.m.D.A.m.H.D.D.H.I.G.L.L.Q.Q.[.{.{.%X.X=X=X=XoX,X,X<X<X<X<XwX5XeX4XeXeXeXeXlXtXtXgXyXyXaXgXgXnXgXnXgXhXIXLXLXKXl.l.'.p.|.`.x.c.x.(.|.|.|.(.x.v.f.p.t.y.r.w.w.w.y.W ' 1.u - & = t X *  XdX4X5X4X4X1X4X1X<X1X1X1X1X<X1X5X1X1X,X;X;X5X1X;X;X;X;X*X*X*X,X*X*X*X*X*X*X*X*X=X=X&X!.,X<XA.:.D.n.| v L D D D U P P I P P G G G P P U v P v j v v v ,.2.2.1.>.@.>.@.>.>.%.>.>.>.3.>.>.>.>.>.>.>.>.>.3.>.<.3.<.<.3.<.%.3.<.<.3.>.<.,.3.1.2.2.Y.Y.N.N.N.I.R.K.3.1 X X : < t % % + o B - . * W :.&.[ [ { -.w.-.w.y.r.y.t.s.j.t.k.k.k.c.c.(.(.x.|.{ ,XAXnXcXnXzXzXzXzXmXUXBXmXjXBXmXF.v.x.x.k.j.j.t.r.r.w.w.-.' ' _ [ _ ( _ z W W z z z i - $ . + $ = $ $ $ & & & & * < * < 2 r   3.fX&X&X&X-X&XR.%XR.R.%X*X| 2 2 t f f p a d a ; X < 6.7XCXVXzXfXfXjXjXfXjXjXjXzXzXzXzXzXcXzXzXBXvXvXvXVXVXBXVXVXVXVXVXVXCXCXCXCXDXCXZXSXZXDXSXDXSXSXFXFXFXFXFXFXFXFXGXHXGXGXGXPXGXJXJXJXJXJXJXJXJXJXJXJXLXqXo & Y y j c d d a a y 9 t d 6 5 5 4 4 < < < < & r z b z k W W W W ~ ~ ( ( ( ' ' ' ` ' ( ` ( W W ( W = $ 4 > 5 5 & * w z / =.`  .$.) $.$.$...$. .*.*.*.*.*.%.-.*.-.*.:.*.;.&.;.;.;.;.e.;.;.;.e.e.a.e.e.a.a.e.a.a.a.e.a.a.a.a.f.f.p.f.f.f.f.p.f.f.f.f.f.f.h.v.l.l.l.A.x.z.z.l.A.l.x.l.x.S.S.S.|.z.f.f.v.f.r.r.m.4.g t a c c c v j h Z V j T 5.T E +.R T T F U D D A D H 5 F qXqX2XdXpX6XaXpXsXpXpXpXdXpXsXpXdXdXaXdXdXkXfXfXfXjXfXxXjXzXjXzXzX; @ 3 7 , 3 8 , 7 j Z H H F J J +.+.T 7.7.5.0.Y # L K.jXHXLXLXFXZXCXZXZXCXCXAXCXAXVXAXVXAXBXVXVXBXBXBXVXBXBXBXBXUXcXBXZXHXSXZXZXSXCXVXBXVXBXcXcXzXzXzXjXjXjXfXdXdXpXpX0X9X9X6X3X",
"v.k.t.t.r.:.-.:.$.' _ _ ( W n n l k e k l l W l ( Q Q ( ( _ r.S.n.b.n.n.9.b.N.N.m.b.m.U.I.I.3.x X x R.jXCXVXjXdXzX>XCXCX4.X -   u i.m.a.a.m.g.m.m.m.A.M.S.D.U.G.H.Q.H.Q.Q.`..XQ.Q..X=X.X=XOXOX*X,X,X<X<X<XeXwXeXeX4XeXtXaXlXtXeXtXtXgXhXhXhXhXhXgXlXhXAXLXKXKXKXKXMXr.x.XXf.).).OXXX).).)._.).v.v.v.j.j.y.t.y.y.-.[ [ [ $.L = # 2 ; 5 o X B.jXlX4XeXlX3XeXlX3X1X4X4X4X5X4X4X4X4X4X4X4X5X,X;X*X*X4X<X;X;X<X5X,X1X5X5X;X*X~.;X8XkX X<.2.3.3.U.,.G D 9 9 P c 6 9 9 f f f g g g g g g j d j j c c x 9.>.1.3.X.>.,.X.%.%.>.<.%.>.3.%.3.%.3.3.<.3.<.3.<.3.<.,.<.3.,.Y.,.3.3.3.Y.Y.,.>.N.,.>.<.2.M.P. Xb.P % X O 2 1 2 < * < < + % @ O q _ [ $.' $.[ :.w.w.w.r.y.y.t.s.s.s.j.j.k.c.c.x.j.(._.|.(.S.BXBXjXBXnXcXBXAXcXzXUXBXUXIXhXf.x.c.x.c.c.j.s.t.t.y.y.[ [ [ [ [ _ _ W W W W z z e z w $ + $ $ $ & $ & % & & < * 4 B 4 & y + < P.dX*X5X-X X^. X~.R.R.R.5X| O 1 f a f 1 O . a E.jXCXVXfXfXfXzXfXzXzXzXcXxXcXzXcXcXcXcXcXcXBXvXvXBXBXVXVXVXVXCXCXCXCXCXZXDXCXSXDXSXDXSXDXFXSXFXSXFXFXFXFXFXFXGXGXGXGXJXPXJXGXJXJXJXJXJXJXJXJXJXLXLXJXLXfX# t o.d c 9 j a f d a p y y t 4 9 t 4 < 6 < * 0 w e l l W W l W W ( ( ] ^ ( ] ] ' -.&.' ` _ ( W ) Q n i $ B 4 < 4 4 6 6 t t y ;.*.$.$.&.&.-.[ $.$.:.:.:.$.$.*.:.-.:.-.:.-.;.;.e.;.;.e.r.;.r.e.e.r.e.t.r.t.t.a.a.p.a.s.a.p.p.l.l.f.f.l.l.f.l.A.l.l.l.l.l.A.l.l.z.A.x.A.x.z.z.z.z.z.x.F.S.F.F.F.F.x.c.l.l.k.k.p.t.l.a.M y f f f j g h v H f H 5.#.+.T Y T J F J A R Z U 6 t &XzX0X0XsXpXsXpXaXaXdXdXdXdXdXaXfXfXpXjXcXpXfXjXdXjXBXgXdXjXBXZX-XO 6 7 7 6 8 6 , ; 9 j c H D F U R T +.T +.5.q.+.s j t % O f n.fXFXLXKXJXGXCXCXCXZXZXZXCXCXCXCXCXCXBXZXZXBXVXBXBXCXcXCXFXHXFXSXDXZXSXCXCXCXVXVXVXBXBXcXzXzXxXjXfXfXfXfXdXdX0X0X0X6X",
"v.f.f.t.y.w.-.[ [ $._ _ / Q W l l l e k z l n W Q Q Q _ _ ` &.g.V.n.n.n.M.n.m.M.m.m.n.D.J.K.R.B.C.c     H &XzXZXBXHXCXN..   $ i a.m.m.i.d.N.d.N.m.m.M.D.D.G.L.U.F.Q.Q.F.Q..XQ..X.X.X.XOX,X*X;X,X5X<X<X5X<XeXeX5XeXwXeXtXyXlXyXgXhXyXtXyXhXhXhXtXgXAXPXKXKXKXLXLXLXLX<Xv.].).XX].).).XXXX).).v._.x.j.v.j.v.t.r.y.w.[ [ [ :._ w . 2 @ % < $ & Y.jXkX3X1XeX3X,X5XlX3XeX3X3X3X3X4X4X3X4X3X4X3X3XlX3X4X4X4XeX4X4X3XeX5X,X*XlXkX8XV.L . X % - . $ v 3X~.~.Q.J.J.C.n.N.3.3.>.@.X.o.o.o.P P U D v g a y } X.,.m.M.Y.9.N.b.N.Y.Y.Y.Y.Y.6.,.2.<.<.3.<.3.<.Y.2.,.<.3.<.<.3.3.a.2.,.>.%.,.Y.4.>.N.I.P.N.O.T.@ @ @ @ 2 2 2 : > @ % < * O . 0 _ -.:.[ [ -.{ { w.r.w.y.y.t.t.t.f.k.l.c.x.l.x.(.(.(.(._.(.l.yXBXMXBXBXBXzXjXBXBXvXBXUXZXuXr.)._.c.c.c.j.v.t.t.y.{ :.w.[ :.[ [ _ _ _ n W W z z e e = . $ $ & & $ & & & & & * < < 4 & t 4 % ,.fX5X-X5X5X-X:X-X~.E.I.>XR.| < o 2 @ 2 ,.6XBXVXBXfXdXzXzXzXzXzXzXzXzXcXcXcXcXcXcXVXcXVXBXBXVXVXVXVXVXCXVXCXCXCXDXCXDXDXZXSXSXSXSXSXSXFXFXFXFXFXGXFXGXGXGXGXGXJXGXJXJXGXPXJXJXJXJXJXJXJXGXJXJXLXLXLXzX6 ; P j 7 H g j f d 9 a y p t t 6 5 4 4 < 4 4 = B w l l l l l W W W W ( ( ( [ ( _ [ -.[ ' ' _ ( ~ ( Q Q k $ * B < 4 6 6 4 4 t y z / &.<.&.) $.-.-.&.&.&.:.=.:.r.:.;.;.;.e.;.e.;.r.r.e.u.r.r.u.u.u.t.p.p.a.p.a.t.p.p.l.p.p.k.l.p.f.f.l.f.l.l.l.l.l.l.l.l.x.z.z.z.z.x.S.x.S.A.S.x.F.F.F.F.F.F.F.`.`.F.x.l.c.c.l.s.p.p.a.e.T.u p x c c h H H h H | 7.E T T Y Y R F U Z U j 6 0.fXqXpXpX0XaXaXdXaXdXdXdXfXfXdXfXfXfXfXdXfXfXjXcXjXjXdXBXzXcXCX^.3 3 6 9 7 6 7 6 , , j c Z D D U U R +.T T 5.5.T Z j h H F Z y 2 @ @ 0.-XzXLXLXKXGXCXBXVXSXFXIXZXCXAXCXCXBXZXSXZXcXcXZXGXJXHXHXFXSXSXSXDXZXCXCXCXVXVXvXvXcXzXcXzXxXxXfXfXfXdXdXpXpX0X",
"v.k.t.t.r.-.:.[ ..' ' _ ( Q ( l l l k k l W Q Q ~ W ( ' ` ) $.%.D.U.n.n.C.M.n.U.V.D.I.[.J.J.R.R.%X%XU.G X   % G %XBX5X<   o z N.m.m.i.i.M.A.g.S.A.M.S.G.L.U.L.L.Q.F..XQ..X.X.X.X*X.X.X*X,X*X<X<X<X<X<XeX5XeXeXeXeXtXsXeXeXyXgXgXtXhXmXhXhXyXgXhXPXKXKXLXLXKXKXKXLXLXAX`.|.#X+XXXOXXX)._.XX_.v.).v.v.j.j.y.t.r.y.y.[ :.[ ....z . % 2 % 2 t X + i.jXhXfXsXsXaXaXaXtXiXiXlXlX3XlX6X3X3XeX3X3X3X4XeX4X<X1X4X8XtX4X;X5XsXkXlXV.L $ X % B B * 2   + 4X2X~.1XQ.%X2X~.&X-X-X-X&X&X&X~.%X!.!.R.K.I.Z.B.V.8.X.4 $ p u t c G T.| o.O.<.3.<.2.2.2.Y.Y.N.N.N.i.Y.Y.Y.N.m.U.B.Y.Y.b.9.b.9.i.2.n.M.Y.6.>.x + X @ : < 1 B 2 2 2 > > & * * . = ` [ [ [ [ [ { :.w.t.t.r.t.p.p.p.f.f.k.k.c.l.l.x.x.|.(.}._.}.(.wXIXBXjXBXBXBXBXBXBXVXmXAXAXOXt.}.x.c.c.c.j.v.t.t.y.y.:.w.[ [ [ _ _ W W W W W z z z z = . + $ & & # % & & & & < * < r & < g X d 9X3X5X>X5X-X-X~.&X&X-XU.R.:XO.& v Y.zXcXCXcXfXfXfXzXzXzXzXzXzXzXcXcXvXcXcXvXcXBXVXBXVXVXVXVXCXVXCXCXCXCXCXDXDXCXDXSXSXSXSXSXSXSXSXFXFXFXHXGXGXGXPXGXPXGXGXJXJXJXJXJXJXJXJXJXJXJXLXLXLXJXLXLXJXLXDXP > D I j j h y d a a a y a t p t t 4 & < 4 4 & = i k l l W l W Q ( Q ( ( ( ( ` ] [ [ &.&.$.' ` ( ( ( Q ! k * & B * 4 6 4 4 5 t t r u m ..<.r.;.&.w.:.-.w.&.:.;.;.r.r.r.r.r.u.u.r.u.r.u.u.u.u.p.u.p.p.a.p.s.f.a.l.l.l.p.l.l.l.k.l.h.v.z.v.l.l.A.z.z.S.S.x.S.x.x.A.F.z.z.F.F.F.S.F.F.S.S.|.F.F.].|.].`.z.x.x.x.c.k.l.t.a.l.a.m u p d j Z j Z Z A F #.+.+.J Y J J F A F D , +.dXcX9XpXaXaXfXfXfXhXfXfXfXfXfXjXfXjXjXcXjXjXcXjXjXzXcXzXfXZXSXR.@ O c 8 8 7 6 7 6 ; 6 j h Z D D F Y U +.T +.5.T s p j f Z H G G H F H @ @ 2 H Z.fXJXLXLXLXHXCXcXBXZXFXZXZXZXCXBXBXZXHXJXLXJXGXHXGXFXFXFXSXSXCXCXCXCXVXVXVXBXcXcXzXzXzXfXfXfXfXdXdXdX0X",
"v.h.t.t.r.r.:.-.' ' ' _ ( Q n l z z z z l l l Q Q ( ( ) ` ` ` $.l.I.U.U.J.C.M.J.D.N.U. XR.K.I.I.B.P.*X*Xn.v o     * $   . M 3.U.1.i.i.d.A.m.N.D.D.D.G.U.L.G.L.[..XQ.Q.Q..X.X.X.XoX*X,X,X,X<X<X5XeX<X4XwXeXeXtXtXtXtXgXtXlXgXgXgXhXhXhXsXtXhXIXKXLXKXLXKXKXKXKXKXKXKXKX@XXX@XXX+XXXXXXXXX).).).).x.v.v.f.v.t.t.y.y.[ :.:.[ [ n $ @ 1 < 2 B 1 +   >.2XjXlX5XsXkX2XlXsXsXsXsXgXaXgXsXsXsXsXsXsXsXsX8XsXsX8X4X4XlXaXjXlXJ.m $ X $ 4 B t > & g < X v 8XQ.&X~.R.&X%X!.Z.R.I.R.I.K.R.K.K.K.B.J.K.K.L.C.8.X.0     $ @   X X X X O O O O o o % % 2 2 2 < d d x f G H T.T.@.O.3.,.b.b.,.>.4.4.c 2 O       X         X X X O ; O X - 0 ^ w.[ [ { w.w.w.w.-.w.w.e.w.y.t.t.t.v.j.c.j.(.x.(.x.(.(.|._.|.k.|.ZXAXVXAXVXBXAXVXBXZXmXZXMXQ.t.XXx.).c.c.j.j.j.t.t.r.w.w.[ [ [ [ _ _ _ W W W W z e z * + + $ # & $ & & & & < & < 4 4 & * d @ % U.jX5X5X>X5X-X~.&X%X5X~.5X:XB.I.jXJXVXfXqXdXzXcXzXBXzXzXzXzXcXBXcXcXBXcXBXvXVXVXVXVXVXVXVXCXCXCXCXCXDXDXZXDXDXSXSXSXSXSXSXSXGXFXFXGXHXGXGXGXGXGXGXPXJXJXJXJXJXJXJXJXJXJXJXJXJXLXLXLXJXLXLXJXLXFX6.X +.j p g j 9 j p g a y a t p t 4 t < > < < & * 0 z l l l W W ~ ~ W Q ( ( ` ` ] *.&.-.w.&.[ ' ` _ ( Q Q Q b * $ B > < 4 4 5 5 t t p r t M %.1.u.;.r.w.:.r.r.r.;.;.r.r.u.r.r.u.t.r.p.u.f.p.u.f.p.f.f.f.l.f.f.l.k.p.k.l.l.l.l.l.l.l.z.z.z.z.A.x.z.x.F.x.F.S.x.S.F.S.`.F.`.`.`.F.`.].].G.|.|.].].[.|.].|.F.F.S.(.l.x.x.k.p.p.l.a. .N p j j j j V f A E #.T Y Y Y Y F D +.9 8 >XVXdXfXfXaXfXfXfXfXfXjXjXjXjXjXjXzXjXzXjXzXcXjXzXcXcXcXcXZXZXR.O ; F 2 6 8 7 6 6 6 , 6 h c Z D F F F Y F #.5.T h 8 a Z j f f f f c Z Z O.I h 1 ; r H | jXCXJXLXLXJXFXCXZXZXFXHXFXIXPXLXLXLXJXPXGXJXHXFXFXSXSXSXZXDXCXCXVXVXVXBXBXcXcXzXzXzXfXfXfXdXdXdX",
"v.f.t.t.r.r.-.$.-.' ' ( ( n Q l l k k l l Q W ( Q ~ ) ` $.$.' $.;.D.{.U.J.I.U.J.P.U.U.R. XR.R.R.%XI.N.K.-X-XN.G o     $ b i.U.a.i.m.M.A.A.M.A.D.D.G.G.I.L.[.L.[.Q..X.X.X.X.X*X&X;X;XoX;X<X<X<XwX5XwX4XwXeXlXtXtXtXtXgXtXgXgXgXgXUXyX8XhXAXLXKXKXKXKXKXKXKXLXLXKXKXKXLXuXOX$X).$XXX).XX_.).).).).x.c.v.v.j.j.t.t.t.:.:.{ [ [ _ & $ $ 2 < % < r %   | *X3X;X=X*X5X5X5X4X5X4X3XeX4XeXeXlXsXlXsXsXaXkXsXiXiXaXjXfXaXN.} & X $ 4 y B o + $ % % < $ o 5X5X-X&X*XR. X X~. XR. XR.I.R.R.K.Z.C.I.P.L.m.d...:.=.i X @ 1 o 2 : % @ @ O O @ o o O O - X O O X X O O O O O O X O O X     O % X.Y.M.Y.b.N.n.n.6.,.O.X.|  .H c > > & 6 r Q u.&.&.&.w.y.y.y.y.j.j.j.j.c.c.(.(._.(.(.(.(._.(.(.).|.|.|._.}.|.|.AXAXBXVXAXBXBXAXVXCXmXHXmX).c.XX).).c._.c.v.f.j.t.r.w.w.{ :.[ [ [ ( ( ( W W W z z z 9 $ . + = $ $ % & & > * > * < 4 < 4 4 t % c fX>X5X>X5X;X;X1X2X*X~.V.@.m v V.CXxXjXzXcXBXxXfXfXzXzXcXBXBXvXBXcXBXVXVXVXVXVXCXVXCXCXCXCXDXCXZXZXDXDXSXSXSXSXSXSXFXFXFXFXGXHXHXHXGXGXGXGXGXJXJXJXJXJXJXJXJXJXLXJXJXJXLXLXLXLXKXLXLXLXLXLXJX0.X D j 9 9 v a a U t a a a y 7 t 5 t 6 4 < 4 2 2 2 k l W l W W W ~ ~ ( ( ( _ [ [ ` ] w.-.w.-.*.` ' ` ] ~ W / Q r $ B & 4 6 4 6 4 t 7 6 7 a p N m =.d.:.r.r.r.p.r.u.p.u.u.t.p.p.u.p.p.f.f.f.f.f.f.f.f.l.f.l.k.k.l.l.l.l.l.l.A.S.l.x.l.x.z.A.x.F.x.F.F.F.F.F.F.F.F.F.F.|.F.`.].`.`.|.|.].`.|.].[.].'.{.|.|.`.`.(.`.l.l.j.(.l.p.p.l.a. .g p a f Z j s Z T T T R J Y Y F D Z 1 Z.VXzX9XjXfXfXfXfXjXjXjXjXjXzXjXzXzXzXUXzXjXcXzXjXVXcXjXcXSXSXZ.O , Z p 6 8 6 6 6 6 , > 5 h h Z D D P U Y +.#.Y j 5 a c c c C c H H H C d 1 f H | G c p t o f n.9XAXPXLXKXPXSXCXVXZXJXKXKXLXJXJXJXJXJXJXGXHXFXFXSXSXZXZXZXCXCXCXVXvXBXcXzXzXzXzXfXjXfXfXfX",
"v.k.t.t.r.:.-.:.$.' ` _ ( ! Q l l k k W l l Q Q ) ) ( _ ` $.&.-.$.N.L.P.I.I.K.I.!.I.{.=X XI.R. XI.R.%X XI.I.%X:X>.a * n N.M.Y.l.m.A.A.m.M.D.G.D.D.G.I.L.[.L.P.[.Q..X.X.X*X;XOXOX*XoX<X<X<X<X5X4XeXeXeXeXeXeXlXtXgXtXlXgXgXgXgXgXtXgXBXPXKXKXKXPXKXKXKXLXLXKXKXKXKXKXLX@XOX$X$XXXXXXXXXXXXX).).).).x.c.j.j.j.t.t.y.{ [ y.[ [ [ z o 2 2 2 > > > a % O c &XkX4X=X5X=X=X5X=X=X X,X=X*X5X,X*X,X5X*X5X5X2XlXgXkX3Xn.L   X & 4 r r * & y > t r o % 4 X | lX-XR.1X*X&X5X&X%X%X~. XR.R.R.R.Z.P.R.P.D.a...:.:.1./ + X $ 2 O @ @ % 2 2 2 2 2 2 2 2 % 2 % 2 : : : % % % @ O 2 2 O O @ t T.<.<.I.5X2X2X6X6X1X3X9XaXdXaXaXpXdXfXpXdX9X>.0 i = i i x M n L _ ..*.=.;.:.e.u.u.u.l.x.x.(.(.|.|.'.|.|.}.}.+X}.|.bXHXZXBXZXZXZXVXAXCXAXIXhXz.]._.).).).v.c.v.j.f.t.r.y.w.:.[ :.[ _ _ _ ( ( W W W z z e = + $ & # & % & & * * * 4 * < 4 r * x > % -XpXlX4X>X2X8X1X&Xm.=.v ..@.& # C.ZXDXcXfXxXzXBXDXBXBXcXvXBXVXVXVXVXVXVXCXCXCXCXCXCXZXCXZXZXSXSXSXSXSXSXSXFXFXFXFXFXHXGXGXGXGXGXGXJXJXJXJXJXJXJXJXJXJXJXJXLXJXLXLXJXJXLXLXLXLXKXLXKXJXKXLXE.; 6 Y j U v v c a 9 f y a y t t 5 5 4 4 4 4 < 2 0 i k W l W W W ~ Q Q ( ( ( [ [ [ { ] w.w.w.w.&.] ] ` _ ( W ( _ 9 $ B 4 * & < 4 4 r t 5 9 9 p 4 t n ..u.d.h.u.u.a.p.p.t.f.p.f.p.f.f.f.f.f.f.k.l.l.l.k.l.l.l.l.l.l.l.A.x.A.x.x.x.S.F.z.F.x.F.F.F.F.F.F.F.F.F.`.F.G.`.].].|.].].].].].'.].].].'.'.'.'.'.[.|.|.S.`.S.(.x.l.x.k.k.f.a.g.l...c r p H H j j F +.+.J Y T F J U > +.zXcX0XxXjXjXjXjXjXjXzXzXzXzXzXzXcXzXcXcXcXcXBXVXVXBXjXVXFXDXq.# 6 F 3 # A 6 8 6 7 6 > 6 a j h D D F U U Y 5.Y g t a g j f c f p p f c H H T.H f d f f H G Z p @ O 5 #.-XzXJXKXKXKXKXLXKXLXLXLXLXLXJXJXGXGXHXGXGXFXFXFXSXSXZXCXCXVXVXVXBXcXcXcXzXzXxXjXfXfX",
"f.f.t.t.r.r.{ [ $.' _ _ ( Q l n l k l l W n ~ ! ) ) ) ` ' *.&.;.&.<.G.{.{.P. XP.U.I.R.*X=X X X~.=X%XR.R.!.!.%X!.iX!.%.X.I.D.a.M.m.m.m.m.M.G.G.L.L.G.L.L.{.{.{. X.X.X=X.XOX;XoX;X;X<X1X<X<XeXeXeXeXeXeXtXtXtXsXtXgXtXgXgXnXgXgXUXmXIXLXKXKXLXKXKXKXKXKXKXKXKXKXLXLXKXHXOXOX$X$XXXXXXXXX_.).}.).)._.x.v.v.j.t.r.r.r.y.-.:.:.[ :._ o 2 2 % < 1 % > d O . | %XlXeX1XlXeXlXeXeX5XeX4X,X5X5X5X5X5X*X*X=X3XlX=X3.u o   t t r 4 * * 6 r > $ % & $ * 1 $ %  XlX&X5X-X X-X~. X X X X X XR.R. X%X XV.m.u.:.' [ :.=.n % X @ @ o @ @ @ @ @ @ o @ o @ @ @ $ % : % % 2 % 2 2 % O O % p T.,.U.U.i.N. X5X=X%X5X~.&X-X:X:X-X-X5X4X1X3X8X3X@.o 4 a > ; , , ; , 6 6 , , 1 6 4 5 5 p t d N z b n ! T.<.a.*.a.w.a.s.l.IXHXIXVXZXZXZXIXZXIXIXwXv.OX}._.).).c.c.v.v.v.t.t.r.w.:.:.[ [ [ _ _ ( W W W W z z z q + $ $ $ $ & & & & > * < < < 4 4 > y < $ O.aXsXlX0X;XQ.8..._ :.4.} >.v . # &XzXDXzXcXCXBXxXBXVXVXVXVXVXVXVXCXVXCXCXDXCXDXDXDXZXSXSXSXSXSXSXFXFXFXFXFXGXHXHXGXGXGXJXPXGXJXJXJXJXJXJXJXJXJXLXJXLXLXJXLXLXLXLXLXLXKXLXKXKXKXKXLXKXLX~.& 9 T j D a 9 9 j 9 4 j a a y p t 5 r 5 > 5 r < = w k b l W W W ~ ~ / ( ( ( [ _ ] ] &.&.w.w.y.-.&.{ ` ` [ ( ( n / M $ & & 4 4 < 5 4 5 5 9 t t 5 p u g d X.<.8.h.a.r.p.p.f.f.f.f.k.k.l.f.k.l.l.k.l.l.l.l.A.l.x.A.x.A.x.S.S.S.S.x.S.F.F.F.F.F.F.`.F.`.].G.].G.|.|.[.].].[.|.].].{.].].'.'.'.'.'.'.OX'.'.'.'.'.|.|.`.`.`.S.x.l.l.x.k.t.a.A.i.%.n d x j d j j T T T Y F F F h F 2XCXfXfXcXjXjXjXzXzXzXzXcXcXcXcXcXcXcXcXBXcXBXBXBXVXcXVXGXCXq.> 6 F , 6 Z 3 6 6 6 6 6 , 6 9 j c Z G G U U +.Y j 5 a j j y p f f f c f Z d h p f h H F G Z d | Y H f a t 6 < d B.dXHXKXKXLXLXKXKXLXLXLXLXJXJXJXPXGXHXFXFXSXSXSXZXZXCXCXVXVXBXBXcXcXcXzXzXxXfX",
"v.k.f.t.r.-.-.$.$.' _ _ / Q Q l k k z W l W Q ( ~ ) $.` ` *.&.&.e.*.m.=X XR.%XR. XR. X*X&X=X-X X%X=X=X=X~.!.R.P.{.R.T.- ~ U.U.D.m.M.G.U.G.G.U.U.[.P.{.P. X{..X%X.X.X*XOX*X<X;X<X<X<X<X<X4X<XeXeXeXeXeXtXgXtXyXgXgXgXgXnXgXlXgXMXKXKXKXKXKXKXKXKXKXKXKXKXKXKXLXKXLXLXPXOX<X$XXX$X$XXX$XXX}.XX].).).x.v.v.j.v.t.t.t.t.[ y.[ [ :.[ $ % : 2 ; > > > % a >   u 5XhX4XeX5X5X4X4XeX4X4X4XeX4X4X4XeXeXeXhX1X3.B . $ t N 4 4 * 4 4 4 B & * t & + 2 B B 1   O.iX>XR.5X~.-X&X*X5X~.&X&X~.&XR.~.%XJ.d.*.:.u.w.:.-.=. .r O : : @ @ @ @ @ @ - @ : : @ @ @ @ O O o @ @ % o @ o . p O.N.n.Y.a.3.Y.2.U.4X5X-X7X5X1X4X:X4X1X2X2X4XsX3XQ.I.@.& > 6 t 7 7 p 7 a 9 6 8 a a 8 a f f 8 8 s V s s s s V 3 C 3 C 3 C C 3 C dXHXSXAXZXZXZXAXFXIXQ.v.$X_.).).).).c.v.v.v.t.t.r.y.r.[ :.[ [ _ [ ( ( ( W W z 9 e 9 $ # $ # & $ & & * * < < < * r 4 4 < < r + jXpX1XU.1.X.=.:.=.=.:.4.o.v 6 4   ~.FXCXzXBXVXBXVXVXVXVXVXCXCXCXCXDXCXZXZXSXZXSXSXSXSXSXSXFXFXFXFXFXHXFXGXHXGXGXGXJXGXJXGXJXJXJXJXJXJXJXJXJXJXLXLXJXLXLXLXLXLXLXLXLXLXKXKXKXKXKXLXKX6X, 5 I Z h Z 9 D a y Z a 9 a y p p 7 5 r 5 < r > 2 * i b b W W W ~ ( ( Q ( ( [ ( [ [ &.[ w.w.r.r.w.&.&.&.` ( ( _ n _ n = & & & 4 < 4 4 t t 5 t p a 9 d d d t m >.h.l.l.k.l.k.l.z.v.l.v.l.l.z.x.z.z.z.x.x.z.x.x.x.S.S.x.S.x.S.`.`.S.`.S.`.F.`.F.F.F.F.[.`.H.].].].G.].].].|.'.'.'.'.'.OX'.'.OX'.'.oX'.oXoXoXoX}.|.|.`.`.`.(.`.(.x.c.S.l.f.e.m.m.<.x y a g Z s T +.J T F F R > R.DXzXdXBXjXjXcXjXzXUXcXcXzXBXcXBXBXBXBXBXBXBXCXBXBXCXCXJXSX0.  C j , 8 V 3 6 6 6 < 6 6 > 6 j j j Z D F U Y Y 7 a a a d g g d f N c f d f d h c Z Z c f f Z G f C H F F F G D c 2 O O.zXKXKXKXLXLXLXLXLXJXLXJXJXGXHXGXHXGXFXSXSXSXZXDXCXCXVXVXBXVXcXcXzXzXzXzX",
"f.k.f.p.r.w.:.-.$.' _ _ _ n W l l k W W Q Q ~ ( ) _ _ [ $.-.-.w.w.e.e.H.;X&XR.~. X X*X5X*X5X*X&X;X&X=X&X!.=X=X,XS.a.<.. O < P I.{.].S.S.L.[.I.H.P.L.L..X.X.X.X;X.X,X.X,X<X<X<X;XeXwX5XeXeXeXeXtXgXtXtXtXyXgXhXgXnXhXyXsXhXAXPXKXKXKXKXKXKXKXKXKXKXKXKXKXKXKXKXKXLXKXLXXX$X$X$X+X+XXXXXXX}.).).).).)._.v.v.v.v.v.y.:.y.[ :.[ [ [ k . % < % > > , 1 2 p 2 % 1 U.VXlXeXlXlXeX5XeXeX8X4X;X5XiXfXkX3XU < . * y 4 4 t r B r B B < < B * > & % * > < r @ % R.qX5X>X5X-X-X*X*X&X-X-X~. X5X XS.d.u.r.r.r.:.:.&.*.%. .w   @ % @ @ @ @ % @ . o 2 2 % O O o . : 2 @ X X 2 f a.a.Y.a.7.a.Y.Y.U.Y.U.5XlX-X5X5X3X2X2X:X2X8X9X8X8XQ.H.Q.1.. 9 4 4 4 6 t t t 5 t a a a a a g d d f f f Z f Z Z c Z Z H Z H S H H p 7 n.FXLXHXBXHXZXLXnX|.}.XX_.}.).).).c.v.v.v.v.j.y.r.y.:.w.[ [ _ [ _ _ W W W l n z k = . * $ $ & % & & & & < < 4 B 4 y * 9 4 $ 2.m.1.>.:.:.>.,.4.4.4._ 4.L 9 & , X Z.GXCXzXCXVXvXCXCXCXCXCXVXSXDXDXDXDXSXDXSXSXFXFXFXFXFXFXGXGXGXGXGXGXPXPXJXJXJXJXJXJXJXJXJXJXJXJXJXLXJXLXJXLXLXLXKXKXLXKXKXKXPXKXKXKXKXKXLXJXKXfXt t I s D j j Z j j g a a a a a t t 7 5 5 4 6 * & 0 i l ~ l W W W ~ ( ( ( _ _ [ [ [ -.[ { [ t.t.r.-.-.-.$.$._ [ _ Q Q _ k - 4 & 4 6 4 4 r 6 9 4 9 p p d a d j 9 d P m.G.z.p.g.l.z.z.x.l.x.`.z.z.z.A.S.x.x.z.z.`.x.F.S.`.S.S.`.S.F.`.|.`.].G.|.|.|.].'.|.].'.].'.].'.'.'.'.'.oXXXXX{.}.}.oX{.{.}.{.oX{.oXoX.X{.'.'.'.).F.].].`.x.x.x.S.l.l.k.s.l.l.a.G t p Z f h #.+.F +.J 6 +.VXBXjXcXfXcXzXcXcXcXcXcXBXcXcXVXVXVXVXVXBXVXBXDXFXGXJXDX6X#.; 8 s s s 5 3 8 s 5 , 5 7 > > t j 9 D D D D U U j 9 t 9 a a a y a f d f d d f f d h h h h h h h h c Z h h Z c Z c F F H 1 ; | xXKXKXLXJXLXLXLXJXLXJXLXJXGXPXJXHXGXFXFXSXSXZXZXVXVXVXVXVXvXcXcXzXzX",
"v.k.f.t.r.r.:.[ $.[ ' ( _ ( W l l W l W Q ~ ( ) ) ` ' $.&.-.-.w.e.y.w.l..X*X X~. X~.*X5X5X5X5X5X=X;X1X=X;X4X*XH.e.e.a.* + % # p 2.J.=X%XS.m.L.,XL..X.X=XOX=X=X.X.X,X,X,X,X<X<X<X5XwXeXeXeXeXeXeXwXsXhXhXgXgXyXhXsXtXkXmXHXKXKXKXKXKXKXKXKXKXKXKXKXKXKXKXKXKXKXKXKXLXPX}.@X$X+X$XXX$XXX}.XX}.XX).).).v.v.v.v.y.y.y.v.y.y.[ :.[ :.b $ * 1 % 2 > < 1 2 1 p 2 @ c N.jXjXeX5XlXgXeXlX;XeXaXjX0X{.o.* y 4 4 y t 4 4 4 < < 1 < < < 0 < * % & & % : > < 1 @ 3.lX6X~.>X5X-X;X-X5X-XR.&X5X XI.m.u.u.r.r.:.-.:.&.$.%...b * . @ @ @ @ @ o $ : @ O . O % 2 2 % X   O 1 H O.3.7.<.Y.3.Y.Y.Y.Y.Y.Y.U.5XlX5X5X7X2X6X6X6X8X9X0X8X.XQ.Q.Q.1.. 4 & 9 r t t t t 9 t a a a a a f d f f c f c h h c C Z H Z Z H H H H Y f 2 Z lXLXKXDXAXPXbX|.XXXX).OX).).).)._.v.j.j.j.t.y.y.y.-.[ :.[ [ _ ( _ Q W l l z i q . * $ $ % & & & * < & * 4 4 4 4 4 r r & %.d.1.u.h.1.@.:.4.4.4...4.L # 9 a ; ; Z.JXGXzXVXCXZXCXCXCXCXDXSXZXDXSXDXFXSXFXFXFXFXFXFXHXGXGXGXGXGXJXGXJXGXGXJXJXJXJXJXJXJXJXJXJXLXJXLXLXLXLXLXKXLXKXLXLXKXKXKXKXLXKXKXKXLXKXKXBXg 6 U c D j j j j h j s a a a p a p t t 5 r 4 5 * & r z n l l W W W ( ( ( ( ( [ ' -.[ { -.{ { t.t.y.y.-.:.[ [ [ ( [ W W _ z - & & 6 4 4 6 4 9 5 y t y a d s d j s y g n =.A.[.A.z.l.l.S.x.l.l.S.x.S.x.F.F.S.`.`.S.F.|.`.|.|.`.|.`.].|.G.|.].].'.'.].].].'.'.].'.'.'.'.'.{.}.oX}.{.}.}.oXXX{.{.oX,X}.'.'.'.oX+XoX}.'.OX'.'.].).F.`.F.x.x.x.l.c.l.p.l.a.<.T.d p f Z T F Y T 8 F zXDXfXjXAXcXVXcXBXBXVXVXBXcXVXCXVXBXBXBXCXZXGXGXFXzX-X0.+.U Z 9 f 8 7 8 8 8 5 6 5 6 6 4 > : p j h h Z D U U 9 6 9 t 9 t d p a a p d f f f d d f d f d h f h f x Z h h Z f Z c H f H G H p 1 H #.FXKXKXKXLXLXLXLXJXLXJXJXJXGXFXGXGXSXSXSXSXSXZXCXCXCXVXVXBXvXcXcX",
"f.f.f.t.r.w.-.:.$.[ _ ( ( Q n l l l W Q Q ~ ~ ) ` ` ' [ &.-.;.w.e.t.r.e.D.,X5X=X%X-X5X4X5X5X4X5X*X:X;X;X1X<XL.u.s.p.l.N 2 4 O % o d ,.P.*X.XI.A.=XOX{.{.=X.X;XoX;X,X,X<X<X<X<XeXeXeXeXeXeXtXtXtXsXgXtXyXgXgXgXtXgXmXIXPXKXKXKXKXKXKXKXKXKXKXKXKXKXKXKXKXKXKXKXKXKXKXLXXX@XrX$X+XXXXXXXXX}._._.}.).).v._.v.v.j.j.v.y.y.:.:.[ [ [ ! 0 $ 2 < 2 > 1 2 2 1 p 1 2 @ 0 U.fXjXlX8XsX3X5XjXjXdX%X3.t * % & t d y 4 4 4 4 < r B < B < < * & & & % % * < < t o r -XdX&X5X>X:X:X5X-X~.&X5X5XD.m.d.u.r.p.r.e.-.-.*.$.$.*.} M . o o 2 @ o O 2 o O o : % % o O X o t T.%.6.<.3.<.Y.a.Y.Y.Y.Y.Y.U.Y.a. XlXlX7XlX3X0X9X9X8XpX8X1XQ.H.H.Q.,.. 4 4 4 6 6 t 6 9 t t p p a a p a a f f h h d h h C h H H Z H C H S Z C Y G 3 1 0.BXKXKXKXwXj.XXXXXX}.).).).v.).v.v.j.v.t.t.y.w.w.w.[ ' _ [ _ _ Q W l l z z w - = & # & % & & & 4 & 4 4 4 4 4 4 9 r = 1.h.i.d.8.:.@.X.4.4.....X.L 9 # 5 a X @ ^.GXGXvXDXCXDXSXSXSXSXSXFXSXFXFXFXFXFXFXFXGXGXGXGXJXGXGXPXGXJXGXJXJXJXJXJXLXJXLXJXJXLXLXLXLXLXLXLXLXLXLXKXKXKXKXKXKXKXKXKXLXKXKXJXKXKXHXY o v D j U 5 U j j h f s a a a y 9 5 t 4 4 4 6 4 & * u n l l W W W ( ~ ( ( ( ` [ ' -.-.{ -.w.w.t.t.y.-.:.[ $.[ _ _ [ _ ( ( z & * 4 * 4 6 4 4 6 t 6 9 i p d d d a j c f p x X.d.S.G.S.z.x.l.F.`.).F.F.F.F.F.S.S.F.].|.G.|.|.|.|.|.[.|.[.].{.].{.{.'.'.'.'.'.'.'.'.'.{.XX}.oX{.oX XXXoXoX XoXoXoXoXoX+X,XwX+X+X,XoXXXOX'.'.OX].`.`.`.x.x.`.l.(.l.x.l.t.l.l.a.T.t a s F F +.V 8 R.DXcXxXVXVXcXBXcXzXcXBXAXVXBXBXBXvXCXGXJXJXCXfX6X@.Y H A D T 5.5.Z s 7 3 8 9 6 > 5 , 5 6 > > p d j c c U P j 6 > t t 5 a t p t a d f p N d f f d h f f f x h h d h f h h c c Z Z c h H F G f 1 , 5 &XJXKXKXLXJXLXLXLXLXGXJXJXJXGXHXGXHXSXSXSXZXZXDXCXVXVXVXBXcXcX",
"v.k.f.t.r.r.-.:.$.' _ _ _ ( Q l l l W Q Q ~ ( ) ` ` ' $.&.-.e.e.t.t.r.e.f.%X4X;X5X5X4X3X4X4X3X>X6X*X;XeX4XH.p.p.l.s.p.i % 6 , 3 : O % v n.*X5X,XG..X.X,X,X.X.X4X<X,X<X<X4X<XwX4XeXeXeXeXeXtXtXsXtXgXgXgXgXgXgXgXIXPXKXKXKXLXKXKXKXKXKXKXKXKXKXKXKXKXKXKXKXKXKXKXKXKXLX@XOXrX+X$X$X$XXXXXXXXXXX_.).)._.v.v._.v.v.v.y.:.y.y.:.[ [ &.i $ % 1 < > 2 t 2 2 1 t p 2 2 - U.cXjX<XlXzXBXdXP.P B % * r g 4 t y 4 4 4 r & < < < < B * * > & & % & * * 2 < t % X 3.qXlX-X2X:X2X>X*X5X3X5XI.b.d.f.u.a.u.u.;.-.;.&.$.' $.$. .0 o o o @ @ o @ O @ @ @ o O O o u G O.%.%.O.>.a.3.<.Y.Y.Y.Y.Y.U.U.U.U. XlXlXlXlX0X6XlX0XkXsX1X.XQ.Q.H.Q.8.. 9 4 4 6 r t 9 5 t t p p t a f d d p h f f c f h c c Z Z Z Z H H H H F H T 5.C 2 H R.LXKXrX_.XX}.XX).}.].)._.v._.v.v.f.t.t.t.r.w.w.:.[ [ _ _ ( W Q W l l z i $ $ $ & & % & & & & < * 4 4 B r r 4 4 4 b.b.i.1.1.:.:.@.4...4._ o.L 9 6 , 8 A @ X E.JXJXDXVXDXFXFXSXFXSXFXFXFXFXFXGXHXGXHXGXGXJXGXPXJXJXJXJXJXJXJXJXJXJXJXLXLXLXJXLXLXLXLXKXLXKXKXKXKXKXKXKXKXKXKXKXKXKXLXKXKXPXLXKXFX0.o Y R j H j s H h j g d a a a 9 t t a 5 t 6 4 4 < 0 i z Q W W ~ ( Q ( ( ` _ ` ' [ -.-.{ :.{ w.w.t.t.r.r.r.w.:.[ [ _ _ ( Q ( n w & & 4 6 4 9 4 6 t 9 6 9 y f g s a j Z H c s g c a.z.{.|.F.x.`.|.F.`.G.|.S.|.G.|.].|.|.|.|.{.|.|.|.|.|.'.'.'.'.'.}.'.'.{.OX}.{.XXoXoX'.oX}.oXoXoXoXoXoXoXoXoXoXoX{.oXoX,X}.oXoXoXoXoXOX'.'.'.'.|.].].`.`.`.`.S.(.l.l.k.f.k.l.<.*.d 6 Z 7.Y 8 q.DXCXmXCXVXcXBXVXCXFXCXcXcXBXCXFXHXLXFXcX6XZ.#.Z 9 F U T T #.#.T U +.D f 7 5 7 7 6 6 6 6 6 ; 6 a j 9 j U D 9 t 4 t t t p p a t a a d p d p a a d a d d h d f f h f h f h h f Z h f H h f h H D F | 5 % j -XGXLXKXLXPXLXLXKXLXJXJXGXPXHXGXGXGXSXSXSXSXZXCXCXVXVXVXBX",
"v.f.f.f.r.r.-.-.:.[ .._ / W l l l W Q Q ~ ! ) ` ' ' [ &.&.e.e.e.t.t.p.r.e.|.,XlX5X5X3X6X4X3X3X2X6X2X4XeX{.f.r.k.j.t.l.b o > , 3 8 7 > @ * G U.4X<X,X=X=X,XwX<X,X<X<X5XwXeXeXeXeXeXeXtXlXyXtXsXyXtXhXnXgXeXgXAXLXKXKXKXKXKXKXKXKXKXKXKXKXKXKXKXKXKXKXKXKXKXKXKXKXKXLXKXbXOX#X@X#X$XOX$XXXXX}._.XX).)._.v.v.v.v.v.y.h.:.y.[ :.[ :.*.b = $ < > 2 > r 0 2 2 2 p p i % 2 3.fXZXzXlX*XL t # & y g 9 t 9 r * 4 4 4 4 4 < r < * < * > * & & $ % % > 2 < 1 t o 1 -XjX5X7X2X:X:X4X8XoXQ.m.h.f.f.f.f.u.u.;.:.;.;.$.) ` ....T.2 . X O : @ O % O O X X % d T.O.3.%.%.*.O.<.a.a.Y.Y.Y.N.Y.N.N.l.U.l.U.5XaXlXlXiXlXsXaXsX1XQ.H..XH.L.Q.,.. 4 9 4 4 5 6 5 4 t 7 y a a y a a f f f f f h f c C Z Z Z Z H C H H C F F Z F T T V 2 m.tXwX+X$X_.XXXX}.).).).).v.).v.v.f.t.t.y.:.w.:.[ [ $._ _ Q ( W W l l k = - & & $ % & & & < < < < 4 4 4 4 4 4 w b.8.u.1.:.1.1.1.4.X.......o.9 > 1 3 f j # # Z.LXHXDXCXSXFXFXFXFXFXFXFXGXGXGXGXGXGXGXGXPXJXJXJXJXJXJXJXJXJXJXJXJXLXLXLXLXKXLXLXLXKXKXKXKXKXKXKXKXKXKXKXKXKXKXKXKXKXKXLXLXKXJXZ.# D Y g Y D 9 R 6 j j j a a a a t t t t 4 6 6 B B $ i b b l W Q W ( ( ( ` ` ` ] ' ' [ -.-.w.w.y.r.v.t.t.r.r.-.-.-.' ` ` ` Q ( n u * * 6 < 6 4 5 t 5 9 t y d d d h f f f j j Z h j x  .m.[.{.].F.x.].`.`.`.].].|.|.].].'.'.'.|.}.{.{.'.{.}.'.}.{.}.{.}.oXoX}.{.oX}.{.XXoXoXoXoXoXoXoX{.+XoXoX+XoXoX+X,XwXwXwX@X@X+XoXoXoXoXOX'.'.OX|.|.|.|.|.S.x.S.A.S.c.s.j.k.l.g.} y f +.a Y zXGXzXBXCXBXBXZXVXBXzXvXCXFXJXGXGXCXZ.q.Y j j D Y #.+.+.T I I Y Y Y T Y U 9 7 6 6 9 6 6 6 > > 6 d j j v v 9 4 6 6 9 t 9 5 a t t p t t p p p a f a p a d f d d d f f j f h h h f h h j j f H c f h Z 7.j # O O.9XPXKXKXLXJXLXKXLXJXJXJXPXGXHXGXHXFXSXSXSXDXZXCXVXVXVX",
"h.v.f.t.r.r.-.-.[ _ _ ( _ ( W l l W Q ~ ~ ( _ ` $.$.$.&.-.w.e.e.t.p.k.k.a.g.{.eX5X>XlXlX6X2XlX3X4XsXtX].k.l.x.k.c.k.A.&.+ > , ; # 6 p 1 @ @ t m  X5XeX,X=X5XeX,X4XeX<X<XeXeXeXeXtXtXtXgXsXtXgXgXhXgXtXsXBXIXKXKXKXKXLXKXKXKXKXKXKXKXKXKXKXKXKXKXKXKXKXKXKXKXKXKXLXKXLXIX@X$XrX$X$XXXOXXXXXXXXXXXXX).).)._.v.v.v.v.y.v.:.v.[ :.[ *.^ 0 $ 2 2 & < 2 1 t 1 2 p 2 2 d o o 9.aX-Xv & + 4 g c 9 4 r 9 4 B 4 9 t & 4 4 < < < * * & * * & % * % & & < < 2 y B X 3.dX0X5X2X;X1X8X1XQ.h.v.z.z.f.k.f.u.e.;.:.-.;.&.$.) ) / *.h 2 O o @ @ O X . o 2 u G O.%.*.*.O.3.6.a.<.3.a.Y.Y.Y.N.N.U.U.U.U.U.U.5XaXdXlX0XaXfXaX2X.XQ.Q.Q.Q.H..X8.X 6 4 5 4 5 5 t 9 5 t y p p a p f d a f f f c h f f h Z h Z Z H H H F h J Y C V J +.+.> %.].#XXXXXXX}.}.}.}.).).).v.v.v.j.f.t.t.y.w.w.-.[ ' [ _ ( _ ( W W z n w + $ $ & & & & & * * < 4 4 B < 9 4 4 y m.1.8.1.:.1.>.:.X...X...o.o.9 # 8 p ; 8 A O ; Z.JXJXGXDXSXGXHXGXFXGXHXGXGXGXJXJXJXJXJXJXJXJXJXJXJXLXJXJXJXJXLXJXLXLXLXLXLXLXKXKXKXKXKXKXKXKXKXKXKXKXKXKXKXKXKXKXKXLXLXKXLXK., s T s j D j j H a j s a j a a p 9 7 9 t 5 6 4 4 B 0 k Q W l W ^ ^ ( ( ( ` ] ` ] ` -.-.-.w.-.w.t.t.v.t.t.r.:.w.-.[ [ ] ` ` ( _ Q n * & B < 4 6 r t t t y t y 9 a d d f f f Z j D U h g m <.G.{.{.F.].].].].'.'.[.[.{.'.'.}.{.{.'.'.}.}.{.{.oX{.{.oXoX}.oX}.,XoXoXoXoXoXoXoXoXoXoXoXoX+X+X+XoX@XwX@XwX+X+X+XoXoXOXoXoX'.OXoXOXOX'.'.'.{.|.|.|.`.x.|.F.x.l.c.k.k.l.f.d.%.g u g >XJXBXAXVXCXCXCXCXVXDXJXJXJXSXdXR.+.C Z D I #.#.#.I U U R I Y I Y U U U U U Z 9 6 , , 6 > 6 > % 6 d j D Z 9 , < 4 4 6 5 5 t t p t t p t p y y p y d p a a a f a f d d f g f f f h f j f f Z H F D f f > F 5.D O O ,.qXLXKXLXLXJXLXLXJXJXPXJXGXGXHXFXHXGXSXZXZXSXCXVXVX",
"k.k.f.s.r.r.-.:.$.' ' _ _ Q W z W W Q Q ) ) _ ` ' $.' &.-.e.e.e.a.t.k.k.k.a.|.5XeX3X0X0XlXlX0XlX6XeXOXz.j.x.z.v.f.y.f.=.. @ 2 3 1 1 1 5 p 6 > % 2 2.5XgX<X,X,XwXwX<XeXeXeXeXeXtXtXsXtXsXgXgXgXgXtXgXnXIXKXKXKXHXLXKXKXKXKXKXKXKXKXKXKXKXKXKXKXKXKXKXKXKXKXKXKXKXKXKXLXLXbX+XrX$X$X+XXXXXXXXX_._.OX).).).).v.v.v.y.v.y.y.y.:.:.[ &.*.e $ 2 2 B < 2 2 p i t p 1 p 2 d 1 2 t 4 * y c g 5 < B 6 4 * 4 4 4 y 4 4 < 4 < < < * < * & & & % % % % & 2 2 1 B t $ p  XjX>X8X2X2X<X.Xz.h.z.v.v.k.f.u.u.u.e.:.:.-.-.&.' ^ !  .T.k $ X O o o o 2 k T.>.>.*.| O.O.3.>.O.>.a.0.Y.Y.Y.N.N.U.U.U.U.U. XU. XlXfXaXaXfXaX3X=XQ..X.XF.Q.H.Q.2.. 4 6 6 4 5 5 5 t t t a p p p d a f p f f x f f h h c c Z Z Z Z H C F Y f h J | F Z H | | |.wX$X$XXX_.}.}.).).).v.).).v.j.v.t.r.t.w.:.-.[ [ ' [ ( ( W W W l l w + $ $ & % % = * < < * 4 4 < 4 w 4 w 9 V.8.u.1.:.:.....X.....} o.o.j ; 3 8 7 , 9 f > O >XDXLXFXFXGXHXHXGXGXGXPXJXJXJXJXJXJXJXJXJXLXLXLXLXLXLXLXLXLXLXLXKXLXKXLXKXKXKXKXKXKXKXKXKXKXKXKXKXKXKXKXKXKXKXKXKXLXKXLX*X5 6 +.s Z F 8 j D a Z s d j a a p p 7 t 5 t 5 6 < < B i l W Q Q Q ~ ` ` ( ` ` ] &.[ { -.-.w.-.w.y.t.t.v.t.t.r.r.:.-.-.-.` ' ' ( ( _ n = < 4 < 4 4 4 r t p p y y a d a f h c Z j c h Z F Z f c %.m.G.XX].].'.'.{.'.'.'.'.{.'.{.}.oX}.{.oXoX}.oXoX{.+X,XoXoXoXoX+XoXoXoXoXoXoXoX,X+X,XoX+XwX+XoX,X@X+XwXwX}.'.'.XX,XbXbXnX@X].XXoXOXXX].OX'.|.|.|.|.|.|.|.S.x.l.x.x.l.p.z.l. .u K.FXFXzXBXVXBXDXZXSXJXJXzXqXR.#.H C H +.,.#.T I U Y o.T Y Y U Y U U U U D U U U c 9 6 & 6 4 < > : 5 j j v 9 < < 6 6 6 * t t 5 4 t t t t p p p p y y p p a a a a a d f d f f f j f j j j F Z f f f c Z c I p t F +.H , # 0.fXKXLXLXPXLXKXLXJXJXPXPXPXGXGXFXFXSXSXZXDXZXCX",
"k.f.f.t.r.w.:.:.[ [ _ _ _ Q Q z b Q Q ~ ~ ) ` ` ` $.&.-.-.e.r.t.r.f.s.k.(.p.l.,XlXlXiXaXpXlXpXiXkXL.p.x.`.v.f.x.h.:.f.u.$ : 1 2 2 1 > 1 1 1 7 p 1 o r N.eXgXeXeXeXeXeXeXtXeXtXtXtXyXsXyXsXgXgXgXtXAXLXKXKXKXKXKXKXKXKXKXKXKXKXKXKXKXKXKXKXKXKXKXKXKXKXKXKXKXKXKXKXKXLXKXMXXX@X$X@X+X$XXXXXXXXXXX_.).).v.v.v.v.v.v.y.v.y.[ v.[ :.] e.k 2 = 2 < 1 0 0 2 2 1 2 1 1 p 1 t a y g c y 4 9 g y y d 9 4 4 5 r 4 4 4 4 * < * < & * & * & & = % % % & < < 5 % t t X 3.cX2X8XpX8XQ.m.m.H.z.v.v.f.f.r.r.<.u.:.:.$.[ &.*. .^ Q  .T.1 X X O O ! !  . .T. .| %.<.%.%.>.a.Y.6.a.Y.Y.U.Y.U.N.U.U.U.U. XU. XlXfXaXfXjXiX=XL..X.XL.H.).J..X8.+ 4 6 4 4 5 5 5 5 5 t t a p y y p d f N f f f f h f C Z Z Z C H H Z Z Z F H H G Y | J Y t N.,XXX+X}.XX}.).].).).).v.v.v.v.v.t.t.t.w.y.-.-.' ' [ ( ( W Q W z n i - = $ % & & & & < * < 4 4 * < 9 r w 9 m.1.8.1.>.1.=.4...o.X._ o.X.9 , 3 ; 3 s 6 8 g 5 X >XJXJXFXJXGXPXGXJXJXJXJXJXJXJXJXJXJXJXJXLXLXLXJXLXLXLXLXLXLXLXLXKXKXKXKXKXKXKXKXKXKXKXKXKXKXKXKXKXKXKXKXKXKXKXLXKXKXdXp 9 #.s F Z Z Z D h j j j s a a a a p t t t 4 6 4 6 < * b l l Q ~ ^ ^ ] ` ` ` ` ] [ &.w.-.w.w.w.w.r.j.t.v.v.t.y.r.w.-.-.&.' ' ] ( _ _ L = < < 4 < 4 4 r t y y y 9 9 a g g f h f h c h D f H F H g } f..X.X'..X.X}.XX{.{.}.oX{.+XoX{.oXoXoXoXoXoXoX+X,X}.oXoX,XoXoXoXoX,XoXwX,X+X+X,X+XwX5X+XoXoX}.}.{.}.,XlXnXIXLXKXKXLXKXMXOX.XOXoXOXOX{.'.{.|.|.|.|.|.|.x.l.S.F.l.l.z.r.S.f./ BXKXjXSXZXGXHXLXHXVX0X#.F Z f F +.7.+.T Y Y +.+.T I I Y P U P F U U D v U Z c D U h 7 ; 6 , 6 > ; 5 j j t > % 6 t B < t 5 5 t t r 7 t t t p t p p p p d a a a a a a f d s a f f f f f f d f c j h h Z H f H F c s Z H H # > B.SXKXKXLXLXLXLXLXJXJXGXGXHXHXGXGXSXSXSXZXSX",
"f.k.f.r.r.w.:.-.*.' _ ) ) ~ b W l Q Q ~ ) _ ' [ ' &.&.-.e.e.t.t.l.p.k.k.j.c.x.l.5XdXfXpXpXaXhXhX].].`.c.x.c.l.c.t.p.f.g.* $ 2 2 , , , 3 3 7 7 p p f 1 O f U.6XaXeX<XwXsXsXeXtXsXtXtXgXhXhXeXtXmXKXKXKXKXKXKXKXKXKXKXKXKXKXKXKXKXKXKXKXKXKXKXKXKXKXKXKXKXKXKXKXKXKXKXPXLXLXrXXXrX$XOXOX$X$XOX$X_.OX_.).).).).v.v.j.j.y.y.:.y.y.[ $.&.} = $ 1 2 2 2 2 3 1 2 t t t t p t t p N p u y y t t 9 r r r r 4 4 4 4 4 * < > * & & & & & $ $ & % & & & 2 > < 1 > p * # -XfXhX<X.XH.z.z.z.z.v.h.h.r.u.u.r.r.;.&.*.-.' $._ _ ~ ! ! z t k m  .*.T.J *.*.O.<.*.O.<.3.3.a.Y.a.Y.Y.Y.U.l.U.U.U. XU. XU. XQ.:XUXhXmXtX;XQ.OXQ.]..XQ.H.m.Q.1.# & 4 4 6 4 4 t t t t p a y a a a a a a s f j f h f c c c H c Z H H H Z D Z S D F F F R v L Q.uXOX$XXXXXXXXX).).).).v.v.v.j.t.t.t.t.w.-.-.[ [ [ [ _ ( _ W W l z q - * % & % * > * < * 4 * 9 & 9 r & 4.h.h.8.:.1.:.4.:.=..._ o.L o.L + 6 , 6 6 6 8 7 8 7 O E.LXKXGXJXJXPXJXJXJXJXJXJXJXJXLXJXJXLXLXLXLXKXKXKXKXKXKXKXKXKXKXKXKXKXKXKXKXKXKXKXKXKXKXKXKXKXKXLXKXLXKXKXKXHXLXxXa p I c D j D Z j j j j j s a a a 9 t t 5 9 6 4 5 4 * w k l W W W Q Q ( ( ` ` ` ] &.*.&.&.w.w.e.y.y.y.s.k.v.t.t.t.j.w.w.:.[ &.[ .._ ( ( Q z $ B 4 & 5 5 t r t 5 p a a a a a a j j j h Z Z D D H F F F G T.G.{.oX{.XXoXoX'.}.{.,X{.}.oX'.oX{.oXoX+X,XoX+XoXoXoXoXoX+XoX}.+X+XwX+XwX+X+XOXXX|.}.wXuXhXAXIXKXKXKXKXLXKXLXKXLXKXKXPXeX|.oXwX|.oX}.'.'.}.'.}.}.`.G.`.|.`.(.(.c.S.e.Y.N.+.7XLXHXLXDXqXQ.+.A j D +.+.+.+.T Y +.P Y I | I I U P F G U U D D D D H D D D D Z c c Z < # , # > a g f < & 4 > 4 < 4 6 4 < 4 6 6 4 4 5 5 t 5 t t 5 t 5 y p p y y a y 9 d a d d g a d d g f h j g h h d h c c Z c c H H +.c O 2 E.HXLXKXLXLXLXLXLXJXGXJXPXGXGXGXHXIXSXSX",
"v.f.f.t.r.r.{ -.&.$.` ` ~ Q W W Q Q ( ) ) ) ' ' &.&.w.;.w.y.t.t.p.s.k.k.c.c.l.l.{.gXjXaXdXUXlX{.|.).`.`.x.x.c.k.p.t.p.m.r @ 3 2 , , , 1 5 3 7 3 1 5 f c 2 % H P.hXmXgX<XtXhXgXtXnXhXgXeXeXmXHXKXKXKXKXKXKXKXKXKXKXKXKXKXKXKXKXKXKXKXKXKXKXKXKXKXKXKXKXKXKXKXKXKXKXKXKXLXLXMXXXrX$X$X$XOXOX$X).OX).OX).).).)._.v.v.j.v.y.v.y.y.:.[ &.*.w - 0 2 2 2 2 < 1 t 2 1 1 1 p t p N p u t y y u r r y t t r 5 4 4 B < * 4 * & & < & & & % $ $ & & & * < < 2 < > : y o O.BX4XOXH.F.H.z.z.z.h.v.h.f.u.u.r.:.;.:.$.-.$._ _ / ! ! ! b x b ! T.T.T.*.T.O.*.O.*.3.<.a.3.Y.Y.Y.Y.U.N.U.U.U.U.U.U.I.P.I. XQ.;XmXUX8X<XQ.OX;X.XL.L.Q.H.h.Q.,.. 4 4 6 4 6 4 t 7 5 9 t a y a a a d d a a g a f h Z Z Z f Z Z Z H H H D Z F F F F | J R U n h.$X$X_.XX}.XX).}.).).).).c.v.v.j.j.t.y.w.w.-.-.[ [ [ _ _ W _ W l n w - = & % & & & < * < 4 * w = 9 w & @.8.8.1.,.>.4.4.4.=..._ ..L o.L $ > 6 6 9 6 7 9 8 s ; , E.JXKXGXJXJXJXJXJXJXJXLXJXLXLXLXLXLXLXLXLXLXKXKXKXKXKXKXKXKXKXKXKXKXKXKXKXKXKXKXKXKXKXKXKXKXLXKXKXLXKXKXLXKXzXY 5 U U j Z D D j D v j j f g s a a a 7 9 t 5 6 4 r B 0 i b Q W ~ ~ ~ ( ( ( ] ' ] ] { { { w.w.y.e.y.y.t.s.l.v.j.t.t.r.y.w.-.-.' $.[ [ ( ( _ l = * 4 4 4 4 t t t t y y d a g d j j j j v Z v Z H Z D F D G F T.3.[.<XoX'.'.+XoX}.+X,XoXwX,XoX+XoX,X}.oX+XoX+XoXwXwXwXwXwXwXwX'.{.'.'.{.<XuXyXIXPXLXKXKXKXKXKXPXLXKXKXKXLXLXKXLXKXLXLXgXl.(.rX+XoXoX'.'.'.|.S.].F.S.x.x.x.(.x.p.Y. X&XU a 0XfX5.T A U Y +.#.@.Y +.+.Y +.Y I I P U I I I P U U D G D U D D D v Z j v v h Z j j 9 6 > % t D t @ & > < 4 & < > 4 < 4 4 < r 5 r 5 4 4 6 t 5 t 9 9 t p p y a a p d d 9 a a g a d g g j g a h d h h h f h h f Z c c p H | H 2 2 ~.LXKXKXLXJXJXJXLXJXPXGXGXGXSXSXFXFX",
"k.k.f.t.r.y.:.-.&.` ` ) ^ Q W b / W ( ( ) _ $.$.] -.w.w.e.e.a.s.k.l.k.k.x.(.x.x.l.eXzXjXjXgX,Xl.|.).|.(.x.(.k.k.k.p.p.m.k $ 2 1 , > 1 , 6 5 p 3 f 1 2 p p 2 2 1 M  XjXUXhXtXeXnXyXeXtXjXIXKXKXKXKXKXKXKXKXKXKXKXKXKXKXKXKXKXKXKXKXKXKXKXKXKXKXKXKXKXKXKXKXKXKXKXKXLXLXLXLXIX$X@X$X$XOX$XOXOXOX_.XX).).).).).v.v.v.v.v.j.:.y.y.[ [ &.*.z - 2 1 2 2 2 2 1 1 t t 1 t 1 t f p d u p y y t t t t 4 t 4 r 4 4 4 < < 4 & < & & & & % & & $ % = & 2 > > r 2 t @ a + & 2X.XQ.H.H.H.F.F.z.z.v.f.f.h.u.u.r.;.;.&.-...' _ _ ! ! Q ! ! ! T.! T.*.*.O.*.O.*.7.<.<.Y.a.Y.Y.Y.U.U.Y.U.U.U.U.U.|.I. XP.%XQ.Q.hXhX.X.XQ.;X.XQ..XL.].H.H.Q.,.+ & 6 4 6 4 5 5 4 t 7 p y y a y 9 a a d a a g h g h f f f Z c Z H Z H H H H H F F F I P R L ..<XrXXXXXXX_.}._.).).).).c.c.v.j.v.y.t.y.:.w.:.[ ' [ _ _ Q Q W l n w $ = $ & & = & < < < 4 * 9 = 4 r 4 :.h.8.1.:.4.:.=.4...=._ ..L } L # > 6 6 6 6 7 9 7 8 h ; O Z.JXKXJXJXJXLXJXLXJXLXLXLXLXLXLXLXLXLXLXKXKXKXKXKXKXKXKXKXKXKXKXKXKXKXKXKXKXKXKXKXKXKXKXKXLXKXLXKXKXJXKXGX+.@ F I D D D D j Z h j j j j a a a 9 7 t 7 7 4 5 5 4 B w N n Q W W ~ ( ( ( ( ] ' { *.&.&.w.{ w.w.y.y.s.t.j.l.v.f.v.t.t.t.w.{ -.[ ' ' _ _ ( ( Q = & 4 6 6 6 t t t t t a a d d a g f h j h h Z H c H D F D F F D D o.U.,X,X+X}.wX,X}.wXoX}.,XoXoXoXoX,X,XwXwXwX+X+XoXXX|.|.|.|.tXhXAXIXKXKXKXKXKXKXKXKXKXKXKXLXKXKXLXLXKXKXKXKXLXLXPXLXJXIXlXoXoX+XXX}.'.'.{.{.].].`.`.`.`.(.z.l.S.~.6X0.X j +.U F R R +.R Y +.F Y I o.I U I Y U U U U U D U D D D D D Z D Z H j h j j j j j j 9 9 6 # t j 2 + & 4 4 > 4 4 4 4 < 4 4 4 4 4 4 4 5 5 4 5 5 9 t t t p t p y p a y a a a a a a g a f g g g d h h h f f c h f c C c T.C h H Z 1 1 f qXFXLXKXLXJXJXLXPXPXPXPXGXPXFXZX",
"k.f.p.t.r.:.w.-.$.' ` ) ! ~ W W W / ( ) _ ` [ $.&.-.e.e.t.t.p.p.k.k.c.l.(.x.(.|.p.oXmXAXsXoX'.|.|.|.).x.x.c.l.k.k.y.r.l.m $ % 2 < , , 1 1 1 1 p 3 p f p p H f 2 2 1 O.5XjXmXkXeXgXhXAXLXKXKXKXLXKXKXKXKXKXKXKXKXKXKXKXKXKXKXKXKXKXKXKXKXKXKXKXKXKXKXKXKXKXKXKXKXKXKXKXLXLXLXuX$X$X$X$X$XOX$X$X).XX_.OX_.).).v._.v.v.y.y.v.[ :.y.-.&.;.T.2 $ 1 2 2 2 < < 2 t 1 1 1 p t t d d t t t y i t r 4 9 4 4 4 4 4 4 < < * * & * & & & & $ $ $ % % % * * > t % a 2 4 4 # 2..X].z.H.F.F.z.v.z.h.h.p.h.r.r.:.e.&.*.*.$....._ ! b b M ! T.T.! J *.*.*.*.7.O.<.a.3.Y.Y.Y.Y.Y.N.Y.U.U.U.U.U.U. XI. XQ.;X.XQ.8X8XOX;X.X.X.X.X.XH.Q.z.H.Q.,.. 4 4 4 6 4 6 5 9 t t t t p y p d d 9 s d f f j f f c c Z Z Z H C H H H A H S F F F F P I o.9 H.uXXXXX$XXX}.}.].].).)._.c.v.v.v.f.t.t.y.:.{ { [ ..[ _ W ( Q W W k = $ & % & & & & < * 4 * * * r * 9 :.8.8.,.>.1.4.4......._ o.L L L & ; 6 > 6 6 6 7 8 6 A F # X E.JXLXJXJXJXLXLXLXLXJXLXKXLXLXLXLXKXKXKXKXKXKXKXKXKXKXKXKXKXKXKXKXKXKXKXKXKXKXKXKXKXKXKXKXLXKXKXKXKXJX#.1 H #.D j Y D Z Z v j j j 9 j g s a a a t t 7 6 t r 4 B i l Q W ~ ~ ^ ^ [ [ ` ] ' ] *.{ w.w.w.y.y.t.t.t.t.v.c.v.j.v.t.t.t.w.w.-.-.-.' ' _ ( _ _ w $ 4 4 4 B r t t 5 9 y p a 9 a f f g h h Z v H H H H D F U F +.F Z H Y.,XwX,X,X}.}.wXwX,X+X@XwXwXwXoXoXoX}.|.].OX<XuXnXIXPXLXKXKXKXKXKXKXKXKXLXLXLXLXLXLXKXKXLXLXKXKXKXKXKXLXIXKXLXLXLXIX5XY.,XwXwXoXXXXX}.|.}.|.'.'.].].G.S.Y.n.q.R./.J T R T E 5.#.+.U U T | T Y I I U U U U P U D G D D G D Z D Z c c Z c j j j j j j 9 d a h t & < % o t & & > * & > < 4 > & 4 * 4 4 6 4 4 6 6 5 5 4 6 t t t 5 p y a y p a a y a a a a a g a d f d f d f f c f h c c C c x C c Z T.F f 2 % 3.dXJXKXKXKXGXLXJXJXGXGXGXPXPX",
"v.v.f.f.r.:.:.-.$.' ` ` ( Q l W W Q _ _ ` $.' [ &.-.w.e.e.t.t.p.c.c.l.S.x.(.(.|.|.|.gXnX,XF.'.XX|.`.`.(.x.x.x.l.v.s.e.h...$ % B > 6 1 1 1 1 1 1 2 p f p 8 7 V f H 3 ; d Y.sXBXUXhXPXKXKXKXLXKXKXKXKXKXKXKXKXKXKXKXKXKXKXKXKXKXKXKXKXKXKXKXKXKXKXKXKXKXKXKXKXKXKXLXKXKXKXKXLXNXOXwX$X$X$X$XOX).OXOX_.OX).).).).v.v.v.v.j.v.y.y.:.w.[ ;.$.0 + 0 2 1 2 2 1 1 t p 1 t 1 1 p k p p i t t r r r 9 4 r 4 4 4 < * < < < & * & & & & & $ $ % % & % > > > > % t 6 4 5 6 m <XXXH.].H.x.z.z.h.h.h.f.r.r.u.r.-.:.$.:.' ' _ _ Q ! Q Q ! T.T.T.*.*.O.*.*.<.7.<.<.a.Y.Y.Y.Y.U.U.S.U.U.U.U. X X X X X X XOXQ.;XOX;X;X;XQ.OXQ.'.Q.H.H.h.Q.8.+ 4 > 6 4 6 4 5 5 t 4 t p y 9 a a a a a 9 s g d h f f f h h Z Z H Z H A H H H F F F Y R U T c 1.<XwXXXXXXXXX_.).).).).).v.v.v.t.t.t.t.r.:.y.[ :.[ [ _ ( ( W Q Q z * - % & & & * < * < * * 9 9 w B 9 8.1.1.1.:.4.4.4.=.....o._ _ L L 4 & 6 6 6 6 6 6 8 7 8 s Z 6 # q.LXLXLXLXJXLXKXLXLXLXKXKXKXKXKXKXKXKXKXKXKXKXKXKXKXKXKXKXKXKXKXKXKXKXKXKXKXKXKXKXKXLXKXKXKXJXLXLXZ., v T U j D U j c Z h h h 9 s j a a a a t 9 5 t 4 6 B * i z n Q ~ ~ ^ ) ^ ^ ] ^ [ ] &.w.w.w.w.e.e.s.t.t.t.p.c.c.v.v.j.t.t.t.y.w.-.-.[ $.[ ' _ _ _ y = 4 5 4 4 t 5 t t t a 9 g a j a f g h c Z Z Z Z Z H D F U F J +.+.F c O.G.<XwXwXwX,XrX+X+XwXOX].].OX,XeXyXlXHXPXKXKXKXLXKXKXKXLXLXLXPXLXLXKXKXKXKXKXKXKXKXKXKXKXLXKXJXPXPXPXKXKXJXdXq.C K C O.Y. X,XwXwXXX}.XXXX'.|.A.g.3.O.Z J C F #.U 5.@.+.U D D U +.T Y R U U U U U D U P D D D Z H H Z c Z c h c h j h 9 j j 9 j 9 g 9 t g t u y . X 4 & & & > & > & 4 * 4 & 4 4 4 < 4 4 < 6 4 6 6 t t 6 t t 6 t t t 9 p 9 a y a a a a a a g a d d f f u f f c C f c c s f H H f f G #.a % > 9.zXLXKXLXJXLXJXLXPXGXHXGX",
"v.t.f.t.r.y.w.-.$.` ` _ Q Q W / ( ( _ _ ` ` $.&.&.-.w.t.t.t.s.l.k.k.c.(.|.(.|.(.|.(.oXwX'.`.oX|.|.].`.F.x.x.c.k.v.t.t.a.;.0 @ 1 > < 1 2 t 1 p 1 p 1 1 7 f p p 7 3 A C 1 : t U.SXLXKXKXKXKXKXKXLXKXKXKXKXKXKXKXKXKXKXKXKXKXKXKXKXKXKXKXKXKXKXKXKXKXKXKXKXKXKXKXKXKXKXKXKXKXLXPXwX$X<X$X<X$XOX$X$XOXOX_._.).).).).v.v.v.j.h.y.y.y.w.{ -.=.z $ 2 2 < 1 < 1 1 1 1 p 1 t p p p f p i t t y 6 4 4 4 9 4 4 4 4 < * < * & & & & % $ % % % $ % $ & & * : < t & 7 4 & % } OX.XF.).F.F.A.x.z.v.f.f.h.r.r.:.:.-.:.[ $.' } _ ~ ! T.! T.T.*.O.*.O.*.7.a.7.a.a.Y.Y.Y.a.U.Y.Y.U.U.U.U.U.U.U.|. X X X X X;X<X8X;X;XOX.X.XQ.Q.].H.H.Q.h.Q.,.. 4 6 > 4 4 6 5 5 t 9 9 t a t y a a y a a a a h f h f h h h C c Z Z H H H H F F F J J U D Y F o.Q.uX$XXXXXXXXX}.}.].).).).v.v.v.v.v.t.y.y.w.w.-.[ [ _ ( ( ( W ( l w - = % & & & < & < * 4 * w 4 B 9 m.1.1.1.:.:.4.=.....X._ } L L L 9 ; 6 6 6 6 6 8 7 s 3 ; V J ; , q.LXKXKXLXLXKXKXKXKXKXKXKXKXKXKXKXKXKXKXKXKXKXKXKXKXKXKXKXKXKXKXKXKXKXKXKXKXKXKXKXLXLXKXLXKXLX~.; U Y v j U U j v Z j h j s j d a a s a p p t t 5 4 < * w k n Q Q ^ ^ ^ ) *.] *.] &.w.&.{ w.e.y.y.s.t.j.t.j.k.c.x.x.v.v.v.j.t.r.w.w.-.-.$.' ' [ _ _ n & 4 < < 4 t t r t p y a a a a j f h h j h Z v Z Z D F F Y F H Y T +.F F | 6.,XrXrX|.`.}.{.oXgXnXmXIXPXLXKXLXKXLXKXLXKXLXLXPXKXKXKXKXKXKXKXKXKXKXKXKXKXKXLXLXKXLXPXLXLXLXLXSXzXE.S 3 K K K S C C J 7.Y.G..X<XL.J.n.6.+.Y J F Y J F H g k h.z.8.8.@.o.o.I P v D U D D D U U D Z D v Z D c c c h h j h j j f g h j 9 g 9 9 y y y r 4 G 4.N - . % % & & & & & > & > & > > 4 < 4 < 6 < 4 4 4 4 6 r 6 t t t 7 t t t 9 5 p y y y y p a 9 a a f d d f f f f f N f C T.f d c G F c t 3.A : ; f B.zXLXLXLXJXJXPXLXJXGX",
"v.f.t.t.r.e.:.{ ' $.` ` Q W W ( Q / _ ' ` $.&.*.w.;.e.e.s.a.p.l.k.x.c.S.S.(.(.|.}.|.|.}.'.XXXX).|.].`.x.x.x.l.v.k.t.s.a.a.B $ 1 1 2 1 1 1 1 1 5 2 y f p 3 7 s s V V 8 V V 2 1 3.LXKXLXPXKXKXKXKXKXKXKXKXKXKXKXKXKXKXKXKXKXKXKXKXKXKXKXKXKXKXKXKXKXKXKXKXKXKXKXKXKXKXKXKXKXLXPXMX$X<X$XuX$XOX$XOX_.$X_.OX).).).v.v.v.v.j.y.v.v.:.w.w.[ r.Q = 2 B < 2 2 2 1 1 1 1 1 1 t i i p k p r y 4 r 4 4 4 4 4 4 4 < 4 * * < & & & & & % % % $ $ $ # % & & > 4 5 & t 5 * # / oXOX).F.x.x.z.A.v.h.h.f.r.h.r.:.:.-.$.-.' .._ _ ! ! ^ T.T. .| *.*.O.a.*.*.a.a.3.Y.Y.a.U.U.Y.U.U.U.U.U.U. X X X X X X X5X;X<X<X<XOXQ.Q..XQ.OXQ.H.H.H.m.Q.,.. 4 > < 6 4 4 5 4 t 5 t t 5 a p y y a a a s a d f f h f c h c Z Z H Z H A H H F F F F U F R R L 8.$X$X$XXXXXXX}.).).].).v.).v.v.j.t.t.t.y.y.w.-.[ [ [ ( ( ( W W Q e - & % & & & * < * * 4 4 w 4 & 9 V.1.1.@.:.:.4.=...X..._ _ n L L 4 > > ; 6 6 6 6 8 K 8 8 8 8 A 8 O ~.SXKXKXKXKXKXKXKXKXKXKXKXKXKXKXKXKXKXKXKXKXKXKXKXKXKXKXKXKXKXKXKXKXKXKXKXKXKXKXKXKXKXLXLX0Xp H U U v F I h j U Z j j j j a s a a a 9 p 9 t 5 t t 4 B N n / Q W ^ ) ^ ] ] *.&.{ { &.&.w.w.e.e.t.t.s.j.f.j.j.x.x.x.v.v.k.f.t.r.r.w.w.-.{ ' [ [ _ _ n 4 * < > r 4 t 4 t p a a a a a s g j h Z j c Z Z Z D F F F F | H H +.#.+.F H *.a.lXgXbXIXPXLXKXKXLXKXKXLXKXPXKXKXKXKXLXKXKXKXKXKXKXKXKXKXKXKXKXKXKXKXKXKXKXKXLXKXLXLXLXSX/.E 3 3 K S E E E E E S S K C C +.0.5.T T R T T T +.R F F F v y u.z.r.v.h.u.=.....X.P P L U D D D D Z D v Z h h h h j j j j j f a f d 9 d y t t y y y 4 < ..Y.4.z - % % & & & & & > & & & > & < < < & 6 , 4 6 4 4 4 6 4 5 5 t 5 p t t t t t t 9 p p a a d p f u d f f u f f f c N C t f H c f f H d p F +.H @ O H U.LXLXLXLXPXJXPXGX",
"v.f.f.t.r.e.-.-.$.' ` _ Q W n ( ( ( _ ' ` *.&.-.&.e.t.e.a.s.p.k.k.k.l.l.S.(.|.|.|.}.oXoX+XXX].XX}.).`.F.x.x.c.v.k.k.t.a.i.r $ 1 2 1 1 1 1 1 1 r f 7 1 p p p 7 8 8 7 V C C H 8 O c CXKXKXKXLXKXKXKXKXKXKXKXKXKXKXKXKXKXKXKXKXKXKXKXKXKXKXKXKXKXKXKXKXKXKXKXKXKXKXKXKXKXKXKXKXHXAXOX$X$X$X$X$XOX$XOX).OX_.OXH.).).v.v.v.v.v.:.:.y.y.y.' :.T.2 = 1 2 < 1 B B 5 t 1 p t 1 p p f p r y 4 t r r 4 4 4 B 4 4 * < 4 > * & & % & & $ % % $ % $ & & % > > 4 @ & 5 < 9 & v OX}.].].F.x.x.z.z.h.f.h.f.r.r.:.:.:.:.$.$..._ _ b ! T.T. .*.*.O.O.*.a.7.a.7.Y.a.Y.Y.Y.U.Y.l.U.U.U.U. X XU. X X X X X5X5X;X<X<X;X;X;XOXQ.Q.Q.].Q.H.V.m.Q.,.. 4 6 < 4 6 6 5 t 5 7 p t t p y a a p a a a g f f h f C h c Z Z Z Z H H H H H F F F J F F F J 9 :.<X$XXXXXXX}.}.}.}.).).).v.v.v.v.v.t.t.y.w.w.w.{ [ [ [ ( [ W W _ i $ & & & & & < & 4 * 4 4 4 9 = M V.,.:.,.:.=.=.X.X....._ L L L L 9 & ; 6 6 , 6 6 7 3 8 8 8 8 s V f   %XJXKXKXKXKXKXKXKXKXKXKXKXKXKXKXKXKXKXKXKXKXKXKXKXKXKXKXKXKXKXKXLXKXKXKXKXKXKXKXLXKXKXfXs 8 +.D D Y D j D U 9 c h j j j j 9 a 8 9 a p t t t 4 6 B r b / ( W ~ ) ^ $.^ ] ] ] &.&.&.w.w.y.e.y.y.p.s.f.j.f.v.x.x.v.v.v.f.j.t.r.y.w.w.-.-.$.' _ ' _ _ r * > < t r t t t 9 a a a g s g j j h c Z Z c v H H F F U I F | +.F F Y +.E S J VXLXKXKXLXKXKXLXLXKXKXKXKXKXKXKXKXKXKXKXKXKXKXKXKXKXKXKXKXKXKXKXKXKXKXLXLXKXLXLXLXqX7.3 K K E E E S S S S S J S S J S S S E 7.7.E T T T R U Y R F F v * 4.z.t.s.t.t.t.v.r.$.$...} D D D j j h D h h h h h h j j j d a g a d y y y y y y y r r r r  .i.i.;.N + $ % # % # & & & & > * < & < < < < < > < 6 4 5 r 6 5 5 5 t 5 7 p t t p 5 a a y y y p d p y p d f f u f f f f N f d f f f h H Z H f f H T.T.p O O 5XLXLXLXJXLXLX",
"f.k.p.r.r.e.e.-.&.' ` ) Q ~ Q ( ! ` ` ' &.&.w.-.w.e.t.t.p.s.l.l.c.(.(.(.).F.`.|.`.XX+XXXoXoX}.}.).).F.).x.x.c.v.j.f.j.r.f.Q   1 1 < < 1 1 1 1 3 p 3 p 3 p 3 8 p f s s f f C V C 2 2 dXLXLXLXKXKXKXKXKXKXKXKXKXKXKXKXKXKXKXKXKXKXKXKXKXKXKXKXKXKXKXKXKXKXKXKXKXKXKXKXKXKXKXKXKXKXbXOX+X#X$X$XOX+XXXXX}._.XX_.).).).v.v.v.v.j.y.y.t.{ w.&.&.k . > 2 2 2 1 2 1 1 p 4 t y y 9 r 9 r r t r 9 9 4 4 4 < 4 < * * & < < & $ = $ $ $ & $ + + % % % % > > > 2 4 < t p > u ,X].H.`.F.z.z.z.z.v.f.r.r.r.u.r.-.-.&.' ' _ _ / n / } | *.| O.*.*.7.a.a.a.a.Y.Y.a.Y.U.Y.U.U.U.U.U. XU. X X X X X X5X,X5XwX5X5X,X;XOXQ.Q.Q.H.H.H.H.H.V.H.1.+ & * & 9 6 4 6 9 4 4 p 5 p p p t p p a s a s f d j s f c Z f c H H C H H C H A F U G P D A T G n [.wX+XXXXXXX}.).).XX).).).).c.v.j.j.t.t.t.w.-.{ [ [ [ _ _ _ n _ W = $ % * * * < & < < 4 4 4 r $ ..b.,.:.@.:.4.4.o..._ ..L ..L n n n = & 6 6 6 6 6 9 6 8 8 s s s V V K X q.LXLXKXKXKXKXKXKXKXKXKXKXLXKXKXKXKXKXKXKXKXKXKXKXKXKXKXKXKXLXKXKXKXKXKXKXKXKXGXLXCXD 5 Y F U D D D D j D j h h h j g f d d y 7 9 t p 5 5 6 & i z Q ( ~ ( ( ^ *.^ ] ] { *.{ e.w.{ e.y.y.a.s.s.a.l.s.l.(.(.|.x.c.v.k.k.f.s.t.y.w.-.&.$.' ' ' _ _ z 0 4 4 > t 5 t t t p a a y j a a j h h Z h Z c H D H D F F I Y F Y | +.T +.+.f zXKXPXKXPXKXKXKXKXKXKXKXKXKXKXKXLXLXKXKXKXKXKXKXKXKXKXKXKXKXLXLXPXLXLXKXJXLXxXW.C 3 S S S S S S E S S S S S S J J S E S J 7.7.7.E E T Y I Y F D U v g g g b.z.p.u.t.w.r.r.-.:.:.-.[ $.' ' ) v c h j j 9 9 a g 9 g a d 9 9 9 p y a p 6 4 4 r r w 9 1.:.:.:.:.z $ . $ * % # 4 # & & & & < & > > * < < > 4 < < 4 4 < 4 4 4 6 t 5 4 t t t t a t y y p p d t p u p p d p 9 g f a d g a j g g h h d h h c h c Z Z p @ f >XJXLXKXJX",
"v.f.f.t.r.e.-.-.$.' ` ( ~ Q Q ~ ^ ` ` ] $.] -.-.e.y.t.t.s.p.l.k.c.l.l.`.).`.|.}.].}.oXoX}.}.}.}..X).F.F.x.x.x.v.f.f.f.y.k.Q X 1 2 2 1 1 2 2 p 1 1 1 p p p p p 8 8 s s f f f f H C 3 3 ~.LXKXPXKXKXKXKXKXKXKXKXKXKXKXKXKXKXKXKXKXKXKXKXKXKXKXKXKXKXKXKXKXKXKXKXKXKXKXKXKXKXKXKXKXNX@X$XrX+X$X+XXXXXXXXX}._.}.}.).).v._.v.v.j.v.y.t.w.{ [ &.W - 2 2 2 1 1 0 2 1 t 4 5 y 9 y i y r 9 t 4 r * r 4 4 * < < < < & & & $ & & & # $ $ $ % + % % & % : * * > 6 < t p > y ,X'.`.H.H.F.z.z.z.z.f.f.h.r.1.:.;.;.-.-..._ _ / / _ } } | T.*.O.*.a.7.a.7.a.Y.Y.U.Y.Y.U.U.U.U.U. XU. X X X X X5X5X X5X5X5XwXwX,X;XOXOXQ.Q.OXQ.H.H.H.V.V.8.+ & 4 & & 4 6 4 6 4 9 5 t p t p p a a a a a j g a f j Z c Z Z Z Z c Z H C A S A F D U D U F T U v d.wX$XXXXX$XXX}.).}.).).).x.c.c.v.j.f.t.w.w.w.-.:.[ [ _ [ _ W Q W w - * * & * * < * < 4 4 4 t = =.b.8.:.1.4.:.4.:.o...L ..L L L n 9 & # 6 & 6 6 6 6 6 8 8 8 8 s V V A 6 ; Z.KXKXPXKXKXKXKXKXKXKXKXKXKXKXKXKXKXKXKXKXKXKXKXKXKXKXKXKXKXKXKXKXKXLXKXKXHXKXSXI 7 Y Y H U D D D A D D j c h h s g g f 9 9 t t p p 5 4 r B u n ( W ( ( ( ^ *.] *.] *.{ { w.w.{ a.y.s.s.s.s.c.c.s.j.(.(.S.x.c.v.j.j.f.t.t.r.-.:.{ &.$.' _ _ ..z * 4 4 > 5 5 4 5 p y y d a a a j j j h h Z Z D Z D G F F F F F Y Y Y T +.T #.f qXKXLXLXLXKXKXKXKXKXKXKXKXKXLXKXKXKXKXKXKXKXKXKXKXKXKXLXLXLXPXPXLXLXLXvX^.7.3 3 K E E E E E E S S S E S S E S J S S S S J 7.7.7.+.Y T Y Y U D U U h c g g 1.H.f.t.f.r.t.t.:.w.w.-.-.&.' ` _ m m n M x x N g 9 d a t p p 5 7 t y t 5 4 6 4 r r w z r.:.:...:.4.L * . + * B $ & & & # & & & & < & > * < & < < & 4 * 6 4 4 5 4 4 t 4 t 5 p t t t t y t p d u p p N d d a a d d f a j g j h d h h h h h c C c Z T.c 2 @ #.fXLXKX",
"f.v.f.r.r.e.w.&.[ $.' ) ( Q ~ ( ) ` ` ] &.&.w.e.y.e.t.p.k.l.k.c.x.l.(.|.).`.|.'.].OXXXoXoX}.oX}.}.).F.`.x.x.c.v.j.t.j.r.f.) o 2 < 1 2 1 1 1 1 t 1 p 3 p p 8 p 8 8 s s f C f f f C H 3 @ B.PXLXLXKXKXKXKXKXKXKXKXKXKXKXKXKXKXKXKXKXKXKXKXKXKXKXKXKXKXKXKXKXKXKXKXKXKXKXKXKXKXKXKXLXbXXXrX$X+X$XXXXXXXXX}.XX_.).).).v.).v.v.y.v.y.r.{ { w.e.) B = 2 1 2 2 1 1 1 p 1 t 9 i y y 9 r r 4 4 4 4 4 4 4 B < * < * < & & & $ & $ $ $ # $ % + + % % % > 2 > > 4 < 5 5 > r .X.X`.G.x.v.z.z.h.v.h.f.r.r.u.:.;.:.-.&.' ' _ _ }  ...o.*.O.O.3.a.a.7.Y.Y.Y.Y.U.U.a.Y.U.U.U.U.U.|. X X X X X5X X X5X5X5XeX5X,X,XOXQ.Q.OXQ.H.H.H.V.H.V.H.1.$ & $ 9 & 9 4 4 6 4 6 p 5 t p y y a 5 a a a a a g f j Z f f Z Z Z Z H Z H F H F F F D F Y F F +.D / ,X@XXXXX$XXXXX}.).].).x.x.x.c.c.j.t.t.y.r.w.:.-.{ [ _ _ [ Q ( _ z - % & < * * * < < < 4 4 4 * @.b.:.,.:.4.4.:.......L L L L n n n & # # 6 , 6 6 6 8 8 8 8 8 s s V 6 R 8 O 0.LXLXJXKXKXLXKXKXLXLXKXKXKXKXKXKXKXKXKXKXKXKXKXKXKXKXKXKXKXKXLXKXKXLXKXKXLX6.# I T Z U D D D D D j j D h h j f a g a a t 9 t t t 4 4 r u z n ( Q ( ( _ ^ ^ ] ] { { *.*.{ w.y.y.s.a.s.s.s.c.s.s.l.x.|.(.x.x.c.v.j.j.p.t.r.w.:.-.&.' ' ' _ ..n B * 4 4 5 4 4 9 4 p y d p a j d j h h Z c Z c Z D D F F F Y | Y F Y Y T +.+.V R.KXLXKXKXKXKXKXKXKXKXKXKXKXKXKXKXKXKXKXKXKXKXKXLXLXLXLXLXKXPXPXvX/.6.S K 3 S E S E S S S S S E S E S E S S S J S S S K S 7.E +.E Y T Y Y U D D D j j g f  .H.z.f.f.p.t.r.r.r.:.-.&.&.[ ' [ ' _ ( ( Q n n b u y 9 t 7 t 6 5 5 4 r 4 4 4 4 r i B n u.:.:.:.=.1.:.n * . $ * $ & % & & & & & > & < & < < * < 4 > 4 4 4 4 < 4 4 t 4 5 t 1 t t p t 7 t t t p p u u p d p a g a p a a g g g g h h h f h h f c c c x H G Z O O 6.VX",
"v.h.f.t.r.e.-.-.&.[ ) ) ~ Q ( ( ^ ` *.] &.&.&.w.e.a.s.p.s.k.l.l.l.(.S.(.).|.|.'.}.XX+XoXoXXX}.'.].].`.x.F.c.c.c.k.f.f.y.p.$.$ : < 2 1 1 2 1 1 1 1 p p p 3 p p 8 f f f f f f f C C f T.V O 6.HXLXLXLXKXKXKXKXKXKXKXKXKXKXKXKXKXKXKXKXKXKXKXKXKXKXKXKXKXKXKXKXKXKXKXKXKXKXKXKXKXKXLXMXXXrXrX$X@XXX$XXXXX}.}.}.}.).).).v.v.v.j.y.j.t.y.w.-.e.&.k o < 2 1 2 2 1 1 p 1 t r y y r r 9 6 r 4 9 4 4 4 4 * < < & & * & & & $ $ & $ # $ $ + + % % & & > * > < 6 < 1 1 > * [.OXH.`.Q.z.A.z.z.h.f.h.h.f.r.r.&.;.&.*....._ _  . .o.%.O.O.<.<.7.a.a.a.Y.a.Y.U.Y.U.U.l.U.U.|. X XU. X X X5X X5X5X5X5XwX<X,X,X,X;XQ.OXQ.H.Q.Q.H.H.V.V.V.8.$ & 9 & & & 4 6 4 4 9 5 t 5 5 p t p a a a s 9 s f d f Z f c Z c Z H Z H H A H Z F D D F U R S T F d m.wX$XXXXX}._.XX_.).).).).).c.v.c.v.t.t.y.w.{ :.[ :.[ [ _ Q ( Q z $ % * B = & * < < < 6 B 4 B 2.2.1.1.@.4.4.o...o.} ..L _ L L n 9 & # 6 6 , , 3 9 6 9 7 8 8 8 V 8 K Z R 6 X B.JXKXLXKXLXKXKXKXKXKXKXKXKXKXKXKXKXKXKXKXKXKXKXKXKXKXLXKXLXKXKXLXLXLXLXB.% T #.Z U U D D A D D j D j h h j j f a a a p t 7 9 6 4 4 r n n ( ( ( ( ( [ { ^ *.*.{ *.{ y.y.y.y.a.a.s.l.s.l.c.l.(.(.(.|.S.x.x.c.v.k.f.t.t.t.w.{ w.:.-.' ' ' $._ w & 4 t 5 5 y 7 t t a a 9 s a j j h h j Z Z Z H D G G F F F F Y Y Y Y +.Y +.Z 0.LXKXKXKXKXKXKXKXKXKXKXKXKXKXKXKXKXKXLXKXKXLXLXLXKXKXKXKXLX/.W.S K 3 K S E E J S S S E S E S S S S S S S S S J S S S S E 7.+.7.+.Y U R U F D U c d f g g M S.z.k.f.f.f.t.p.r.w.-.-.-.-.' ' [ _ ( ( _ ( Q n b z k N y y r r r r 4 < & 4 4 r r w _ h.[ :.:.:...$.:.L 0 . . * $ & % % & & & & > & & : & > > & & & 4 > 4 < 4 6 6 4 5 4 1 t t t t t p p t p t p p p p u a y a a a g a a f f d f f h d j c f h h H d f F | d 2 2 ",
"v.f.p.t.r.w.w.-.$.' ` ~ Q ( ) ) ` $.] &.*.&.e.e.e.t.s.l.p.k.c.c.(.`.x.`.`.|.|.'.'.+X,XoXoX+X}.}.].).F.`.).x.c.c.k.f.k.y.u.-.< % 2 2 1 1 1 1 1 1 3 1 p 7 p p p p p 8 f V f f C f V C f | H O F VXKXKXLXLXKXKXKXKXKXKXKXKXKXKXKXKXKXKXKXKXKXKXKXKXKXKXKXKXKXKXKXKXKXKXKXKXKXKXKXKXLXIX@X+XrX$X+X+X$XXXXXXX}.XX).).).).v.v.v.j.v.y.t.t.w.{ e.;.b - 2 * < 1 1 2 t 1 1 t t t r r r 4 r 6 r 4 4 4 & & > < * & > & & @ & $ $ & $ $ $ + + % % % % * > : > < < 6 < 6 < % x.OX].F.F.z.F.v.v.v.h.f.f.r.8.:.;.*.-.*.*.`  . . . .*.O.O.O.O.<.a.a.a.Y.Y.Y.Y.U.U.U.U.U.U.|. X XU. X X X5X X5X X<X<XtX<X<X<X,X;XOXOXQ.Q.Q.Q.Q.H.V.H.V.H.8.9 & * > 4 < 6 4 6 6 4 7 t 5 a p p a p a a a s f a j f f Z f c c C C c H H Z D D F H F F F R F J +.Z | +X@XOX+XXX}.XX_.}.).).).).).c.c.v.t.t.y.r.w.{ -.[ [ [ _ ( W W n 0 $ % B & * < * * & B 4 B w d.1.,.:.>.4.:...o..._ L _ L n n M n # 6 6 & 6 6 6 6 7 7 8 8 8 8 s V K K 9 A Z # 5.LXKXKXKXLXKXKXKXKXKXKXKXKXKXKXKXKXKXKXKXKXKXKXKXKXKXKXPXKXKXHXKXKXR., H 5.Z H +.D D D D D j j j v h f g g d a a a t 9 9 t 6 B r i ! ( ( ( ( ( [ [ ^ *.*.w.*.w.y.*.a.y.s.a.s.k.s.l.j.c.l.c.(.|.|.|.x.x.x.v.v.k.j.t.t.t.w.{ -.-.' [ _ ' _ u B B 6 4 4 4 t t y y a a g j a j h h Z j v Z H H D D F I G | J I Y T Y +.+.F +.KXKXKXKXKXKXKXKXKXKXKXKXKXKXKXKXKXKXLXLXPXLXLXLXLXJXvXE.E S K K S E E S S S S S E S S S S S E S S S S S S S S S S C S T +.E Y Y Y J J F F D D j d g g h z i.x.l.k.k.f.r.f.r.r.r.:.:.w.{ ' ' ' ` _ _ ( Q W Q l l l l z u k r w 4 B B B B w r w :.h.[ :.:.$._ ..:.:.L * . $ $ $ + & + % % & & % & & & & & : > * & 4 < < 4 < < 1 r 1 1 t r 1 t t t t t t t t p d p p y y 9 a a a a a a g a g a g g g h h h h p H G f f c H p ",
"v.f.f.u.r.e.-.-.&.' ) ) ( ~ ) _ ^ *.*.&.&.&.e.y.t.t.p.p.k.k.l.c.x.x.`.`.|.|.'.}.'.}.+X+X}.}.}.}.XX].).F.x.x.c.v.k.p.f.w.u.1.r @ 1 B 2 1 1 1 1 1 1 p 1 7 p 3 8 8 f 8 p f C f f C f J C f H C 3 f pXLXKXLXLXKXKXKXKXKXKXKXKXKXKXKXKXKXKXKXKXKXKXKXKXKXKXKXKXKXKXKXKXKXKXKXKXKXKXKXLXLXbXXX@X@X$X@XXXXX$XXXXX_.).}.).).).v.v.v.v.j.t.f.y.w.{ ;.^ = = 2 < < 2 0 2 1 1 t t d 9 r r r 4 r 4 4 4 4 4 4 & * < & & & & & = # = $ $ # $ + + + + % % % > * < < > < 6 < 6 - z..X].F.G.z.A.z.h.h.f.h.r.r.r.r.;.;.;.*.*. . . ...%.%.O.O.<.3.3.7.Y.Y.a.Y.U.Y.U.U.U.U.U.U.U. X|. X X X X X5XoX5X<X4X<X8X<X<X;XoX;XQ.Q.OXH.H.H.H.V.h.V.V.:.9 $ 9 > & < < 4 6 4 9 t 5 p t p t p p a a a a f g f j f c c C C c H H c Z Z H F Z F F Y H F F F +.J c .XrX#XOXXXXXXX}.}.}.)._.).x.c.c.v.j.v.t.t.w.{ -.:.[ [ _ _ ( _ _ i = * 0 * * < > 4 4 4 4 * 9 n.>.:.@.4.:.4.o.....L ..L L L n L M & # # 6 6 # 6 6 3 7 7 3 8 s 9 8 9 A 9 K F 8 8 5.JXKXKXKXKXKXKXKXKXKXKXKXKXKXKXKXKXKXKXKXKXKXKXKXKXKXKXKXJXKXKX>X7 j +.F D T Z U D D A j A v j j h j f a d a y y p p 7 t 4 4 u x Q _ ( ( ( ( ( [ { { { { { w.e.e.s.a.s.a.a.k.s.l.c.l.(.(.(.|.|.(.).x.x.v.v.v.f.f.y.t.w.r.-.-.&.&.' _ _ n 4 * t 5 4 y 9 t p p a y a a f h h h j Z c H Z D D D F F J J I Y Y T +.Y +.+.Z KXLXKXKXKXKXKXKXKXKXKXKXKXKXKXKXKXLXLXLXLXLXJXvX/.q.S 3 ; S E E S S S E E S E E S S S S E S S S E S E S S S S S S S S E 7.E +.Y +.J T.F F D D g d g g c N $.x.S.l.z.f.r.f.t.t.r.y.:.w.-.-.$.' ` ) _ ( Q Q W W n l l z k e i i w w B B w i w z h.1.:.-.:.' :.$..._ =._ i . $ $ $ $ + & % + & & % & & : & & > & > < & < < 4 < 1 1 < 1 t t 1 1 t 1 t t t 5 t t t p t y p y a y y a a a d a a d f s f d d h h | f p h Z d C T.",
"v.f.f.t.r.e.:.-.[ ' ` ( ~ ~ _ ` ^ *.&.&.w.&.y.a.a.t.p.k.l.l.x.x.(.`.`.|.|.|.}.'.}.,X+X+X}.oX}.}.].).`.F.F.x.x.c.v.t.k.w.t.1.y @ 2 < 1 1 1 1 3 1 t 3 p p p p p 8 p C V p f f f f J 1 C C 3 J T ; O  XLXLXKXLXKXKXKXKXKXKXKXKXKXKXKXKXKXKXKXKXKXKXKXKXKXKXKXKXKXKXKXKXKXKXKXKXKXKXLXLXNX#X$XrX$X+X$XXXXXXXXX}.XX).).).v._.v.v.v.j.j.t.y.w.&.;.*.i = 2 0 2 < 1 5 2 1 p t t 9 w r 4 r 4 4 4 4 & < * * < & & & & & & = # $ # + $ + + + % % % % * * 2 > r : 1 < 1 t o f.OXG.F.G.z.H.v.z.h.f.r.h.r.r.:.;.-.*.&.*.$.^  .X.O.%.>.3.3.3.Y.a.Y.Y.U.Y.l.U.U.U.U.U.U. X X X X X X X X5X X5X5X8X8X<X<X<X<X*XOXOXQ.Q.OXQ.H.H.V.H.V.h.V.8.* 9 * & 6 < 6 4 4 4 5 7 t 5 p y t a p d a a j s a f f f f C c c C c C Z H H Z Z Z F A F F D U F F +.Z r.@X@XXX+X}.XX}.}.}.).}.)._.x.c.v.j.t.t.r.y.w.{ :.[ [ _ _ ( ( Q N % = 2 $ * < * 4 & B 4 * N V.>.1.:.4.4.o...o.......L L n L M M & 6 # 6 & 6 6 6 7 7 7 8 8 s 8 V A 3 9 S K A S O ^.SXKXKXKXKXKXKXKXKXKXKXKXKXKXKXKXKXKXKXKXKXKXKXKXLXKXLXKXKXdXa D T F A +.U 9 U D A Z D Z Z j v j f j d 9 a y a y t p 5 4 t x ( ~ ( ( _ ` ` [ [ *.*.*.w.e.a.w.s.s.y.a.s.k.k.j.c.c.(.l.(.|.|.|.|.).x.x.v.v.v.j.s.t.y.y.w.w.-.-.-.' _ ../ r & t 4 4 t 5 t a a a a a j f g h h c Z Z Z H H D F F F F Y J | Y Y +.T +.+.f LXKXKXKXKXKXKXKXKXLXKXKXKXKXLXLXKXKXKXLXLX0XE.E 3 3 K E W.E E E E S S S S S S S S E S S S S S S S S S S S S S S S C J E 7.J +.Y J J F F F A v f f h d v x b l.].l.z.k.t.f.u.u.y.y.w.r.-.-.$.$.` ) ) _ ) ( Q W W l l l l k i i i w 4 w r i w l h.:.:.:.:.:.w.:._ _ _ =.L i $ $ $ $ & + $ @ & @ & & & & & & & & > & & & < & < < 2 B r 1 B 1 1 r 1 t 5 t 5 t t 7 t a t 5 a p 9 p a y a d d d d a a d d f j d 1 f H H Z H x f ",
"v.f.f.p.r.e.w.-.-.' _ ) ~ ( ` ' *.] &.e.*.{ e.e.t.p.k.k.k.l.x.x.S.(.`.(.`.|.].}.}.+X+X,XoX}.oX}.'.].F.`.).x.x.v.v.t.k.w.t.f.g o 1 < 1 2 1 1 1 1 1 7 1 7 p p 8 8 p p p C f f C C f C C J S C C +.J O B.LXLXLXKXKXKXKXKXKXKXKXKXKXKXKXKXKXKXKXKXKXKXKXKXKXKXKXKXKXLXKXKXKXKXKXKXKXLXLXLXrXXXrX$X$XXX$XXXXXXX}.}.].).).).v.v.v.v.j.r.t.y.t.{ -.a.l = 2 0 1 1 1 2 1 1 t t t r 9 4 4 4 4 4 4 4 4 * 4 > & * & & & $ % # = $ $ $ $ $ + + + % % % % > > > < > 4 4 5 p o f..X].F.F.x.F.z.z.v.f.f.f.u.r.u.;.-.-.&.*. . . .%.>.>.>.3.2.Y.Y.Y.Y.Y.Y.U.Y.U.U. XU.U. XU. X X X X X5X5X5X5X5X5X8XwX<X<X;X<X;X.XQ.OXQ.Q.Q.H.H.H.V.h.h.V.:.9 * * & & < < 6 4 5 5 t 5 t t p a p 9 s a a a g g s g c f f C c c H C Z Z Z H H F Z F H U H Y | F T G ( wX@XOX#XXXXX}.}.).).).).x.x.c.v.t.j.t.r.r.r.w.w.[ _ [ [ _ ( W ! 2 % % * * r % 4 4 9 4 & g V.=.@.:.4.:.........L L L L n n n n 6 # 6 # 6 ; 6 6 7 6 7 7 8 8 8 8 9 K K 8 K K 9 R   R.JXKXKXKXKXKXKXKXKXKXKXKXKXKXKXKXKXKXKXKXKXKXKXLXKXLXKXBXa g Y Y U T A D 5.j D D D Z h j j j j j a a a a p y y t t 5 4 i n _ ~ ` ( ` ' $.&.&.*.w.{ w.y.{ e.e.a.s.s.s.k.k.c.c.(.l.c.(.(.|.|.|.F.).x.x.v.v.f.j.j.t.t.w.w.-.[ [ ' _ $._ r & 4 4 t 4 7 t y y a a f a a j h h h Z c Z H H D F F I Y G Y Y Y Y T +.Y #.f LXLXKXLXKXKXKXKXKXKXKXKXKXKXKXLXKXKXVXE.V 3 K K S S E S K S S S E S E E S S S E S S S S E S S S S S S S S S C S S K J +.E +.J J Y G J F D D j t h d d c x k l.[.A.z.z.f.f.p.t.u.r.r.w.w.-.-.$.$.$.' ) / ( Q / W W l l z z z k i r w r w i w ( m.:.w.:.[ :.[ $.[ ' _ _ ....= $ $ $ + $ % $ @ & @ @ & % & & & & & & < < < < < < 1 < 1 r 1 1 t 1 r 5 5 4 t 4 5 t t 5 t 9 t t t p y a a a a a a a d d f f g f H d f y f c Z c ",
"k.k.f.t.r.e.-.-.$.' ( ( ( _ ` ` *.&.&.{ e.y.e.t.s.k.j.k.l.x.x.x.(.).|.|.|.}.}.}.wX+X+XoXoX}.}.}.XXF.F.).F.x.x.c.k.k.p.t.e.a. .. 2 < 2 > > 1 1 1 3 t 7 t 7 p 8 p p C 8 V V f V C f V C h C C A A C C 3 T.LXLXKXKXKXKXKXKXKXKXKXKXKXKXKXKXKXKXKXKXKXKXKXKXKXKXKXKXLXKXKXKXKXKXKXKXKXLXKXNXOX$XrX$X$X$XXXXXXXXX_.XX).XX).).).v.v.v.j.t.t.y.w.w.-.:.- = 2 1 2 1 1 1 r t a t t t r < < 4 < < < * < & & < < & & & & $ = $ # + + + + $ o * & + % % : > > < 6 > 2 5 t $ :.oXx..XF.F.].l.h.z.f.h.r.r.r.r.;.e.*.*.*.X.%.O.O.O.O.3.7.a.Y.Y.Y.Y.Y.U.Y.U.U.U.|. XU. X X X X X;XQ.OX;XOX;X<XtX<X8X<X<X<XOX;XOX.X.XQ..XH.H.H.V.m.H.h.m.8.+ & * 4 < 6 < r 1 t 5 t 5 p p t 7 9 t a a a a d f f f d f f c c C b b Z H H C H S H H F F F F J | J I Z N.rX$XXX#X+XXX}.}.}.].).).).c.v.j.v.j.t.t.y.y.{ { [ [ [ _ ( ( ' w $ * & > 4 & 4 & y 4 $ @.1.1.@.:.4.=.......L _ L L L n M z M r + < > : < 1 6 6 6 7 7 9 p 8 9 9 V V A A 9 A j S O 5.JXKXLXKXKXKXLXKXKXKXKXKXKXKXKXKXLXKXKXKXKXKXKXJXKXBXF f T U U U U U D D D D j D j Z j c s j j f d 9 a y p p p t B i b ! ) ` ( ` ` ' &.&.&.{ w.{ w.y.y.e.s.a.s.j.k.j.c.c.l.c.(.(.x.).XX].).).).x.x.x.v.v.v.t.j.t.t.w.:.-.[ -.' ( $.z $ 4 4 6 4 5 t y p u a d a f g j j h h h H H Z H H F G F G F | Y Y Y +.T.Y T.vXLXHXKXLXLXLXLXLXLXPXPXPXJXPXvX/.S 3 K E J E E S S S E S J E S S J S S S S S S S S S S S S S S S S S S S S K S S C Y 7.Y Y Y Y F U F D H v 9 d d g h h c x _ 8.H.H.H.H.F.x.v.f.t.y.w.:.w.-.-.' ' ' ' _ ) / ( ! Q n l x b k e k k B w i k i :.h.u.$.:.:.$.$.$..._ ' _ / ~ _ u - X + & # # & $ @ + $ & & * % % & & & * > > < > * > & 4 6 4 4 < 4 4 4 4 4 6 1 r r 1 t t t t p t y a t d t d a y a a a a d d g j a j g g h h ",
"l.k.f.t.r.:.w.-.' ' ( ( ( / ` ` ] { w.&.e.e.s.a.a.p.f.c.c.x.x.x.`.`.|.|.}.}.XXXX+X+XoX+X}.oXoX}.`.XXF.x.).x.x.v.k.k.t.t.e.a.*.. 2 < 2 2 , 1 1 1 1 p 3 p 7 p p 8 C 3 p p p C V f C f f V Z C C H J F f F LXKXKXKXKXKXKXKXKXKXKXKXKXKXKXKXKXKXKXKXKXKXKXKXKXKXKXKXKXLXKXKXKXKXLXKXKXKXKXIXuX+XrX$X$XOX$XXXXXXXXX_.).).).).).v.v.v.f.t.t.y.w.:.[ :.= % 2 1 2 1 r 1 B t t r r r r 4 4 4 4 * * < * < < * & = & & % % # # & $ + . . + O + % % > & % & > > 4 > < t 5 % _ oX).`.).x.x.S.z.h.f.h.f.r.r.r.e.e.;.*...%.*.O.O.<.<.<.a.Y.Y.Y.Y.U.Y.U.U.U.U.U.U.U.U. X X X X X&X;X;X;X;X;X<X8XtX<X<X<X;X;X.X;X.X.XQ.H.Q.H.H.H.V.V.h.V.1.+ & & 4 > 6 < 1 5 5 5 5 t t t 5 9 t p a a a a p f d f h h h h C b C C Z C H H H H H H F F F F | J J I D 3.,X@X+X+XXXXX}.}.].)._._.x.x.v.v.j.j.j.y.y.:.:.[ :.[ _ [ ( ( _ w = & < < < * 4 & y 4 & >.<.2.:.4.=.o.o...o._ L _ L L L n M x 4 @ > < : 6 < , 6 6 5 7 7 8 8 s s s 8 V A K K A S S 3 6.JXKXPXKXLXKXKXKXPXPXKXKXKXLXKXKXKXKXKXKXKXLXKXSX6.f F T R R U U U D U D A D D j j h h j g s g a a a p a p p 1 r z ~ ^ ^ ( ` ` ` ] &.&.&.*.{ e.e.{ a.s.s.s.s.k.j.k.k.x.(.(.(.(.(.).XX}.).`.).x.x.x.v.v.v.f.t.t.y.w.:.-.:.-.' ( ' W * B 4 4 4 t t t p a a a f d f f h f Z Z h h H H H F F G J F Y T Y Y Y 0.O.3 5XLXJXKXKXKXLXLXLXLXLXJXGX/.E K K K E E S E S J S E S E S S J S S S S E S S S S S S S S S S S S S S K S S K S S C C J 7.| Y +.F Y F F D H h d u f h g x c L y * = = w W ( :.r.h.z.A.h.f.u.-.-.-.' ' _ ( ( Q Q Q Q W n l l l z z k r w i k w ..h.f.r.-.$._ ..$.' ..' ..) ) $.n i - X X . + $ $ = & & $ + o & & % % % % & & & < < < < < * & 4 4 4 > < 4 < 4 t 1 1 t t 1 t p y t p t a t t p a a a 9 a g 9 a a a g g f f g f ",
"k.k.f.s.r.r.:.-.$.[ _ ( ) ) ' ' &.&.*.y.e.e.t.s.s.p.k.l.l.c.x.`.(.|.|.}.}.}.XXoX+X+X+X+XoXXX{.}.].).).).F.x.x.c.k.k.p.a.e.i.*.= % < 2 2 2 1 1 2 1 3 3 1 p p p p 3 p 8 C p f f V V C V C C H C C H F V f JXLXJXKXKXKXKXKXKXKXKXKXKXKXKXKXKXKXKXKXKXKXKXKXKXKXKXKXKXKXKXKXKXKXKXKXKXKXKXLXnXXX$XrX$XOX$XOXXXXXXX).XX).).v.).v.v.v.v.t.t.r.y.w.:.:.k % % 5 < 2 t < r t t r < 4 r 5 * 4 4 4 4 * < & & * & & & & % + w $ + + $ $ + . + + + % * % % : > * > 4 , 4 5 % l <X].F.F.x.z.S.m.z.h.f.h.r.r.r.e.*.*.*.*.%.O.O.<.3.7.a.a.Y.Y.Y.U.Y.U.U.U.U.U.U.U. X X X|. X X X&X;X;X;X;X8X8XtX<X<X<X<X;XOX.X.XOXQ.L..XH.H.H.H.H.h.8.V.8.. # 4 < < 4 > 1 4 4 5 4 9 t 5 t t 7 9 p a d f f d f d h f C f c C T.C H A F H H A S F H F F F J I I I F P ].rX+XXXXXXXXX}.).].}.).).x._.v.j.j.y.t.r.w.w.{ [ [ [ _ _ ( _ z & $ < > & 6 4 & 6 4 < <.<.1.4.4.4...4......._ L L n n M z v t @ : < : 4 6 < 5 6 7 7 8 p 8 a s V V V V A K A 8 E V O 6.LXLXJXKXKXHXKXKXKXKXKXKXLXLXKXKXKXKXKXPXKXJXn.1 F +.T U U U U U D D D A D D j j Z j j a j s a a y a 9 t 6 1 z ! ! ^ ^ ` ^ ` $.&.&.{ { *.y.{ a.s.a.s.s.s.k.k.c.c.c.l.(.(.).|.(.}.XX}.].).).F.x.x.c.v.v.t.f.t.t.y.:.-.-.-.' _ -./ 4 & 9 t 4 t t y p y a d a d f g h h h c Z H c H H F F Y G Y F Y Y +.Y C 7.C 5XLXLXLXKXPXKXLXLXGXxXW.E 3 K S E E S E S S E S E S S S S S S S S S S J S S S S S S S S S S S S S S S S S S C S C C Y 7.| Y F F F F D H v j g d g h N c H v 4 & * = $ = - . - 0 w N M L / 1.r.u.:.r.:.;.w.' ) _ ( Q W l z l e i k i B i u - = x <.d.:.*.r.-.$.' ' ' _ ) / _ _ L N * . . . . . + & & & & & % # % % & & > < % & * & < > < 4 & 6 < 4 6 4 < 4 1 1 1 r 1 t t 1 p t t t t t p y y a p a a a y a f f g a f g d a ",
"f.l.f.p.r.w.-.-.' .._ ( ) ` ` $.&.&.e.e.e.y.p.p.l.k.c.l.c.x.x.(.(.|.|.|.}.'.}.XXwX+XoXXXoX}.oX}.].XXF.F.x.x.x.v.k.f.p.p.e.a.*.0 % 2 < 2 , 1 1 1 1 p 1 p 3 p 7 7 f p C p V C p V f C h h Z C A A C J C 2 zXKXPXKXKXKXKXKXKXKXKXKXKXKXKXKXKXKXKXKXKXKXKXKXKXKXKXKXKXLXKXKXKXKXKXKXKXKXLXLXIXOXXXrX$X$X$XXXXX$XXXXX).).).).).v.).v.j.j.t.t.w.w.-.:.b = $ r 2 < 5 2 r a u t r r < 4 4 < < * < & & < & & % & & % % + + . + # $ # # . % % % + % % % > > > < > 1 5 5 * u oXG.z.F.].z.z.z.h.f.f.h.u.r.r.e.e.*.*.%.%.%.3.7.a.Y.Y.Y.Y.a.U.a.U.a.U.U.U. XU. XU. X X X X5X5X%X;X<X;X<XtXtX8XwX4X<X<X;X;X.X;XQ..X.XQ.H.H.V.V.h.V.h.m.8.+ $ 9 > < > 4 4 4 5 5 5 4 7 t 5 9 t t a y a p a d f f f f f c C b C C Z Z C A H H H H F F H J T.I J I +.f i.wXwXXX+XXXXX}.XX).}.).).).v.v.v.j.v.v.y.y.w.:.{ :.[ [ _ [ ( n 0 + * 4 & 4 < 4 r * r 6.<.<.:.=.4.=.....L } L L L L n z M x y % & < : , , > 6 6 5 7 7 7 8 8 8 s s V V A j K S 8 R A # q.JXLXLXLXKXKXKXKXLXKXKXKXLXKXKXKXKXJXKXLXZ.t Y +.+.Y U U U D D D A D D D j j h h j j j j d a a a t t r 4 i b ! `  .^ ] ] ` ] &.&.&.{ w.w.y.y.a.s.s.s.k.k.k.c.j.(.(.(.(.|.(.|.].XX}.).].).).x.x.x.v.v.v.t.t.t.y.y.:.:.&.-.( [ $.k = 4 4 t 5 p t y a a a f a g j h h h Z h Z H H H F D F J F Y J Y Y E E q.p q.LXLXLXKXKXKXvX^.E 3 K K S E E E S S S E S J S S S E S S S S S S S S S S S S S S S C S S S S S S S K S S S S S C C J +.J F Y F F F D Z c y 9 g d f f c H g 4 & 4 w B & * w 0 - . . X . - = 0 0 k b / ) ' *.$...' [ ( ( ( ( z z N i r 4 r % X . N =.:.:.*.:.&.$._ ' ..) ! n n L M x N t * + . X X X . . o & & & & : & & % > & % % & & & > < & < < * 4 > 4 1 B 1 1 r 1 t r t t t 5 p p y t y t p a y a a a d a a g a a d f ",
"l.k.p.t.r.r.-.-.[ ` ( ) ` ` &.&.&.*.e.e.e.t.a.k.p.k.k.x.c.x.F.`.|.`.|.'.}.'.oX}.@X@X+X+XXXXXOX}.`.XXF.).F.x.z.z.c.f.s.p.e.a.e.i % : , > 2 2 1 1 t 1 3 p 3 f p 3 3 C p f f f 8 C C f C V C H C H C J C 2  XKXJXKXKXKXKXKXKXKXKXKXKXKXKXKXKXKXKXKXKXKXKXKXKXKXKXKXKXKXKXKXKXKXKXKXKXKXKXKXLXbXXXrX$X$X$XOX$XOXXX_.XX).).).).v.v.v.v.v.j.t.y.y.w.w.*.B % 1 < 2 4 2 r t t a t 1 < 4 * 4 < < * < > & & & % & % $ + + o $ * % . X   X X % < % o % 2 : > > < < > 4 5 < i .X.XF.F.].z.z.z.h.h.f.r.r.u.:.e.*.*.<.*.*.O.3.a.a.Y.Y.Y.Y.Y.Y.U.U.U.U.U.U.U. X X X X X5X X5X X;X;X<X<X8XtXtXwX8X<X<X<XOX;XOXQ.Q.L.H.H.H.V.H.h.H.m.h.m.1.+ & & < > < 4 1 4 6 4 5 t 5 t t 7 t t p d p d a f d d x f C c C c C b Z Z Z H H H S A J H F F F I J | T j 4.,XwXXX$XXXXXXX}._.].).).).).v.v.j.v.j.v.y.w.w.:.[ [ [ _ _ ( _ i + B 4 & 4 B B 4 * i b.>.=.4.=.........} } L n L n n z M x d @ % 2 : > > , , 6 7 5 5 8 p 8 s V 8 V s A A V A A S R A # 5.JXKXHXKXKXPXKXKXKXLXKXKXKXKXLXLXLXKX^.7 | 6.F Y F U U D U D D D D D D D j j j g d f a a a a t t t < r z ~  .^ ^ ^ *.*.] *.{ &.w.w.y.e.s.y.s.s.s.k.k.j.c.(.(.(.x.(.(.|.).'.}.}.|.}.}.).).F.x.x.v.v.v.t.t.t.w.w.:.w.-.&.] ` *.b % r 4 r t t y a a a d a f f f h Z f c Z H Z H H F F F F F Y I +.Y T +.7.2 6.LXPXGXvX-Xq.K ; K S E E E E K K S E S E S E J S S S E S S S S S S S S S S S S S S C S S S S K S K S S K C C C C C J +.J F Y F F F Z c f t N N N x x c H 9 = = * * * 4 w = B * B B 0 B * + - . - . . . . r w k k z l Q Q ( n Q n z i * o % < & o r *.i.&.&...[ ' ` $. .! ~ b x x n m L M x g t r & $ - + X . # # @ % 2 < & & & & & % & & & & < & < < < < 0 < 1 < 1 r 1 1 t r t t t t t t t t 9 9 t p p 9 y a a a a d f d ",
"k.k.p.p.r.e.:.-.$.` ) ~ _ ' &.*.&.{ y.e.t.a.s.s.k.k.k.x.x.`.`.`.|.|.}.'.}.}.XX+XwX@X+XoXXXOXOX'.XX).F.F.x.x.x.v.f.j.p.p.e.a.a.k % : 2 > > 1 1 1 3 1 p 1 p 3 p f p 8 8 3 p C C p h V f C C C C C C F H 1 O.LXLXKXKXKXKXKXKXKXKXKXKXKXKXKXKXKXKXKXKXKXKXKXKXKXKXKXKXKXKXKXKXKXKXKXKXKXKXKXLXNX$X$X$XOX@XOX$XOXXXXX).XXXX).).).).v.v.j.f.s.y.y.w.w.*.N % 2 1 2 1 1 4 < < r r 4 < r 4 < * < < & * * & & & % & % % + & # X X . & 9 M   O & % % * < $ > & < < > > 5 1 r H..X.Xz.F.F.z.z.h.v.r.f.u.r.r.e.*.;.*.3.O.a.<.<.7.Y.Y.a.U.U.U.U.U.U.|.U. X X|.|. X X X X5X5X5X;X<X<X8X<X8XtX<X<X<X<X;X;XOX;X.XOXQ..XH.H.H.H.H.m.m.8.m.8.+ & * > < < > < 1 4 4 5 5 4 9 9 5 5 9 y p a a d a a f f f c f f f c c H Z H C H C H H H F H F F J T.J I U P V.@X+X$XXXXXXXXXXX).}._.).).)._.v.v.j.t.t.r.y.y.[ :.[ [ _ ( ' z $ $ B & 4 * 4 B & x N.=.<.4.=...o...} ..L _ L L n v z z x d % % < & 6 > 6 6 6 6 3 7 7 8 7 8 8 V s V 9 K A V S A S S K A #.LXKXJXLXKXKXKXKXKXKXLXKXLXLXKXLX>Xh F #.Y Y F Y U U U D A D A A A j A j D j j j g a a a 9 t t t r u m ) ^ ^ ^ *.] ^ { { { { w.y.e.s.s.y.s.s.k.k.c.c.x.(.(.(.|.(.).|.).}.oX}.].}.}.).`.).x.).x.x.v.v.v.v.r.t.w.:.[ w.] ` &.Q * B 4 1 t t t p u a p d f g h h h c Z h c H H H F F F F Y | Y | Y +.H 7.| Z.DXxXW.K 3 3 K E E E S S K S E E S S S S S S S S S S S S S S S S S S S S S S S S S S C S S S S S S K S K S C C C S J | J F F F F H Z f f t f f f f c H c w 0 w i * * * * $ = = = * = = = = & 0 = = = = = . . . . - $ - = w w i i i y < X O + + X . * ! a.$.-...$. .! m Q m m m n n m n m } } / ! m M g g * $ + . . o + $ o % & & < < & & & < & < & > < & 2 1 1 < B 1 1 r 1 1 1 t r 5 t 5 5 t t t y p p t a y y a u a a d ",
"k.l.f.s.r.e.:.-.$.` ) ( _ $.&.&.&.w.y.p.e.p.p.k.k.l.c.x.x.x.`.`.|.}.|.'.}.oX}.+X+X+X+XoXXXOX}.'.].].].`.F.x.x.z.k.f.p.p.e.p.a.b - : 1 2 2 , 1 1 3 1 3 p 3 p 3 8 p p 8 C 8 p 8 C V V V Z A C C H C J F C 5 JXKXKXKXKXKXKXKXKXKXKXKXKXKXKXKXKXKXKXKXKXKXKXKXKXKXKXKXKXKXKXLXKXKXKXKXKXLXLXKXPXrX$XwXwX$X$XOXXXXXXXOXXX).H.).).v.v.v.v.v.t.s.y.w.r.a.Q 0 % < < 2 5 f r < 4 4 r 4 4 < < < * & * > * & & % % % $ + # . X X & v ,.n.M.% . o & % & : % < % > 6 > 1 1 1 4 / u.OXH.z.S.x.z.h.v.h.u.f.r.1.*.;.<.*.*.Y.<.a.Y.a.Y.Y.U.Y.U.U.U.U.U.U. XU. X X X X X5X5X X5X5X1X<X4X8XtXtXtX<X<X<X<XOX;X;X.XQ..X.XQ.H.L.V.V.h.h.H.1.m.8.$ & 4 & < < < < 1 6 6 4 5 5 5 6 t 9 7 a y p y p a f d f f f f c C c C Z Z Z Z H H H H H H F H G J J J U +.j @.oXrX$X$XXX}.XX_.].).}.)._.v.).c.v.v.t.t.r.:.w.{ :.:.[ [ ( _ n 0 = * B B * t B & M M.=.=.4.=.X...o._ L _ L n n n z M n z x @ % 2 > > % 6 > 6 6 6 5 7 7 8 8 s 8 s s V K V R 3 K R A R S # 0.LXKXJXJXKXKXKXKXKXLXKXLXLXLXzXZ Z 5.F F #.F Y U D U D U A A D D D j j j j j 9 a a a p a p t t r b ) ) ` ` ] ] ] &.{ &.e.{ y.y.a.s.s.s.l.k.s.l.c.c.x.(.(.(.|.).|.|.|.}.oX}.}.}.'.].).).F.x.x.v.t.v.t.t.t.y.r.w.w.[ { ` $.) w > r 5 5 p t u p a a f f f f h f Z c Z Z H H H F F F Y J F J Y Y Y T.+.E S E C K K E E E E S S E E S S S S S E E S S S S S S S S S S S S S S S S C S S S S S C S S S K S K K K S S C C C C S | +.T.F F H H H f f d p N f u c c c c w B w = - * * * 4 * * = = = 0 w = = = = = - $ - = = = $ - . . .   X - - = z v i 4 % % & X   . k ..$.=.$. .T.n n c m T.T.m n m m x M n ! L L G m } L x y t = $ o + # + @ % & & < & : & & & & > < < * < 2 < 1 1 1 1 r r 1 1 r 5 t 5 t 9 t t t t 9 y a a a a p p p ",
"k.l.s.p.r.w.:.-.' ` ( ) ` *.&.-.e.*.e.e.e.s.p.k.k.l.l.x.x.(.`.).|.|.'.}.}.}.oX}.wXwX+XoXXXXXOXXX}..X`.`.F.x.x.l.v.f.p.s.e.a.p.Q o : > 1 > 2 1 1 1 1 1 1 3 p p 3 p 8 p p V p C f f V V Z C Z C C C H | J O SXKXJXKXKXKXKXKXKXKXKXKXKXKXKXKXKXKXKXKXKXKXKXKXKXKXKXKXKXKXLXKXKXKXKXKXKXKXKXKXKXbX$X$X$X$XOX$XOXXXXXXX).).).).).).v.v.v.j.s.s.y.w.w.r./ 0 $ 1 1 : t P x r < r 4 < 4 4 * < < * > & & % % & $ & $ + o X 4 o.n.C.B.b.9.c + O % & + % > > > > 4 < 2 r < B = m .XF.x.F.x.z.v.h.p.h.r.u.:.a.*.*.*.O.<.7.Y.Y.Y.Y.Y.Y.l.U.U.U.U.U.U.U. X X X X X5X X5X5X5X5X<X1X<XtXtXtX8XtX<X<X;X;XOXOXQ.OXQ.Q.H.Q.H.H.H.m.V.h.8.m.8.$ & & < > : < 1 4 4 4 t 5 t 5 4 t 5 t p p a p a d p f f d f c f c C c Z Z Z Z H C F C H F F F J G F | Z 5.Z v OXrX$X$XXX$XXXXXXXXX_.).v.).v.v.v.j.t.t.y.y.w.:.[ [ [ [ ( ' Q w + B 4 & * r & & M M.>.=.4.4.......} _ _ n L L n n x z z c @ % < > < ; > , , 6 6 7 7 7 7 8 8 s V j V 8 K K S A K S A A R O 6.HXKXLXKXKXKXLXKXKXKXJXKXFXa D T T +.Y F Y H U U D U D D D j D j j j j j j j s a a a 5 p t 4 N Q ) ) ^ ] *.^ { &.&.&.{ { y.y.s.a.s.s.l.s.c.c.c.c.(.(.(.).(._.|._._.}.+X}.'.'.].).].).).x.x.v.v.f.v.t.t.y.r.:.e.[ w.` $.$.u * 1 t r t a p y a a d d f g h h h Z h c H F G F G F F G Y Y Y Y +.7.T.7.J J S E E S S K S J E E S J S S S S S S S S S S S S S S S S S S S S S S S S C S S S S C S K S K S K S K K C S C C S J J J F F H H H V f p d f c u f c H d = * * * 4 w w $ * & = = = = = = = = = = = = = = - $ - $ $ + $ $ $ $ . X = ..b.2.>.,.O.P v v d % m ) ..4...T.} o.T.G m m G } / }  .} T.P ! m ! } m } } X.X.T.c c t < % o X O + @ & & & < & < * > < 2 < < < 1 B B 1 1 1 1 t 1 t 1 t 5 5 t 7 t t p t t a y y y f u ",
"l.l.j.r.w.r.w.[ ` ` ` ` ` { { ;.w.e.e.t.p.p.k.l.l.c.x.x.(.`.`.|.|.}.}.}.XXXX+XwX@X+X+X+XoXoXoX|.}.|.|.(.`.x.x.l.l.k.p.t.t.e.w.;.- 2 2 2 2 2 1 5 1 5 t 7 1 p p 7 p p p C p C C f f C C C c C C H F 3 T C 3 R.LXLXKXKXKXKXKXKXKXKXKXKXKXKXKXKXKXKXKXKXKXKXKXKXKXKXKXKXKXKXKXKXKXKXLXLXKXJXLXKXLX}.#X@X$X$X+X$XXXXXXX}.}.}._.).x.c.c.j.j.v.p.t.t.t.&.p.i + 6 # 5 Y @.I f 4 & 4 r 4 $ * B * & % & & $ & B * .   . 9 B.C.B.q.n.n.9.9.0.9   & & . < # * > > < < < 1 r 4 4 . N P..Xf.A.v.x.k.k.v.r.:.u.4.=.>.<.<.1.2.8.Y.U.Y.U.U.U.U.U.U.R.U.[. X X X X X,X5X,X5X5X5X5X4X4XtXsXtX8X<X<X<X<X<X;XOX;XQ.OXH.Q.H.Q.H.H.V.h.h.h.h.h.1.& $ & & > > > < < < 4 4 5 4 9 t p t p y p y p d f d f f d f d c Z h c Z Z Z Z Z F Z Z F F F F F J F J Y J | G Y.wXwX+X$XXXXX}.XX}._.).).)._.v.v.v.j.j.v.y.r.w.-.-.[ [ [ _ _ k * * $ 4 4 5 4 & @.2.>.=.4.......} } _ / L L n M 9 n n 9 u < # $ # & ; , , 6 4 5 7 7 7 7 a 8 a s s V V V A A A A A R R A J ; 7.JXLXJXLXKXPXKXLXLXLXCXE Z +.T T Y Y Y Y F F F F G D A D D h Z c j j g a 9 7 f t 6 f t r u ) ^ ] ` *.] &.] w.{ &.y.y.e.s.e.a.s.s.s.l.c.c.c.(.c.(.(.(.|._.|.XX).}.XXXXOXXXXXXX).).).).).v.v.v.v.j.j.j.t.t.y.w.:.:.' _ $.Q $ 4 t t 5 p t t p d p f f g f j h h h Z Z D D P D F U F U Y I Y Y +.T J J J E S S J E S S S E S S S J J S J S S J S S S S S S S S C J J C J C S J S C S S C S S C C C C S C C C C C C V C J +.Y F F H Z H c j a t 9 j c f u c n 4 w * * * * 0 = B = * = = & = = = - = = - $ $ = - $ $ - $ - - . - =   - w i u Y.4.@.@.>.>.>.>.>.3.%.c = * t ! | |  .%.4.X.X.%.%.T.}  .} T. .T.T.T.T.T.T.} }  . .o.4.4. .c u < + . o o o @ > * & & 2 & & % & > < 4 & < < 4 t 5 4 4 1 4 t t t t 1 t t t p y p u p d ",
"l.s.t.f.p.-.&.e. .` ` $.$.] { w.w.e.e.t.s.k.k.p.k.c.c.`.(.F.`.}.|.}.}.}.}.oX+X+X@X@X+X+XoXXX}.oX}.|.|.|.(.`.x.x.k.k.p.t.t.e.e.;.- 2 > > < < > 4 1 1 3 1 7 3 3 p p p p p p f p C C f C f C C H C J V J H 3 q.KXKXKXKXKXKXKXKXKXKXKXKXKXKXKXKXKXKXKXKXKXKXKXKXKXKXKXKXKXKXKXKXKXKXKXKXKXKXKXLXLXuX+X#X@X$X+XOXXXXX}.}.}._.H.F.F.z.c.c.v.t.t.r.w.{ y.e.l * % % c 3.+.+.P f 4 & < < B 4 B & % * < r r .     * P n.Q.B.Q.C.B.n.n.n.0.Q.o.+ X & & # * > * > < < < < 1 5 p 4 $ x D..Xu.A.k.f.y.u.g.p.=.:.=.<.1.2.2.2.b.Y.Y.U.Y.Y.U.U.U.U.[.I. X{. X X X X X5X5X5X5X5X5X4XtXsXtXtXwXtX<XwX<XOX;X;XOXQ.Q.OXQ.H.H.H.H.H.h.V.h.8.8.8.$ $ & 6 > > 4 < 4 6 6 5 4 6 5 t t p t p a p d p a a a f d h h f f c c H c Z Z H D D F F F F H F F J G F F +.F X. XrXXXXX$X$XXX}.}.}._.).).v.).v.j.v.t.r.r.w.w.{ :.[ :.[ ( ' z = * * 4 * 6 * & 4.2.>.=.=.=.%.....} } L n L n M n z z 9 N B + % & ; ; > > , 6 5 6 1 7 p 8 a 8 s s s V j A A 9 S K A A S J E 3 7.JXLXKXKXKXPXLXKXCXB.Z T T T Y Y Y U U F F F D F D D j D Z j j c g j d s 9 a 9 a t t t b ) ` ` ] ] ] { &.*.{ { w.e.y.s.t.s.a.l.s.s.l.c.j.l.(.(.(.(.|.|.}.}._.}.$X$X$XXX).).OX].).).).).H.v.v.v.t.t.t.r.w.:.-.:.' _ $.( * r 4 4 t t t y p p d a d f h j h h H c Z D D D D G F U U F Y Y Y T R E J J J S E J J S E S S E S S J J S S J J S S S S S S S S S J C C J C J C C S C C C C C C C S S C C C C C C C C V C J Y F F H A c H c g t p a g h h g v M 4 * * B * * * B * = * = * = = = & = = = = = $ = $ $ - - $ - - . - . - q e i k 9.>.,.@.>.>.>.>.>.%.X.@.T.B . o - = 0 < N m M c T.>.%.4.4.X. .o. . .o. . . .|  .|  .T.T.| X.4.4.X.4.g y < % # + # o * 2 < r 4 4 > & & 6 < 4 r 1 4 6 < < 1 4 t t t t 7 t t t t p p d ",
"l.k.r.t.f.w.-.e.` ` $.^ $.*.{ w.e.e.y.t.p.p.k.k.l.x.x.(.F.`.`.|.}.}.}.oX}.+X+X@X@X@X+X+X+XoX}.}.{.|.|.|.(.`.x.x.k.k.k.t.r.r.e.;.= % & < < 2 < 1 1 1 5 p 1 7 p p C p p p p f C p C f f C C Z H Z C H C J V +.JXKXKXKXKXKXKXKXKXKXKXKXKXKXKXKXKXKXKXKXKXKXKXKXKXKXKXKXKXKXKXKXKXKXKXLXKXKXKXKXKXPX@XrXrXrX$X$X+X+XXX$X_.XX}._._._.v.v.h.f.p.t.y.e.y.-._ 0 o f F U D U +.F a 4 & % 4 < & B B * % o   O 9 @.C.!.!.Q.Z.B.V.n.n.q.n.0.0.8.9   & 4 + 4 * > > > < 1 < < 4 < 5 & . b S.[.l.p.v.z.r.u.p.$.=.<.1.u.i.i.b.N.Y.Y.Y.U.U.U.U.U.U.|.I. X X X X5X5X5X5X5X5X5X5XeX8XtXtXtX8X<X8X<X<X<X;X;X;XOXOXQ.Q.H.H.Q.V.h.H.h.h.h.h.8.8.$ & & > > > > , < 6 4 4 5 5 t 5 p t a a p a a a d d a d f f h c h f H c Z Z H D A Z F H F F F G J G J F Y +.I c m.uX+X$X$X}.XX}.}.XX_.).).).v.v.j.v.j.j.r.r.y.:.{ [ [ [ ( ' Q * & * 6 4 5 4 B 3.,.=.4.%.%.......} / / L n n v z z 9 z N w $ $ & # ; > > 1 1 6 7 7 7 7 8 8 a s V V V A A 9 K A S S A S K E K ; 5.JXLXLXKXKXLXPXB.9 F E T Y T Y U U F Y F U F D D j Z v h v j j j g a 9 a 9 p d 1 r b T.^ ] ] ` ] &.&.&.w.&.w.w.e.y.a.s.s.s.s.l.c.l.(.c.(.x.(.|.|._.|._.}._.}.OXOXXXXX}.XXXX).).).).).v.v.v.v.t.t.t.y.y.w.{ :.$.' $._ w r < 1 t p t a t a p a f h f h h h Z c c Z D F D F U F Y Y Y Y Y E T J J E S J J S J S J S S E S S S J S J S S S S S S S S S C S S C J J C J J C C S C C S S C S K C C C C C C C C C V C F Y F F F H h Z g g a y f g j d g v N * * B 0 * * 0 * = = & * = & = = $ = $ $ $ - = = $ - - - $ - - . - . q e k k k i.Y.,.,.3.3.<.>.3.3.>.>.3.o.u . . 2 % - - $ % $ 2 B z c m T.X.%.3.2.>.>.4.O.o. . .|  . .X.%.X.%.4...,.<.X. .m N t B . . O o + % < 4 4 4 & % ; : 6 5 5 r 5 5 1 t 1 t t t t t t t d t ",
"k.A.f.-.t.w.-.-.` ) $.$.*.{ *.e.y.e.t.t.k.k.k.c.c.x.x.x.(.`.|.|.}.'.}.}.}.XX+XwX@X,X+X+XoXXXXX}.}.|.|.|.F.x.(.l.v.k.p.p.t.t.t.u.B + % 1 2 1 > 1 1 1 1 1 7 t p 3 3 p p C C p p C f f C f f C C C C J V J V 7 CXKXKXKXKXKXKXKXKXKXKXKXKXKXKXKXKXKXKXKXKXKXKXKXKXKXKXKXKXKXKXKXKXKXKXLXKXKXKXKXKXJXv.].OXOXOXoX=X>XXXXXXX$XXXXX}.XX).).(.v.j.s.s.y.&.w.u.0 - Y #.Y F U Y Y U h 4 @ % & r 4 % O   X N @.Q.:X^.!.Q.Z.Z.B.Q.q.C.V.V.B.9.Q.,.& . 4 # * > * > * 1 > < < & & & 4 * o z [.H.f.f.z.f.r.u.=.:.1.2.2.2.Y.Y.N.Y.q.U.U.U.U.U.U.U.R.{. X X X X X,X5X5X5X5X5XeX3XsXtXsXtXtXtX<XwX<X<X<XOXQ.Q.OXQ.Q.Q.H.H.V.V.h.V.V.h.8.h.8.$ $ & > & > & < 6 < 4 6 5 5 5 t t p t p y p a p a d f f d d h h h c c Z c Z Z Z Z D Z F A H F F G F J F I R Y c %.<XwXXXXX$XXXXXXX}.}.).).v.)._.v.v.j.j.t.y.y.:.w.w.[ ' ( ' _ w & 4 * * 4 & y 1.>.>.=.%.....} _ } / L n L n z 9 n z z N 4 % # ; ; ; > > , < 1 , 6 3 7 8 p 8 a 9 8 V 9 A A K A A A R A R K E R , 5.GXLXHXKXJXP.a D 5.T T Y Y Y I Y F U F F D D D A Z Z j j j g g f a s 9 7 p p 0 u )  .) ] ` ` *.&.{ { { e.w.s.y.s.a.s.s.s.c.s.(.c.(.c.(.(.(.|.|._.}.}.XX}.OX$X$XXXXXXXOX).XXH.).).).v.v.v.v.v.v.t.r.t.w.:.{ -.' :._ z B 1 r 1 t p a a a d p g f f j f h c Z H D D F D F G F F Y U Y Y T J J J S E S S J J J S S S S S S J S S S S J S S S C S S S S S C J C C J C S C S C S S C C C C S C C S K C C C C C V C F Y F D Z Z c j j a p a d a g h c x y & 0 * * * * * = 0 * = * = = = = = = $ = $ $ $ - $ - $ $ % - - . - - e z k z e i.N.9.9.i.2.2.2.3.3.,.o.O.3.O.N $ o 2 2 2 + o % @ . X . - = * * r r T.T.o.X.>.,.2.2.4.>.%.4.4...o.o. . .=.>.>.=.=.X. .G N B & + o . & & < 4 4 6 < & > > 2 < r 1 1 1 t t t t t p p t ",
"_ h.A.-.&.r.:.&.` $.` $.&.-.;.e.e.y.s.p.k.l.k.l.x.x.(.`.(.|.}.'.}.}.+X}.+X+X+XwX@X+X+X+X+XXX{.oX}.|.).`.`.`.x.l.k.k.k.p.t.t.r.u.u o 2 1 % 1 2 < 1 1 1 p 1 1 p 7 f p p p p f f p f f V C C C c C f Y V J C 2 lXKXKXKXKXKXKXKXKXKXKXKXKXKXKXKXKXKXKXKXKXKXKXKXKXKXKXKXKXLXKXKXKXKXKXKXKXKXLXKXGX/.6 K K K K S E E @.R #.#.#.#.,.5.v.x.h.z.v.x.x.c.t.x.l.i = c f H F H Z U I Y v a 4 * # X   + U n.>X2X>X~.Q.Q.Z.Z.Q.Q.E.Q.Z.Z.B.Z.V.C.Q.U X + # & > * > > 2 < * 2 & t % % y * = b S.S.d.e.a.f.u.a.<.3.a.Y.Y.Y.N.M.N.U.U.U.U.I.U.[. X X X X X X5X,X=X5X5X5X5X4X4XeXtXsXtXtX<X8X8X<X<X<X;XOXOXOXQ.Q.OXH.H.H.V.h.V.h.h.8.8.8.8.9 $ & # & 6 & > 4 < 6 4 4 5 5 t t 7 p y a p a a a a p f f d h f c f Z h Z Z Z Z Z Z D H S H H F F F J U T F Y G G [.uX+X+XXXXX}.}.}.}.XX).).).).v.v.v.j.t.t.y.y.:.:.[ -._ $.' i = r 4 4 * & g 8.4.:.:.4.......} / / } n n M M z u 9 k x r $ + # ; ; & > , , 6 6 3 3 7 7 8 8 9 8 8 V 9 K A A A A A R A K R R R R 3 5.GXLXLX-Xh U #.T T Y T Y Y R U U F F D D D Z v D j j j h j a a a a a p y 4 B Q *.) ` ` ] &.&.{ { w.e.e.y.e.s.t.p.p.s.l.(.l.(.c.(.(.|.(._.|.|.}.}.}.}._.$X$XOXOX$XXXXXXX).).).).).).v.v.v.v.v.j.t.y.r.w.-.-.$.-.' n < < r t t p a 9 a d d d a j h h j v v Z D D D D F F G F J | Y Y E S S S S S S S S J S S S S S S S S S S S S S S S S S S S S S C C S C S C J C C S C C C C C C C K K C C C C C C C C p C F Y H D H A h j d 9 p d a d f c v g r & * * * * = 0 = * = = = = = & = & $ $ - = $ $ $ $ $ $ $ $ - . . . w z e l l e u.U.b.b.b.Y.i.i.1.<.O.3.>. .O.@.G % o > r > : 2 r B r r < > & $ $ $ - @ $ < t i g z 4.%.<.>.>.1.1.3.>.4.%.4.4.=.>.>.>.<.>.X.} M g y o o + # % & 6 4 1 r t 1 1 1 r 1 1 1 r 1 t t t t ",
"= $.A.d.-.:.y.-.` ] $.&.-.-.e.e.t.a.a.p.s.l.c.c.x.x.F.`.`.|.|.'.{.}.}.oXoX+X+XrX@X@X+XoXoX+XXX}.}.'.|.`.F.x.x.c.l.k.k.p.r.t.r.r.G o = 1 % 1 2 2 2 2 3 1 3 p p 3 3 p p p p p V C f f f C C f C Z C H C C J ; U.KXKXKXKXKXKXKXKXKXKXKXKXKXKXKXKXKXKXKXKXKXKXKXKXKXKXKXKXKXKXKXKXKXKXKXKXLXLXLXxX3 R E S S S K K S 9 K K 9 8 K 8 8 9 9 9 K j c Z A | | m v 3.3.D Y Z h 9 5 t 9 y t + X X t @.R.6XfX~.^.~.!.!.~.~.!.!.Q.Q.Z.J.C.B.n.C.0.!.9.+ . & & & & : > 2 & 2 2 & 4 4 % * 5 * o m m.D.u.u.u.;.e.a.a.Y.Y.Y.N.U.N.N.U.U.U.U.U.R.I. X X X X,X X5X5X5X5X5X5X5X3XeXlXgXtXtXtXtX<X<X8X<X;X;X;X;XQ.OXH.Q.H.H.H.H.H.h.V.h.h.8.h.:.9 $ $ & > # 6 < < 6 < 6 4 t 4 5 t t t a t a t p d a d a d f d c f c f Z j Z Z D Z H D H F H H F F F F F T S R +.H i.uX#X+X$XXXXX}._.}.).}.).).).v.v.v.h.j.h.r.r.w.{ :.[ [ [ ' l * * 4 4 4 * M 8.4.@.......} ..} / L L L n M x z z z z 9 B # $ & ; # 6 : , > 6 , 1 5 1 7 7 7 8 s V V V 9 A 9 A A K K S S S S R R S S E JXqX+.D 5.7.R T Y Y Y F F U F F F F D Z A j j Z j h j j a f a 9 8 p t r k ` *.^ ] *.*.{ &.&.w.w.e.e.y.y.t.s.s.k.s.l.(.l.(.(.(.(.|.|.}._._.}.}.}.XX}.OX$X$XOXOXXXXX).).XX].).).).x.x.v.v.f.j.t.t.y.w.{ -.' -.' ' r 4 5 t t y p a a p a f f j f h Z j Z v D D D D F G J Y | J +.Y S E S S S S S S J S S J S S S S J S S S S S S S S S C S S C S S J C J C C C S C C C S C C C C K C C C C C C 3 C C C f C Y F H Z Z Z j f a 5 y 9 g g f h c u * & * 0 0 * * * * = = = = = & = = $ $ = $ $ $ $ $ - - $ $ - . . - = z e e W W e f.D.n.m.N.b.Y.i.6.1.>.a.3.4.O.,.3.O.* o o % % @ @ 2 % > & * 2 * > > < > > * & : % % = 2 r g m } X.>.,.2.2.2.2.1.1.2.X.%.>.3.,.i.2.2.4.o.c r $ o . o % & 2 1 r 1 1 r B 1 1 r 1 t 1 t ",
"- e =.l.r.w.:.-.` *.*.*.w.e.e.e.t.e.s.l.s.c.l.x.x.x.`.).`.|.|.'.}.+X}.oXXX+XwXrX@X+X+XXXXX+X}.}.'.].`.`.`.F.x.c.c.k.k.p.t.r.r.;. .@ 2 < % 2 1 1 1 1 1 3 1 p p 3 p p f 3 C p 3 f s 8 C V f C C C C C J f T 2 | KXKXKXKXKXKXKXKXKXKXKXKXKXKXKXKXKXKXKXKXKXKXKXKXKXKXLXKXKXKXKXKXKXKXKXKXLXLXxX7.3 S E E S R S S R R R S K K A K K K K 8 3 8 3 3 3 ; ; @ O.2X0X-X^.~.~.K.n.9.2.,.3.I v +.!.fXzXfX2XqXqX0X6X7X>X^.-X!.~.!.Q.!.Z.I.Z.Z.Z.Z.Q.o.# # * * > > 2 & & 2 % & $ 4 5 % % 4 & o ! m.F.h.e.;.u.Y.3.Y.Y.N.N.N.U.U.U.U.[.[.R.{.R. X X X5X X5X5X5X5XeXeX5X4XlXtXiXtXtXtX8XtXtX<X<X<X;X;XOXQ.OXQ.Q.H.Q.H.H.V.h.h.h.8.8.8.8.:.* & 9 & ; & 6 > 6 < 4 4 6 5 6 t 5 p p t a t a p a p d p f f d f c h h j c A Z Z Z D Z H S F S H H J G F U S R T F  .oX#X#X+X+X$X}.}.}.XX).).).).v.v.v.j.h.t.y.r.w.w.{ { -._ .._ * = 4 4 * & L m...4.4.4..._ } / / L Q n M x z z 9 k 9 k * + # # ; ; ; > > > , , 6 7 7 p 7 8 8 9 V 8 K 9 K A K A A S A E 3 K 7.K S R 3 q.E U R #.Y I +.Y Y Y U F F F F Z F D D D D j j h j j d f p 9 p p p r N Q  .` ] ] &.&.&.-.-.w.e.y.y.t.t.s.p.k.k.s.(.l.(.(.(._.|.(._.|.|.}.}.}.}.XXXX$X@XOX$XOXXXOXXXOX).].).).).).x.v.v.v.v.t.t.t.w.-.{ -.$.' $.B 4 r 5 t y t a a a d f g j h h j Z j D D D F D G F F T.J Y | J J S S S S S S S S S S S S S S S S S S C S S S S S C S C C S C S C C J C S C C C S C C C C K C C C C C C C C C V C p p C Y F Z Z c j j d a t y j a h g h g t = * * * * * * = * * * & = $ $ $ = = - = $ - - $ $ - $ - - - . - 0 i W e l W k l G.U.N.N.N.b.Y.Y.Y.a.Y.<.3.<.%. .| <.T.t o + < < % % $ % % * * > * < * * % & & * : * % & % % + # o o B r x P o.@.>.,.N.N.b.2.2.<.1.<.3.i.Y.b.2.4.! x & % % % $ : 1 1 1 < 1 r 1 1 1 t ",
"w $ z h.f.:.-.&.] ] &.&.&.;.e.r.s.a.p.s.l.l.k.x.x.F.(.`.|.|.}.'.'.}.+X}.+X+X@XrX@X@X+X+XoXoXXX}.'.].`.`.`.x.x.x.v.v.f.p.t.e.e.;.O.o 2 1 % < 2 1 1 1 1 1 1 3 1 p p 3 p p f p C p V f f V C f c C J f J p Y 7 f KXKXKXKXKXKXKXKXKXKXKXKXKXKXKXKXKXKXKXKXKXKXKXKXKXKXKXKXKXKXKXKXKXKXKXLXKXLXq.; E S E S S S R K K K K K K A A A A 9 K 8 K s 8 K 8 3 f w =.%X<XlX1X;X5X-X5X1X4X:X%XI.>.u & # @ 1 f v P +.6.B.!.~.^./.:X-X/.-X>X-X-X~.&XQ.:XQ.t O & : * & & & 2 2 2 5 & % , , % < & * = n m.m.r.r.a.Y.Y.Y.N.Y.Y.U.U.U.U.U.U.R.U.{. X X X X X,X5X5X5X5X5X5XlXeXlXsXgXgXtXtXtX<X<X<X<X;XOX;XOXQ.Q.OXQ.Q.H.V.H.V.H.V.h.h.h.8.h.8.9 $ * > > & & > > < 4 6 4 6 4 5 t t 1 t 5 p p y p d p f d d h N h h h Z j Z c Z Z Z D H Z F H F G J F U F U F R G m |.wX#X#X+XXXXX}.}.].].).).).).v.v.j.v.v.t.t.y.:.:.-.w.( ' ..w = B 4 * * L V...:.:...$.....} / L n n n n M z z z 9 9 * $ & # # # > : > , 1 , , 6 6 7 7 8 8 8 8 8 9 K K 9 A K A A A 9 R R K R E K E K 7.T +.R R +.T T F R Y I F U F F Z Z Z j j j Z f j j j s a a 9 t 5 r M $.` ^ &.&.] ] &.w.w.e.w.e.y.t.a.s.s.k.k.(.l.(.l.(.(.|._.|.|.|.}.}.}.}.}.XXXXOX@X$XXX$XXXXXXXXX].].].).H.z.x.v.v.v.t.t.j.s.y.w.{ -.[ [ =.r t 5 t t t t y d p p g j f f h h v D j D D F D F G J J I Y Y E J J S S S S S S S S S S S S S S S S S S S S S S S C S S S C S C C S C C C C S C C C C C C C C C C K C K C 3 C V C C C C U F Z H Z Z j j p 5 p d g g j c g 4 = 4 * * 0 * = * = & = = = & = = $ = $ $ $ = $ $ - $ - - . . . = r W e e W W l W [.G.M.m.N.b.Y.Y.Y.Y.1.<.<.<.<.<.>.O.2.X.N $ o % < % & > > > > % > > > > > < 2 < > < > > > > & 6 > < & & % % + & & 4 N b  .<.d.b.N.N.d.Y.2.i.2.2.b.b.N.6.| h 1 % + o < < 1 1 r 1 t 4 ",
"= 0 = _ l.u.$.` ] ] ' &.-.e.e.r.t.a.s.k.j.k.l.v.`.`.).|.|.}.}.}.oX'.}.+XXX#XrXwX#X#X#X+X+XXXXXoX'.].].].F.F.x.x.v.v.f.f.t.t.e.w.y.= = 1 ; > > < 1 0 2 7 5 1 3 p p p p p V p p C f f V C f Z C Z C C J C H T.O xXKXPXKXKXKXKXKXKXKXKXKXKXKXKXKXKXKXKXKXKXKXKXKXKXKXKXKXKXKXKXKXKXKXHXLXJXW.K S E S E S E S S S S K S A A K K K 8 C 8 8 8 K 8 8 8 1 t a.&.l.lX2X^.~.-X>X;X=XH.p.-.&.;.*.T.2 O O O X X X X O X X O O O O @ 2 s H J 5.9.B.B.R.>.- X . . X X O O O O $ & & & 2 2 * > = * = M N.N.<.<.Y.Y.Y.S.m.m.U.A.U.U.|.I.{. X X X,X X X5X,X5X5X5X5XlXlXlX4XlXkXtXtXtXtX8X<X<X<X<X<X;XOXQ.;XOXQ.H.L.H.H.V.V.h.h.8.h.d.1.d.8.B # * & & 4 & 4 > 4 6 1 1 < 1 t t t p a 7 a p a a d a f d f g f g d h j j j D Z D D A H H H H F F J F F Y F Y F R F  .uXrXXX$X$XXX$X).XX).).).).)._.v.j.j.j.t.t.y.r.w.-.[ [ [ [ n $ B 4 4 # >.,...4.4.X.....} L L L n L n u z M z 9 4 i ,.v   O 5 & & & > > , , , 6 7 7 t 7 9 8 s s s V V V Z A A A A S F S S J J R S R E #.T +.T T T U Y F F F F D D D D D Z Z Z c h j j d a s s 9 7 4 y b $.*.] [ -.] { { w.y.e.y.y.t.t.s.k.k.j.j.c.(.(.(.c.(.|.|.|.}._.}._.}.XXXXXXXX$X@X@X$X+X+XXXXXXXXX].).}.).).x.x.).v.v.f.j.f.t.y.r.-.w.{ [ $./ 0 6 t 6 7 7 5 y a a a f f g h j Z j Z Z D D D D D U R J | J T.S J S S S S C S J S S C S S C C C S S C C S C C S C S C C C S S C S C C C C C C C C C C C C 3 C 3 C C C C C C 3 V 7 s J F Z Z h c h a t y y u d g a g c i * * 0 = * * * = * * = = & $ = = $ = = $ = = - $ $ - $ - - - - q e l e W e W W e { Q.A.D.U.M.m.N.d.g.Y.Y.2.a.,.3.<.>.>.%.>.4.M 0 - - 0 * & % & 1 < > * & & & * & < < & < < < * > < * > < 4 < < < < > 4 % : % : > 4 p y | O.,.b.n.n.n.b.b.m.M.A.N.<.X.} r & + O @ : < 5 ",
"6 4 . *  .a.f.) $.-.-.-.y.e.y.s.k.k.l.l.z.x.`.`.(.F.`.|.|.}.'.'.'.+X+X+X#X@XrXrX+XwX+X+X,X+XXXXX}.].|.`.).x.x.x.v.k.j.f.p.r.e.e.e.0 $ 1 % > < > 1 1 3 1 5 7 p 3 3 p p p p p p C f f V f C C Z C C c C H H J ; 5XKXLXKXKXKXKXKXKXKXKXKXKXKXKXKXKXKXKXKXKXKXKXKXKXKXLXKXKXKXKXKXKXPXKXKX7XK K E E S S S S S S S S A S A K K K V K 8 K C 8 3 8 3 p 2 b a.&.a.5XlX3X2X1X=XL.m.p.w.w.w.e.a.*.! t : o ; , 3 2 ; ; ; ; @ @ @ O O O O O X X X   % N u T.b b N d d f u u $ & $ + $ o - o - + o $ Q <.Y.G.Y.N.U.N.M.N.U.U.U.U.U. X X X X X=X5X5X5X5X5X5X5X5XlXeX5XeXsXsXhXtX8XwXwX8X<X<X<X<XOX;XOXQ.Q.H.Q.L.H.H.V.V.V.V.h.h.d.1.1.1.* . & & & & & > 4 < 4 r 1 r 1 t t t t a t t p p p p a a d d f f j h h j v j Z h Z Z D H H H F F F G F F F U U R F F | OXwX$XOX$XXXOXXXXXXXXX_.).).).v._.v.v.j.t.t.y.w.{ -.-.[ :.n = B 4 & & 3.,...4.....} } / _ _ L L 9 Q L M r * i L >.n.b.9   # 5 # ; > > > > , 6 7 7 7 7 7 a 8 8 s V V K j K A A A A A S R J R S R R #.7.T R +.T I Y Y I Y F F F D D D D D c c h h d f s a s a 9 7 4 u Q $.&.^ [ [ &.&.w.w.e.y.t.y.t.s.s.j.k.k.c.c.l.(.(.(.(.(._.|._.}.}.}.}.XXXXXXXXXX$X@X@X+X$XXXXXXXXX}.XX).).).).).x.c.v.h.j.t.t.r.w.w.-.{ { &._ w B t 6 9 7 t 9 a a s d f h h v j c Z v Z D D D D U U Y | J J S S S S S S J S C S S J C S S S S S C S J C C J C S S C C C C C C C C C C C C C C C C K K C K C C C C 3 3 C C C V 8 s H F Z Z f h g a y t y a d d d c c y * * 0 * 0 * = * = = * = = = = $ = $ $ $ $ - $ - $ = - - - - - q e l e W W W W W y..XH.U.U.U.M.m.N.N.N.i.Y.2.2.a.3.<.%.X.4.<.O.T.t $ - * > & & $ $ = > & > & > & & & < > & < & < < > 4 < 4 < < 4 < 4 < r 1 2 2 & & < < o + & 5 a c m P 3.i.N.N.U.U.B.M.B.N.3. .x B $ - ",
"; , & & N ;.a.! ' ` [ w.w.w.y.y.e.s.s.p.j.v.c.c.x.`.`.).|.}.}.}.}.XX}.+X#X#X@XrX@X@X+X,X,X}.oX}.'.].|.).).F.x.z.l.j.f.t.t.t.e.e.r.i $ : > , 6 > 1 1 1 p 1 1 t 3 3 f p p V f p p V V V f f C Z Z C C C J C J 3 6.LXKXKXKXKXKXKXKXKXKXKXKXKXKXKXKXKXKXKXKXKXKXKXKXKXKXKXKXLXLXKXLXLXKXxXS K S E S E S S E S S K S K S A A V V V 8 8 K K 3 8 8 p 2 d *.l.e.w.,XgXlX,X.XH.p.w.w.r.t.y.y.w.-.*.) u = ; 3 , , ; ; 2 2 ; @ : 2 @ @ @ @ 1 2 % . - k !  . . . . . . . .T.} } } } m m m c N d 0 $ * T.a.a.U.U.U.U. XP.%X%X=X X X X X X X X X5X X5X5X5XlXlX1X2X8X8XgXhXtXeXtXtXtX<X<X<X<X<X;X;XOXQ.Q.OXQ.OXH.H.V.H.h.V.h.8.h.8.1.8.2.& . * & & < < & 4 < 4 1 B 1 r 5 t 1 t t a p a a a d a a f d f g g h h j Z j Z Z Z D Z C H F H F F J F U Y U F F F Y | h.wXwX$XOX$XXX$XXXXX_.).).).).v.c.v.j.j.v.t.y.w.-.-.-.[ [ _ w = 4 4 4 >.>.X.=...4._ / } L L n n L n 9 i 9 L @.n.V.9.C.,.& X # 4 > > , ; > , 6 5 6 7 7 p 8 9 s 8 9 A V j A A A A A R S S S R R F R E +.T +.T I T Y I Y F F F D D A P Z v Z c h h 9 d j j d a t t t b  .] ^ ] ] &.w.w.w.y.y.y.t.t.s.s.p.j.k.k.c.c.(.(.(._.|._.|._.}.}.}.}.}.$XXXXX$X$X+X@X$X+XOX+XXXXXXX].).].).XXF.).x.v.v.v.f.j.t.t.y.:.-.-.[ $.$.i B 4 5 p 7 a a a a a d j j h Z c h Z Z D D A D D D U Y J J H S S S S S S C S S S C J S S S S S C S C C S S C C S C C C C C C C C C C C C 3 C C C C 3 C C C C 3 C 3 C C C 3 C V 3 V H H Z c Z h a y t y d a u d g c x r * = 0 * * * = * * = = $ = = $ = = $ = - - $ $ $ - - - - - - e k k k l W W ^ W Q m..XJ.U.I.U.U.U.m.m.m.N.Y.Y.2.6.a.a.3.%.4.>.<.3. .t - + % * 2 % $ % > & 2 & & > & & < & & < > > & * 4 > * > 4 & < & < 4 r 4 1 4 6 < 4 5 4 < & % % % > % < t f T.O.6.Y.Y.U.{.=X XD.i.4.",
"; & + X . k ;.-.r.r.r.p.p.l.k.k.(.).).|.|.|.'.'.oXXX+XoX+X+X,XwXrXrXwXrXrXrXuX#X#X@X#X#X+X}.+X}.XX}.].`.`.`.x.x.c.v.f.f.t.t.e.-.a.z o : > > > > 1 1 2 1 6 1 5 p p p 3 p 3 C p C V f V f Z C C f f H f F H C V C KXKXLXKXKXKXKXKXKXKXKXKXKXKXKXKXKXKXKXKXKXKXKXKXLXKXKXKXKXKXKXKXLXDXW.K S E S S S S S S S S S K C A K K V K V K K 8 8 3 8 8 3 2 *.g.p.w.y.|.eX=Xz.k.f.f.f.p.f.t.t.&.&.*.w.-.^ b O O O @ ; ; ; O O @ : ; % 2 2 2 @ X o w z Q Q ~  . .T. . . .^  .$.$.4...%.O.*.O.4.>.<.=. . .N . = 0 p c G o.>.3.n.U.U. X=X5X4X3XlXlXlXlXlXlXlXlXpXsX8XsXsXgXhXuXtXtXtX<XtX<X<X;X<XOX;XOXQ.Q.Q.H.H.H.H.V.h.h.h.h.d.u.1.2.1.B + * # < & & < * > 6 1 1 B t 5 t p t p 5 t a y p d p a a d f f h h h j j j Z j v Z Z F Z Z F F F J G F F F R U R F I _ ;XuX$X$XOX).$X_.XXXX).).).).).v.v.v.j.t.t.t.y.-.r.[ [ [ [ 9 $ * * r 8.=.4.4.o.4.../ L L L L L n 9 w M @.n.Q.Z.n.6.0.B.#.& X < # > > > > , , 3 7 5 7 p p 8 8 s V V 9 K 9 A A A A A S S S S S R R R +.T +.T I T F Y U U F F D F D Z D Z c j h h f a a a 9 p 9 t z ~ *.$.] &.-.&.[ w.-.e.y.t.y.p.p.k.k.k.c.c.x.(.(.(.|.(.|.|._.|.}.}.}.}.XX}.XXXXXX$X@X@X+X+X$XXXXXXXXXXXXX].).).F.x.).c.v.v.j.v.s.t.r.y.w.-.{ -.:.z B 6 t 7 5 9 p y a a a j h j j j c Z D D D D D D U U J T.J S S S S S S S S S C S C S S C C S C J C S J C C S C C C S C C C C C C C C C C C C 3 C C C C 3 K C C C K C 3 C 3 C V 7 f F H C c f j a a t t y u a d d c g B * * 0 * * = * = = * = = = = $ = $ $ = $ = $ - - - = - - . q e l l W W e W W W ` L..XL.G.I.I.U.S.B.M.m.N.N.Y.Y.a.6.2.,.Y.>.4.%.3.%.) c + % $ & < 2 % $ % * & & & < & < & < & < 4 4 & > 4 & 4 & < < 4 < < < < 4 6 4 4 t 4 4 6 5 t p t t 5 1 2 : @ 2 % : t u c | >.Y.U.{.",
"< * t r 0 b ) b ) ) /  . ... .$.*.;.&.;.%.&.;.;.;.;.;.;.<.<.<.<.a.a.a.g.g.}.bXwX@X@X@X+XoXXX+X}.}.].}.`.).F.x.x.l.v.f.k.t.t.w.e.e.! $ @ 2 > < > 1 2 , , 6 6 5 7 p p 3 p 3 C p V s 8 s C C C f C C H f J C H H 2 FXKXPXKXKXKXKXKXKXKXKXKXKXKXKXKXKXKXKXKXKXKXKXKXKXKXKXKXKXKXLXJXLXE.V S E E S S S S S S K S K S C K C V V C 8 V K 3 K 8 8 p t N a.p.w.s.y.p.'.l.k.k.k.k.k.k.r.-.r.e.&.] &.&.&.%.u 1 o @ 2 2 2 O @ ; @ @ @ O @ - % $ 0 b ! b Q l  .*.*.| T.T.T.T./ ) T. . . . . ./ T.X.>.<.%.T.t o X X o o O O X X O O : 1 d f H T.O.,.B. X XlXlX8XpXsXhXUXhXtXtXtX8XtX<X<X<X<XOXOX;XOXQ.OXOXH.Q.H.V.V.m.m.m.8.d.d.u.1.1.2.& + & & & & & < < < 6 B 1 B 1 1 t 5 t t t t p p p a d a a d d f d h g j Z j Z c Z H H Z Z H H H F F F F F U F U Y I U 9 Q.wX@X$XOXXXOX$X).XXXXXX).).).v.).v.v.v.t.t.t.y.w.[ [ [ :.n - * & 9 d.=...4..._ } ....L L L n * x ,.C.Q.Q.V.8.n.n.0.B.Q.U # X > > , > , > 6 , 6 5 7 7 7 a 8 s 8 K V V A K K A S S A S S S R R R E +.T T T U I R F U F R A D D Z D v j h h h j j a a d 9 p i i ~ ..' ' ] -.-.] w.w.y.y.a.t.s.s.p.k.k.c.c.c.(.(._.(.|.|._.}._.}.}.}.XXXXXXXX+X+X$X@XrX@X@X+X+X+X$XXXXXXXXX).}.).).).F.v.v.v.v.v.f.t.t.w.y.w.-.[ :.n w 4 t 5 t y y u a a d f j j c j h H Z H D D D F F U F J H S S S S C S S C S S C C S C S C C C J S C C C C C C C C C C C C C C C C C C C C C K C C K C C C 3 V C 3 C C 3 C C 8 8 s F Z j j j a y t t t u d u d g x 9 & & 0 0 = * * * = = = = $ $ = $ = $ - $ $ $ $ - - - $ - - q e k e W W W W W ~ z ;. X.X{.I.L.I.U.D.U.N.U.m.N.N.Y.Y.Y.2.<.Y.3.%.O.%.>.>.>.a < + + % < & % % * % > & & < & & & & 4 & < * > < < * < & < < < < 4 4 4 4 * 4 & 4 4 4 5 5 4 < > t t 1 1 1 1 t t t 1 2 % O % 2 t ",
"E.!.&X!.%XK.} . o @ o @ @ 2 2 % O @ ; @ @ ; ; ; ; @ ; @ ; 2 ; @ O 2 2 2 2 Y.bXwXrX@X@XoXoXoXXXXXOX'.].`.`.).F.x.c.v.f.p.a.t.e.e.e.X.$ @ 1 ; < > 1 1 1 1 1 6 t 3 3 p p p p p 8 p f f s f f C C Z C c C J C J J @ dXKXPXKXKXKXKXKXKXKXKXKXKXKXKXKXKXKXKXKXKXKXKXKXKXKXLXKXKXJXLXLX7XK K E S S E S S S S S S K K K V K V K V V 8 8 3 8 3 C 3 2 u *.e.s.y.c.s.k.|.k.(.x.v.k.f.f.r.e.e.e.e.&.' ) ` *. .x 2 $ o 2 2 @ @ @ @ @ @ 2 2 2 o r u l k l ! W T. .X.*.*.*.*.*.%.=.%.%.%.%.O.%.a.X.X. .T. .*.*.t 2 % 2 6 < > < 1 2 > > 2 % @ @ O o o o o @ @ @ & 9 9 h.UXhXwXtXtXwXtX<X<X<X<X;X;X;XQ.OXQ.H.Q.H.Q.H.H.h.m.m.h.d.8.u.1.1.1.* . & & & & > & < < > 1 1 1 1 t 1 t t t t p p p y a p a d a f d f h h j j j j Z j Z Z H A H S H H J F F F U R Y U R P v 8.OXwX$X$X$XOXXXXXXX_.).).).).).v.v.v.v.v.t.y.y.r.{ { [ $._ = 4 & x 8.$.X.4..._ } } _ M z 9 g 4.n.Q.^.Q.q.q.B.B.Z.n.n.B.n.P X # # > > > , , , 6 3 6 7 7 8 7 8 8 9 8 V K j A K A A A S S R S S R R +.T Y I I T U U U F U D D D D Z D j c h j s h s 9 a y 4 i b ` ` ] ] &.w.e.&.w.e.e.t.s.s.s.f.k.k.c.k.(.(.x.(.|._.|._.|.}.}.}.}.XXXXXXXX+X+XXX+X$XrX@X@X@X$X+XOXOXOXXXXX}.].].).F.).x.).v.v.v.v.t.t.t.y.:.w.-.&._ i * t t t p y a a a d s j j Z j Z c c H D D U F F U F J J S S S S S S C S S C S S S C C C S C C C C S C C C C S C C C C C C C C p C C p C C C C 3 C C 3 C 3 3 3 C C 3 C p 3 8 8 Z Z Z j j f a p t t y a a g d g g t = * 0 = = * = = = & = & = & $ = $ = = $ - - $ $ - $ - - - e k l W e W W W ^ ~ W f.,X X{.P.I.I.I.U.U.D.S.M.m.N.g.Y.Y.Y.Y.>.3.a.<.O.*.%.>.>.H < o o % & * & % % & & > & & > > & & & > & 4 < & > < 4 < & < & B * * 4 & & & 4 4 4 4 4 r t t 1 t 1 t t t 5 5 2 5 p 8 p 7 6 6 ",
"Z.B.I.C.P.P.@.N + % @ @ @ : ; ; 2 2 3 1 ; 2 3 , 3 3 7 7 3 7 3 p 8 p p p % T.eXrX#XwX+XoXoXXXXXXX}.'.].].`.`.x.x.v.c.f.t.t.r.e.w.;.;.% o 1 # < < 2 < , 1 1 6 1 3 3 p p 3 p p 8 f 8 V s V C f C f f Z f H C S J 2 b.KXLXKXKXKXKXKXKXKXKXKXKXKXKXKXKXKXKXKXKXKXKXKXKXKXKXKXLXKXLXDXS K S E K S E S S S S K K S K K C C K K 8 8 8 V 8 3 V V 1 1 ! a.w.w.s.c.k.x.|.|.x.c.k.k.t.p.f.s.:.w.-.&.` _ ) ^ *.Q N 0 $ O @ % @ @ @ @ O o @ $ = b l b W l ^ ~ ^  .*.O.O.*.O.O...%.%.%.X.X.%.%.X.O.<.a.;.*.`  .T.u 2 % % * % % 2 2 > < 1 1 5 t p t p 5 t 1 3 3 * * $ 9 H.hXkXtXtXtX<X<X<X<X;X;XOX;XOXQ.Q.Q.H.H.H.H.H.V.h.h.h.8.u.8.>.1.1.& o & # > & & & > < < < 2 1 1 1 t 5 t p 7 p t y a p a p a p d f g h f j j j j c Z Z Z Z H H H H F H F F S U Y U Y R R U L Q.uXOX$XOX$XXXXX).XX).).).).v.).v.v.v.t.t.t.r.y.{ -.[ [ ..w = & n h.........} .._ n x n o.8.;X~.~.Q.Z.Z.Q.Q.B.B.B.0.0.Q.0.j # # # > > , , , 6 7 6 7 7 8 8 8 K V 8 K 9 K A A A S S A S S S J U T R R T U Y Y R U U U D D D D D Z v j h f h f f a y 9 t r N ` &.{ [ [ -.-.w.e.y.e.t.t.s.p.s.k.j.c.c.(.x.x.`.(.|.|._.|.}.}.}.}.}.}.XX$XXX+X+X+X+X@XrX$X@X@XOX+XOX$XXXOX}.}.}.].`.).).F.x.v.v.v.j.t.t.r.w.w.w.-.$.:.u B t 7 p t a y g a j j h h c j Z Z H H H D D F F J J J S C C S C C S C S C S S C C S S C C C C J C C C C C C C C C C C C C C C C C p C 3 3 3 3 C C C 3 C C C 8 C 3 p C C 3 7 8 Z Z h j j d 9 t 5 y y a d d g g g * $ * B = = * & * & = = = = = = $ $ $ $ $ $ - - - - - - - e e W e e W ^ W ^ ^ ~ ~ S.4X{. XP.{.L.L.I.U.U.G.U.U.N.N.N.g.Y.Y.a.3.,.3.>.O.O.O.,.O.m t % + % < & % * % & & & > & & > & & 4 & > < < & < & < < & * & < < < 4 4 4 4 4 4 < 1 < 4 < 1 4 4 t r 4 5 4 a t 1 1 1 5 p 7 ",
"I.J.K.P..XN.!  .= = * & 2 2 2 < 2 1 > * 1 r < 4 1 1 1 t t 7 p p f p p H B 0 |.uX@X#X@XoXoX+XXXXX}.].].].`.x.x.x.l.k.f.k.t.t.e.e.&.a.2 @ 1 o 6 2 1 1 , 1 6 6 1 p p 3 p p p p p 8 f f 8 s f C f C H f C S c H J p d KXKXKXKXKXKXKXKXKXKXKXKXKXKXKXKXKXKXKXKXKXKXKXKXKXKXKXLXKXGXE K E S S E S K S S S S S S K S K V V V V V 8 8 8 s 8 3 3 1 d *.a.s.y.s.t.s.|.`.k.c.k.k.k.k.k.f.t.t.e.-.-.;.&.*.` ` $.$.l 0 $ o 2 @ @ @ @ @ @ @ - k W e W ^ W W ^ ^ X.*.*.*.O.X.*.@.@.%.4.4.>.%.>.%.a.<.;.*. . .*.<.! 0 $ $ * < * 1 < < 4 , 1 6 1 1 1 1 1 1 t p 3 9 9 9 9 9 ;XhX<XwXtX8XwXOX;X;XOX;XOXQ.OXQ.OXH.Q.H.H.m.m.m.b.u.8.8.1.:.1.2.& o & % & & & 4 * < > < < B 1 1 t 5 5 t t t p p p p y d p f d f f j j j j j Z Z Z Z Z Z H H H H H H J F U F U U Y R R R 9 H.uX$X$X$XOXXXXXXXXXOXOX).).).).v.v.v.v.v.t.t.y.{ :.[ :.=.9 * = L b...=.4.......L M n ,.Q.8XQ.Q.Q.Q.Q.E.Z.q.Q.n.Z.Z.B.Z.Z.0.O # # ; ; > > , 6 6 7 6 7 p 8 8 8 9 K 9 K A 9 A A A A S S S F J R T +.T I Y Y U U U U F F D A D Z Z v Z h j g s d d 9 9 9 t Q -.-.[ { -.{ ' -.t.w.y.w.t.a.s.k.k.k.c.l.x.(.(.`.(._.|.|.|.}.}.}.}.XX+X}.}.+XXX+X+X$XrXrX@X@X@X+X$XOX$XXXXXXX].].}.].`.).x.x.v.v.v.h.j.t.t.r.y.w.-.[ r.l B t t y t u y d s a f f f h h c Z Z H Z D F F F F J J S C S S S S C S C S C S C S C C C S C C C C C C C C C C C C C C C C C C f C C C C C C C C 3 3 C C 3 3 V 3 C p 3 C p 7 8 Z D h j j 9 5 5 5 t t u d d d g g * $ B w $ * = = = = = = = $ $ = $ $ = $ $ - - - $ - = - - e W e W W W W W ^ ^ ~ ^ [.eXP.{. XR.{.P.L.I.U.U.m.U.N.U.m.N.Y.Y.Y.Y.a.<.3.a.3.%.o.@.,.| t % o % % & % & & & & & & & & > & & > * & < < < & < < * 4 6 4 < < < < 6 > < < 5 5 t t 1 r 1 4 6 2 4 4 6 1 r r 4 t t 4 < ",
"I.~.K.K.=Xh.W _ ^ 0 - $ < ; @ : * > < > < < < < p 0 2 t 1 p t p r p f 1 d 2 b gXwXwXwXoXoXoXoX}.}.'.'.`.`.`.`.x.c.k.k.p.p.t.t.e.&.e.k . 4 : 1 > 2 1 1 1 1 3 t 7 p p p p p p p p V 8 V f V f C h C Z H C H C F S 3 LXLXHXKXKXKXKXKXKXKXKXKXKXKXKXKXKXKXKXKXKXKXKXKXKXKXLXLXJXW.K S E S S S S S S S S K S K K K K V K V V 8 8 8 8 K K 3 3 r *.k.w.y.j.s.p.x.`.).x.x.x.v.k.k.f.t.t.r.:.:.-.&.&.*. .~ ! ! ^ ^ k = . O ; 2 @ o - 0 e l e l l W W W ^ ] ] *.*.<.%.O.>.<.%.<.%.>.<.,.a.<.<.<.<.*.;.;.$.) %.T.i - % 2 2 > > > < r < B t 1 5 1 5 5 5 t t p t y p & < C.ZX8X<XtXtXOX<X8XOXOXOXQ.Q.Q.H.H.H.H.H.V.h.h.V.8.8.h.:.:.:.,.* + = & & & # & 4 > 4 > 6 4 4 4 1 t t 5 t t t p 9 a a p d d f f f f f f f C d Z c Z H H H S H H F T.J H F F J F R J Y +.G %.,XwXXX#X#XOXXX$XXX}._._.).).).c.v.v.v.j.t.r.y.w.-.:.[ $._ = + ,.:...o._ :.:.9 9 #.Q.8X;X~.~.~.~.~.Q.E.Q.Q.K.E.Z.Z.Z.Z.B.B.B.X   a 1 > a @ 6 6 6 9 6 7 8 9 8 8 8 V V V A K A A A K A R S R S R T I T I Y I U U v R U 9 j D D j j j h h g d 9 f y 5 i Q ` ' ] { *.w.w.w.y.y.s.s.s.a.k.s.l.l.c.c.l.(.(.(.|.(.|.|.}.}.}.}.}.}.#X}.#X}.+X+X+X+X#XrXrXrX#XrX#X#XoX+XXXXXXXXX].}.).).F.F.x.x.v.v.v.v.f.y.y.y.:.:.-.&./ 0 4 f , p p p a d f g d d j Z h h Z H H H C J J S S K C S C S S C S C C C S C C S C C C C C C C C C C K 3 C C C C K C 3 K 3 C 3 C C C p C C 3 C p C 3 3 C C p C 3 C 3 C p 3 C b C b f f k 1 t r t u u u d g x r & = B * * = = & = = = $ = - = $ - = - $ $ - o $ $ - - q l k l e W W W ^ ^ ^ ( ( ..<X;X{.=X%X{.{.P.P.L.J.I.D.U.D.M.M.N.m.N.g.Y.Y.i.1.2.<.3.<.%.O.%.O.T.< X 0 % % 2 2 $ % > * : & * > * > * > * > * < < * < & 4 4 & > 4 < < < < 6 < < 4 6 < 1 r r 1 t 1 t r r t r t t t t 1 ",
"I.!.K..X=X8.W ' ` k 0 $ % > : & > * > > 2 < 1 < 1 1 t t t r 1 1 1 t f 1 p 1 e |.yX+X@X+XoXoXXXXX}.}.|.].`.`.x.x.c.k.l.k.t.t.e.w.&.a.k . < % > 2 1 < 1 1 1 3 3 t 1 p 3 p p f f 8 8 f V f f V f C Z C C C H S S S ; vXKXJXKXKXKXKXKXKXKXKXKXKXKXKXKXKXKXKXKXKXKXKXKXKXPXLXLXqXK S E S E S S S S S S S S S S K K K K 8 8 K 8 8 3 K 3 3 3 3 b ;.t.y.y.s.s.t.x.`.`.).x.x.v.v.k.j.t.t.r.y.w.-.-.*.] ` ^ ^ T.! ! l 0 2 @ O O O $ = e l l l l W W W ( ( ` ^ *.e.a.<.<.3.3.3.a.<.<.<.<.%.a.i.Y.<.%.%...) *. .*.T.t - - 2 % > & > > < < 1 1 1 1 1 5 5 5 5 t 5 p y < % U Q.hXtX<X<XtX<X.X<X;XQ.;X.XQ.H.OXH.H.V.V.V.h.h.h.:.8.1.:.:.1.* + & & & & 4 & < 4 > < 4 4 6 5 5 t t 5 t 9 t t p p a a a f d x f f x f c h h Z H H Z H H H H H H H H J T.I I J Y Y Y Y F T.G.yXrXXXXX+XXX}.}.}.XXXX).).).v.)._.v.t.j.t.t.y.w.[ :.[ $.q * ,...4.:...L 9 @.;X8X8X8X/.&X/.&X^.!.^.Q.^.Q.R.R.R.Z.I.Z.Z.C.Z.| # X > > @ 5 > 6 6 6 7 7 p 8 8 s 8 V 9 V V 9 A A K R S A R A R R T Y T I Y T U U U 9 U L D v j D j D h f s a a 9 p t x / $.' &.*.&.-.{ e.w.y.y.a.p.s.s.k.c.c.c.c.(.l.(.|.(.|._.}._.}.}.}.+X}.}.+X}.#X+X+X#X#XrXrXrX#XrX#X#X+X#X+X+XXXXXXX}.}.}.).).).).x.v.v.v.v.j.t.t.y.w.w.&.;. .r < t 4 p t p u a d d h h j j v Z c Z Z H T.T.J S C S C S S S C C C C S C C S C C C C C C C C K C C C C C C C K K C C C C C C C p p 3 C 3 p C 3 C 3 C C 3 3 C 3 C 3 C p p 3 p C C C f p p t t t t t d d d g N r $ = w = * = = = = $ = & $ = $ $ $ $ $ - $ $ $ - . - = w k e l W W ^ W W ^ ^ ( ( y.eX,X=X=X%X.X%X{.P.{.K.I.U.U.U.D.M.m.N.N.N.Y.Y.i.6.<.,.<.>.O.O.O.>.%.c t X * B $ - < > $ & & & > > * * > * > * > * < < > > > & < < & 4 4 < 4 * 4 < 4 4 4 < 1 1 r 1 1 1 r 1 1 1 1 1 1 t t ",
"Q.!.Q.=X.X1.l [ ` Q i = + > > ; & & > * < < < 1 2 1 1 1 1 r t t p 1 p p d t 0 ~ bXwX@X@XoX+X}.XXOX'.|.|.`.(.x.x.l.c.k.p.k.t.e.w.&.e.b . < ; 2 , 2 1 1 1 3 1 t t p 1 p p p 8 p p f f 8 V f V f f C c C H C J H C ; R.LXKXKXKXKXKXKXKXKXKXKXKXKXKXKXKXKXKXKXKXKXKXKXKXLXLXDXJ 3 E S E S S S S K S S S K K K K K K V K 8 C 8 8 8 8 V 3 2 p *.a.w.t.s.k.s.k.x.].`.x.x.x.v.k.k.j.u.t.r.r.:.-.&.&.*.$. .) ~ ~ ~ b l u 2 . X o 0 i e W l l W W W ( ( ^ ^ ] &.-.<.a.3.<.>.<.<.<.a.6.2.Y.>.3.<.%.%.%.=.%.*. ...%.! 0 % % > > 2 < * > < r 1 1 1 1 5 5 5 5 p 5 5 9 y & # 9 8XkX<X;XtX<XOX<X;X.XQ..XOXQ.Q.H.V.V.V.h.h.h.8.h.1.:.:.:.1.* $ & & & & & & < & 6 < 6 4 < 1 5 t 7 t t 5 9 a t a t a a f a d f f x f f h c c Z Z H H H Z H F F F H F F F J J Y R F Y +.H >.,XuX#X$X$X$XXXXX}.XX}.).).).).v.v.v.v.j.t.t.t.w.:.:.[ :.= = 8.,.=.} M v Q.8XqX8X/.;X/.;X;X&X&X^.&X&XQ.^.~.!.R.R.K.Z.I.Z.R.~.D   @ 6 # t , 6 6 7 6 7 7 8 s 8 8 V V V j A A A A A A R A R A T T U Y Y U Y U U U D D U j U A D v 9 h h j a 9 t y g ! ..$.[ &.{ &.e.e.y.t.y.s.p.s.s.k.s.c.c.(.l.(.(.(.|.|.|._.}._.}.}.}.}.}.#X}.#X+X+X#X#X#XrXrXrXrXrX#X#X+X+XOX+XXXXXXXXX}.].).).F.x.x.x.v.v.v.t.t.t.y.w.w.&.&.*.N * t a 5 t a p g d f f g j j h v D Z H H S H S S S C S C C C C S C C C C C C C C C C C K K C C C K C C C 3 K C 3 3 C 3 C C C C C C 3 C C C 3 C 3 C 3 3 C 3 C p p 3 p p C p p C b f f p p 1 t t y y u f d M y * = * * * * = & = = = = = = $ $ $ = $ $ $ - $ - - . = e k W W l W W W W ^ ^ ] ] ~ A.8X*X*X=X=X.X%X.X{.R.P.P.L.U.U.D.M.M.m.N.Y.N.Y.i.i.1.2.<.3.>.%.>.%.3.O. .* 2 $ % & $ * $ * : > * & * > > * > > * * > < * & 4 & 4 & 4 & 4 4 > 4 < < 4 4 4 1 r 1 1 r 1 t 1 1 t r 1 1 t t t ",
"!.!.!.;X.X-.( ' ` $.Q w $ $ & % > & 2 * 2 > < < 1 2 2 p 1 1 t 3 p 1 p p p p 2 0 ,XrX@X+X+XoXXX}.}.'.|.|.`.|.`.(.x.k.k.p.t.t.t.r.w.e.T.. % ; > > < 2 < 1 1 p 1 1 p 3 1 p 3 f 8 f p p 8 f V f C C Z C C Z H C H S 3 +.KXKXLXKXKXKXKXKXKXKXKXKXKXKXKXKXKXKXKXKXKXKXKXPXKXJXq.3 E S S S E S S S S S S K S K K K K K V V V 8 8 8 3 8 3 2 2 ! a.a.w.t.t.s.f.k.x.`.`.).x.x.v.v.k.f.s.p.y.r.w.-.&.&.] ` *.^ ~ ~ ~ ^ W b i = - = w k e l e l W W W ( ( ( ] ` *.&.<.3.1.a.a.Y.Y.a.3.<.3.a.Y.Y.<.<.;.;.;.;.&.*. . .*.T.i - * * < < < > * 1 < 2 1 r 5 4 5 4 4 t 6 y d 5 & & L ;XhX<XOX;X<X.X.XOXQ.L.H.Q.H.H.H.H.V.h.h.h.8.:.8.1.@.:.,.* $ & & & & & & < > & < < < 6 1 r 1 5 t 5 t t 5 a 7 a a a a d f f f f f c h C h c C c Z H H H H H F J J F J T.G F Y Y J T F G 1.oXrX$XXXXX$XXXXX_._.}.)._.).).c.v.j.v.t.t.y.y.w.w.:.:.e z V.4.g L V.8XkXkX8X2X/.8X8X2X/.;X;X/.;X^.&X^.~.~.!.~.R.!.E.R.Z.~.Z.a X % 7 & > 6 6 6 6 7 7 7 8 8 9 V j V K j A A A A S A S S R R Y R Y U U I D U D U D 9 U 9 D 9 D j j j j a a p y n ..&.&.-.{ &.{ y.e.t.t.t.s.s.k.l.k.k.c.l.(.(.(.|.(.(.|.(.}.}.}.}.}.+X#X}.}.#X}.+X#X#X#X#XrXrXrXrXrXrX#XrX+X$X+XXXXXXXXX}.}.].`.).).).x.v.v.j.v.t.t.y.:.w.&.&.;.b * < d 5 p t d a d f g f j Z h h h D Z F H S S C S C K S C S S C C C C C C C C K C C C C C C C 3 C C C C C C C C 3 C C C C 3 3 C p C 3 C 3 C C 3 C 3 C p C 3 3 C C 3 p 3 3 C f C f f k 1 1 t y t y a u d g r = & * = = * = = = = $ $ = $ = $ - - - - - $ - - - - 0 k W e W W W W ^ ^ ^ ^ [ [ ( .XtX*X<X*X=X=X,X%X.X XP.P.L.I.L.U.U.U.S.M.N.A.N.N.Y.i.2.2.a.<.>.4.O.%.O.O. .t - % * * * 2 & & % % % > * * > * * > > * < > < & > 4 & > < < & 4 * < 4 < < 4 < 1 r 1 r 1 1 r 1 r t 1 t 1 1 t ",
"~.!.&X1XL.' _ ` ` ` _ l 0 + $ * % & > > < & < < 0 2 1 0 1 1 t r t 5 t t 1 f 1 = e.yXrX+X+XOX+X'.XX'.'.'.`.`.S.S.x.k.l.p.f.t.t.w.e.&. .- % 2 > 2 2 2 1 2 3 1 1 p 3 1 p 3 p p 3 C 8 f V f V f f C C f C Z C J C H V p PXKXPXKXKXKXKXKXKXKXKXKXKXKXKXKXKXKXKXKXKXKXKXLXJX/.K S E S S E S S S S K S S K C K K K K K V V 8 8 8 7 p 7 3 2 N ;.a.y.y.y.p.j.j.c.).].).F.x.x.x.v.k.f.f.t.r.r.;.-.-.-.*.] $.^ ^ ~ W ~ b b k i 0 r k l e e W W W W ~ ( ^ ^ ] ] { *.;.i.i.Y.Y.p.a.N.N.N.N.N.m.N.a.Y.u.1.-.$.&.;. .! X.%.T.r % = $ 2 < < * < < 1 < 6 4 6 4 6 4 5 4 < p t t t . ..2XkXOX;X4X.XOXQ.OXH.Q.H.H.Q.H.h.V.V.8.8.h.8.1.:.4.@.1.* + & & & & & 4 & & > 2 1 2 r 1 r 1 p t t 6 y t p p t a a p f f f f f f h f h h Z Z Z H H Z H S H H F H J F T.J | Y R Y R T G m f.OXrX+XXXXX$XXXXX}.XX].).).).F.v.v.v.v.t.t.y.y.:.w.:.n w _ 9 ,.2XfXzX8X8XqXqX8X7X7X/.;X/.;X;X;X>X/.&X^.^.&X~.R.R.~.R.Z.K.^.n.4 # 4 # , < 6 6 6 7 7 8 8 s 8 s V V V V 9 A 9 R K R R A S T T F U Y F U U U j U v A A j j j h 9 c j g a y t N ! $.&.&.{ e.w.w.w.a.s.s.s.s.k.j.l.k.(.(.x.(.(._.|.|.}.|._.}.}.}.}.}.}.+X}.#X#X}.#X#X#XrX#XrXrXrXrXrX#XrX+X+X+X+XOXXXXXXXXX}.).].).).).F.v.v.v.v.v.v.t.y.:.[ w.e.) B B f t t a p d d a f h j h h h Z c H H T.S C H S C C C C S C C C C K C C S C C C 3 C C C C C C C 3 C 3 C C 3 K 3 C 3 3 p 3 C p 3 C p p C C 3 p p C 3 3 3 p p C 3 3 p p 1 f f f f p p t t t t t y d y g g 4 $ = B = = w = = = $ = = $ = $ - $ $ $ - - - - - - 0 k l W l W W W ^ ^ [ ^ [ [ ] [ <XeX5X4X=X,X,X=X.X=X.XR.{.I.L.I.I.U.U.U.D.m.m.N.N.N.Y.a.Y.6.a.3.>.O.%.O.%.%.O.N $ o & < $ * % & * > % & > % * * 2 * > * > & < & 4 & < < < 4 4 > 4 4 < 4 < 1 1 1 1 1 r 1 1 B 1 r 1 1 r 5 5 ",
"-X%X=XeXA._ &.[ ` ` ` _ k = + % % & % % 2 & 2 > 1 1 1 1 B 1 1 1 t t t 3 1 f d 1 0 ,XwX+X+XXX+XOXOX'.'.|.|.(.(.(.l.c.k.k.t.t.e.e.e.*.<.2 o < : : 2 1 2 1 2 p 1 1 p 1 p p 3 p p p p 8 p V 8 V C V C Z Z C C H C S S ; VXKXLXKXKXKXKXKXKXKXKXKXKXKXKXKXKXKXKXKXKXKXLXLXqX3 S E K E S S S S S S S S C A A C K K K 8 8 8 8 8 7 8 3 7 1 t ^ a.w.w.a.s.p.k.j.c.).'.`.`.x.x.x.v.v.k.j.t.y.r.e.-.-.&.*.] ) ) ) ( ~ W l l W k i k e l l W W W W W ( ( [ [ ] ] ] &.;.g.m.m.g.N.N.U.b.9.3.>.T.m | %.8.u.u.r.;.&.*.*. .*.T.T.* * + & 2 < 2 2 < < < 6 4 4 6 4 1 t 7 6 5 5 5 p 4 + 4.8XpX;XOX;X.X.XQ..XH.Q.H.H.V.V.h.h.h.8.8.8.1.1.:.:.1.* . $ & # & & # & 4 > < 0 1 1 r 1 1 r 6 5 9 4 t t p p a a u f u f d f f f h h h h c H Z H H H H H F H J H J T.T.J F Y F R Y Y o.L :.<XrX@XXXXX$XXX).}.}.).).).).v.v.v.t.t.y.y.w.w.-.[ _ 9 8.Q.zXvXfX7XqXqX0XqX8X/.7X8X7X8X8X7X7X;X;X;X-X-X&X&X&X~.~.~.!.Z.^.-X#.# # 6 > 6 , 6 6 6 7 7 8 8 8 s s V V V A A A K A K A K F R T T Y U F F D U U j D D v D D j h j j j a a y N ! ..&.w.w.[ w.w.w.y.s.s.a.a.k.k.k.c.k.(.c.(.(.|._.|.|._.}.}.}._.#X}.#X+X}.+X#X}.+X#X#X#X#X#XbXbXrXrXrX#XrX#X@X$XOX$X+XXXXXXX}.}.].).).F.).v.v.v.v.t.t.y.y.y.{ w.;.%.i * u t t a d y d d j f f h h h Z Z H Z C H C C C K C S C C S C K C C C C C C K C C K C 3 C C 3 C C C K 3 C 3 C C C C C p C 3 C C p 3 V 3 p 3 C 3 V 3 V 3 p 3 3 p p p 3 p f f f p i t 1 1 t t d y y g d y * $ * * = = = = = = = $ $ $ $ $ $ - $ - - = - - - q k W l e W W W ^ ^ [ ^ ^ [ { ( f.tXeX,X4X5X,X=X,X.X=X=X!.{. XR.{.L.I.G.U.U.M.M.M.m.N.Y.Y.Y.2.2.a.,.3.%.>.%.O.>.%.c = . - * % & % > * * & * > & & > * * > * & > & & < < & < > * 4 & < < < 4 < r 1 B 1 r < 1 1 1 r 1 t 5 1 r ",
"-X&X<XeXh.( w.' ] ] ` ' / w = $ & % > % 2 2 2 2 2 2 1 2 1 1 1 4 1 5 t 1 p p p p = a.wX+XoXXXoX}.OX}.|.|.`.`.`.(.x.k.k.k.f.s.r.y.e.*.a.0 o 2 2 : 2 1 2 1 1 1 3 p 1 p 3 p p p p p 8 p V 8 f V V f f C C H H C C J J O lXKXKXKXKXKXKXKXKXKXKXKXKXKXKXKXKXKXKXKXKXKXJXVXE K E E K E S S S S S S K K C A V K s K s s V 8 8 7 8 3 7 3 1 ! <.t.y.s.p.t.f.j.j.c.|.|.x.`.F.c.x.v.v.k.t.t.t.r.w.w.-.&.*.*.) ` ) ( ~ W l l l k k k l e e W l W W _ ^ ( ( ] ] ] w.&.r.p.h.b.U.n.Y.+.S s 3 ; ; 2 1 c U o.@.,.e.-.*.-.*.^  .*.b r = % & 1 1 > < 4 < > 6 6 4 6 1 5 5 1 1 4 6 6 9 & & 8.4X<X.XOX;XQ.Q.H.Q.Q.H.H.H.V.V.h.h.h.:.8.1.:.:.4.:.& . & & & & # 4 & 4 > < < 2 1 2 p 1 t 5 t 5 t t t p p p a f p f p f f h f h f c f C Z H Z Z H H H F H H J F J J | F I D F T F | F H N.+X@X$X}.XXXX}.).].).).).).c.v.c.v.t.t.t.y.w.:.:._ 8.BXCXvXqXqXxXqXqXqXqXqXqXqXqX8X7X7X8X>X>X>X>X>X-X-X-X^.&X&X~.&X!.R.&X~.+.# # ; > , 6 6 7 7 7 8 8 8 s V V s V K K A K A R K R A T T F F Y F | D D D D 9 D j j j j j h d j a p t b  .&.] w.w.w.y.y.w.y.y.s.s.l.l.c.c.c.(.(.(.(.|._.|._._.|.}.}.}.#X}.#X}.#X}.#X#X+X#X#X#X#XrXrXrXrXrXrX#XrXrX+X@X+X+X+XXXXXXXXX'.].).].).).x.x.v.v.v.v.v.t.t.r.w.w.;.*.N 2 t t d t d d d f f j j j h h h Z H H H C C C C C C C C C C C C C C C C K C K C C C C C 3 C C C 3 C 3 3 C C 3 C 3 C V C 3 C 3 C 3 p p 3 C 3 C 3 p V p C 3 p C 3 C 3 p 3 f f p f p 2 r t t u p a d d g t & & * = $ * = $ = = $ = $ $ $ = - $ - $ - - - - q e l l W l W ^ ^ ^ ^ ^ { [ [ [ ( |.hX5X4X4X5X5X<X*X*X,X=X.X X{. X{.K.I.I.U.J.U.M.U.M.m.N.N.g.i.Y.a.a.a.3.3.>.%.O.%.>.T.0 - 2 % & & % % > & : * & > & > > * > & & > < & < & 4 4 & > < < < < < 1 1 1 < 1 < 1 r 1 1 1 1 4 4 5 4 ",
":X;X1XeXf.Q e.' [ [ ( _ _ l * - % & % : * 2 2 0 1 2 3 0 r 1 1 1 1 1 0 p p 1 3 p 2 W 5XrX+X+X}.+X}.}.].}.|.|.`.(.x.l.l.k.f.p.t.r.e.*.i.B o 2 2 2 2 0 1 3 2 1 1 1 3 p p 3 p p 3 C f p 8 V V f f V h C Z C C S H C J O &XHXKXKXKXKXKXKXKXKXKXKXKXKXKXKXKXKXKXKXKXKXGXE K E E K E S S S S S S S K S K C K K V V V 8 8 V 8 8 8 8 7 3 1 *.a.w.y.s.s.p.f.k.j.(.}.|.`.F.x.x.v.v.k.k.f.p.r.r.w.-.-.&.*.] $.) _ ( ~ W W b l k e e e e l l W W Q ( ( ( [ ] { { w.w.;.u.1.@.f 8 3 2 3 3 3 8 K K 7 3 , , 9 U a.e.e.*.*.*. . .%.! B % & 2 2 % > > < < < < 6 4 4 5 < 1 p t 6 > # M # . V.tX;X.XQ.OXL.Q.H.H.H.H.H.h.h.8.h.8.h.:.:.:.=.:.1.4 + & # & & & # 4 & & < 2 1 1 0 1 1 t 5 t 5 7 t p 7 t a y p f d f f d f f f f h c H Z Z H H Z S H H D F T.F F T.J F | Y D | F F +.F x f.$X@X$X}.XXXX}.}.).).).).v.v.v.v.v.v.t.y.w.:.:.n Q.FXfXqXxXxXqXqXfXqXqXqXqXqX7XqXqX8X7X7X8X7X7X>X>X>X>X-X-X-X&X~.&XE.~.6X!.9 . 6 6 > 6 6 6 6 7 8 8 8 8 s s V V 9 A 9 R A A A S H R F Y Y F F Y D R j v A D D j j j j 9 d 9 a f t ! ;.;.[ { w.{ w.t.y.s.a.s.k.s.s.c.c.(.c.(.(.|.(.|._.|.}.}.}.}.}.}.}.}.#X}.+X+X#X#X#X#X#XrX#XrXrXbXrXrXrXrX#XrX@X$X+XoX$XXXXXXX}.'.'.).`.F.).x.v.v.v.t.v.t.r.y.w.y.-.-.b 0 t u t p y d f d f f f h h h c C H H H c C C C C C C C C C C C K C C C C K C C C 3 C C C C 3 C 3 K C C 3 C C 3 C 3 3 p C p p 3 C 3 3 C 3 p 3 V 3 3 3 3 p p 3 p 3 3 p p f f p N u 2 1 t t y t u u N f B $ & 0 = = = = = $ = $ $ = $ $ - $ - $ o - - - - e l l k W ^ W W ^ ^ [ ^ ^ [ { w.^ .XnX5XeX5X5X5X5X,X,X*X=X=X=X{.R.P.[.L.I.G.I.U.U.S.M.m.N.N.N.N.Y.i.Y.,.a.<.>.<.%.X.X.O...u X & % % * % & & * % & & & * & > * > > & & & < < & > > < * < < < 4 < r < < 1 r 1 1 B r 1 r 4 5 r 4 ",
"6X*XgXoX$.' -.' ' [ ..( / ' l - $ > % 2 1 ; @ 1 < < < 1 > 1 1 , 1 1 B t 5 3 p 3 f o a.uXoXoXwX'.OX'.].].).).x.x.x.v.k.j.f.t.y.:.w.-.;.! . % 2 < 2 2 < 1 1 1 1 5 3 p p p p p p p p V p V 8 f f f C C c C C H C C F f f LXLXKXKXKXLXKXKXKXKXKXKXKXKXKXKXKXJXLXKXKXW.K S E S E S S S S S S K S S C A C C V K 8 8 8 8 3 3 8 8 3 3 2 &.w.y.y.t.s.j.p.v.c.c.`.'.|.).`.x.x.x.c.l.k.k.p.t.r.e.;.&.&.&.] ` ` ( ( ~ Q W W l e e e l l W W W W W ( ( [ ( [ [ y.{ { h...6 , 8 8 8 8 8 8 8 7 8 3 8 8 3 8 8 3 7 h | :.u.e.] ~ / $.P < o % 1 ; : & < < 4 5 4 & < < < 4 < 4 < 4 t < 4 # & N.2X.XQ..XOXL.Q.H.z.Q.V.h.h.h.8.h.:.8.:.:.:.:.4.4 + = & @ & % % * * < < < < 1 B 5 5 1 6 r 6 y 9 t t 9 a a d p f f f d f f f c f Z c c Z H Z H H H H H G F J G F T.I I U I | F | | F | 9 b.@X@X+X}.).XX$X_.XX).H.v.v._.v.j.t.t.r.:.8.8.U 9 SXxXxXzXxXxXxXfXfXqXfXqXqXqXqXqX0X0X7X8X7X8X7X>X>X>X>X/.;X~.&X/.&X~.Q.>XQ.9 . , ; 6 , , j 6 8 8 8 f s V V V A K A A A A A A S F Y Y F I F F D D D D j v D j h f C f f d p 1 $.{ &.&.{ e.w.e.y.y.s.s.s.l.k.k.l.(.l.(.(.(._.|.|.|._.}.}.}.}.XX}.XX+X+XXX#X+X+X@X$X$XrX$X}.yXLXbXrXrXbXrX$XrX$XrX$X$X$X+XXXoXXXXX].].XX).H.).).).v.v.v.v.j.t.t.t.-.-.u.) w t t t p t a f d h f f h j j Z Z D F C C C C C C C C C C 3 C C C p C C p C 3 C C C C C 3 V C 3 p V p C 3 C V p 3 p V 3 C p C 3 p 3 C 8 3 8 p 3 p 8 3 3 8 3 7 3 7 3 , p p d a 5 1 4 r t t 7 f p a a t & & * = * = & = $ $ $ = - = - $ - - - + - - - - e W e W W W W ^ [ ^ ^ ^ [ [ { { { { wXlXlXlXlX5X4X,X5X,X5X=X,X X=X X X{. XP.{.P.U.U.U.U.S.U.Y.N.g.N.Y.i.Y.2.<.<.3.>.%.O.%.O.O.| o o @ 2 2 > * : % % % & & 2 & & & & 4 & > * 4 > & < < < & < < * * > 4 * 4 > 4 4 4 4 6 4 4 4 r 6 ",
"2X;XsX.X' -.-.' $.$.[ ' ( _ / e . % 2 % % 2 1 % > < < < < 1 , 1 1 1 1 t t 5 t 7 a % Q <XwX}.+X}.}.'.}.].].).).x.x.v.k.f.p.s.t.:.w.;.;.T.. * 2 2 1 2 > 1 > 6 1 1 2 p 2 p p 3 p p p p 8 p V V f C f C C C Z Z S H F C 2 FXLXLXKXKXKXKXKXKXKXKXKXKXKXLXPXKXKXKXLXzXK K S S S S E S S S S K S C K K C C V K K 8 8 8 8 K 3 3 8 2 3 c ;.w.e.e.t.s.k.j.j.v.c.`.'.|.x.`.`.x.x.l.v.k.p.k.t.t.w.w.w.&.&.*.` ` ) ~ ~ Q Q l l l e z W e W W W ( ( ( [ [ [ [ &.{ y.s.=.g 6 3 8 8 8 7 8 3 3 8 8 8 6 8 8 3 8 6 2 2 6 9 x  .<.i.$.$...m r o o < 6 4 < & & & 4 4 < 4 < < 6 B 6 4 > < t > O i V.sXQ.H..XL.H.H.Q.h.h.V.V.h.h.8.8.:.:.:.:.:.[ 9 + $ @ % % & > & 2 < < 2 < 1 2 t 1 t t 4 9 4 t t y p a a p d p d f d h f f f c f Z Z Z c c H H H H H J G G F F J G F F I F | Y F Y Y R 9 d.wX$XXX$X}.).XX).).).)._.v.v.j.h.h.h.,.#.#.U > vXCXzXvXxXxXxXxXxXxXqXfXqXfXqXqXqX0X0X0X7X0X6X6X>X7X2X>X>X>X&X^.;X^.^.;X>XV.# # 6 6 6 7 # s 7 8 8 8 s 8 s V 9 9 A K A A U A H R Y Y F F F G U D A A U 9 j j c f f f f p u N $.&.&.w.w.w.e.y.s.a.a.s.s.k.k.k.l.l.(.l.(.(.|._._.|.}.|.}.}.XX}.}.}.XX+X+XXX#X#X#X$XrX$X$XbXPXLXMX#XrXbXrX$XrXrX$XrX#X#X+XXXXXXXXXXX}.).).).).v.).v.v.v.v.j.t.t.t.:.&.r.$.r B p 9 7 9 a f d d f j h j j Z H A F C C C C C C C C C C C C C C C C C C C C C 3 3 C C C p V C p C p 3 V p 3 p V 3 C p 3 3 C 3 p 3 3 3 8 p 3 8 3 p 3 7 3 7 3 7 3 6 6 3 f a a r 1 1 t r t t p p a p 5 & * = = = = = = & $ = $ = = q - = - - = - . - 0 e e W W W W ( W ^ ^ ^ [ { [ [ { [ f.nXhX4X5XeXlXeXeX5X,X,X5X5X5X=X=X X=X{. XL.I.{.U.G.U.U.U.m.m.N.N.N.Y.Y.2.2.6.3.%.>.%.%.%.%. .v 2 X % * % + : & * 2 & * & & & & 4 & & * > < * < & * < < < < < < < < < < 4 < 4 4 4 < 4 4 6 4 6 ",
"2X9XaX[.] w.e.[ $.$.&.' ( _ _ / * o % % o 2 1 + > > > < 2 < 1 , r 5 1 t t 5 5 7 p r & S.yX}.}.+XXX'.'.].].`.F.x.x.v.k.j.t.t.y.y.[ -.;.^ - = % < 2 > 2 > 1 1 1 3 2 p p p p p p p p C V f f f f V C C Z h C S C H J J ; 7XKXJXKXKXKXKXKXLXKXKXKXKXJXKXKXLXLXGX0X5.K E E S E S S S S K S S K K K C K V V V 8 K 8 8 3 K 8 8 7 2 t @.-.e.y.y.s.s.j.k.c.c.c.`.XX].`.`.F.x.x.l.k.k.p.p.u.t.e.w.-.&.&.] $.` ) ( ( Q W l l e e e e l W W Q ( ( [ [ [ { { { [ r.r.M 6 6 K 3 8 8 8 8 7 8 8 8 3 8 8 6 8 3 8 8 3 , 3 , 7 d v =...$._ l = - * $ & & < 4 > & & < < < < < < B < < 6 > 4 * o u L.<X.XH..XH.H.H.m.V.V.8.h.h.:.:.8.:.:.:.R 4.4 + & & + % & & & > > < 2 < < 1 1 1 1 t 5 r 9 t t 9 y p d a f d f f f f f f c h Z f Z H Z Z H H H H H G F F G G F G F G I F F F | F F R 9 L 8.oX@XXX}.).OX).].)._.v.).v.v.h.8.0.5.#.5.U . >XGXcXcXxXxXxXxXxXxXxXqXxXfXqXqXqXqXqXqX0X7X6X6X6X6X7X8X2X>X;X>X>X>X~.!.>X2X5.# # 6 ; 6 3 8 7 7 7 8 8 V 8 s A 9 9 A A A A A A R Y F F F G F A D D D 9 j v D c V f h f t N  .$.*.w.w.{ e.e.y.a.s.s.s.s.c.k.c.(.(.(.(.(.(.|.|.|._.}.}.}.}.XXXXXX+X+XXX+XXX#X#X#XrX$X$XuXPXKXKXIX#XrXbXrXbXrX$XrX#X#X#X+XXXXXXX}.}.].].).).H.).).v.v.v.v.t.v.y.w.r.-.r.&.N B t 7 t p y p d N f f j j j c Z Z Z C C C C C C C C C C C C C C 3 C 3 C C p C C 3 C 3 C 3 V p C 3 C C p V p 3 p 3 p p 3 p 3 3 p p 3 8 3 3 p 3 p 3 3 3 3 7 3 , 3 , 6 p p a a 4 4 r r 4 t t p 7 7 4 r & $ & = * = = = & $ $ $ = - - = - - = $ - . 0 k l W W W W ^ W [ ^ [ [ { { { { { r.u.tXjXjXaXlX,X5XeXeX5X5X5X5X X5X=X,X X X{.{.{.{.I.L.I.G.U.A.U.N.U.N.N.i.Y.Y.a.a.<.<.>.>.%.%.| O.T.r O o % < % % & % & & & & 2 & & < > * < & < & < 4 & * & 4 < < < < < 4 < 4 > 4 < 4 4 4 4 6 4 ",
"2XaXsXF.[ r.r.-.&.' ' ' ( _ _ ' l = . & & % & 2 & > > < < < < 1 1 B 1 B 1 5 5 5 1 d - ^ eX,X}.+XXX'.].].`.`.).x.z.v.v.f.j.p.r.y.w.-.*. .= $ % 2 2 > < < 2 1 1 t p p 2 2 3 p p p p p p 8 f V f C f h C C H C H C C J 2 q.LXLXLXKXLXKXKXKXKXKXKXJXKXKXLXSX0XR.E.W.S E S S S S S K S S S K S K K C V V V V 8 K 8 8 8 8 8 3 1 1 m u.w.y.y.t.j.p.k.k.c.c.(.|.}.].`.`.(.F.x.c.c.k.k.p.t.e.e.e.w.&.&.&.` ` ) ~ ( Q W Q W e l e W l W W Q ( ( [ [ [ { { -.e.r./ 4 6 9 8 8 8 3 8 7 7 8 3 8 6 3 6 8 3 6 3 7 7 3 3 3 , > ; t x P X.%. .r X & @ & > & & < 4 < < < & < * < < 6 4 & 9 h * + B Q.;XQ.H.Q.H.h.Q.h.h.h.8.h.8.8.:.:.:.:._ :.* + & @ & % % & & 2 > 2 < < < B 1 1 r 4 5 4 6 t 7 5 t y p p d p d d f f f f f f c Z c h h H h Z H c H F G G F G F G F G F F | I F F | D R D v z.@X+X}.XXXXXXXX_.).).H.z.m.8.q.0.5.#.5.R . 6.JXzXvXxXvXxXxXxXxXxXxXxXxXxXfXfXqXqXqXqXqXqX0X6X6X6X7X6X2X2X7X;X>X:X^.~./.0XY X , , ; j , 7 8 7 8 8 s V V K A K A A A A A S F F Y F F F G U D j D U j j j f f f f t i T.*.] { w.w.e.e.y.a.s.p.s.p.k.j.c.l.s.(.(.(.(.|._.|.}.}.}.}.}.XXXXXXXX+XXX+X+X#X#X#XrX$X}.bXIXKXLXLXPXbXrXrXrXrXrXrX@XrX@X@X+X+X+XXXXXOXXX'.'.).).).x.x.v.v.v.v.v.t.:.t.w.w.e.Q B p p 7 a y f d f f f h h Z j Z A Z C 3 C C C C 3 C C C C C C C p C C C p C p C C 3 C 3 V p p 3 V 3 3 p 3 V C 3 V 3 3 C 3 p p 3 3 C p 3 p 3 3 3 8 3 8 3 3 3 6 3 6 6 p d a t 4 1 4 r t t 9 t 5 1 5 5 & * = = = = & = $ $ $ = = - = $ $ $ - - - = e W e W W W W ^ ^ ^ [ ^ ^ [ { { { { $.y I 6.-XlXjXjXeXeX4X5X5X5X5X3X=X=X,X=X=X XR.{.I.[.[.I.I.U.U.U.U.N.m.N.N.Y.Y.i.2.6.3.<.<.>.O.%.| >.| t o $ * * & % & % % & & & & & & & > & < & & < & < < < < & < * < < < < 4 4 < 4 > 4 4 4 4 4 ",
"4XaX8Xf.[ r.r.{ -.' _ [ _ ( ) (  .k - - < * o 1 < & & > > < 1 < 1 2 1 1 1 r 1 t 1 h < 0 G.uXXX+XXX'.}.].`.`.).x.x.v.k.k.s.p.r.r.-.-.*.=.0 % % 2 > > > , 1 < 1 1 1 p 3 p p p p p p 3 f f f 8 C f C f C V C Z H S C T.3 T.LXLXKXKXLXKXKXLXKXKXLXKXJXDX7XE.W.E././.E K S S S E S S S S K K C K C 8 V s K 3 8 8 8 8 3 3 7 3 > x &.e.w.e.y.t.s.k.k.c.c.c.(.].'.).].).x.F.c.x.v.j.k.f.p.r.r.e.;.-.&.] ` ` ( ) Q Q Q W l e l l W l W ~ ~ ( ( ] [ [ { { r.:.m 4 3 8 8 3 3 8 8 3 3 3 8 3 3 6 8 8 3 8 6 6 3 6 6 3 6 6 6 6 ; 3 7 8 v o.m r $ < 4 4 & & & 4 > & < > > > 4 & # 9 & & & 4 $ + 9 Q.;XH.h.Q.h.h.V.h.h.8.8.h.8.:.:.:.:.R :.9 $ $ $ # & % & & > & 2 < 2 1 2 2 t 1 4 6 t t 4 9 p t p p a a a f f f f f j f h h c Z c Z Z c H H H H H H H H H G H H F G F G F Y F G U U +.D v m.@XOXXXXX_._.).).H.V.q.q.q.q.5.5.5.0.+.  j FXvXvXvXvXxXvXvXxXxXxXxXxXxXfXfXfXqXfXqXqXqXqX0X0X0X0X8X6X6X2X>X>X6X7X~.-X7X7Xj X 9 5 , 6 7 7 7 9 s 8 s V K 9 K A A A A A A J Y F F F G G A D j A h h h f f c f t t b ` e.&.w.e.w.y.y.s.s.s.s.s.l.c.c.l.c.(.(.(.|._.|.|._.}.}.}.}.XXXXXX+XXXXX#X+X#X#X#XrX#X#XrXNXKXKXLXKXPXIXrXrXbXrXrXrXrX@X#X#X+X+XXX+XXXXX].].).).H.).).x.).v.v.v.t.t.y.t.w.:.r...r 4 t p p a f d d h j j j j Z Z j A C C C C C C C C C C p C 3 C 3 C C C 3 C C C C 3 3 C V 3 V V 3 V p p 3 3 C p 3 3 p 3 3 C 3 3 C 3 3 7 3 3 7 3 3 3 3 3 3 1 1 3 , , a t p r 4 < r t t t y 7 9 & 4 * & & $ * = = $ = $ $ - = - = $ = $ $ . . - e W l W W W W W ^ ^ ^ ] ] ] ] { { { [ H 6 8 3 f F I.5XgXgXsXlX5X5X5X,X,X=X=X=X,X X X X X{.P.L.I.U.U.G.U.U.m.N.Y.Y.Y.i.,.Y.3.3.3.>.%.O.O.%.O.O.x o X = $ = % % & & % & & & > & & < & < & & < & < * * < 4 > & < < < 4 < 4 4 > < > 4 4 4 ",
"aXjX<Xu.;.t.w.-.w.&.[ &.[ ` _ Q / / w . $ > o % ; & < & > * > > 1 B 1 1 1 1 r 1 1 a d +  .wXoXXXXXXX'.].].`.`.(.x.x.v.k.f.t.t.y.w.&.$.1.r o % 2 > > > < 2 1 1 1 3 1 1 p 3 3 p p p C C p V f f V C V C h Z Z C C C J C p PXKXKXKXKXKXPXKXKXLXLXDX7XE.W.W.E.E.E.E.W.K S E K J K S K S S K K K K K 8 K K 8 8 8 8 3 8 3 3 6 t ) p.{ y.y.t.s.j.k.j.c.c.c.`.OX.X|.].`.`.x.x.x.l.v.f.f.t.t.e.w.w.-.&.*.$.` ` ( ( Q Q W l e e W l W W ~ Q ( _ [ [ [ { { r.} 5 6 K K 3 8 8 7 7 8 8 3 7 7 8 3 3 3 3 6 3 3 3 3 6 , , 6 6 7 3 3 ; # ; 5 x m & + O # & 6 & # & & & & & * * > & & < & # = 9 9 + _ Q..XQ.H.Q.t.h.h.h.8.8.8.:.:.:.R :.L :.9 $ & $ % % % % & > > 2 2 * < 1 r 1 r 5 4 6 t 5 7 t t a y p d a a d d f f a g j h f Z c Z Z c Z Z H Z H H H H H H D F F F F G G G F G L U U U 9 L h.wXOXXXXXXXH.V.L.Z.W.q.q.5.0.5.5.8.v . # cXDXvXvXvXvXvXUXvXUXvXxXxXxXxXxXfXxXqXxXqXkXkXqXqX0X0X0X0X7X6X7X>X7X6X2X>X^.0X~.6 O 7 # 8 7 7 7 7 8 8 8 8 9 K 9 K A A A A A F Y F F F H F D D D j h h h h a f f t N  .&.e.w.w.y.e.y.a.a.s.s.k.j.k.k.(.(.(.(.|.(.(._.}.}.}.}.}.}.}.+XXX+XXXXXXX+X+X#XrX#X#X}.rXAXLXKXKXKXKXJXPXbXrXbX#XrXrX@XrXwX@X+X+X+XXXOX}.XXXX}.].).].F.).v.v.v.v.v.v.t.t.y.{ r.%.N 4 t 9 y a f N f d j j j j c V h V C C C C C 3 C C C 3 C C C p p C p C C 3 3 3 p C p f 3 V 3 3 p 3 3 C C 3 3 3 p C 3 p 3 3 3 p 3 3 7 3 3 p 3 7 3 3 1 3 3 3 , 1 , 1 a p t 4 4 4 r t y y t 5 6 & 9 9 & $ $ * * $ = $ $ $ - = = - $ - $ - . - w W W e W W W W ^ ^ [ [ ] ] { w.{ { _ l Z K R K V , p f n.R.lXdXgXlX<X,X<X,X=X,X5X=X X X X X[.P.L.[.I.U.M.M.m.U.U.N.N.N.Y.Y.a.<.a.3.<.>.<.X. .%.X.x $ X % & % & % & 2 & & & & & & & & & < & & > & > < > & & 4 4 < & < < < < 4 4 4 4 4 4 ",
"jXjX,Xu.t.t.w.w.w.-.-.-.[ [ ` _ ( ) l * - % % @ & : & & * > < > < B 1 1 r 1 1 r 5 1 f & i ].@XXXXX.X'.].].`.).x.x.v.v.f.v.t.r.y.r.-.&.i.i o $ > ; > > 2 , 2 1 1 1 p 2 p p p p 3 C p p 8 p C V f f f C C C Z C H H C T.2 zXLXLXKXLXKXKXKXLXDX7XW.E.E.^.^./.^.E.^.E.J J E S S S S S K C K C V 8 K 8 K 8 8 8 3 8 3 8 3 6 6 n ;.w.{ e.y.t.t.k.k.c.c.c.c.`.XXXX].].).(.F.x.x.c.v.k.f.f.t.e.e.e.&.&.*.` ` _ ( ( Q Q W l l k l W W W ^ ( ( _ [ [ [ { :.P 9 3 8 8 3 8 8 3 8 8 3 8 3 3 3 6 8 6 3 6 3 3 3 , 6 , 3 3 3 , , ; , 3 7 6 ; ; < 5 5 & X X % < 4 & & & & & & & > 4 & # 4 4 & * # & $ L .X.Xz.m.A.V.h.8.8.:.8.:.8.:.:.R _ :.9 9 * + % % % % & % 2 2 * 2 B 1 2 1 2 4 5 5 5 t t t t a p p a p d f p f d f f j c Z h Z Z Z Z v H c H H H H H H H H H H H H H G F F G v o.D D R U L H.OXOXOX].Q.E.Z.W.q.q.0.0.0.5.5.8.9 & . 7XGXDXDXvXvXvXvXvXvXxXvXUXxXxXxXxXxXxXfXfXdXdXqXdXqXqX0X0X0X8X0X2X>X8X>X7X>X>XqXq.; # 6 7 7 6 7 7 7 8 8 s K 9 K K Z K A A Z F F R F F H H Z Z Z j h c h x h 9 p u b *.e.{ w.w.y.t.s.s.s.s.k.s.c.k.c.(.(.(._.|.|.|._.}.}.}.}.}.}.XX}.}.XX+X+X+X+X#XrX#X@X+X@XMXLXKXLXKXKXKXLXLXNXrXrXrXrXrXrXrX@X@X@X+X+X$XOXXXXX].}.).).).).x.).v.v.v.t.v.t.t.t.-.e.;.n * p p t d d f d h g j j c h Z V V C C C C C 3 C 3 p C C p C p 3 C C 3 p C C 3 3 p 3 V 3 p V p 3 V 3 3 3 3 3 3 3 3 p 3 3 p 3 p 3 3 3 t 3 3 1 3 3 1 3 3 1 1 , , 6 > a t r 1 > r r t t r 4 6 # 9 9 4 & $ & * $ $ $ = = = - = - = - $ - . - 0 k W W l W W ^ ^ ^ ^ ^ [ ^ { w.w.%. .v j H V K 8 R H F f O p +.E.5XlXlXgXlX4X,X5X,X,X X5X X X{. X{.I.I.U.I.U.U.M.m.N.N.Y.Y.Y.Y.Y.Y.,.3.<.%.3.O. .X.%.T.* % $ % % % % 2 % & & & : & & < & & & & < < & < * > * * > < > < < 4 < > 4 4 < 6 4 ",
"sXaXH.-.f.t.w.k.-.-.-.[ _ ' [ _ ( / / N - X & & : : & > * * < 2 < 2 1 2 1 2 r 1 t : p p $ <.rX}.XX}.}.|.].`.).F.x.x.v.k.j.t.y.r.r.-.$.i.N + % > : & > > 2 1 1 1 3 2 p 1 p 3 p p 3 p p V f V f V C f V h C Z H C J C +.O 7XLXLXKXKXKXKXVX^.q.q.^.E.^.E.W.W.E.E.W./.E K S S K J K C S C C C C K K K 8 8 8 8 8 8 8 3 K ; 6 X.u.{ { s.y.p.s.s.c.l.c.x.c.).XX.X].].`.F.`.x.c.l.k.k.f.p.r.r.w.w.{ &.*.] $._ ) ( ( Q l W e l l W Q ~ ( ( ( ' [ [ w.w.e.9 , 8 K 3 3 9 3 8 6 3 7 3 8 3 7 3 3 8 3 8 6 3 3 , 6 3 3 3 3 ; , , , : ; > , 3 ;   P C.3.<   X # & & & > & > & & # 4 4 # # 4 & $ 9 + $ :.Q.Q.m.A.h.h.h.8.h.:.:.:.:._ :._ :.9 * * $ # $ % % * > * 2 > 2 r 2 1 1 r 4 5 5 5 5 t t p y p y a d p d f a f f f f f f h h c c Z Z H H H h h H H H H H H H H H F F F G F A U U D D R L 9 ].OXOXQ.E.E.W.W.W.q.q.q.5.5.5.5.4 r X Z.GXvXDXvXvXvXvXvXvXvXvXvXvXxXvXUXxXxXxXxXxXfXfXdXkXdXqXqXqX6XpX0X7X0X6X2X7X>X6XdX5.O > , 6 6 7 7 9 8 8 s 8 K 9 j V K Z A A J F F D F H H D Z c c h h h d H 9 5 N *.e.w.&.w.w.y.e.a.s.a.s.l.k.c.c.c.(.(.l.(._.|._.}._.}.}._.$X}.}.#X#X}.+X+X#X+X#XrX@X#X+XNXLXKXLXKXKXLXKXLXLXIXrXrXbX$XrXrX@XrX#X@X+X+XXXXXOXXXXX].}.].).F.F.).v.v.v.v.t.v.y.y.w.e.a.n * p t a a d d f d g j j Z h f s V 3 C C C C C C 3 C p p C 3 C 3 C p 3 C 3 C p C 3 p 3 V 3 3 3 p 3 C 3 p C 3 p 3 C 3 p 3 p 3 3 3 p 3 3 3 3 3 3 3 3 1 1 3 1 , , > , a t r < * B i t 9 6 & & ; 6 & 9 & * & $ = = = = = $ = - = - - - o . = k W k e ^ W W ^ ^ ^ ^ { [ { { w.&./ v Z Z C F F V C 8 C C J V 3 2 p #. XlXlXlX4X,X X5X,X X=X X X{.R.{.{.I.U.U.U.U.M.U.m.U.N.i.Y.6.a.a.<.3.<.<.<.*.O.>.O.4.= * % % % % % % & % & & & & < & < & & & & < & > & 4 > & 4 < * < 4 & 4 4 > 4 4 4 ",
"F D U o.1.v.t.y.y.:.-.[ :._ ' ' ( ( ( ( k - - & $ # ; : : & & < 1 2 1 2 1 1 B r r t 2 8 2 w '.,XXX.X}.].).'.x.x.x.x.v.k.j.t.r.y.w.w.-.:._ X & < 2 2 , > , , 1 1 1 1 t t 7 p 7 p p p 8 p V f V f f C h C C S C H A H R , 0.LXLXJXLXvXE.W.W.^.^.^.E.E.E.E.E.E.W.E.E.W.R S S K R K K S K K C K 8 8 V 3 7 f 3 8 3 3 8 : B ` w.y.{ w.p.w.s.v.x.v.v.z.(.(.'.}.}.}.|.|.|.`.x.x.l.c.k.l.l.s.a.y.e.;.&.&.*.$.) ~ ~ ~ ~ Q k l l W W ^ ^ ^ W ] { ^ [ j.X.p 7 7 7 7 3 8 3 3 6 6 8 3 6 3 6 3 6 6 3 6 3 , 6 3 , , 6 , , , 6 , , , ; , , > > & &   c %X&X0.c .     + < & & > % $ & & * > > > > 2 > o % X.J.V.m.V.h.:.8.8.1.:.:.4.:.} ..} B . & % $ # & % & * > * > < 1 < 1 B 1 6 4 5 5 t t 5 a p p y y a a d g f N f f f h c f Z c c c H Z H c H c D c D D D D D D D D D D D D D U D D D U D F 9 /./.E.E.E.q.E.q.q.0.0.5.5.0.8.9 9 + 4 FXFXDXDXDXvXDXvXDXvXvXvXvXvXcXxXvXxXxXxXxXxXfXfXfXqXfXqXqXqXqXqXqX0X8X7X7X0X>X7XfX5.  6 6 6 6 9 7 8 a p V V 9 A K V A A V Z F F U D D Z A h j D j j 9 9 h u k  .;.*.{ { s.a.a.s.s.s.s.s.s.l.l.(.(.(._._.|.|._.}.}.}.}._.#X}.#X}.#X#X}.#X$X#X#X$XuX$XXXMXKXKXKXKXKXKXKXKXLXLXLXNX$XbXbX$XrXrX#XrXwX#X#X#X$XXXXXXX).).).XX).).H.).v.v.v.v.j.t.r.r.:.r.:.w 4 p 7 7 d d a h d j j Z C f C p C p V V 3 3 C 3 p p C p p 3 3 C 3 p C 3 C 3 p C C p p V C 3 3 p 3 3 3 p 3 p 3 3 3 1 3 p 3 1 3 p 2 3 2 3 3 2 3 3 3 3 3 1 2 3 2 1 y 5 * > 4 5 4 4 > < 1 > 6 5 4 1 $ & = $ = $ $ $ - - $ - + $ q - . q e W W W W W ^ W ^ ^ ] ] { ] { { *.T.H c C C c C C h C C C C h C h C f p 8 p U. XiXaXlX5X=X=X=X*X=X%XI.I.J. XL.L.U.U.U.D.U.N.N.N.Y.i.Y.a.i.,.1.<.<.O.<.%.O.X.3.p o @ 2 2 % 2 % < 4 % % & * * % & > * > > > * < & < < > < < < & < < < < < 4 4 ",
"I I I o.4.1.h.t.r.y.{ -.' ' ' ' [ ( ( _ l 0 $ + * & @ % 2 2 < * 2 < 2 1 1 1 1 t B p 2 p 1 2 p.wXOX}.'.].].).`.x.x.x.v.k.f.s.t.r.w.w.' *._ . = > > ; > > < 2 1 1 1 t 3 t 1 p 7 p p V p V 8 f f V C h C C C H C C C V Y , +.LXJXxXR.E.W.W.E.^.E.E.E.E.E.E.E.E.E.W.W.E.R K S S S K K K A K 8 K K 8 8 8 8 a 7 3 8 3 3 < z *.w.{ r.y.t.t.f.t.t.c.x.x.c.|.}.oX}.}.|.|.`.S.`.x.x.l.k.l.p.s.t.e.w.w.{ &.&.` ` ~ ) ~ Q Q k l W W W W ^ ^ ] ] [ { -.$.v 4 7 8 7 7 8 3 3 8 3 8 7 6 6 6 9 3 6 3 6 6 6 6 6 , 6 , , , , , 6 ; , , 3 ; , > > @ + +   y %X>XB.U.O.a o   X + 4 4 B & $ & & 4 < & > < * . * 2.Q.b.8.8.h.8.:.8.1.4.:.4.....} 4 X + + % $ & & & > * > * > < < r r 1 4 5 5 t t t t 9 t p y a u f a f d f f f d h V c Z Z h H c c c Z c Z Z c c Z D h D D v Z D D D D D D D U U D A F 9 q.^.^.E.E.W.E.q.q.5.0.0.5.5.R 9 9 * + BXGXDXDXDXDXDXvXDXvXCXvXvXvXvXvXxXUXxXvXxXxXxXxXxXfXqXxXqXfXqXqXqX0X0XqX0X6X7X2XqX>XD O 9 6 6 7 7 s s 8 9 j V V Z A V A h A H F U F D h Z Z Z Z j 9 j Z y u ! *.e.w.w.y.{ { s.s.s.a.l.s.(.s.(.s.(.(.|.|.|._.|.}.}.}.}.$X}.}.}.}.}.#X#X#X$X}.#XrX#XXXnXLXPXLXKXKXLXKXKXKXLXLXLXIXrXrXrXuX#XrX@X#X#X#X#X+XXXOXXXXXXXXX).).).).).v.v.v.v.v.y.v.y.r.{ :.[ 9 6 9 9 6 9 a p g j j c j C p p C C C V p C V C C C 3 3 C p C C p p p C 3 3 p p 3 3 3 3 3 3 p p 3 3 C p 3 3 3 p 3 7 1 3 1 3 3 3 3 3 1 3 3 3 2 2 3 3 2 3 1 1 2 2 t 9 6 4 & 4 4 6 4 2 < < > < 4 4 < $ = $ * = $ $ = $ $ - $ = - - - q e e W e W ^ ^ W [ W [ ] ] { { { &.) c C C C H Z C Z C C h h C C Z h C C f V s 2 f X.M.5XlXeX4X=X.X{.%X=X=X%XI.I.L.I.I.I.U.S.M.M.N.N.N.Y.Y.i.i.2.<.<.>.%.O.O.X.T.O.c $ X 2 < 2 % % > & & * > % * > % * * & * > & < < & < * < 4 < < 4 & 4 & 4 & ",
"+.+.o.o.} ..4.1.r.:.w.-.[ [ _ [ _ ( ( _ Q N * . & ; ; @ & < 2 $ 2 B 1 1 1 B 1 r 1 r 2 p t o l ,XoX}.].'.].x.].).x.x.v.v.f.f.r.y.w.-.-.-.$.$ % > 2 2 > > > < 1 1 1 1 t 3 3 t p 7 p p p V f f V f f f V h C Z A A C C E 8 8 qX7Xq.W.E.R./.^.E.W.E.E.E.E.E.!.W.W.E.W.E.5.K A S K S K A K 9 K 8 8 K 8 s V 8 3 3 8 3 @ p  .e.w.{ r.t.s.s.t.j.c.(.x.v.c.(.XX}.}.}.|.'.`.`.(.x.x.c.k.k.k.p.a.t.e.e.&.&.&.$.) ) ^ ! Q Q l l l W W ^ ^ ^ ] ( ] e.=.M 5 7 8 8 3 7 7 6 8 3 6 8 6 6 3 3 6 3 6 6 6 3 6 6 , , 3 6 , , , , ; , , , ; 6 > > % + & >     d I.&XR.!.n.@.v < . X   $ & & # # + @ < % % 4 & X * 1.K.h.8.8.h.:.:.:.4.4...o.....r X & % $ % $ % * & > * * 2 < 1 B B 1 6 4 5 5 7 t t t t p t 9 a 9 d a f f f x h f c f h h C c h c c Z Z Z c H h D c Z Z D D Z D D D D D D D D D U U U 9 9 ^.^.E.E.W.Z.q.q.0.q.0.5.8.#.9 9 w . >XJXCXDXDXDXDXDXDXvXDXvXCXvXvXvXvXvXvXvXzXxXxXxXxXxXxXxXfXqXqXqXqXqXqXqXqX7X0X8X2XxX/., # > 7 8 7 8 s 8 8 s V V V Z Z A V Z Z D D F D D v Z D j 9 j j h r b ..;.e.e.w.a.a.s.s.a.l.s.s.(.(.l.s.|.(.(.|._.|._._.}.}.}.}.}.}.$X}.#X}.#X}.#X$X$X#X$X+XnXPXKXKXKXKXKXLXLXKXKXKXKXLXIXbX$XbXuXrXrXrX#X@X+X#X+X$XOXXXXXXXXXXX).).).).).).H.v.v.v.t.r.r.y.:.:.W B t 9 7 p d d f g j Z j C C 8 V 3 C V C V V 3 C C C p C p 3 C p C 3 3 p 3 p C 3 C 3 p 3 p 3 3 p 3 p 3 3 3 p 3 3 7 3 3 1 1 1 3 1 3 3 2 1 2 3 2 3 2 2 3 3 1 2 2 5 4 4 4 * 4 4 4 4 > < < 1 1 5 4 < $ = = = $ $ $ $ = $ - $ $ - . - w z W e W W ^ W ^ ^ [ [ ] ] { w.*.T.c h C Z C C Z C C h C h C C C C C h C Z c C V f p a H i. X4XeX4X<X.X{.[. X XP.U.U.U.J.U.U.U.M.M.m.N.N.Y.Y.Y.2.a.3.>.<.O.%.O.O.<.O.c = o % 2 % & % % & > * % % > * : > & * > > & & < > > 4 & > < < < < 4 < < ",
"P o.o.Y R L U o.:.:.:.w.r.-.[ [ _ _ ( ( _ Q e $ + % % % % < 2 % 0 2 2 < 2 < B r 1 1 p 3 p 2 = l.<XXX).OX`.).`.x.x.x.z.v.j.t.t.r.e.-.-.-.$.0 $ > > ; : > 1 , 1 1 1 1 5 5 p p 3 p p f 3 p 8 f f V V f h V C Z C Z A A J A S E.E.E.^.^.E.E.E.E.E.~.E.E.W.E.q.E.W.W.q.E.q.S K S 8 K A K K K K 8 V 8 8 s 8 8 3 7 7 2 2 c ;.w.w.y.t.y.t.t.j.c.c.j.c.`.|.|.+XwX|.}.}.|.`.(.S.(.x.l.l.k.p.s.t.e.e.w.w.&.$.' ` ( ) ~ ~ W l l W W ^ ^ ^ ^ ] ] *.-./ t , 8 3 3 7 3 6 7 6 6 3 3 6 6 6 6 3 6 3 3 6 6 , 3 , , , , , , ; 6 , , ; , , ; : & @ + % + r %   c K.R.B.I.!.K.9.G 4 % X X $ & * % % @ & @ % 4 &   & 9.V.h.:.1.8.,.4.8.4.4.L .._ 4 X # + $ & # % & & & & > > < B 1 B 1 4 4 5 5 5 t 9 5 t t t a y a a d f d f f f c f c h h h h h h Z c j c j Z Z h Z v h v D D Z D v D Z D D A D A D D U 9 q.7XE.E.E.W.W.W.q.5.5.#.8.#.& 9 9 + ,.JXDXFXGXDXGXDXDXDXDXCXDXvXCXvXvXvXvXvXvXcXvXcXxXxXxXxXxXxXxXfXfXqXqXqXfX6XqXqX>XdXdXQ.# # 7 j 6 5 j 7 s s V V Z V V Z f Z c H D D Z Z j Z j j j c 9 g N ! ;.r.{ e.y.s.s.s.s.s.a.(.l.s.s.(.(.(.(.|._.|.|.}.}.}.}.}.}.}.#X}.#X}.#X#X#X#X$XbX@X}.bXPXLXKXKXLXLXKXKXKXKXKXPXKXKXLXNXbXuX$XrXrXrXrX@XwX+X+XOX$XXXXX].XXXX].H.).).).v.v.v.v.t.v.v.:.:.y.:._ & 5 9 t y f g a s j j V C p V V C 3 V 3 3 3 V 3 3 p p 3 3 C 3 p 3 C 3 p C 3 3 p 3 p 3 p 3 3 p 3 3 3 3 p 3 3 3 3 3 1 1 3 1 3 3 2 1 2 1 3 3 3 2 1 2 3 2 2 2 2 2 5 4 > 4 < 4 6 < : > < < > > 4 4 < & $ $ $ $ = - $ $ - - = - . - 0 z l W W W ^ W ^ ^ [ [ [ ] &.] *.! c h C C C V h C h C C h C V h f f V C V V C C C C C 8 : 2 d | J.=X4XlX5X%X[.[.=X X{.K.L.K.U.U.U.S.M.N.N.N.Y.Y.Y.a.Y.<.<.<.3.*.O. .O.<. .2 - $ & & = % % > % * & % & * & * > * & < & < * < & < & & 4 & < < 4 < ",
"P P o.U R I U L P X.:.:.:.-.[ [ _ ' _ ( _ _ b i - + % 2 @ % % 2 & 2 < < < 1 2 < t 1 s 2 2 p 2 k ,X+X}.].].`.].x.x.x.z.v.k.t.t.r.r.-.;.$.=.i - : : : > > 2 < 2 1 1 1 1 t 3 p p t 3 f p p V p f f f f V c C Z A C J C 8 S W./.W./.E.E.E.E.E.E.E.E.E.E.E.Z.W.Z.q.W.W.q.E.E V C K K K V K s K 8 K 8 8 8 3 3 3 8 1 2 u *.e.w.{ t.t.w.w.s.c.j.j.c.].OXe.W x.,X}.}.XX|.|.(.|.x.x.x.l.k.k.p.t.t.e.e.w.&.&.` ` ) ) ^ Q Q l l W W W ^ ^ [ ] &.&.T.9 6 3 8 3 8 8 8 3 3 6 6 6 6 3 3 6 6 3 6 6 3 , 6 , , , ; , ; , , , > , ; ; ; , > & # + o o o % 4 @ X c &XQ.J.C.C.Q.C.n.8.v 4 X   O % * % & 4 @ + 4 & + & 8.h.h.:.8.:.4.:.....L ..} 4 . $ + % @ & $ & % & & & * < 2 2 1 1 6 4 4 5 t 1 t t p t y 9 a a a a f f u f d f h f d f c f h h h h j c Z c h v h Z Z D v v Z Z D Z D D v A v D D D U 9 R ^.^.E.E.W.q.0.0.0.0.0.8.9 & < g . 9 JXJXFXFXFXFXDXGXDXDXDXDXvXDXvXCXvXvXvXvXvXvXvXUXxXxXzXxXxXxXxXxXqXfXqXfXqXpXdX0X7XqXxX5.; ; 8 , 3 s 8 8 s V f V V j Z j h h c D Z Z Z H f h f h h a i / $.:.w.w.e.t.t.a.s.s.a.s.l.(.(.|.(.(.|.|._.|._.}.}.}.}.}.XX}.#X+X}.+X+X#X#X+X#XrX$XXXbXPXKXLXLXKXKXKXKXKXKXLXLXKXKXKXKXZXrXyXbXbX$XrX$XrX#X#X+XOX$XXXXXOX}.).XX).).].H.).v.v.v.v.t.v.r.{ r.r.:.4 t 9 a t g f d d f j f V s V p 3 V C p p 8 8 8 p C 3 C 3 C C p p p C 3 3 3 p 3 3 3 3 3 C 3 p 3 p 3 3 3 3 3 3 3 1 2 1 1 2 1 2 , 2 3 2 3 2 2 3 ; , , , : 2 ; 1 1 < < < < 1 < 2 2 < > 1 > 1 < 4 > $ $ = = = $ $ $ + $ $ - - . q z z l W W W ( ^ ^ ^ [ [ { w.-. .! d Z C C C C C c C C h C C h h V C f C f C f C f 8 s V V C f 1 1 t c @.U.5X3X5X5X{.L.P.R.P.L.U.D.U.D.U.N.N.m.N.Y.Y.Y.a.Y.2.<.<.3.O.O.*.O.O. .p - + % % % * % % > & & % & * * & > & < & & < < & < 4 & & 4 < & < < ",
"o.P I U U U U P L L } ..:.$.:.-.' [ ( ( ( _ Q b * $ = % 2 % % % 2 * 2 > 2 2 1 < 1 2 p 2 2 f 1 - F.@XXX`.].).].x.F.x.v.v.k.j.t.t.r.[ e.' =.N o % ; 2 ; > < 1 1 1 1 1 1 1 t 3 7 7 p p p V p f 8 V V f V C h C C Z Z F 7 E ^./.W.E.E.E.E.E.E.E.W.W.W.q.W.W.q.W.W.q.q.0.W.0.A V A K K V 8 K K 8 3 K V 8 3 8 8 3 2 1 ) -.w.{ { r.t.y.s.c.v.j.).'.A. .r   l {.oX}.|.|.|.|.x.x.c.l.l.k.p.s.a.t.e.w.w.&.&.$.' ) ) ) Q b W W ~ ~ ^ ^ ] [ ' ;...h 6 3 3 6 3 3 3 6 6 3 6 6 6 3 , , , , , , , , , , , , , 3 , 6 , ; ; , ; > ; , > & % $ $ $ + + X - %   X c ~.&XK.0.0.Q.Q.q.J.9.P r + X X X $ # & & # & & X 9 h.V.8.:.,.4.....4.L _ _ B X $ + + + & % & & & & & 2 < 1 B B r < 4 6 4 1 t t p 5 9 t 9 y p d a u f f d h f h N f c d h h h d c j j j j h h j v j v j Z v v h v D j D v j D D D R 9 9 8.^.E.E.q.V.q.0.0.0.#.h.9 4 < u 0 . fXLXFXGXGXGXDXDXSXDXDXDXDXDXDXDXDXvXvXvXvXvXvXvXvXcXcXxXUXxXxXxXfXxXxXdXxXqXqXfXqXqXqXfX+.O ; 7 7 8 9 s 8 s V V j j j g f d h j D D Z Z Z f c h h d z *.-.e.w.w.s.t.y.s.s.s.c.(.s.(.l.(.(.|.(._.|.|.}.}._.}.}.}.#X}.+X+X+X+X+X#X#X#X#XrX_.rXLXLXKXLXKXKXKXKXLXLXLXKXKXLXLXBX3XK.n.,XgXbXrXrXrX#X#XrX@X$XOX$XXXXXXXOX).].].).).).H.v.).v.v.h.t.y.t.y.:.i t t a y a g f s f s f 8 s 8 V C V 3 8 C 3 V 3 p 3 p 3 p 3 3 p 3 3 p 3 3 p 3 3 3 p p 3 3 3 3 1 3 3 3 p 3 3 3 3 3 1 3 , 3 , 3 3 3 2 3 2 , , 2 ; ; : : , ; 2 1 t & < & < * 2 & 2 > 4 > < > 6 < * $ $ $ $ - $ + $ . + = - - = e Q z z W W ^ ^ ^ ( ^ [ [ { -.' G h V A C C f f C H h C C h V V V C h C f C f C f C Z j s V C A A C 7 3 3 f H Y. X4X5X5X X{.I.U.I.I.U.U.D.M.U.m.N.N.Y.Y.Y.Y.Y.3.<.3.%.3.O. .O.>.*.x o o % % > & * % % & & 2 % > * % > & & > & & < < & > > < > 4 > < ",
"I P U U L U U U U D P P o.$.$.$.&.' _ ( _ _ _ n u 0 o % % % @ 2 % > : > > < 2 < 2 1 1 0 1 p 1 % ( oXoX].}.`.].c.).x.v.v.k.j.t.r.t.] r.$.<.b o % : : ; 2 2 2 2 5 1 1 5 1 t 3 5 7 3 V p p p V p V V s f V C h Z Z V A F E.^.^.E.E.E.E.E.E.W.E.W.E.q.W.W.W.q.W.q.q.q.5.q.q.T V A K V 8 K V 8 8 8 8 8 V 3 7 3 3 1 c *.e.&.{ t.s.t.t.v.v.c.x.F.l.M % p 2 f %.{.oX|.|.|.(.x.x.x.(.c.l.f.k.p.r.e.w.w.&.&.$.' ` ) ! ~ W l W W ( ^ ( ] ] &. .j 8 3 3 3 6 3 6 6 3 3 3 3 6 3 6 3 6 , 6 , , , , 3 , 6 ; ; , , ; ; , , ; > : ; > ; & # + $ $ & + % % + < %   I J.^.Q.B.B.n.n.V.J.Q.Z.3.g % X + X + 6 + # & & * 9 :.8.,.:.4.4.....L o.} 4   $ @ $ % + % & & & 2 * 2 2 1 2 1 B 1 6 1 5 5 t t 5 5 t p t a a a d p f d d N f h d f f h d g h g h h h j c h h j h h Z v Z h v Z D h v D v D j j D 9 U 9 5.E.E.Q.q.W.q.0.q.#.0.#.9 < t * x   Z.LXGXGXGXGXGXGXGXSXGXDXDXDXDXDXvXDXCXvXvXCXvXvXvXvXcXvXxXxXxXxXxXxXxXfXxXqXqXxXqXqXqXvX7XF ; 7 f 7 s 8 s s s j j s j g f j h j D Z D c j f Z h d x T.:.r.w.{ w.s.t.t.l.s.(.s.l.(.(.(.(.(.(.|.|.}.}._.}.}.}.XX}.}.+X}.}.#X+X+X#X#X#XrXXXbXIXKXKXKXKXKXKXLXLXKXKXKXKXKX0X^.0.#.T 6.0.D.wXrXbXrXrX#X#X@XOX$X$XOXOXXXXX).).).).).H.v.v.v.v.t.h.y.t.y.{ :.x r r a a d d f 9 f s s 8 8 V 8 3 V C 3 8 8 3 p 3 C 3 3 3 p p 3 C p 3 p p p 3 C 3 3 3 3 3 3 3 3 3 3 3 2 3 2 3 2 1 , 1 , , 2 , ; 2 3 2 2 , 2 2 , > : : > : : 2 1 > > * 2 & 2 % 2 > < > > > 1 < & $ = $ - = - $ $ + - - - = e l W W W W W ^ ( ~ ] [ [ { [ _ n j A C V c C C h C C C f C h h C V f C C f C C C f h f V C Z s 8 8 3 H C C 7 2 3 f T.~.=X=X=X!.{.L.{.I.U.U.U.U.N.m.N.Y.N.Y.Y.Y.a.a.<.a.3.O.%.%.*.X.O.x < % % & * % % % & & & & & & > : & < & < & > * 4 & < & & < 4 > ",
"U U o.P L P L U L U v v L P $.:.:.[ _ _ ( ( Q Q Q B o $ 2 $ % 2 : 2 : > 2 > 2 1 2 r 0 1 i 0 1 1 q XXoX`.|.`.].).x.x.x.v.f.p.t.r.r.] r.` 1.M . 2 : ; : : 2 1 5 2 1 1 5 3 1 t 3 p p p 8 p 8 p f V s V f Z Z f C Z F s J -XE.W.^.W.E.E.W.W.W.E.E.q.W.Z.W.W.q.q.q.q.q.q.7.W.7.8 V C V V s s 8 8 8 3 p 3 3 8 3 2 t  .e.y.{ { t.y.r.k.t.j.(.`.-.0 % 5 2 f 2 - a.,X}.}.|.|.|.x.x.l.c.k.k.p.t.t.y.e.-.-.*.$.` ` ) ^ Q W W W ^ ( ^ ^ ] ] &.x < 3 3 8 3 8 6 8 6 3 3 3 3 6 6 3 6 6 3 , , , , , ; , , , , , ; , , ; > > : ; ; ; # # + + - = $ + + % & + $ >   +.!.Q.Q.Q.Q.Z.J.n.b.n.J.C.2.X.4 $ X X < & . + & * 9 V.h...4.@...4.L _ / B . # + + + & $ & & % & & * < 2 < < 1 < 6 4 4 5 5 t t t t 7 t p y a 9 d f d d f h d f x N f h f g j j f j j j j h j h h h j h j Z c Z D h h D v v D D 9 U 0.q.E.Q.W.W.q.q.0.5.#.0.0.9 & z $ M X I KXGXJXGXGXGXGXGXGXSXDXDXFXDXDXDXDXCXDXCXCXvXvXvXvXvXvXvXUXvXxXUXxXxXfXxXxXxXqXqXxXqX6XvX^.; ; s 6 8 s 8 s V s f f h d g g j j j Z Z j s f c f p b ;.:.w.w.y.t.t.k.f.s.l.s.(.(.s.(.(.|.|.(.(._.|.}.}.}.}.}.XX}.#X+X+X+X+X+X+X#XrX#X#X$XIXLXLXKXKXLXKXKXLXKXKXKXCX>X0.+.R q.q.q.W.6.2.A.XX$XbXrX@X@X#X$XOXXXXXXXXXXXOXOX).).H.).).v.).v.t.v.t.t.v.{ h.n r 4 a d a f f a s s 8 8 8 8 8 V 3 p 8 8 3 8 8 p 3 C C p 3 3 p 3 3 p 3 3 3 3 3 p 3 p 3 3 3 3 3 3 3 3 3 3 3 3 3 , , , > , , , , 2 2 2 1 ; ; , ; , : : ; : ; < 5 > > & 2 % % 2 2 > < 1 > > < < & $ $ $ = $ $ $ - + $ - . q l W e W W W ^ ^ W ^ { ^ [ { [ m f V A K V V C H Z Z V C h C V f C V V s s V f f V V C V f f s s V V V s 8 8 s V V 3 3 = c N. X5X=XR.U.L.I.U.U.U.U.N.U.N.N.Y.a.Y.Y.Y.3.<.<.<.<.%.O.*.| ,.v % X + % & > & % & % & & & & & & & & & > * > & > & 4 4 & & 4 ",
"P P L U P D D P U D v P D v P v $...[ [ ( ( ( ( ) b $ - * % o B % 2 & 2 > 2 > < 2 * 6 5 4 < 4 5 6 x H.<X`.x.}.z.F.z.h.v.v.t.t.t.r.-.w.] -. .= $ 2 % 2 2 * < < 1 1 1 1 1 t 7 p 3 p p p p 8 p V f V s V V f f C Z 9 R W.^.W.E.^.q.W.Z.W.Z.E.q.q.W.q.q.q.q.q.5.q.q.q.7.7.q.q.S 8 A 8 V 3 K V 3 8 8 3 3 3 8 ; 1 T.e.w.w.w.&.y.k.s.{ s.|.S.m % : p t 1 5 s % = S.wX(.|.|.l.x.F.A.f.l.p.p.t.s.y.y.-.w.&.&.' ` _ ] ~ k z Q ( ( ( [ { &.6 3 6 6 6 6 6 6 6 6 3 , 6 , 3 , 6 , , , 6 ; , 6 , ; ; 6 ; ; , ; : > ; > ; 2 2 2 > ; @ + - + + + $ $ + $ $ $ & $ + . L 2X&XV.Q.Z.Z.J.n.n.n.0.N.C.C.,.x + X   . & & $ . 9 h.8._ =.} 4.L L o.x + . & + + % * & + > & 2 * > > < 1 2 1 B r 1 r t p t p y y y a u u p p d d a a f g a g d j a j g g j h g j h h g h h c j h c c c h h j j Z v A Z j Z q.q.q.B.q.q.W.E.W.q.5.q.#.0.U 9 r r 0 i $ 6 LXKXJXGXGXGXFXFXGXGXGXSXGXDXSXDXDXDXDXDXvXDXvXvXvXvXvXvXvXvXUXUXxXvXcXxXxXxXdXdXfXfXqXfXvX^.O # U ; s j 7 V j s j a a s f g f h c D c j j j y z %.r.y.y.e.s.t.p.j.j.l.(.l.(.(.l.(.(._.|._.|.}.}.}.}.}.}.}.}.}.#X#X+X#X+X#X#XrXrX#X}.IXLXKXKXKXPXLXKXLXLXLXcXU.E E q.q.q.q.q.q.q.q.0.7.6.q. XeXbXrX$X$X<X$XOX$XXXXXXX}.}.).).).H.v.v.v.v.v.j.h.r.r.:.:.9 9 e t j 9 g p C C p 3 C p 3 3 p p p 3 C 3 3 p 3 p p 3 p 3 p 1 3 3 p 3 1 3 3 1 3 3 1 3 1 2 3 2 2 3 2 3 2 1 2 2 3 2 3 2 2 2 2 2 2 2 2 2 ; ; 2 ; : : : 2 2 2 2 $ % 2 % @ 2 2 2 > : > > < < > % % % $ $ + - $ = - . - e l l e W W W ( [ W [ [ [ ;.$.m v j V V A V Z f h j f Z C C f f C V h V f V V f V f V V f f f f f 8 f f f p s p p s s p s V 3 ; 1 Y B.-X3X X{.U.U.M.U.U.U.U.N.Y.Y.Y.n.Y.6.<.3.3.%.>.O.*.*.X.4.T.t % $ % 2 % % % % % % % > % & 2 * : * * : > * < * < < < * ",
"U v U P D P v D L v D P v D D v L L _ ..[ ( ( W ~ ! k % - % : @ & % % & * * > > < < 4 < 4 6 p a t d L A.oX].v.].x.z.z.v.f.f.t.t.r.-.e.&.e. .= % % 2 2 % < 2 < 2 1 1 1 1 3 7 7 t 7 p 3 p p 8 f 8 f s f V Z V Z C 9 5.E.E.W.E.E.Z.Z.W.Z.W.q.W.q.W.q.q.q.q.0.q.W.5.q.0.0.q.0.R 8 K V V K 8 8 8 8 8 8 3 3 2 2 f  .;.[ { y.j.s.w.t.(.).*.i 2 1 7 7 1 1 1 7 1 2 b |.,Xx.`.F.(.x.x.z.l.k.k.t.t.r.y.-.-.&.&.' _ _ _ ~ l W ~ W ^ [ [ ' / 9 6 6 6 3 6 3 3 3 3 6 6 3 , 6 6 , , , , , , , ; ; , , ; ; , ; , ; > > ; 2 ; 2 2 % & $ + + + - - $ + + & # & # = $ + + L :X;Xn.Q.J.J.C.B.V.n.n.n.n.n.n.8...9 $   $ $ . + n :.:....._ _ L @.>.y   + $ % + @ % % % * * * > < < 1 < < 1 1 5 1 t t 1 t y p t t a p y a a d 9 d a g a a g d j f j j j g j h d h g h g f c c v c j h c h v j 9 9 D 5.q.q.q.q.q.q.q.q.W.q.W.5.q.5.q.o.& r y B i 4 + xXJXLXLXLXLXLXLXLXLXJXJXGXGXGXDXDXCXGXSXDXDXDXDXDXDXvXvXvXvXvXvXUXxXxXxXvXxXxXxXfXqXfXqXxXxXq.O # U 3 s s f p , a H a g f a f f j h j j j f f } ;.y.y.y.t.t.t.p.s.j.s.s.s.(.(.(.(.(.|._.|._._.}.}.}.+X}.+X+X+XXX+X+X#X#X#X#X#X}.#XNXLXLXPXPXKXKXKXKXCX5X7.J 7.q.U.q.q.q.q.q.0.q.0.q.q.6.6.Y.|.{.rXyX$XOX$XOXOXXX}.).}.).].).).H.H.v.v.v.j.v.t.r.r.:.:.e 9 9 t g a f C p p p 3 p p C 3 V 3 C p 3 3 p p p p 3 p 3 p 3 3 1 p 3 1 3 1 7 3 1 1 1 1 , 3 3 p 3 2 2 2 3 2 3 3 2 2 2 2 2 , , ; 2 2 2 2 2 2 2 : : & : % 2 2 2 $ : : % : 2 2 2 : > > > > > * % + + $ = + - $ = - - q e W l W W ( W ^ ^ [ [ [ { $.! v j V Z V V f V C j C f j f f V C f f C V f V f V f V V f V f 8 f 8 f 8 f 8 s s s 8 s p s s 7 f s 3 > 1 d G I.~.*X*X XU.m.M.N.U.U.Y.Y.1.Y.n.2.Y.a.,.<.3.O.%.X.4.%. .N - - $ 2 2 % @ % 2 % % & % * % * > * > & < & > * * < < ",
"v U U v P v v P D D v v v v v v c M L _ _ [ _ ( W ^ ~ i - - 2 - 2 % % 2 2 & : > < 2 < < 5 5 y a a t * / {.'.x.`.x.x.z.v.j.f.t.r.r.-.e.] e.*.0 + % 2 % 2 2 < < < 1 1 1 p 3 t 7 t 7 7 8 8 p f 8 f f f f V Z Z C a 9 E.~.E.E.W.W.E.W.V.q.Z.q.q.W.5.q.q.0.0.q.5.5.q.0.0.6.6.0.7.A s V 3 8 V 8 3 8 3 3 8 3 2 t  .&.{ { { y.y.r.p.k.m. .w o 2 7 6 > 1 5 6 , 7 1 2 ! ,X'.`.(.`.x.x.c.l.k.f.f.s.r.r.-.;.&.&.` ) _ _ ( W ~ W ^ ^ ' $.m t 6 6 6 3 6 3 3 , 6 6 3 6 , 6 , , , ; , , , ; , > , ; , 6 ; ; ; , : : : ; ; 2 2 2 % @ # . - o $ $ + $ $ $ $ $ & $ B # . . 4.;X;XQ.!.K.J.Z.C.B.n.n.8.9.V.B.V.8.o.L $ & + . . L 8.4.4.} } X...8.#.9 X + & % o + < - % * > > < 2 2 B 1 B 1 1 t 1 t t t p a t t a y p y a a a d 9 a a g a a g d g d d a g d h j h g c j j j j j c c H j f s D +.6.q.q.q.0.0.0.q.5.q.q.q.W.0.0.5.q.U # 4 i t 9 a   a s S E q.^.qXvXGXGXJXLXLXLXLXLXLXLXDXGXGXDXDXvXvXvXvXvXvXvXvXvXvXvXxXcXcXzXzXxXvXzXxXqXqXvXxXF   s , 9 a j h a f t f f g f f h f Z j Z j a m =.1.y.y.t.t.t.p.s.j.j.(.(.s.l.(.(.(.|.|.|._._.}.}.}.}.}.}.+X}.XX#X+X+X+X#X#XrXrXrXnXHXHXLXLXPXKXHXdXE.+.#.7.U.U.W.q.7.q.q.n.0.q.0.0.q.W.q.q.7.7.n.I. XuX$X$XOXOXOXXXOX}.}.).}.).).).v.v.v.v.t.r.y.t.:.h.z w 9 p a p d 3 C C 3 C 3 C 3 p V 3 3 p 3 p 3 3 p 3 p 3 p 3 p p 3 3 3 3 p 3 1 1 1 1 , , , 3 2 2 3 2 3 2 3 3 2 3 2 2 3 3 2 2 2 2 2 2 2 ; 2 2 ; : % 2 % % 2 % % % % % : 2 2 2 2 > > > > 1 < 2 $ $ + $ $ = - - - . = e l W W W ( ^ ^ ^ ^ [ { { [ m c d s Z V Z V V C j j j V V V V C f C f V f V f s V s s s s f f 8 f f f 8 8 f s p p s p s s 8 7 s C f 7 , 1 7 p F 6.I.=X XI.U.n.N.U.U.D.N.Y.<.Y.2.,.a.<.<.<.>.<.X.O.O.X.x & o o & 2 & % & % @ & & & & % * & * > * > * > < * < ",
"L v v D v D D L v D v D D D v v v c c M n / _ [ ^ W ~ ~ B . - 2 % % & % & 2 * > 2 2 2 < 5 y a a a a r w ( ].OXz.x.x.v.k.j.f.u.u.r.-.e.&.;.*.r + % % % 2 2 < < 2 1 2 1 1 5 t 3 7 7 p p p 8 p 8 s 8 V V f C A s 8 0.E.E.W.E.E.q.W.q.W.W.Z.q.q.q.q.0.q.q.0.0.W.5.5.5.q.5.5.5.5.F 3 8 K 8 K 8 8 8 8 3 8 2 2 b *.{ { y.w.{ -.p.A.:.z $ : t p 7 , > 1 6 7 , 1 p @ 2 <.,X'.x.(.).x.j.c.t.j.f.r.r.e.w.e.&.$.$...) _ W W ^ ^ ^ [ $.} d : 6 3 6 3 6 8 6 6 , , , , , , , , , 6 , 6 ; 6 , ; ; , ; ; ; , ; ; ; : ; : 2 ; : : + o + . - + + $ # + $ $ $ $ $ $ $ $ 4 . . @.2X&XQ.I.I.K.J.C.C.M.B.n.9.9.0.n.n.n.,.L 9 + . + M @.L b X.2.3.,.8.@.$ X + * o % > = * : & * 2 2 < < < 1 B r 1 t t t t t t t p t y p p y y a p y a a a f a a d f d d f d g f g s g j h g a g h h d a 9 h Y 5.q.B.q.#.5.0.q.5.0.5.5.q.q.q.0.0.6.q.L $ 4 i i * H h Z 8 3 3 ; ; ; ; O ; 3 8 R 5.^.7XxXxXGXGXLXJXLXLXLXLXDXDXDXDXvXvXvXxXcXvXvXxXxXxXxXxXxXcXqXfXCX0XU X Z f 8 7 5 a g a y y a a f f c c j h N g $.u.e.y.r.s.t.t.s.k.c.l.(.l.(.(.(.(.|.(._.|.}.}.}.}.}.}.}.+XXXXX+X+X+X#X}.#XrX#X}.nXHXHXLXLXLXVX-Xq.6.E q.q.E.q.q.6.q.U.q.q.0.q.6.q.6.q.7.q.q.q.6.7.6.6.OXOX@XwXOXXXXX$XXX].XX).).)._.v.v.v.v.v.v.v.y.r.h.n i w a a y f p 3 3 C 3 p 3 p 3 p 3 p 3 3 C 3 p 3 p p p 3 3 3 p 3 3 1 1 3 3 1 2 1 , 1 3 2 2 , 2 2 2 3 2 2 2 2 2 2 2 ; 2 ; 2 2 ; 2 ; 2 2 ; ; 2 @ 2 @ 2 2 % % 2 @ @ : % % % 2 2 : > > < < < & @ $ + $ $ = - - - q e z W W W W ( ^ ^ ^ ] [ [ ^ [ f V V K 9 A V V j j s h V j V V V f V f V f V f s s f s s s s V 8 f f 8 8 f f 8 p s 8 p s p p p s 7 6 7 f A 8 7 2 2 2 f +.n. X=X X|.M.Y.N.N.M.N.Y.2.a.6.3.3.3.>.>.%.*.O.%.O.v 1 . o & < & % % & & % & 2 & > % > > & * > & * > < ",
"v D v D v v v D v v j v v v v v Z Z 9 h g M ! _ ) ~ Q ) b = . 2 $ % 2 % % 2 * > & & > 6 p y a 9 t f h 4 * $..XF.).x.x.v.k.f.r.r.e.w.e.&.&.%.N - % : % : 2 > < 1 1 2 1 1 3 p 3 p 7 p p 8 8 f 8 V f V V f j s s H E.E.W.q.W.W.W.q.q.q.q.q.q.0.q.q.q.5.5.W.5.q.5.5.5.6.6.5.7.Y.O.p 8 p 8 8 3 8 3 3 3 1 2 r  .e.{ { y.] w.l.f. .r % < 1 3 5 2 p 1 t 1 1 2 7 7 5 2 2 m.XX].x.(.(.v.c.k.k.f.r.r.e.e.-.-.&.$..._ _ ~ W ^ ^ [ &.} f , , 6 3 6 6 , 6 6 6 , , , 3 ; 6 , 3 ; ; 6 , ; , ; , > ; ; ; ; , ; ; ; @ : ; & $ & # o o . o - + $ + % $ $ & # $ & # + & & & + + 4.2X~.I.Z.Q.Q.J.C.B.V.B.n.n.n.9.8.,.V.0.,.@.n - . z 4.X.4.1.@.>.,.6.L + X $ & $ % > & & * 2 * * < < < < 1 1 1 r 1 r t t t t p p t p y p p 9 y p a y a a a 9 d d 9 a a g g a 9 d j a f g j h h f a t U #.0.q.6.5.5.0.5.q.5.0.5.5.0.5.0.q.0.0.5.0.9 & y r N & 1 s F V K K A A K K K 8 3 3 3 3 ; # # O , 6 A +.0.E.^.7XvXDXGXGXFXGXJXJXGXDXDXDXCXvXcXzXxXxXfXqXfXvX/.O , 6 j s 5 a a a y p a a y a f h j h u n r.p.:.t.t.s.p.f.j.k.c.x.s.(.(.(.(.(._.|._.}.}.}.}.+X+X}.+X}.#X#X#X#X#X#X#X#X+X}.bXJXLXJXHXdX X7.J 7.q.W.q.q.q.q.E.B.6.7.q.q.0.q.0.q.6.0.q.6.6.7.0.0.6.3.8.V.Q.OX@X$XXXXX}.}.].).).H.).).v.v.v.v.v.v.t.r.r.[ 9 r 9 9 d a p 3 p C C 3 p p p 3 p 3 3 3 p 3 3 p 3 3 p 3 p 3 1 2 3 3 3 3 2 3 3 3 , , 2 3 2 , 2 3 3 2 2 ; 3 2 2 2 2 2 ; 2 2 2 2 2 ; ; ; 2 ; 2 : % 2 @ 2 @ $ 2 @ % @ @ 2 2 2 % % > * 2 > < & $ % + - $ - - - - e e W W W W [ W ^ ^ [ { &.' m j f V V V V Z s s j j s f V V V V V s V V V f f s s s s s s s s 8 p s f 8 f f 8 f p p 8 s 8 f 8 p a f 7 7 7 3 7 8 s 8 1 : > p F 6.U.R. XU.M.Y.N.m.Y.i.2.2.1.1.3.3.%.>.<.%...X.X. .r + O % & % % < & % & & & & & & * & > * * > * > ",
"v v v D j v v j j v v v v 9 j j v c v h c x M n ! ) Q Q Q t - $ % % % % % 2 % : & & 6 t t y p 5 p a a p 4 r $.OXF.x.x.v.k.p.p.r.e.e.w.&.&.&.b o % 2 2 % * 2 2 < 1 1 1 1 t 3 t 3 1 7 7 p 8 p p s f V f f s 8 A 7.!.W.W.q.q.q.q.W.q.q.q.q.W.5.5.q.5.W.5.5.5.5.q.5.5.5.7.#.7.7.7.C 3 C 3 8 8 7 p 3 3 3 1 b *.w.] { w.t.l.u.b * % 2 p 1 2 1 t 1 < 1 1 < < 5 1 1 2 2 N S.OXz.x.`.x.k.k.f.f.r.r.r.w.e.-.$.$.' ] ( W W ( ( ` ..z 1 ; 7 6 3 6 , , , , 3 , , 6 ; 6 ; , ; , , , ; 6 ; , ; ; ; , > ; ; ; ; % ; ; @ # # # $ o o . + + - $ + + $ $ $ $ $ $ $ $ & + & * . # 4.2X:X!.K.K.Q.K.K.B.V.n.V.n.n.0.9.,.8.n.V.V.o.9 v X.b.N.2.2.3.#.,.b.g X X 2 % $ 2 & & & & 2 < 2 < < 1 B 1 1 1 p t t t p t t t t t t p 5 y p y y a y a y a a p d a a a d f d f d g g f g y p g I @.5.0.q.5.#.#.5.0.5.5.5.5.5.5.5.5.#.0.q.5.5.6.9 4 u $ d c H Z A K K A A A A A A A K S K K K K K K K 8 3 ; ; O O O O ; 8 A R q.E./.xXxXvXvXDXDXGXGXDXDXFXDXzXvXvXR.; # 6 a a p t t g g d f d d d h j g b ..t.t.y.s.t.t.j.k.j.v.c.c.(.(.(.|.|.|._.|.}.}.}.}.}.}.}.}.+X+X#X}.#X#X#X#X#X+XwXMXPXPXVXlXY.E J q.E.U.q.q.q.q.q.q.7.6.q.E.0.q.7.q.7.q.q.7.6.6.6.6.5.5.6.0.#.R 8.V.OXOXOX$XXXXXXX).OX).H.v.v.).v.v.v.j.j.t.r.:.z 4 u g f f 1 p 3 3 3 p 3 3 3 p 3 3 p 3 3 3 3 1 p 3 2 3 2 3 3 3 3 1 3 3 3 2 3 2 3 2 , 2 ; 3 3 ; 2 ; 3 2 2 ; 2 2 2 2 2 2 ; @ ; 2 ; 2 2 @ @ ; @ : @ 2 @ @ @ @ @ @ 2 @ 2 @ % 2 : > 2 2 < < 2 $ = % $ $ - - $ 0 W W W W W ^ [ W ^ ( ] { ) m g s A V V V V V s j V s V V f s s s f s f s 8 V 8 s s s 8 f s s s f s p 8 f 8 p f 8 8 8 p 8 p 8 p f 7 a s a 8 8 8 a 3 p s a 7 , # @ f | 0.{. XL.M.N.M.N.b.2.a.6.a.3.3.%.O.>.=...o.>. .r - - & % % > % % % & & & 2 & & & % > > * > * ",
"v v v v v v j v v j v j v g j v g c j c j g g N b ! Q Q b b i o $ % % % % % : % > < 5 t t r t y t t 6 9 9 * y 1.F.x.x.c.v.k.s.t.r.e.w.&.*.;.T.o % % % 2 2 < 2 2 1 1 1 1 1 3 t 5 p p 7 8 p p s s f V V Z V 8 F E.W.W.q.W.q.q.q.q.q.0.0.0.5.q.W.5.5.q.q.5.q.5.5.E 5.O.7.3.O.7.3.J 3 V V 3 p 3 7 3 2 3 b *.{ &.w.w.;.a.*.u o : 1 7 1 2 5 t r 2 2 1 1 2 1 t 1 1 1 r = T.G.|.x.x.).k.k.p.p.p.r.r.w.e.&.$.$.&.[ W ( W ^ ( / M t ; 3 3 3 , , 6 , , 3 ; ; , , , , , ; , ; , ; > , ; ; , ; ; ; ; ; ; ; ; @ ; @ ; # @ + # + . + + + + $ $ $ $ $ # $ $ $ & & & $ $ + $ $ . b.:X4XQ.K.Q.Q.Q.Q.Q.n.n.n.n.n.V.n.8.>.>.2.b.m.1.r / 3.8.N.b.@.4.N.3.g o + $ $ % % & & & * 2 < 2 < < 2 r r 1 1 t t 1 1 t t t t t t t t t a 5 p y a a p a p y a a a y 9 d d d a a g y y a c Y ,.0.0.5.#.#.5.5.5.5.5.5.#.#.5.5.5.7.5.5.5.5.6.6.& 4 9 * & a j A K K A A 8 8 8 K 8 K 8 9 K 9 K V Z V V K K K K V 8 K K 8 3 ; O O # # X O O , 8 R 5.q.^.~.7XxXxXvXGXJX5.p : ; & t p p y y y t t t a d g x _ r.t.y.s.t.f.p.v.j.v.c.c.x.(.(.|._._.|.|.|.}.}._.#X}.#X}.+X#X}.#X+X#X#X#X#X#XrXnXZXcXU.J 7.7.q.U.E.U.q.0.q.6.0.q.q.q.q.q.7.6.q.q.7.0.q.6.7.5.6.0.Y.6.7.5.5.5.5.#.#.8.V.OXOXXXXX).XX).).H.).).v.v.v.v.v.y.t.r.h.n r y N 9 t p 3 3 p 3 3 3 3 3 p C 3 p 3 3 3 p 3 p 3 p 3 3 2 2 3 2 p 3 2 3 3 3 1 2 , ; 3 2 ; ; 2 ; 2 2 ; ; ; 2 ; 2 ; 2 ; ; 2 2 2 ; ; @ 2 2 @ : @ @ @ @ @ - @ % @ % @ @ 2 2 % % & 2 & < < & $ $ $ = - - $ 0 N W W W ^ W ^ ^ ^ ] ` ] ..n f 8 8 V V h f s f j s s V s V s V j j f V f V f 8 s 8 8 p f 8 8 s 8 s p s 8 p 8 f p 8 8 f p p p 8 p 8 p 7 7 7 a a 6 < f p 7 7 s f s 7 2 2 1 C +.n.I.P.U.n.b.d.Y.Y.2.2.Y.>.*.%.>.@.%.o.>.} g < % % % % % % & % & % & & & & * & * : > : ",
"j v v 9 j v v v j v g v j v j g M g g j d s a d x i b ) W ! m $ % % @ % % > % ; < 4 t 4 6 6 p p y a t 6 9 9 * 0 H.x.x.c.k.k.s.t.r.w.-.-.$.;.} o % 2 2 % % > > 1 2 1 2 1 3 t 3 p p 7 p 7 8 8 f s s f f C f 8 T ^.q.q.q.q.q.W.W.q.5.q.q.0.W.5.5.5.q.5.5.5.5.5.5.5.7.+.O.5.+.O.7.7.f 3 V 3 3 7 3 3 2 1 T.;.&.{ w.&.g.! = - < 5 1 1 1 2 2 2 2 1 r 1 & y y B r 1 1 t 2 = %.,Xx.f.x.v.l.p.f.a.r.y.e.w.-.&.$.] [ [ W W ( ' L 4 & 6 7 3 , 6 , , , 3 , , , , , , , ; 6 ; 6 ; , ; ; > ; ; ; , ; ; ; ; ; ; ; ; @ @ @ # + + + . + + $ $ @ - + $ $ $ # $ $ $ $ = + + * & $ $   n.8X-X~.~.K.Q.Q.C.Z.Z.Q.n.n.b.V.0.V.n.,.8.8.x y -   B o.n.n.n.4.B.3.& O % % & % & & & 2 2 2 < 2 1 B 1 1 t r t 1 t p 1 5 t t t 7 t t p 5 9 t t t y y y a a a 9 a a d p a a g a p p g Y 6.n.6.+.+.#.#.5.#.#.#.5.5.5.5.5.5.5.5.7.#.#.R 5.0.9.& B B u 9 j Z K K K K K A A K K K K K K 8 K 8 K 9 K V 9 K K V K 8 K 8 8 9 K A A K 8 K K 8 3 , ; # O X # . . 3 8 V 5.q.D D c p 4 & < % + % & 2 1 t t 9 x =.p.y.y.j.t.f.j.k.v.c.c.x.c.(.|._.|.|.}._.}.}.}.}.}.}.}.+X}.#X+X+X+X#X$XrXrXrXrX5XN.J 7.E.q.q.W.q.7.q.q.6.B.q.0.0.6.6.q.q.q.6.6.6.q.7.7.6.0.6.6.5.5.7.6.7.6.5.5.5.5.R @.8.H.OXXXXX_.).).H.).v.).v.v.j.t.j.y.r.v.L 4 y 9 g 6 3 3 3 p C 3 p p 3 3 3 3 3 3 3 p 2 3 3 3 2 3 3 3 3 3 3 2 2 3 2 2 2 ; , 2 2 3 2 3 ; 2 3 2 ; 3 ; 2 2 ; 2 2 2 ; 2 ; ; ; ; 2 2 @ @ @ @ @ % @ @ @ @ @ @ % % 2 $ 2 @ 2 : 2 2 > 2 < 2 - $ $ $ - - = u ~ W W W ^ ^ [ W [ ] &.` ~ d s K A f h f j f j s s V V V V s V j s f V 8 8 f V s 8 V f s 8 s s 8 8 s p f p 8 8 p f p p 8 8 p 8 8 8 6 7 8 p 5 p p f 5 p f p , , 3 7 8 7 2 @ o t G 6.J.U.n.b.Y.Y.Y.i.<.Y.Y.<.%.X.4.X. .>.4.d $ o % % = % % & % & & > % * > % > * * 2 ",
"v j v v g g v g c g x g g g g g g d h d d h d f d x N N z n Q Q . - & * + @ < < 4 4 < 4 4 5 t t 5 5 t t 5 p t y 0 d.].v.s.k.a.e.e.a.&.e.' *.-.0 % @ % > > & 2 & 1 2 3 2 p p p 2 p 3 3 f p p f 8 V p p Z p H E.B.q.q.q.q.q.q.q.5.q.q.5.0.0.5.0.0.5.5.5.5.#.#.#.E #.#.#.#.+.+.+.o.j 8 7 3 3 3 p 2 . ^ r.] ] t.p.;.* > 2 , 2 1 1 < < 1 1 1 2 < B 1 1 t 1 1 1 5 1 1 1 @ 0 Y. Xl.l.(.j.f.v.t.r.e.w.w.e.' ) $.' ~ Q ~ *.n 4 ; , 6 6 < 1 , , , ; , , ; , , , 3 , : ; 2 : > ; > > ; > > ; ; ; @ ; @ ; : 2 % % % % o o o o + - + + - - + + + + $ $ $ $ $ $ = $ $ = & & $ . . 6.aX-XI.~.&XR.K.Z.K.J.Z.C.B.V.C.n.9.M.8./ z l k = .   + g @.V.n.J.@.. X * + # & & & ; > > 6 4 4 4 4 6 4 4 5 4 5 r 5 4 t 4 t t t y y y t y y t y t y t y y y a y p s s a 6 > 9 U #.5.#.+.+.7.#.5.#.+.#.#.#.#.#.#.#.#.#.O.+.#.R R #.R ,.#.9 & 6 5 f F A V V V V V V Z V 9 K V A 9 K V V V 8 V V s V V 8 V V s 8 8 V 8 8 8 8 8 V 8 8 K 8 8 s 8 K 8 8 K 3 ; ; ;   r 5XsX X=X5X XU.N.O.H T.d < 0 W y.t.t.v.c.j.(.j.j.j.v.v.z.x.F.(.|._.|.|.|.}.}.}.}.}.}.}.+X+XXX+X+X+X#X#XrXrXrXU.U.q.q.q.q.q.0.q.q.0.q.q.0.0.0.q.q.0.7.0.6.7.6.7.q.7.0.0.6.6.7.6.5.6.7.6.7.5.6.5.5.#.#.R #.#.@.8.H.OXXXXX).x.).).).x.c.v.v.s.t.r.f.u.i * f 7 8 p p p p 3 3 p 3 3 7 3 3 1 3 3 3 2 3 3 p 3 3 1 3 1 1 3 2 3 2 3 2 , 2 2 2 , 2 1 2 ; 2 ; 2 @ 2 ; 2 @ 2 : : : ; % 2 @ % @ O @ % 2 2 % 2 O o 2 o % o @ @ @ $ % % % % * * * * & > < > o = - . = e W W W W W ^ ^ ^ ^ [ %.T.c f f C f f V V f V s s f s f s f f s f f s f f 8 V p p p 8 f 8 f p 8 8 f 8 p 3 3 8 f 8 p p 7 7 p p 7 7 7 p 7 p p 7 t 7 p p 7 p 7 p t 7 1 p 7 7 7 7 7 1 1 , p | 0.R.I.N.i.<.<.a.Y.3.%.4.@.>.O. .O.3.| < X o 2 2 % @ % < & % % * * 2 2 0 2 0 ",
"g v j v v g v g g g c j g g g g g x d x g f d d d d N N N z l b u # . $ & & & < < 4 < 1 4 6 4 4 5 5 4 t 5 p 9 t 0 l f.`.k.p.k.a.y.s.*.;.] *.&.B - % : > & 2 % * 2 t 2 p 2 2 p p p p p 3 p f 8 f V p C s V 7.W.q.q.q.q.q.q.5.0.0.5.q.q.5.0.5.5.5.5.5.5.5.#.5.#.#.+.+.R +.+.+.+.+.U 9 3 3 7 3 3 2 c ^ ` -.t.;.W 0 * * 2 > 2 2 < 2 1 1 B 1 1 1 1 B 2 2 B B 1 2 B 1 1 p % b |.{.(.l.v.f.v.s.t.r.e.r.&.&.&.$.~ W W _ n u 4 , , 6 6 6 > , , , , , , > ; ; ; ; : , , , > ; > ; ; % @ ; > > > : % ; @ @ @ ; % 2 % o . X . . o - + + $ - + + $ $ $ $ $ $ $ $ & = $ = & & &   & n.lX6X X X~.!.!.Q.K.I.J.I.J.b.b.J.n...n z z z u w +   . $ d M 8.C.} . . < & < > > & > < 5 < < 4 4 5 4 4 4 4 4 5 4 4 6 t 4 4 4 4 4 6 r 4 5 t t t t t y y y t a d p 6 t j G #.#.#.#.#.+.+.#.+.+.#.@.+.#.+.#.T T T +.+.E +.+.R #.#.o.#.4.9 & a a s V A A A K V V K 9 V V V 8 V V 9 V 9 V K 8 9 V 8 V 8 s 8 V 8 V V 8 8 K 8 s 8 8 8 8 8 8 8 8 8 3 8 8 8 8 8 8 & o b ;X5X=X5X X6X3XlX5X>X4X1X5X4.T.T.o...$.w.;.x.F.x.x._._._._.|._.}._._.}._._.}.}.}.+XoXoX+X#X+X#X#XrXrXrX+X|.U.q.W.7.q.W.q.q.q.q.0.0.0.0.0.0.0.0.q.q.q.7.q.0.6.6.6.0.7.0.7.q.5.6.7.6.5.5.7.#.#.5.#.#.#.#.#.#.o.4.h.Q.OXXX).x.).x.).c.z.v.v.f.r.-.1.M 6 s 8 ; 3 3 3 2 3 3 3 1 p 3 p 3 3 p 3 3 3 2 2 2 3 2 2 2 2 3 2 3 2 2 2 2 2 2 ; , : : ; @ 1 2 2 ; 2 @ 2 ; 2 @ @ @ @ @ @ @ 2 2 % @ @ @ @ @ . @ X + % @ 2 % 2 % % 2 % % 2 2 $ & # & & & & * $ - . - k W e W W W W ^ [ [ [ [ ~ ! f f f f C p f f f f s s s f f s s s s s f s 8 f f p f 8 8 f 8 f f 8 p f p p 8 f p 8 p 7 p 8 p 7 8 7 p 8 7 p p p 7 p 7 p 7 7 t 7 p 7 7 p 7 7 5 5 5 5 7 3 , , 2 2 1 c @.N.J.P.Y.6.3.<.2.2.>.%.4.X.| T...T.N - o o $ & & + % < % % % = * = 2 % ",
"v g v g g g 9 g g g g g g g g g g g d d d d 9 g d y y a u u N N n B . + $ < < < * < < 4 6 < 4 6 5 4 5 r t t 4 5 5 % b l.S.s.p.t.e.y.&.e.&.$.;.i $ @ : : > > > 2 t 2 p 2 p 3 p 3 3 p p p p 8 8 s p f C 3 J E.q.q.q.q.q.q.q.0.5.q.q.5.5.5.5.5.5.5.5.5.#.5.#.#.#.+.+.+.+.+.+.+.o.Y T f , 3 8 3 2 B ` ] *.e.;.z = % * 2 > > > < 2 < < < B 2 B 1 1 2 1 1 1 1 B 1 < B 2 f $ -  .G.|.a.v.j.v.f.t.r.r.:.-.;.e.-.] ( ( $.y 4 , , 3 3 > , ; ; > ; , , ; > , , , , , ; ; ; > > : : : : : > @ % # @ @ @ @ % O o % o o o . o - - o - . + - + $ - $ $ $ $ $ $ $ & $ & $ & & = B $   $ n.2X>X&X!.!.Q.Q.Q.K.I.I.K.n.K.Q.1.n z z k z n u = X X       $ v 4.9 X . & & & & ; % % & 4 < 4 6 4 < < * < < 4 4 4 4 4 4 y t t t t t t t 4 t t t t y y t t t 4 t d v o.#.#.#.+.+.T +.+.+.R +.+.+.T T +.Y | T | +.+.+.+.O.8.4.1.:.1.:.9 9 t 9 a 8 8 A A 8 V j V V 9 K K 9 V 9 V 8 9 8 8 9 V V K 9 V V 8 8 8 V 8 s 8 8 8 8 8 8 8 8 3 8 8 3 8 8 3 8 8 8 9 9 + &   *.lX*XP.5X XR.-X*X=X5X4X XY.d < j 9 s F A H D +.@.1.h.m.F.|.|.|.|.}.+X+X#XXX$XXX+X$X$X$X$X$X$X#X#X@X XU.0.q.q.q.q.q.q.q.0.q.0.q.0.q.0.q.0.0.6.7.0.0.6.6.0.7.6.7.0.7.6.6.7.5.5.5.5.6.5.7.3.,.#.#.#.#.#.#.E +.R o.>.h.Q.XX}.x.).(.c.c.j.s.y.j.:.f.} < 7 8 3 3 C 3 C p 3 p p 3 3 2 3 2 2 2 2 1 2 2 1 1 1 5 2 2 2 2 2 2 2 3 2 2 1 2 : 2 2 : 2 @ @ ; @ ; : 2 @ ; 2 : @ % % % 2 % % @ % 2 2 @ o o - o * = X . o . o o % % % % % < < < > > > & 4 $ . - e ~ ~ W W ^ ^ { { [ [ [ [ N f p V C V f f V f f f s s s 8 f s s s f s s f 8 p 8 p p f 8 p V p p 8 p 8 p f p p p p 8 p 3 8 p 7 p 7 7 7 p 8 5 7 p 5 7 p 5 p 7 p 7 t 3 t 7 5 5 5 p 7 1 3 3 6 3 2 2 @ 2 f | ,.U.N.N.2.>.4.4.3.X.>.<.T...>. .f $ o + 2 & @ + 4 * & % 2 2 = = 2 ",
"g g g g g g g x g g g g g g g 9 u u u g u d u 9 f p y y i y u u x t * + + & 4 & > & < < * > 4 4 4 4 4 r 4 r r 5 7 > * m m.x.t.t.y.e.{ ;.&.$.;.b - @ % : > % 2 < 2 1 2 2 p 2 p 2 3 p p p 8 p s p 8 V f p 6.E.0.0.5.q.q.5.5.q.0.5.5.5.q.5.5.5.5.5.5.5.R 5.T #.R #.+.+.T +.R Y U I +.A , 7 7 2 @ N *.e.e.T.< - $ 1 2 > * > > 2 > > 2 1 1 2 2 < < < 2 B < 2 1 < 1 < 1 1 1 = 2 *.|.S.v.v.f.s.t.r.y.w.;.w.[ ' ` ( l k < , ; 3 , ; ; > , , , , , ; , , , ; ; : ; ; , , : ; ; : % % @ @ ; % ; ; % ; : ; 1 1 % % o o . O o - o o - + - + + $ $ $ # $ $ $ & $ & $ = & = & = 4 = X > n.lXsX2X-X~.Q.K.I.R.R.C.K.Q.N./ z l l z z z e w y z g u x r 4 } =.g # . . . & < < & + & & & & < 4 4 5 4 t 4 4 t t 4 5 t t 5 4 4 4 t 4 4 t t t t t t t 6 4 t c Y @.+.+.O.Y I +.+.+.+.Y R R R Y Y I Y | O.O.O.>.>.<.<.<.8.:.h.8.h.r.( ( B t a 9 8 V K V K V K 8 V V 8 K 8 K 8 K K 8 K V 8 V 8 8 9 8 8 s 8 8 8 8 8 8 8 8 8 8 3 8 8 8 8 8 3 8 8 3 3 K 8 ; + B $ . N.iX X&X5X&X5X=X5X4X,Xm.S.Q y Z s K K K S K K K K V K A J T.T.7.Y.Y.l.U.'.}.XX+X+X#X#XrXrXrXrX@X{.q.0.q.q.q.q.q.q.Y.q.0.0.0.0.q.7.0.7.0.0.q.6.6.6.0.7.5.0.6.6.7.6.0.7.6.5.5.3.#.7.3.3.7.#.#.#.#.#.#.+.#.5.#.R P o.:.m.H.Q.XX].].].).(.c.t.t.A.` 0 > ; f 3 3 1 1 3 p p p p 7 7 3 p 8 3 V p p 3 1 1 2 2 2 p 1 3 2 2 2 ; 2 ; ; : : : ; ; % @ @ : ; ; ; @ ; O o @ @ @ @ @ @ O @ % % @ - O o X o * d B X % o % - o % 2 = % 2 + # # # . # + + - . = W k l ~ l e W e W z e e e p V V C C V C V f f f V f f f f f p s p p s s p V p f V V 3 p 8 p f 8 p V 3 p 8 3 8 8 p p 8 p p 7 7 7 p 7 p 7 7 7 p p 3 p 5 7 p p 3 7 p 1 7 5 7 1 t 5 5 5 7 7 5 3 p p 1 ; ; : 5 c X.Y.M.N.i.3.>.>.<.>.O.X.O.X.X.M < o + & < & & $ % 2 = = 2 % 0 ",
"g 9 g g g g g g g a N g d d d N u d N y y y 9 i y t 9 t y t 9 r y r * * * $ # * * & < & < < 4 < < 6 < 4 r 4 4 5 4 p > > T.g.k.s.e.e.-.e.] *.&.Q o @ 2 % & > > < 1 2 1 1 p 3 p p p 1 p p 7 p 8 s p C 2 E Z.B.6.q.5.q.q.q.5.0.5.6.5.5.5.5.5.#.#.#.+.7.+.+.#.#.T T Y o.T Y Y Y Y U Y D p 1 1 : t %.;.$.b * o @ : : : 2 * > * 2 > > < < 2 < 2 < < 2 1 < 2 < < < 1 < 1 2 i t - w a.|.z.v.k.t.t.t.r.:.&.&.$.] ] ) z < > , , 3 , , > 3 6 , , , ; ; , ; , ; ; > ; ; ; ; , : > ; ; ; @ @ % : ; @ @ @ O @ . # . . o - . X o o o - o - - - - $ $ + + $ $ $ $ & $ = $ & = $ & + 4 * X 2 3.M.>X>X6X6X>X*XR.I.P.%XM.! z n Q l W z e e r } 8.8.m.Q.Q.b.V.Q.Q.,.v 9 $ X   X & 4 < < 4 < < < : & < < < < < < 4 < 4 6 < 4 6 6 4 4 t t t 4 t 4 4 6 6 j U T +.U Y +.I Y Y +.Y F I G } I o.o.+.X.X.X.<.<.<.e.a.a.t.p.h.r.f.f.v.v.[ :.k r 4 t 8 9 9 V 9 K 9 8 K 8 8 8 9 8 8 8 8 8 8 8 8 8 8 8 8 8 8 K 8 8 8 8 8 8 8 8 3 8 8 8 8 7 8 3 3 3 8 3 7 9 6 $ r . 4 . = =XaX X5X2X5X=X4XeX[.a.A.;.M f Z F V A V A A A A F S F C C C S S S J J T T +.7.6.0.q.B.}.,X5XR.Y.0.q.q.q.q.0.q.0.q.q.q.0.0.7.q.0.0.5.0.7.0.0.7.6.7.5.6.6.7.6.7.7.6.7.6.7.#.5.7.#.#.#.#.#.#.#.R +.+.+.+.+.+.#.R Y I O.@._ =.>.1.1.1.u.u.v.A.h.n z 4   X O O O O 2 O O O O O O # # # # # 2 2 2 3 2 3 3 3 ; ; 2 2 2 3 3 2 2 2 3 : : : : ; 2 @ : @ @ @ @ @ @ 2 : @ ; @ @ o @ @ % @ O X o % r t x P t . % % o $ o @ o o o o o + $ $ & = B 0 i i y B $ 2 B 1 : % % 2 & > 3 3 f C V V 8 f C f s s 8 f f 8 s f p f s p s s p s p 8 8 p V p 8 8 p 3 8 p p p p 3 7 p 8 p 3 p 8 7 7 p 7 7 7 p 7 7 5 7 7 p 7 p 7 7 5 7 1 p 1 7 1 1 5 5 1 7 6 5 6 6 3 2 1 3 p 7 > # o % t | ,.N.N.Y.Y.>.X.X.4.%...X.X.v r + $ = & $ % % & % % 2 * = ",
"g N g u g 9 N 9 d g y 9 9 d y y 9 y y y u y y y 9 9 t 9 t t t 4 N = + r 9 B $ $ & & & & < < < 4 < * < 4 4 4 4 4 < 1 7 > &  .l.k.t.w.e.*.&.*.*. .% % 2 @ > % > 1 1 0 2 3 1 1 2 p 3 p p 3 7 p 8 s p C p 7.E.7.7.0.q.5.7.5.0.5.5.5.7.5.5.5.5.R 5.#.+.#.+.+.+.R +.Y T I I I I U U U U U s > : r ! 3.! i - + 2 2 ; @ % 2 & & 2 < > 2 2 < < 2 < 2 2 < 2 < < 2 2 < 2 2 1 2 1 1 2 = k S.z.z.v.v.t.t.t.y.;.;.e.&.) x 4 % 3 , 7 6 > ; ; 3 > : ; % > ; @ @ O O # O O O O O X   X X X O X X X X X X X O O O + $ + X   X + $ . - - - - - @ @ $ + - $ $ $ $ $ = $ $ & & = = & & $ # $ = 2 2 2 % r T.Y.R.5X5XlX5X%X=.z Q Q l Q l k l z w _ n.8.=.1.b.m.m.h.m.m.V.b.@.g * o X X + & & 4 < 4 & % < & < < < < < 4 4 4 4 4 4 r r 4 5 4 4 4 4 4 t p P U Y Y I F I I U P o.P | I o.O...:.=.4.;.;.<.u.e.e.a.a.a.a.a.a.h.h.t.t.v.:.{ :.' z * 4 9 V K V V 9 K V V 8 8 K K K 8 K 8 K 8 8 K 8 K 8 8 8 8 8 8 8 8 8 8 3 3 8 8 8 3 7 7 8 8 8 3 3 8 8 7 5 & $ & = * B X x lXpX-X5X5X5XeX,Xl.p.p.m.T.3 j A 9 Z F F F F F S R S E E E +.J J E J J E E J J J E E J 7.7.7.q.q.q.q.7.q.0.q.6.7.7.0.0.q.q.5.6.5.0.0.0.7.6.6.7.6.6.7.7.3.5.6.3.7.3.7.#.5.#.#.#.7.#.#.#.7.#.#.#.+.+.#.I @.+.@.+.T U U 6 6 6 9 8 s a a * 4 4 h /.VXxXxX7X7XR.R.q.6.O.+.Z j s 7 , ; ; # O O O O X O O X O O O O O O O O @ ; @ : & ; & % ; 2 % 2 : : 2 ; @ @ @ @ @ % @ : o o o O . % 4 g P G X.O.B . o . o . - = * * 0 * u k z l l n n ! / 1.x   @ @ X ; : % 2 2 > 1 3 f C C s p p d d f f f f f 8 f p 8 8 s p s p 8 s p V p f p p 8 p p 3 f 8 p 3 8 p p 7 7 p 3 p 7 3 p 7 p 7 7 7 3 p 7 7 t 7 1 5 7 1 p 5 7 7 1 7 5 1 7 5 5 1 1 6 6 6 5 7 3 3 1 6 1 1 1 t 2 % @ 2 c o.6.Y.Y.Y.3.>.4.X.o.X.4.} y - X + * % % % & % % % 2 ",
"N g g 9 g 9 9 N 9 u y u i y y y r t 9 y i y t t r r t r r t r 4 B $ . & N g B & & & & & & * < & * < < > < 4 4 4 < 2 p t @ r $.u.p.y.y.e.] &.*. .$ @ @ 2 % > > > 2 1 1 1 1 3 1 1 p 3 3 p p 8 8 8 f 3 J U.q.7.q.6.7.q.5.0.7.5.5.5.7.5.5.5.#.#.#.R 7.T +.+.+.Y T I I I U U U D F D D U c < : c ) b % o # : ; ; 2 2 2 : & & 2 * 2 2 2 < 2 2 2 < 2 2 2 < 2 < < 2 2 < < B 2 2 t 2 - ! A.v.v.k.v.t.t.r.r.r.;. .N & O O O O O O O X O O O # O o # # # # : > 4 5 p j h c H G H G G T.I | | O.O.@.+.3.@.@.o.@.o.r X   . $ . o - - o $ @ - + - $ + $ $ $ $ & $ $ & = & & % & 4 & & N H N 1 p B ; O $ t G | n.2._ ) _ _ W W l e W k w _ d.,.b.8.8.m.V.8.n.V.b.V.I.K.M.O.y + O o + % & < < 4 4 4 4 5 6 4 4 5 < < 4 4 4 4 4 5 4 < < 4 t y c c +.Y P D I o.| P |  .....*.%.;.e.:.:.:.:.r.u.u.a.u.u.<.a.a.i.i.i.h.r.h.v.v.:.w.-.w./ i < 5 8 f s 8 V 8 9 8 8 K 9 8 8 8 9 8 8 8 8 8 8 8 8 8 8 8 8 8 8 8 8 8 8 8 8 8 3 7 8 8 8 7 8 7 8 7 p 5 > & # X i & * 0 X | dXlX5XlXlX<X|.f.l.k.`.%.p V A V F Z C K S S K K S C S J J J J J E J E E 7.E E 7.7.7.7.7.q.W.W.q.0.q.0.0.7.7.q.q.0.0.7.0.5.5.5.5.5.7.7.6.7.6.7.6.6.6.3.7.7.7.3.7.3.#.+.+.7.E #.#.+.#.+.+.+.+.+.+.+.@.o.+.o.+.o.Y +.A Z K 9 s 8 8 9 j 9 < 9 ^.FXDXvXDXVXVXVXCXVXVXVXVXVXvXzXfXqX0X6X^.^. XR.B.q.0.0.+.+.T.H f p 2 ; O X X X   X X   O X X X X X X X O O O O X O o O o o + % 4 g G  .P P X.P = . i 0 w w i i z b b ! Q Q ( Q ( ~ ~ ) ;.m.} % @ 2 @ 2 > > 2 < 2 2 1 t f f p p f f f C f 8 f 8 f f 8 f 8 p p 8 p s p 8 p 8 8 p p p p p f s p 8 p 3 8 8 7 p 8 p 7 7 p 7 p 3 7 7 7 7 7 7 p 7 7 t 1 p 7 5 5 7 1 5 3 5 3 1 5 4 1 1 , 6 6 6 > 6 1 < > : 4 p 5 p p 2 @ o 2 t G | 2.6.>.O.4.%.o.X.@./ r $ + $ = % % % % % % 2 ",
"9 y g u y u u y y N y y 9 y 9 y y y t y y y t i r y w 9 r r t r X = + X 4 L g B % = & % # * & & & > , ; > < 4 B t B 2 t t $ r =.p.e.e.*.*.*.` *.2 2 @ : % & > 2 1 2 2 3 2 p 1 p 1 p 3 p p p f 8 p p 0.W.7.0.q.7.0.7.0.5.5.5.5.5.5.R #.R R #.R #.+.+.T +.Y Y +.Y U U P U F F D H D U Z 4 1  .b . ; # , > @ @ : : & & 2 2 2 2 2 2 < 2 2 2 < 2 2 2 < 2 < 2 > 2 < > 2 2 t 2 2 1 $ = l.z.k.v.t.t.r.:.-.$.`  .m j A J T | O.,.9.n.B.W.B.Z.Z.I.I.K.K.K.!.!.R.!.!.R.R.R.P.K.K.K.U.Z.U.B.B.n.n.0.Y.6.9.,.#.n.n.} 4   . . - - o o $ o - - $ + $ $ + $ $ $ $ = $ = $ & = & $ # & 9 p 1 p x p p f f p 2 % o $ w / $._ ( ( l z l W z q / b.8.8.m.m.8.m.Q.Q.Q.=XV.2.2.C.P.I.C.M a 4 # X X X X X X X X X X . X @ + @ % & & & & < < < r p v } +.c G I | G } o.%.=.;.*.;.e.e.e.;.:.:.1.:.r.1.u.u.u.a.a.a.a.f.f.p.m.h.h.F.v.y.y.[ -.$./ y & 6 8 s V 8 K 8 V 8 8 8 9 8 K 8 8 8 8 K 8 8 K 8 8 8 8 9 8 8 8 8 8 3 3 8 3 8 7 3 8 3 8 7 7 3 3 7 6 > & & B & = & p - o U.fXlXeXtX,Xx.l.x.s.S.<.f j V 8 s h C H F F F U F F J J J J E J J T R E E E E E E 7.7.q.q.7.0.6.0.0.0.0.0.Y.6.6.6.0.0.5.0.5.0.0.5.6.6.7.0.7.6.7.7.7.7.3.7.3.#.7.7.#.7.#.#.#.+.+.#.@.@.+.#.#.T +.+.R T +.+.Y I | +.P U h j s V s s p t y 9 C.vXvXfXxXxXxXfXxXdXdXdXdXqXqXqXdXdXfXqXjXfXfXdXfXfXdXdXdXpXpX0X6X7X2X>X-X-XR.R.Z.q.6.0.Y | Z f f p p a p 3 2 O O X O o & * < d G o.| } ..} ..} = - N k k k l l l l W W W n Q ( ( ( _ ` e.;.a.m - O 1 $ > > 2 1 1 2 1 t f p C f p C f f f s 8 f 8 p p 8 p f s p 8 p 8 p p p C 8 p 8 p p p 3 p 3 p p p 3 p 3 3 p 7 7 p 7 p 3 7 p 3 7 7 7 1 5 p 3 7 t 7 p 3 1 7 1 5 1 5 3 7 6 1 1 , > < 6 6 < > 6 a t 1 : 1 2 2 1 3 1 1 2 o % t | Y.Y.>.%.%. .o.>.4.g = . $ % & % % % % % ",
"u u a y y y y y d g 9 i 9 i t y y y r 5 r t t t r r 4 t r 4 $ o + % $ . + 0 b } z = $ % + & < & & & & & & & & & 6 4 > 6 < 6 4 4 %.l.u.` -.&.` *.x . % : @ 2 : 2 0 2 2 1 1 t 1 p 7 1 5 p 3 p f 7 2 O.q.6.6.0.5.7.6.7.5.5.#.5.#.#.#.#.#.+.+.+.+.X.I T Y I I I U U U U U U D D H c Z c h h t % . 2 % % % : % % % 2 2 % 2 = 2 = 2 * & 2 2 > * > & 2 2 < > > > < > 2 2 < 2 2 2 > > > > t p 1 1 , , , > t   +.0X0X2XpX2X8X4X1X>X>X-X5X~.!.!.!.!.K.K.K.Z.K.Z.C.Z.Z.M.B.M.n.n.n.q.N.n.0.0.9.0.Y.6.9.6.9.,.#.8.V.,.g O   * o . % - o o $ + + $ $ + $ + + & $ @ $ % & $ $ + & 4 t p a t t t p t t t 5 5 1 5 4 4 d ! _ ( l W l l l w n m.8.h.m.m.V.V.V.P.&Xv * X + & o o 4 g t y I N.C.9.o.I o.U L M v x v t t 5 6 4 4 4 4 < y M } X.4.%.%.:.;.;.;.;.;.;.&.;.;.;.e.;.a.e.u.r.u.r.:.1.;.u.;.f.u.d.f.d.g.g.g.z.u.z.m.z.w.w.w.{ &.-._ i * t 5 8 s V 8 8 8 V 8 K 8 8 f 8 8 8 8 8 8 8 9 8 8 8 3 8 8 8 3 9 3 3 8 8 3 8 3 3 3 8 8 3 6 9 6 < # + & & & & * 4 4 + . %XhXhX,X].c.x.(.c.k.S.! p c V C Z Z Z Z A A F F J S F J R F R J E E J E E E E E J q.q.7.q.7.6.q.6.6.0.6.7.q.0.6.6.0.5.6.5.5.5.,.,.5.5.,.5.#.5.#.3.3.#.#.#.#.7.#.+.+.#.+.#.+.+.+.+.+.o.+.+.Y +.o.Y o.Y +.Y I I Y T h 8 f V s 7 f s > n  .@.mXSXcXcXxXxXzXxXfXxXxXfXfXdXdXdXqXqXqXiX9X6X2X2X2X2X>X~.-X-X-X^.&X-X-X-X:X-X:X>X>X2X6X9X8X6X7X^.!.B.0.>.T. .6.a.Y.U.U.m.m.m.;.e i Q b n / k N n k u i u k k k k k z k l W l l W _ &.h.i.;.a.a.t O % 2 : : > < 2 B 1 1 f f 8 p s V f s s 8 8 f p 8 p s 8 8 p p 3 p 3 f p 3 p p p p p p p 8 3 p p p 7 t p p 7 1 3 p t 3 p 3 7 t p 1 7 t t 1 t 3 t 1 1 t 3 t 1 1 p 1 t 1 1 1 1 1 < 1 1 1 1 < 1 1 2 1 1 < 2 1 2 < > 4 > > 4 > @ @ > f Y 5.O.>.O.*.X.X.n r - = * & % * < @ ",
"y y t y t r y y 4 t t 4 4 t t 4 r 5 r r r t r y r t r 9 4 & + o + + $ + - & u L z N i * - # & & * > & * & > > & * < > < < 6 > 4 i *.a.e.' $.$.;.b . % 2 @ 1 % > 2 1 2 t 1 1 1 1 7 1 7 5 3 f a , V 7.B.7.7.6.5.6.7.6.7.3.7.#.#.7.+.@.+.+.+.X.R R Y I I U U U P P U D D D F F H H c h T.T.2 o % o : % % % % 2 % % % 2 % 2 2 2 % 2 2 & * > : > : * & < * 2 > & > * < 2 < < < 2 < 6 4 p f p 7 5 6 4 < i @ N.8X>X~.~.~.~.~.!.&XR.R.R.~.!.!.!.!.R.R.Q.Z.I.K.K.C.C.Z.C.B.B.B.U.n.n.n.n.N.n.N.0.b.6.Y.9.9.9.#.3.6.9.m %   X = + O o = o + + # + # $ $ # % $ $ & & % % + < > t p u t t t t t t t t 5 t t t 5 < t N n ! ( l k z l u _ D.d.8.V.b.1.V.;XV.b & $ % 4 4 & & & < * * < f ,.&XdX8X8X8X:X:X2X8X9XjXfXqXiXlX-XI.N.i u N N N z M b m ~ ! ) ..$.$.%.<.;.e.<.<.a.i.a.u.f.g.g.A.A.A.S.l.m.l.m.l.A.A.A.D.A.F.z.S.-.w.t.{ w.{ $.! i * t 7 s s 8 8 s K V 8 8 f 8 8 8 8 7 8 8 8 3 8 8 8 8 8 8 3 9 3 8 8 3 8 3 8 8 8 3 3 3 6 3 6 6 & + $ & & & = 4 * B & + r 4XnX].v.).`.(.(.k.l. .f f C C Z h D A A S A F H J J F J F J R T T T E T E +.7.E 7.q.q.q.q.6.q.0.7.6.0.0.7.7.6.5.0.6.5.5.6.5.,.#.5.5.#.#.5.#.#.7.7.7.#.#.+.#.+.+.#.+.+.+.#.+.#.+.+.+.+.+.o.+.Y +.o.o.Y | I | I +.v s f j s 8 9 p 4 X.<.b lXGXVXvXcXcXcXcXxXxXxXxXxXfXdXqXqXqXfX9X6X0X6X6X0X6X0X0XlX9X0X0XqX0X0X6X2X>X~.K.B.0.,.@.I 9 & + o & % x O.M.I.L.I.D.U.M.[.a.u 0 0 0 w 0 w 0 z $.=.1.u.=.=.<.<.1.1.a.a.:.1.w.:.r.:.:.u.a.e.<.,.! $ O 2 : : 2 > 1 1 < 2 f f s s p V f 8 f p f 8 f s p 8 p f f 8 8 f p 8 p p C 3 p p p 3 p p f p 7 7 p p 7 7 7 p 7 t 1 7 p t t 7 5 7 5 3 1 p 1 p 1 t 1 1 t 1 1 t 1 1 1 1 1 1 1 1 4 1 1 2 2 , < , , < 2 , 1 1 < 1 > < > , > , > : @ % > r T.O.3.O.X.X.o. .B $ + $ & $ + % ",
"4 t y y y 9 y y r 9 t y 9 r y y t t t r 4 5 4 t 5 t r * $ + o o o + % = + . 0 x ! m z r & $ + $ & & & & & * > & 4 & * 4 > < < < $ e *.a.$.' &.;.! . $ 2 % 2 ; > 2 1 1 2 1 1 1 1 , 7 5 1 a f 3 3 E 0.q.7.6.5.7.6.3.7.5.7.#.+.7.+.+.+.R X.o.R I +.I I I U U U U U D D Z v Z H c j c G O.H 2 . % 2 % % % 2 % % % 2 % 2 % 2 2 % 2 = * > & > > % > % > > * > 2 2 > 2 2 2 * * > < : > 6 s a a a t 9 5 r t i %X3X;X:X&X-X;X;X;X&XR.&X&X~.~.~.!.!.E.!.Q.!.R.K.Z.K.Z.C.K.U.Z.Z.Z.Z.B.B.B.n.n.n.n.N.n.N.0.9.n.9.,.9.n.9.+.+   X + $ - - $ # + $ + + + $ % + @ % % & % % & 4 t t p t t 1 t t 7 t t t t r r 5 5 4 1 4 t x n _ W l k w _ V.2.Q.h.n.Q.Q.1.r X + & 4 & & & 4 * * < > @ X   # 6 Q.Q.2X8X6X2X-X~.n.,.X.v N t * $ r r r 0 0 B r t r r r i i i i u u k u N d N z z n m ! / ) .. .%.1.1.u.u.i.d.g.g.m.A.D.z.{.x.w.{ { w.-.&.=.x * 4 4 8 s 8 8 K 8 8 8 8 s 8 8 8 8 3 3 8 8 8 3 8 8 3 3 8 3 8 8 3 3 8 8 6 3 3 3 8 6 6 6 7 9 > $ % $ & = & = * 4 r 4 &   $.,X[.x.'.j.c.c.k.l.a.n 3 f Z A Z j A A A U F H S J H J R R J T T J E E T T E E 6.7.q.0.0.6.7.0.6.7.q.0.7.0.6.5.6.6.,.6.,.5.5.5.5.5.5.#.5.#.#.#.#.@.#.+.#.#.+.+.#.+.#.+.+.+.+.Y +.+.T I +.I +.| Y Y | Y I Y I I U j s s s 9 p 9 i 1.8.N =XHXfXvXvXvXvXvXvXxXfXxXxXxXxXzXxXfXfXvXzXcXzXzXfXfXfXqX6X-X~.E.n.+.J p y 9 a 9 5 > # X . $ B v X.b.J.I.*X{.N.M.N.Y.N.I.a.k $ e z e w w i w n =.:.8.1.d.m.A.M.S.S.U.L.Q..X.X.X.XH.h.h.a.a.<.<.<.p X 2 : % 2 * 1 2 1 < a a a 8 8 V 8 f p 8 f p p 8 8 p 8 p 8 p p 8 3 p p p p p 3 p p C p p p p p 3 3 p p t 7 1 3 7 3 5 7 p 3 7 7 1 1 7 1 t 1 1 1 1 1 1 5 4 6 4 t 1 1 t 1 1 1 1 > 1 1 < < 1 2 , < 2 < < < < 1 > > 6 > < > < 4 6 : @ # o @ 2 N | >.>.4.o.o.u + o & & & & ",
"d y y 4 4 4 4 4 4 * 4 4 4 * 4 4 & * < 4 * 4 4 r 4 4 * % # o o + + $ $ % + - $ B T.! x M M i + + + $ % & & & * & & > & & < & < 4 2 = z ;.r.*.' ..~ $ $ 2 % 2 : > 2 2 2 1 1 1 1 1 1 p 6 1 a p 3 f 6.0.3.7.5.7.#.5.7.#.7.O.7.+.+.+.+.R +.o.R o.U U I I P U D D D D v D D H v h f g G 3. .N u 2 O 0 % % % @ - 2 @ @ % % % % % % 2 2 % : 2 % * 2 & > > % : : & & & 2 2 2 2 2 & > > & > a s 9 7 5 4 4 l w l 1X8X:X6X2X>X-X:X:X-X-X-X&X&X*X&X~.~.!.!.!.!.!.!.R.Q.K.K.K.R.U.I.Z.U.U.U.Z.B.B.B.B.n.n.n.n.9.0.n.n.9.6.b.n.4.<   X % % $ o + + + $ % % + + + $ % $ + % & < p t t t t 1 1 t t t 1 r 1 1 5 1 1 5 4 1 > 4 r u _ W W W i _ H.m.b.m.Q.Q.>.$ X r & 4 4 $ + & 4 6 < 2 < r 1 > @ O . 6 P @.+.P g 4 & 4 4 t t t r t * B r r B r i i r i r r r r 4 r B r r t t i t t r r i i y y u i i y y y N u g N b n ! ) OXOXv.y.{ r.w.' *._ z 4 < 1 8 8 s 8 8 8 8 s 8 8 8 7 8 8 8 8 8 9 8 3 3 8 3 8 8 8 3 8 8 6 3 8 6 3 3 8 6 3 6 7 6 % % $ & = * & * = B r 6 4 * - h.OX`.'.(.x.l.c.k.S. .B Z V V Z Z A A A A D H H S J J U J R J T J E T E E E E 6.q.0.q.7.6.6.6.6.0.7.6.6.6.7.6.5.5.5.5.5.#.5.#.#.#.#.#.#.#.#.#.#.#.+.#.+.+.+.+.+.+.T o.R +.+.o.Y I o.o.Y o.I Y | Y I P U P U U U Z a 8 f a 5 4 n @.:.M Q.HXCXvXcXcXvXvXvXCXVXvXvXCXDXvXvXzXxX>X/.^.Z.q.0.#.+.V f 7 2 2 1 t p j d t > % % * 4 v o.8.V.Q.&X&X*XL.U.N.N.U.U.S.L.G.W = 0 i k k w z k i / =...=.=.1.a.i.d.m.m.S.S.Q.`.Q.OX,XH.u.u.a.a.;.<.Y. .= o % % 2 2 < 2 2 2 8 a s 8 p 8 s p f 8 8 p 8 p p 8 p 8 p 8 p 7 p 8 p 3 p p p p 3 p f 3 p 3 p p p 3 7 3 7 p 5 t 7 7 t 3 1 t 1 7 6 6 t 3 t 1 1 1 t 1 1 1 1 1 1 1 1 5 1 1 < 1 1 1 < , , < 1 < 1 , 1 , , , > < > > > > > > 1 < > > > < 2 o o % t x T.X.<.X.x $ X o & & ",
"r 5 t 9 r 9 9 y 9 r t 9 4 y 9 r t t t r 4 4 < < * & + . . # + + . $ = - o o $ - u ! ! b T.z B 0 $ $ $ $ = $ * & & & & & & & : & r * = z =.r..._ T.* $ % % % 2 2 < 2 2 2 1 1 p 1 7 5 1 7 f 2 7 Y 6.7.7.#.7.3.7.+.O.+.+.E +.+.+.Y I R o.R U U U U U U U D D D D A v H H c f x H T.6.<.c i c 1 . 2 @ % % % % % 2 @ % % @ $ 2 2 % 2 > : : : : : : % > : * > : : & > : : * 2 : 2 > % ; 9 a 5 t 5 4 r Q e Q lXsX4X1X&X:X>X>X-X-X-X&X-X-X-X&X&X&X~.~.~.~.~.~.!.!.R.E.Q.I.R.I.I.Z.I.U.Z.U.Z.B.U.B.n.B.n.C.0.6.N.n.9.9.N.n.6.d X   % $ - + + + @ # $ $ + + % % % + % * t t t t 1 1 B 1 t 1 r 1 1 r 1 1 r 1 1 4 6 , , > & w u ( W i _ A.d.m.Q.Q.9 X . 0 r < & * B 4 * & & % > > > % ; , 5 . # t 9 r 4 4 t g c g u r * B B r i t u i r r w i u u N u k N N N N z x x x x x x x g x g g g g x g M M g M M x d N k i ].,X|.).s.w.{ [ ' :._ z < < r f V s 8 8 8 8 8 8 7 8 3 8 8 8 3 6 8 3 8 6 8 3 3 8 8 3 6 3 6 6 8 3 3 3 3 3 6 6 < + + & * & & & & * * B * 4 r . F.OXj.|.`.(.x.k.k.`.<.t s V V Z Z Z Z A F A S H H F S F J J E J R E J E E E 7.7.q.7.0.6.7.0.7.6.7.6.7.6.7.6.6.5.5.5.5.5.#.#.#.#.#.#.#.#.+.#.+.+.#.+.+.+.+.+.T +.+.+.Y +.+.T I Y Y I Y o.U o.| I I I I I F G F U D j 9 a 9 5 y 4.=.:.X.,.vXLXJXJXGXSXVXvXcXxXqX7X^.B.#.U v j 9 9 6 6 7 7 5 6 8 a j H v h h h u r 1 4 f G 3.b.!.&X=X.X{.C.m.b.U.M.G.L.U.N.S.U.~ 0 q z e 0 k W k i w ..1.<.u.8.i.i.d.d.m.m.A.H.D.D.D.[.%XS.a.a.p.g.<.;.u.2.x . % % % : 2 2 < > 7 7 8 8 p s 8 8 p p 8 p p 7 8 p 8 7 p 8 3 p 8 p 3 p p p p p p p 3 p p 3 7 7 t 1 t 3 7 5 5 3 7 1 1 3 7 1 7 1 , 1 5 4 1 1 1 1 1 1 1 1 < 1 1 1 1 1 1 1 1 < 1 2 1 > > 2 1 , > 1 > > > > > > > > > > 6 > > % : : < 6 p 2 2 $ . O * x m 4.1.P 4 o o $ ",
"& $ & # $ $ $ $ & & & * & * & * 4 4 < 4 4 4 < * % o o O o + @ - o = + o $ = = . $ c T.b z b b N * & & $ $ $ $ & & # & & % & & & & 4 & $ l =.&.) *.0 o 2 % % 2 % 2 2 1 2 2 1 2 1 p 1 3 p 7 2 V 5.6.5.O.#.5.7.+.+.+.7.+.+.T +.Y +.o.U U P U U U U D D D D D j D v Z c g f N c X.3.Y.! y z b u 2 . % % @ % % % % % % % 2 $ % $ @ 2 % % % % % % : % % > : % & & : & & : : ; > % : > , p p 6 4 i i i e k &.sXaXlX8X>X2X2X2X>X2X2X2X1X:X:X:X>X-X&X-X&X&X&X~.~.!.!.!.!.R.R.R.I.R.K.Z.I.I.Z.U.Z.C.C.U.B.V.n.n.B.B.B.0.9.M.U.Y.H o   X * + + $ + + $ + $ % $ + $ % * r t r 1 r 1 1 1 1 t r 1 1 r 1 1 < 1 r r > < > 1 < < * w x z w _ Q.D.Q.:.9 . o < 4 + < & % 4 4 4 & & * > < 1 2 : : 2 6 6 y 9 u 9 M M x y 0 = * r t u r r i r i r t i r r r w t u i u i i y i i i u u N N N x z x x x M n M M M M x M m G T.b |.oX'.|.).{ { -._ [ &._ i r < t 9 8 8 6 8 8 8 6 3 8 3 8 8 3 8 3 3 8 3 8 3 9 8 3 3 3 8 3 3 8 6 6 3 6 3 , 5 1 ; + + & & $ & * * & & B 4 * 0 = h.OX`.|.k.`.c.c.k.x.a.M f f Z V V Z V A A F A S S F J J F R J R J E E T T E 7.6.q.0.7.0.6.7.6.5.6.6.7.6.6.7.5.5.#.#.#.#.#.#.#.@.#.+.+.#.#.+.#.+.+.+.+.T +.T o.T T +.Y o.Y o.I o.I I U U U U I I U G F F G F F F D j a 8 a 7 L >...8.8.t #.6XE.E.0.+.D h 7 6 9 9 6 9 9 9 j Z v D j j h c v D c c c h a r < < t c | b.J.=X5X4XQ.Q.P.L.L.[.{.{.I.U.U.U.m.I.G.a.- i i e k k k ~ l e k %.1.>.u.u.d.m.m.m.m.A.D.J.Q.[.L.%X,XG.g.m.a.p.a.;.<.g.=.* % 2 % 2 2 2 2 2 1 7 a 8 7 8 f 8 3 f 3 p 7 8 p 3 p 8 p p 8 p p 3 p p p 3 p 3 p p p 3 3 p 7 1 7 7 3 p 7 t 3 t 1 7 3 1 1 5 1 1 7 1 1 1 1 1 1 1 1 1 1 1 , 1 < 1 < , 1 < 1 1 > 1 1 < 1 2 > < > > 1 , > < > > > > > > > > : & : : > : % 2 2 1 < % o o o & g } o.g 4 & ",
"n.9.,.+.o.P c h 4 4 B * & # $ # + o o $ & * & & o o . . o + + $ + $ $ - $ % $ - - w b ! x b Q b N i 4 & $ $ $ $ & & & & & & & & # > B $ = z $.$.%.B - % @ % < 2 2 < 2 1 2 1 1 1 3 1 p p 2 p Y 0.7.O.7.7.#.+.+.+.+.+.+.T Y Y Y | U U U P U D D D v D D D D D j j h d f h G O.3.a.X.k u b N p r O % % % @ @ % @ - % % @ @ 2 % 2 % % % : % : % % % : % % > & % % ; & ; ; & : : ; : , 9 p 4 r i k z k *.m.4X;X8X0XpX6X2X2X2X>X1X1X1X1X>X>X:X:X-X-X-X*X&X&X&X&X~.!.~.R.~.!.R.R.R.R.K.R.I.K.Z.Z.Z.Z.C.n.C.Z.C.n.n.B.n.M.n.U.U.X.+   = @ + + $ $ # # $ + % + % > B t t < 1 1 r 1 1 1 t < 1 < 1 < < < < 2 < 2 2 6 < > 6 * & 4 r r >.OXQ...$   * g r & & < & # * < * 4 < r * % % 2 1 2 : @ 6 N j g 9 r B & * < r r t B = 4 r r r r r r u k i u u u i u i N N N k N N k N N N u N N N x b x x x x x x x x d g m k g.{.}.`.].j.y.-.[ [ [ ..! u B < 6 8 9 3 3 8 3 8 8 8 3 8 6 8 8 6 6 8 8 3 8 6 3 3 3 3 3 3 6 6 6 6 6 3 6 6 5 > @ @ % & = = = * B * & 4 < 4 r = e.oX'.).c.`.x.x.j.j.g.*.p s V V j Z A Z D Z A S A S F J J J J T J T T R E T 7.7.7.7.7.6.7.7.5.3.3.7.6.7.7.7.5.#.#.#.#.#.#.#.+.#.+.#.#.+.#.+.+.+.+.+.+.+.Y +.+.+.I I Y Y I T I o.I I I I U I P F I F G G F D G F D c f p p a 4.>.>.4.O.; > j j j j j H U Y o.D U U U Y U D D v D U D D D D c v d < % < d | >.%X=X1X3X4X,XP.J.[.K.L.I.I.U.I.I.[.I.U.I.{.{.<.* e l k e W W k e z e k %.u.=.8.d.d.d.m.m.M.D.G.L.H..XL.{.=XS.<.g.a.i.g.r.;.u.<.} + @ % 2 2 2 > % 1 5 s 8 7 8 8 8 p s 8 8 p 7 p p 8 p 8 p p 7 7 p 3 p p p 3 p p 3 p 3 p 3 3 p 7 3 t 3 t 3 5 5 1 1 t 5 1 5 3 , 6 , 1 1 1 1 1 1 < 1 1 < 1 1 1 , < 1 > 1 , 2 2 1 > , 1 > < 2 1 > > > > > > > > < : ; > & ; > < > > : 2 @ . @ < < < % * $ $ B t & O   ",
"!.!.!.!.Q.K.K.Z.Z.C.M.0.0.2.,.3.o.G g u t 4 o X X o o # o . o + = - o $ $ o % 0 - . i  .~ l k b n x i * $ $ $ $ $ $ $ & % & @ & 6 O * w - 0 ) %.*.w - % @ % < 2 2 2 2 2 1 1 1 1 1 1 a 3 1 C 7.6.+.7.7.O.+.7.7.+.+.Y Y Y Y Y J I U P U U U D D D D D D A j j D j f d c | @.a.6.a.k N b z N N 0 - @ % @ % 2 o @ 2 @ @ $ 2 - % % % : % % % % % % : % : % % % ; & % ; % & > % % : : 6 t 7 4 t i z l ) [..XP.V.Q.1X9X0X0X0X9X8X2X2X2X2X2X1X>X:X:X:X-X:X-X-X&X&X&X~.~.&X%X X~.R. X XR.R.R.K.R.K.K.K.K.Z.C.C.C.C.C.B.C.B.N.0.I.P.O.%   + + + + # $ $ % + + % % r t t r 1 t t 1 B r 1 r 1 r 1 r 1 < < < > < r 4 < & & % # # # $ & n >.i . = B * $ & < 4 & * > < * < * $ % < < r > % ; > t y N y i 4 4 = * w i r B 0 r i r r i r r r r r t u i u t u i y u u u u N N u N N N x N x x x x g x M M M M M v P c m w u.oX'.}.}.XXc.{ { -.[ ' *.z r * , 8 8 8 8 3 8 8 3 6 7 3 8 3 8 3 8 3 6 3 3 3 8 6 8 6 6 7 3 6 3 3 6 6 6 , 7 : + % = $ = = $ & * * * 4 4 4 * = g.,Xx.(.'.x.l.x.c.s.l.3.1 f V V K V Z A A A A H S F S F R S R J E J J E T E 7.q.q.7.6.5.6.3.6.7.6.7.7.3.7.3.#.#.#.#.#.#.#.T #.#.+.+.+.+.+.+.+.+.+.+.T +.Y | I T +.I Y o.Y I I I I I I U U P U U G F G F G H H F H c d p p a @.<.2.u < a 7.T +.+.T Y Y U U D U D D D c Z h h j D j v c 9 6 < # < v ,.P.5X4X3X,X=X%X{.P.{.{.%X X%XP..XP.L.G.J.U.[.U.G.{.Y.z - k i k k e e W b W i l <.d.=.8.d.d.m.m.A.D.D.H.G.Q.Q.{.,X,XU.<.m.g.p.p.f.1.*.r.N.% % 2 % 2 2 < 2 , 7 8 a 7 p 8 p p 3 p p 7 p 3 3 8 p p 3 8 7 7 7 p p 3 p 3 p p 3 p p 1 p t 3 1 1 3 p 3 t 3 t 7 1 1 3 1 3 1 1 1 1 1 1 1 1 < < 1 2 1 2 > 1 > < 1 > 1 1 1 < 1 > 1 > > > , 2 , > < > > > > > : : : & > > % ; ; & % ; : 2 2 1 < > % +   X X     4 O.n.",
"Z.Z.V.Z.V.n.V.q.B.B.V.n.n.n.b.0.n.Z.C.9.n.n.o.&   X + $ + $ + . % o $ $ $ - $ $ % $ $ u | T.b b z z z N i w - . * $ $ $ % & * < % & & & & * i u 1.M o - 2 % 2 : > > > > , 6 1 1 > > f : 1 +.5.#.+.#.+.+.+.T I +.+.Y Y Y I U U U U U U D D D D v j Z v D D c g g u T.%.*.O.Y.Y.! N N N N N N r = o $ $ o % o $ @ % % % % $ % % @ % % 2 % : @ % % % % % 2 2 % % % # & & & & $ & & 9 4 t i i e k ..Q.Q.Q.Q.Q.Q.Q.Q.4X9XpXpX0X2X2X9X2X2X2X2X2X>X>X>X:X-X-X-X-X-X-X-X~.&X&X~.~.~.!.!.!.!.Q.!.Q.K.K.Z.K.Z.Z.Z.Z.C.Z.C.C.B.B.B.B.K.6.<   X & * . + * # + $ > 6 4 4 6 < < 1 4 6 4 5 < 1 4 6 < < 2 & 2 2 $ % % % % 2 1 1 N b !  . .b =   . & & * 4 # < & & < * < & & & < > & * * & & * & 9 i 9 0 B * B * B 0 B B r w r r r w r r r r r r i t i i u u u i u u u u u u N N N x N N N x x N x x b x M M M x x L M z ` ,X}.|.}.).`.(.y.` ] ] ` ` ~ i $ & 9 9 6 3 3 8 7 3 7 3 7 7 6 7 3 6 6 3 7 3 7 6 3 6 6 3 6 6 , 6 6 6 4 9 # + $ = $ * = * & & * * * * w 4 4 - r.oX'.).).).c.c.v.k.k.f.) t f A V V A Z V V A F S A S F S F J Y R J T J J E 0.6.7.7.5.6.3.5.3.5.5.#.5.#.5.3.#.#.#.#.+.#.#.+.#.+.#.+.+.+.o.+.+.T Y o.+.Y o.Y Y | Y Y Y I I U I I P I P U P P U G U P D G D D D H c D j & 9 I 9.I 9 6 a F T Y U I U U U P U U F D Z H D G v v D v 9 9 & < u P V.=XeXiXeX<X,X,X=X,X=X,X{. X{. X{.{.P.{.L.L.L.I.C.U.L.*Xu.e e e l e l e l W l l z w Q a.1.2.i.d.m.m.A.S.D.G.L.L.Q..X.X.X<Xm.g.m.g.p.i.i.a.<.e.<.;.-   < 2 % < % 2 t p 8 8 p t 7 8 p p p p p p p 7 p t 7 7 3 p 5 p 3 t t 3 5 7 1 7 1 5 7 7 1 5 7 1 1 5 1 1 1 1 4 < 1 1 1 6 < 1 1 < < < , , < > < > , < > < < > 6 > > > > > > > > > > > > > > > > ; 1 > % > > % > @ 1 : : < 1 2 t : $ .           } N.3XAXLXKXKXKX",
"Q.Q.Q.E.Z.Q.Z.V.C.V.V.n.n.n.n.n.9.9.9.,.,.9.9.9.9 .     + . . - o - - - $ $ $ $ o % % r b T.b b b b x z N i 0 &   X X X X X . o % & & & = * 0 B } x + + * @ : 2 > > > > > > , < 6 1 7 > f #.#.+.+.+.+.+.+.o.+.+.I I I I U U P U L U D D D D Z D j D j c j 9 g g T.%.a.3.O.Y.%.x N b N N N N i 2 o o @ % o % o $ $ % o $ % @ $ $ % % @ % % @ % % 2 % % % @ % 2 % & & & & & & ; & 6 5 i i e n &.H.Q.H.Q.Q.F.H.Q.H.Q.Q.;X2XpXpX0X9X6X6X6X6X2X4X1X2X2X1X>X2X:X:X:X-X&X&X&X&X&X&X&X~.~.~.!.!.!.Q.K.!.K.K.Q.K.J.K.C.Z.C.B.B.n.n.I.P.B.y -   . $ + # $ $ $ * 4 4 4 4 1 1 < < > : > > : % & * % % % & * t p u d ! T. .%. .|  .X.<.%.Q x $ + # & & 4 6 & * & * * & & & & & & < < & & * & i r B B * * B B B B B B 0 B r r r r r r i i r i t i u i t i u u u u u k k N N N N N N b N x N x x x x x x x M M M v n z ~ {.'.}.'.).`.`.l.r.{ ` ` ` ( z 0 B 6 6 3 8 3 8 7 7 8 3 6 7 7 6 7 6 6 6 6 6 3 6 6 3 6 6 6 6 , , 6 6 6 4 + $ $ $ = * $ = = & = B 4 * B B w - h.OX].).).F.x.x.v.v.v.k.$.i a V V s V Z V A A A H F F S F J F J J R T T J +.0.6.7.3.5.5.5.5.5.#.#.#.#.#.5.#.#.#.#.+.+.+.+.#.+.+.+.+.T +.R +.o.o.+.Y o.| Y o.| Y | | I P I U I P I I U P G U P D D G G D G D G Z j H g 6 c O.U j 5 5 j Y | Y U U U U G U D D D D D H c h 9 p # 4 9 L 3.U.5XaX3X4X4X<X=X=X X5X=X.X.X=X=X%X=X.X.XR.P.P.P.L.P.L.U.{.[.S.( q e l e W e l l l W l l w T.i.u.i.d.m.g.m.M.D.U.I.L.L..XQ.=X=X<Xm.l.z.g.g.p.p.r.<.<.e.r.i $ & % : 2 2 2 3 p f p p 3 t p p p 7 p 3 3 p p 5 p 3 5 5 t 3 5 7 7 7 5 7 5 1 1 7 7 1 6 1 7 1 5 t 1 1 5 1 5 < 6 1 1 < 1 1 1 1 < , , < < < 6 < > < , > , > > < > < > > > > > > > > > > > > > > % > > ; > > ; : 2 4 % X       .   X * ! I.jXHXKXKXKXKXKXKXKXKXKX",
"Q.Q.Q.Q.Q.Q.Q.C.Z.Q.B.B.Q.n.n.n.B.n.n.n.8.6.8.B.2.v $ X . $ . $ o % $ + $ $ - $ $ = o = r b ! b M b z b n N i w 4 x g t 4 & o O   X   X         i u & % 2 O : : > > > & < < 1 1 6 6 4 6 I 6.+.+.+.+.+.o.o.Y I I I I I U P F D D U D D D D v D j j 9 c h a x H } <.3.a.3.a.>.T.u N b N N N N u 0 o % o o % o % @ @ % % @ @ $ $ % % % % % % % : @ % % % % % $ @ % # & & $ & & & ; 6 r g w l r.D.<X].Q.Q.].Q.Q.Q.Q.Q.V.Q.Q.:X8X9X9X0X9X0X6X6X6X6X2X2X2X>X>X>X2X1X>X:X:X-X&X-X-X&X&X&X&X~.~.~.~.!.!.!.!.R.Z.!.K.Z.K.!.Z.K.K.n.B.Z.K.n...& . % + X + & & 6 4 1 r < 1 1 < 2 & > > B r < r t g x c G T.| |  .| X.X.%.| %. . . .*.*.$.$.N 4 + + & & & $ < < & & & & * & * & < > & * B $ * B & & * * B w B 0 B B r r r w r r r r r r i r t i t i u u u u u u u u u N z N N N x N N x N x x x x b M M M M M M m b b ].{.|.}.`.`.`.`.l.t.] ] ` ( Q z r B ; 6 7 6 7 7 7 6 7 6 7 7 6 6 3 6 6 3 , 6 3 , 3 6 , 6 , , , , 6 6 * # $ $ = = = * = & = * * * 4 * 4 r - f.+X}.).).).F.x.v.k.k.z.:.x 9 V V s Z V s A A A A F A F J F S F R J R J J 7.7.6.6.3.3.#.3.7.#.#.#.3.#.#.7.O.#.+.#.+.7.+.+.+.+.+.+.T +.+.o.+.Y o.Y o.Y Y Y I Y I I I I P U P D P P P U P D P D D U D D G v Z D D j v j d P U t 6 5 s U T U U U P U D D D D D D H h 9 t t u g 1.M.=XtXgXsX8X4X4X5X<X*X*X,X<X5X=X,X,X=X.X.X=X.X.XP..XP.P.L.K.L.C.*Xm./ w w e l l l l l l W W l l i ..d.i.i.g.A.m.A.S.G.H.J.P.L..X.X=X,X,Xz.m.h.g.g.d.g.i.a.e.a.u. .r @ @ 2 2 % 2 t p 8 7 p 7 t p p p 7 7 p 3 p 3 t 7 7 p 5 7 5 3 p p 7 3 7 1 7 1 7 1 7 1 7 7 1 1 t t 1 1 1 1 1 1 1 1 1 1 1 1 < < < < < < , 6 > > < , > 6 > > < > 2 > > > > > > > : & : > > > > % > & @ % % % <   X . o t X.n.-XHXLXKXKXKXKXKXKXKXKXLXPXPXKXKXKX",
"&X~.~.Q.Q.Q.Q.Z.Q.Z.Q.B.Q.V.Q.C.V.n.n.M.V.0.9.9.V.C.} $ X $ $ . $ + - + $ $ $ $ $ 2 $ o = N ! ! b b b z z z u i X.V.K.K.K.K.R.J.M.n.8.2.3.@.} v B d B + % @ : 2 < > > & , 1 1 1 1 7 > a @.5.Y +.R +.+.Y I U I I U U D U D D H H j j D v v h j v j j h g d H o.>.O.<.O.a.a.O.x u N b N u N N k p o o % o $ % o $ % o $ @ $ @ $ o % % % % % % % % % % 2 % 2 2 @ 2 & # & - & # # & r r N k $..XQ..XH.Q.H.Q.Q.].Q.Q..XQ.Q.Q.J.Q.>XpXiXpX0X9X0X9X8X9X6X6X6X3X2X2X2X1X>X>X>X-X:X-X-X-X-X-X&X&X&X~.~.~.!.~.!.!.R.!.!.K.!.C.K.R.K.Z.I.J.Q.Q...X + $ # + < 4 4 4 < 1 < < < B < 1 r u x c T.o.X...X.%.%.%.X. .O. .O. . .| %.*.*.%.*.*.*.=.=.M * $ $ # # $ & & & * > * & > & & * * & B B % & = & = * * B B B B r 0 B B B r r i r i t i r r i t i u i i u u u u u u u u N N N N N N N x b N x g x M x M b M M g n n k G.oX|.}.|.`.x.c.`.l.w.] ] ` ` ( u & % 6 7 7 6 7 6 7 6 3 7 6 7 3 6 6 3 , 6 6 6 , 3 , 6 > , , , , , 6 * $ $ + = $ * = * = * * 0 w * 4 4 w - r.OX).].).F.x.x.v.k.j.v.f.L 8 s V s j V V V A F A F S F F S F J J J E J J E 6.7.3.7.7.3.7.#.#.#.#.7.+.#.#.#.#.+.+.#.+.+.T +.Y +.+.+.+.Y Y Y Y Y | Y | I | I Y P I U G U U U U P U P D P D D G G v G v Z v v h Z v v g 9 j a 6 5 p Z I I U D U U D D D v c D Z j v v Y n.*XpXaXaXkXsXlX<X,X*X<X<X,X5X<X,X,X,X,X,X=X=X,X%X X=X!..X!..X.XP.L.K.U.,X=.q w k l W e W l l l W Q l l k %.m.i.i.b.M.m.M.D.U.L.G.Q.Q..X=XOX;X,Xh.A.m.g.g.g.g.a.a.a.<.u.1.z o @ : % 2 2 1 p f 7 7 p t 7 p 7 p p p p 7 p p 7 5 3 7 t 3 t 7 1 7 t 1 7 1 1 5 1 1 7 1 1 7 1 1 1 1 5 1 1 1 1 < 1 1 1 < 1 1 , , < , , < < < 1 > > 4 < > < , > > > > > > > > : < : > > ; & > % > : % & % % < U.9XCXFXKXKXKXKXKXKXKXKXKXLXKXKXKXKXKXKXKXKXKXKX"
};
